(G-CODE GENERATED BY FLATCAM v8.994 - www.flatcam.org - Version Date: 2020/11/7)

(Name: Alignment Drills_mill_3_0_cnc)
(Type: G-code from Geometry)
(Units: MM)

(Created on Saturday, 27 January 2024 at 17:35)

(This preprocessor is the default preprocessor used by FlatCAM.)
(It is made to work with MACH3 compatible motion controllers.)

(TOOL DIAMETER: 3.0 mm)
(Feedrate_XY: 120.0 mm/min)
(Feedrate_Z: 60.0 mm/min)
(Feedrate rapids 1500.0 mm/min)

(Z_Cut: -5.0 mm)
(Z_Move: 2.0 mm)
(Z Start: None mm)
(Z End: 15.0 mm)
(X,Y End: None mm)
(Steps per circle: 64)
(Preprocessor Geometry: default)

(X range:  -10.0000 ...  120.0000  mm)
(Y range:   35.0000 ...   35.0000  mm)

(Spindle Speed: 10000.0 RPM)
G21
G90
G94

G01 F120.00

M5
G00 Z15.0000
G00 X0.0000 Y0.0000
T1
M6    
(MSG, Change to Tool Dia = 3.0000)
M0
G00 Z15.0000

M03 S10000.0
G01 F120.00
G00 X-10.0000 Y35.0000
G01 F60.00
G01 Z-5.0000
G01 F120.00
G01 X-10.0000 Y35.0000
G01 X-10.0000 Y35.0000
G01 X-10.0000 Y35.0000
G01 X-10.0000 Y35.0000
G00 Z2.0000
G00 X120.0000 Y35.0000
G01 F60.00
G01 Z-5.0000
G01 F120.00
G01 X120.0000 Y35.0000
G01 X120.0000 Y35.0000
G01 X120.0000 Y35.0000
G01 X120.0000 Y35.0000
G00 Z2.0000
M05
G00 Z2.0000
G00 Z15.00


