(G-CODE GENERATED BY FLATCAM v8.994 - www.flatcam.org - Version Date: 2020/11/7)

(Name: Sensorbox-Edge_Cuts.gbr_cutout_cnc)
(Type: G-code from Geometry)
(Units: MM)

(Created on Monday, 05 February 2024 at 10:33)

(This preprocessor is the default preprocessor used by FlatCAM.)
(It is made to work with MACH3 compatible motion controllers.)

(TOOL DIAMETER: 2.0 mm)
(Feedrate_XY: 120.0 mm/min)
(Feedrate_Z: 60.0 mm/min)
(Feedrate rapids 1500.0 mm/min)

(Z_Cut: -2.0 mm)
(DepthPerCut: 0.5 mm <=>4 passes)
(Z_Move: 2.0 mm)
(Z Start: None mm)
(Z End: 15.0 mm)
(X,Y End: None mm)
(Steps per circle: 64)
(Preprocessor Geometry: default)

(X range:   -1.3500 ...  111.3500  mm)
(Y range:   -1.3500 ...   71.3500  mm)

(Spindle Speed: 15000.0 RPM)
G21
G90
G94

G01 F120.00

M5
G00 Z15.0000
G00 X0.0000 Y0.0000
T1
M6    
(MSG, Change to Tool Dia = 2.0000)
M0
G00 Z15.0000

M03 S15000.0
G01 F120.00
G00 X-1.3500 Y32.9000
G01 F60.00
G01 Z-0.5000
G01 F120.00
G01 X-1.3500 Y-0.0500
G01 X-1.3438 Y-0.1774
G01 X-1.3250 Y-0.3036
G01 X-1.2940 Y-0.4274
G01 X-1.2511 Y-0.5475
G01 X-1.1965 Y-0.6628
G01 X-1.1309 Y-0.7723
G01 X-1.0549 Y-0.8747
G01 X-0.9693 Y-0.9693
G01 X-0.8747 Y-1.0549
G01 X-0.7723 Y-1.1309
G01 X-0.6628 Y-1.1965
G01 X-0.5475 Y-1.2511
G01 X-0.4274 Y-1.2940
G01 X-0.3036 Y-1.3250
G01 X-0.1774 Y-1.3438
G01 X-0.0500 Y-1.3500
G01 X52.9000 Y-1.3500
G00 X52.9000 Y-1.3500
G01 F60.00
G01 Z-1.0000
G01 F120.00
G01 X-0.0500 Y-1.3500
G01 X-0.1774 Y-1.3438
G01 X-0.3036 Y-1.3250
G01 X-0.4274 Y-1.2940
G01 X-0.5475 Y-1.2511
G01 X-0.6628 Y-1.1965
G01 X-0.7723 Y-1.1309
G01 X-0.8747 Y-1.0549
G01 X-0.9693 Y-0.9693
G01 X-1.0549 Y-0.8747
G01 X-1.1309 Y-0.7723
G01 X-1.1965 Y-0.6628
G01 X-1.2511 Y-0.5475
G01 X-1.2940 Y-0.4274
G01 X-1.3250 Y-0.3036
G01 X-1.3438 Y-0.1774
G01 X-1.3500 Y-0.0500
G01 X-1.3500 Y32.9000
G00 X-1.3500 Y32.9000
G01 F60.00
G01 Z-1.5000
G01 F120.00
G01 X-1.3500 Y-0.0500
G01 X-1.3438 Y-0.1774
G01 X-1.3250 Y-0.3036
G01 X-1.2940 Y-0.4274
G01 X-1.2511 Y-0.5475
G01 X-1.1965 Y-0.6628
G01 X-1.1309 Y-0.7723
G01 X-1.0549 Y-0.8747
G01 X-0.9693 Y-0.9693
G01 X-0.8747 Y-1.0549
G01 X-0.7723 Y-1.1309
G01 X-0.6628 Y-1.1965
G01 X-0.5475 Y-1.2511
G01 X-0.4274 Y-1.2940
G01 X-0.3036 Y-1.3250
G01 X-0.1774 Y-1.3438
G01 X-0.0500 Y-1.3500
G01 X52.9000 Y-1.3500
G00 X52.9000 Y-1.3500
G01 F60.00
G01 Z-2.0000
G01 F120.00
G01 X-0.0500 Y-1.3500
G01 X-0.1774 Y-1.3438
G01 X-0.3036 Y-1.3250
G01 X-0.4274 Y-1.2940
G01 X-0.5475 Y-1.2511
G01 X-0.6628 Y-1.1965
G01 X-0.7723 Y-1.1309
G01 X-0.8747 Y-1.0549
G01 X-0.9693 Y-0.9693
G01 X-1.0549 Y-0.8747
G01 X-1.1309 Y-0.7723
G01 X-1.1965 Y-0.6628
G01 X-1.2511 Y-0.5475
G01 X-1.2940 Y-0.4274
G01 X-1.3250 Y-0.3036
G01 X-1.3438 Y-0.1774
G01 X-1.3500 Y-0.0500
G01 X-1.3500 Y32.9000
G00 Z2.0000
G00 X-1.3500 Y37.3000
G01 F60.00
G01 Z-0.5000
G01 F120.00
G01 X-1.3500 Y70.0500
G01 X-1.3438 Y70.1774
G01 X-1.3250 Y70.3036
G01 X-1.2940 Y70.4274
G01 X-1.2511 Y70.5475
G01 X-1.1965 Y70.6628
G01 X-1.1309 Y70.7723
G01 X-1.0549 Y70.8747
G01 X-0.9693 Y70.9693
G01 X-0.8747 Y71.0549
G01 X-0.7723 Y71.1309
G01 X-0.6628 Y71.1965
G01 X-0.5475 Y71.2511
G01 X-0.4274 Y71.2940
G01 X-0.3036 Y71.3250
G01 X-0.1774 Y71.3438
G01 X-0.0500 Y71.3500
G01 X52.9000 Y71.3500
G00 X52.9000 Y71.3500
G01 F60.00
G01 Z-1.0000
G01 F120.00
G01 X-0.0500 Y71.3500
G01 X-0.1774 Y71.3438
G01 X-0.3036 Y71.3250
G01 X-0.4274 Y71.2940
G01 X-0.5475 Y71.2511
G01 X-0.6628 Y71.1965
G01 X-0.7723 Y71.1309
G01 X-0.8747 Y71.0549
G01 X-0.9693 Y70.9693
G01 X-1.0549 Y70.8747
G01 X-1.1309 Y70.7723
G01 X-1.1965 Y70.6628
G01 X-1.2511 Y70.5475
G01 X-1.2940 Y70.4274
G01 X-1.3250 Y70.3036
G01 X-1.3438 Y70.1774
G01 X-1.3500 Y70.0500
G01 X-1.3500 Y37.3000
G00 X-1.3500 Y37.3000
G01 F60.00
G01 Z-1.5000
G01 F120.00
G01 X-1.3500 Y70.0500
G01 X-1.3438 Y70.1774
G01 X-1.3250 Y70.3036
G01 X-1.2940 Y70.4274
G01 X-1.2511 Y70.5475
G01 X-1.1965 Y70.6628
G01 X-1.1309 Y70.7723
G01 X-1.0549 Y70.8747
G01 X-0.9693 Y70.9693
G01 X-0.8747 Y71.0549
G01 X-0.7723 Y71.1309
G01 X-0.6628 Y71.1965
G01 X-0.5475 Y71.2511
G01 X-0.4274 Y71.2940
G01 X-0.3036 Y71.3250
G01 X-0.1774 Y71.3438
G01 X-0.0500 Y71.3500
G01 X52.9000 Y71.3500
G00 X52.9000 Y71.3500
G01 F60.00
G01 Z-2.0000
G01 F120.00
G01 X-0.0500 Y71.3500
G01 X-0.1774 Y71.3438
G01 X-0.3036 Y71.3250
G01 X-0.4274 Y71.2940
G01 X-0.5475 Y71.2511
G01 X-0.6628 Y71.1965
G01 X-0.7723 Y71.1309
G01 X-0.8747 Y71.0549
G01 X-0.9693 Y70.9693
G01 X-1.0549 Y70.8747
G01 X-1.1309 Y70.7723
G01 X-1.1965 Y70.6628
G01 X-1.2511 Y70.5475
G01 X-1.2940 Y70.4274
G01 X-1.3250 Y70.3036
G01 X-1.3438 Y70.1774
G01 X-1.3500 Y70.0500
G01 X-1.3500 Y37.3000
G00 Z2.0000
G00 X57.3000 Y71.3500
G01 F60.00
G01 Z-0.5000
G01 F120.00
G01 X110.0500 Y71.3500
G01 X110.1774 Y71.3438
G01 X110.3036 Y71.3250
G01 X110.4274 Y71.2940
G01 X110.5475 Y71.2511
G01 X110.6628 Y71.1965
G01 X110.7723 Y71.1309
G01 X110.8747 Y71.0549
G01 X110.9693 Y70.9693
G01 X111.0549 Y70.8747
G01 X111.1309 Y70.7723
G01 X111.1965 Y70.6628
G01 X111.2511 Y70.5475
G01 X111.2940 Y70.4274
G01 X111.3250 Y70.3036
G01 X111.3438 Y70.1774
G01 X111.3500 Y70.0500
G01 X111.3500 Y37.3000
G00 X111.3500 Y37.3000
G01 F60.00
G01 Z-1.0000
G01 F120.00
G01 X111.3500 Y70.0500
G01 X111.3438 Y70.1774
G01 X111.3250 Y70.3036
G01 X111.2940 Y70.4274
G01 X111.2511 Y70.5475
G01 X111.1965 Y70.6628
G01 X111.1309 Y70.7723
G01 X111.0549 Y70.8747
G01 X110.9693 Y70.9693
G01 X110.8747 Y71.0549
G01 X110.7723 Y71.1309
G01 X110.6628 Y71.1965
G01 X110.5475 Y71.2511
G01 X110.4274 Y71.2940
G01 X110.3036 Y71.3250
G01 X110.1774 Y71.3438
G01 X110.0500 Y71.3500
G01 X57.3000 Y71.3500
G00 X57.3000 Y71.3500
G01 F60.00
G01 Z-1.5000
G01 F120.00
G01 X110.0500 Y71.3500
G01 X110.1774 Y71.3438
G01 X110.3036 Y71.3250
G01 X110.4274 Y71.2940
G01 X110.5475 Y71.2511
G01 X110.6628 Y71.1965
G01 X110.7723 Y71.1309
G01 X110.8747 Y71.0549
G01 X110.9693 Y70.9693
G01 X111.0549 Y70.8747
G01 X111.1309 Y70.7723
G01 X111.1965 Y70.6628
G01 X111.2511 Y70.5475
G01 X111.2940 Y70.4274
G01 X111.3250 Y70.3036
G01 X111.3438 Y70.1774
G01 X111.3500 Y70.0500
G01 X111.3500 Y37.3000
G00 X111.3500 Y37.3000
G01 F60.00
G01 Z-2.0000
G01 F120.00
G01 X111.3500 Y70.0500
G01 X111.3438 Y70.1774
G01 X111.3250 Y70.3036
G01 X111.2940 Y70.4274
G01 X111.2511 Y70.5475
G01 X111.1965 Y70.6628
G01 X111.1309 Y70.7723
G01 X111.0549 Y70.8747
G01 X110.9693 Y70.9693
G01 X110.8747 Y71.0549
G01 X110.7723 Y71.1309
G01 X110.6628 Y71.1965
G01 X110.5475 Y71.2511
G01 X110.4274 Y71.2940
G01 X110.3036 Y71.3250
G01 X110.1774 Y71.3438
G01 X110.0500 Y71.3500
G01 X57.3000 Y71.3500
G00 Z2.0000
G00 X111.3500 Y32.9000
G01 F60.00
G01 Z-0.5000
G01 F120.00
G01 X111.3500 Y-0.0500
G01 X111.3438 Y-0.1774
G01 X111.3250 Y-0.3036
G01 X111.2940 Y-0.4274
G01 X111.2511 Y-0.5475
G01 X111.1965 Y-0.6628
G01 X111.1309 Y-0.7723
G01 X111.0549 Y-0.8747
G01 X110.9693 Y-0.9693
G01 X110.8747 Y-1.0549
G01 X110.7723 Y-1.1309
G01 X110.6628 Y-1.1965
G01 X110.5475 Y-1.2511
G01 X110.4274 Y-1.2940
G01 X110.3036 Y-1.3250
G01 X110.1774 Y-1.3438
G01 X110.0500 Y-1.3500
G01 X57.3000 Y-1.3500
G00 X57.3000 Y-1.3500
G01 F60.00
G01 Z-1.0000
G01 F120.00
G01 X110.0500 Y-1.3500
G01 X110.1774 Y-1.3438
G01 X110.3036 Y-1.3250
G01 X110.4274 Y-1.2940
G01 X110.5475 Y-1.2511
G01 X110.6628 Y-1.1965
G01 X110.7723 Y-1.1309
G01 X110.8747 Y-1.0549
G01 X110.9693 Y-0.9693
G01 X111.0549 Y-0.8747
G01 X111.1309 Y-0.7723
G01 X111.1965 Y-0.6628
G01 X111.2511 Y-0.5475
G01 X111.2940 Y-0.4274
G01 X111.3250 Y-0.3036
G01 X111.3438 Y-0.1774
G01 X111.3500 Y-0.0500
G01 X111.3500 Y32.9000
G00 X111.3500 Y32.9000
G01 F60.00
G01 Z-1.5000
G01 F120.00
G01 X111.3500 Y-0.0500
G01 X111.3438 Y-0.1774
G01 X111.3250 Y-0.3036
G01 X111.2940 Y-0.4274
G01 X111.2511 Y-0.5475
G01 X111.1965 Y-0.6628
G01 X111.1309 Y-0.7723
G01 X111.0549 Y-0.8747
G01 X110.9693 Y-0.9693
G01 X110.8747 Y-1.0549
G01 X110.7723 Y-1.1309
G01 X110.6628 Y-1.1965
G01 X110.5475 Y-1.2511
G01 X110.4274 Y-1.2940
G01 X110.3036 Y-1.3250
G01 X110.1774 Y-1.3438
G01 X110.0500 Y-1.3500
G01 X57.3000 Y-1.3500
G00 X57.3000 Y-1.3500
G01 F60.00
G01 Z-2.0000
G01 F120.00
G01 X110.0500 Y-1.3500
G01 X110.1774 Y-1.3438
G01 X110.3036 Y-1.3250
G01 X110.4274 Y-1.2940
G01 X110.5475 Y-1.2511
G01 X110.6628 Y-1.1965
G01 X110.7723 Y-1.1309
G01 X110.8747 Y-1.0549
G01 X110.9693 Y-0.9693
G01 X111.0549 Y-0.8747
G01 X111.1309 Y-0.7723
G01 X111.1965 Y-0.6628
G01 X111.2511 Y-0.5475
G01 X111.2940 Y-0.4274
G01 X111.3250 Y-0.3036
G01 X111.3438 Y-0.1774
G01 X111.3500 Y-0.0500
G01 X111.3500 Y32.9000
G00 Z2.0000
M05
G00 Z2.0000
G00 Z15.00


