(G-CODE GENERATED BY FLATCAM v8.994 - www.flatcam.org - Version Date: 2020/11/7)

(Name: Sensorbox-B_Cu.gbr_ncc_cnc)
(Type: G-code from Geometry)
(Units: MM)

(Created on Tuesday, 06 February 2024 at 12:24)

(This preprocessor is the default preprocessor used by FlatCAM.)
(It is made to work with MACH3 compatible motion controllers.)

(TOOL DIAMETER: 0.2176 mm)
(Feedrate_XY: 100.0 mm/min)
(Feedrate_Z: 40.0 mm/min)
(Feedrate rapids 1500.0 mm/min)

(Z_Cut: -0.0584 mm)
(Z_Move: 2.0 mm)
(Z Start: None mm)
(Z End: 15.0 mm)
(X,Y End: None mm)
(Steps per circle: 64)
(Preprocessor Geometry: default)

(X range:   -0.8907 ...  110.8907  mm)
(Y range:   -0.8907 ...   70.8907  mm)

(Spindle Speed: 20000.0 RPM)
G21
G90
G94

G01 F100.00

M5
G00 Z15.0000
G00 X0.0000 Y0.0000
T1
M6    
(MSG, Change to Tool Dia = 0.2176)
M0
G00 Z15.0000

M03 S20000.0
G01 F100.00
G00 X-0.1592 Y-0.0493
G01 F40.00
G01 Z-0.0584
G01 F100.00
G01 X0.1073 Y-0.8907
G00 Z2.0000
G00 X-0.2070 Y0.1015
G01 F40.00
G01 Z-0.0584
G01 F100.00
G01 X-0.5830 Y1.2883
G01 X-0.8907 Y2.3495
G01 X-0.8907 Y2.8182
G01 X-0.4580 Y1.3262
G01 X-0.2083 Y0.5379
G00 Z2.0000
G00 X-0.2083 Y0.9702
G01 F40.00
G01 Z-0.0584
G01 F100.00
G01 X-0.3331 Y1.3641
G01 X-0.8907 Y3.2870
G01 X-0.8907 Y3.7557
G01 X-0.2083 Y1.4025
G00 Z2.0000
G00 X-0.2083 Y1.8713
G01 F40.00
G01 Z-0.0584
G01 F100.00
G01 X-0.8735 Y4.1651
G01 X-0.8907 Y4.2304
G01 X-0.8907 Y4.7426
G01 X-0.7477 Y4.1999
G01 X-0.2083 Y2.3400
G00 Z2.0000
G00 X-0.2083 Y2.8087
G01 F40.00
G01 Z-0.0584
G01 F100.00
G01 X-0.6218 Y4.2347
G01 X-0.8907 Y5.2548
G01 X-0.8907 Y5.7671
G01 X-0.4960 Y4.2696
G01 X-0.2083 Y3.2775
G00 Z2.0000
G00 X-0.2083 Y3.7462
G01 F40.00
G01 Z-0.0584
G01 F100.00
G01 X-0.3702 Y4.3044
G01 X-0.8907 Y6.2793
G01 X-0.8907 Y6.7915
G01 X-0.2443 Y4.3392
G01 X-0.2083 Y4.2149
G00 Z2.0000
G00 X-0.2083 Y4.7147
G01 F40.00
G01 Z-0.0584
G01 F100.00
G01 X-0.8368 Y7.0992
G01 X-0.8907 Y7.3262
G01 X-0.8907 Y7.8912
G01 X-0.7101 Y7.1309
G01 X-0.2083 Y5.2269
G00 Z2.0000
G00 X-0.2083 Y5.7391
G01 F40.00
G01 Z-0.0584
G01 F100.00
G01 X-0.5835 Y7.1626
G01 X-0.8907 Y8.4562
G01 X-0.8907 Y9.0213
G01 X-0.4568 Y7.1944
G01 X-0.2083 Y6.2514
G00 Z2.0000
G00 X-0.2083 Y6.7636
G01 F40.00
G01 Z-0.0584
G01 F100.00
G01 X-0.3302 Y7.2261
G01 X-0.8907 Y9.5863
G01 X-0.8907 Y10.1716
G01 X-0.8510 Y9.9842
G01 X-0.2083 Y7.2778
G00 Z2.0000
G00 X-0.2083 Y7.8428
G01 F40.00
G01 Z-0.0584
G01 F100.00
G01 X-0.7236 Y10.0128
G01 X-0.8907 Y10.8020
G01 X-0.8907 Y11.4323
G01 X-0.5962 Y10.0414
G01 X-0.2083 Y8.4078
G00 Z2.0000
G00 X-0.2083 Y8.9729
G01 F40.00
G01 Z-0.0584
G01 F100.00
G01 X-0.4689 Y10.0700
G01 X-0.8907 Y12.0626
G01 X-0.8907 Y12.6930
G01 X-0.3415 Y10.0986
G01 X-0.2083 Y9.5379
G00 Z2.0000
G00 X-0.2083 Y10.1029
G01 F40.00
G01 Z-0.0584
G01 F100.00
G01 X-0.2141 Y10.1272
G01 X-0.7911 Y12.8530
G01 X-0.8907 Y13.3878
G01 X-0.2083 Y13.2888
G01 X-0.6579 Y15.7037
G01 X-0.8907 Y17.1504
G01 X-0.2083 Y17.0183
G01 X-0.4522 Y18.5344
G01 X-0.8229 Y21.2635
G01 X-0.8907 Y21.8749
G01 X-0.2083 Y21.6436
G01 X-0.4768 Y24.0649
G01 X-0.7117 Y26.7929
G01 X-0.8796 Y29.5258
G01 X-0.8907 Y29.8262
G01 X-0.2083 Y29.2433
G01 X-0.2276 Y29.5579
G01 X-0.3278 Y32.2781
G01 X-0.3612 Y35.0000
G01 X-0.3278 Y37.7219
G01 X-0.2276 Y40.4421
G01 X-0.2083 Y40.7567
G01 X-0.8907 Y40.1738
G01 X-0.8796 Y40.4742
G01 X-0.7117 Y43.2071
G01 X-0.4768 Y45.9351
G01 X-0.2083 Y48.3564
G01 X-0.8907 Y48.1251
G01 X-0.8229 Y48.7365
G01 X-0.4522 Y51.4656
G01 X-0.2083 Y52.9817
G01 X-0.8907 Y52.8496
G01 X-0.6579 Y54.2963
G01 X-0.2083 Y56.7112
G00 Z2.0000
G00 X-0.2083 Y57.3787
G01 F40.00
G01 Z-0.0584
G01 F100.00
G01 X-0.2789 Y57.0451
G01 X-0.7866 Y54.3186
G01 X-0.8907 Y53.6714
G01 X-0.2083 Y53.8035
G01 X-0.5814 Y51.4847
G01 X-0.8907 Y49.2073
G01 X-0.2083 Y49.3815
G01 X-0.3046 Y48.6725
G01 X-0.6067 Y45.9479
G01 X-0.8419 Y43.2167
G01 X-0.8907 Y42.4231
G01 X-0.2083 Y42.8856
G01 X-0.3580 Y40.4485
G01 X-0.4583 Y37.7251
G01 X-0.4918 Y35.0000
G01 X-0.4583 Y32.2749
G01 X-0.3580 Y29.5515
G01 X-0.2083 Y27.1144
G01 X-0.8907 Y27.5769
G01 X-0.8419 Y26.7833
G01 X-0.6067 Y24.0521
G01 X-0.3046 Y21.3275
G01 X-0.2083 Y20.6185
G01 X-0.8907 Y20.7927
G01 X-0.5814 Y18.5153
G01 X-0.2083 Y16.1965
G01 X-0.8907 Y16.3286
G01 X-0.7866 Y15.6814
G01 X-0.2789 Y12.9549
G01 X-0.2083 Y12.6213
G00 Z2.0000
G00 X-0.2083 Y11.9909
G01 F40.00
G01 Z-0.0584
G01 F100.00
G01 X-0.4070 Y12.9294
G01 X-0.8907 Y15.5275
G01 X-0.2083 Y15.4285
G01 X-0.2720 Y15.7706
G01 X-0.7105 Y18.4961
G01 X-0.8907 Y19.8226
G01 X-0.2083 Y19.6484
G01 X-0.4342 Y21.3115
G01 X-0.7367 Y24.0393
G01 X-0.8907 Y25.8279
G01 X-0.2083 Y25.5116
G01 X-0.3211 Y26.8217
G01 X-0.4884 Y29.5451
G01 X-0.5889 Y32.2717
G01 X-0.6223 Y35.0000
G01 X-0.5889 Y37.7283
G01 X-0.4884 Y40.4549
G01 X-0.3211 Y43.1783
G01 X-0.2083 Y44.4884
G01 X-0.8907 Y44.1721
G01 X-0.7367 Y45.9607
G01 X-0.4342 Y48.6885
G01 X-0.2083 Y50.3516
G01 X-0.8907 Y50.1774
G01 X-0.7105 Y51.5039
G01 X-0.2720 Y54.2294
G01 X-0.2083 Y54.5715
G01 X-0.8907 Y54.4725
G01 X-0.4070 Y57.0706
G01 X-0.2083 Y58.0091
G00 Z2.0000
G00 X-0.2083 Y58.6394
G01 F40.00
G01 Z-0.0584
G01 F100.00
G01 X-0.5350 Y57.0961
G01 X-0.8907 Y55.1858
G01 X-0.2083 Y55.2848
G01 X-0.4006 Y54.2517
G01 X-0.8397 Y51.5230
G01 X-0.8907 Y51.1474
G01 X-0.2083 Y51.3216
G01 X-0.5637 Y48.7045
G01 X-0.8666 Y45.9735
G01 X-0.8907 Y45.6937
G01 X-0.2083 Y45.9875
G01 X-0.2169 Y45.9095
G01 X-0.4513 Y43.1879
G01 X-0.6188 Y40.4613
G01 X-0.7194 Y37.7315
G01 X-0.7529 Y35.0000
G01 X-0.7194 Y32.2685
G01 X-0.6188 Y29.5387
G01 X-0.4513 Y26.8121
G01 X-0.2169 Y24.0905
G01 X-0.2083 Y24.0125
G01 X-0.8907 Y24.3063
G01 X-0.8666 Y24.0265
G01 X-0.5637 Y21.2955
G01 X-0.2083 Y18.6784
G01 X-0.8907 Y18.8526
G01 X-0.8397 Y18.4770
G01 X-0.4006 Y15.7483
G01 X-0.2083 Y14.7152
G01 X-0.8907 Y14.8142
G01 X-0.5350 Y12.9039
G01 X-0.2083 Y11.3606
G00 Z2.0000
G00 X-0.2083 Y10.7302
G01 F40.00
G01 Z-0.0584
G01 F100.00
G01 X-0.6631 Y12.8784
G01 X-0.8907 Y14.1010
G01 X-0.2083 Y14.0020
G01 X-0.5293 Y15.7260
G01 X-0.8907 Y17.9722
G01 X-0.2083 Y17.8401
G01 X-0.3231 Y18.5536
G01 X-0.6933 Y21.2795
G01 X-0.8907 Y23.0593
G01 X-0.2083 Y22.8280
G01 X-0.3469 Y24.0777
G01 X-0.5815 Y26.8025
G01 X-0.7492 Y29.5322
G01 X-0.8499 Y32.2653
G01 X-0.8835 Y35.0000
G01 X-0.8499 Y37.7347
G01 X-0.7492 Y40.4678
G01 X-0.5815 Y43.1975
G01 X-0.3469 Y45.9223
G01 X-0.2083 Y47.1720
G01 X-0.8907 Y46.9407
G01 X-0.6933 Y48.7205
G01 X-0.3231 Y51.4464
G01 X-0.2083 Y52.1599
G01 X-0.8907 Y52.0278
G01 X-0.5293 Y54.2740
G01 X-0.2083 Y55.9980
G01 X-0.8907 Y55.8990
G01 X-0.6631 Y57.1216
G01 X-0.2083 Y59.2698
G00 Z2.0000
G00 X-0.2083 Y59.8971
G01 F40.00
G01 Z-0.0584
G01 F100.00
G01 X-0.2141 Y59.8728
G01 X-0.7911 Y57.1470
G01 X-0.8907 Y56.6122
G01 X-0.8907 Y57.3070
G01 X-0.3415 Y59.9014
G01 X-0.2083 Y60.4621
G00 Z2.0000
G00 X-0.2083 Y61.0271
G01 F40.00
G01 Z-0.0584
G01 F100.00
G01 X-0.4689 Y59.9300
G01 X-0.8907 Y57.9374
G01 X-0.8907 Y58.5677
G01 X-0.5962 Y59.9586
G01 X-0.2083 Y61.5922
G00 Z2.0000
G00 X-0.2083 Y62.1572
G01 F40.00
G01 Z-0.0584
G01 F100.00
G01 X-0.7236 Y59.9872
G01 X-0.8907 Y59.1980
G01 X-0.8907 Y59.8284
G01 X-0.8510 Y60.0158
G01 X-0.2083 Y62.7222
G00 Z2.0000
G00 X-0.2083 Y63.2364
G01 F40.00
G01 Z-0.0584
G01 F100.00
G01 X-0.3302 Y62.7739
G01 X-0.8907 Y60.4137
G01 X-0.8907 Y60.9787
G01 X-0.4568 Y62.8056
G01 X-0.2083 Y63.7486
G00 Z2.0000
G00 X-0.2083 Y64.2609
G01 F40.00
G01 Z-0.0584
G01 F100.00
G01 X-0.5835 Y62.8374
G01 X-0.8907 Y61.5438
G01 X-0.8907 Y62.1088
G01 X-0.7101 Y62.8691
G01 X-0.2083 Y64.7731
G00 Z2.0000
G00 X-0.2083 Y65.2853
G01 F40.00
G01 Z-0.0584
G01 F100.00
G01 X-0.8368 Y62.9008
G01 X-0.8907 Y62.6738
G01 X-0.8907 Y63.2085
G01 X-0.2443 Y65.6608
G01 X-0.2083 Y65.7851
G00 Z2.0000
G00 X-0.2083 Y66.2538
G01 F40.00
G01 Z-0.0584
G01 F100.00
G01 X-0.3702 Y65.6956
G01 X-0.8907 Y63.7207
G01 X-0.8907 Y64.2329
G01 X-0.4960 Y65.7304
G01 X-0.2083 Y66.7225
G00 Z2.0000
G00 X-0.2083 Y67.1913
G01 F40.00
G01 Z-0.0584
G01 F100.00
G01 X-0.6218 Y65.7653
G01 X-0.8907 Y64.7452
G01 X-0.8907 Y65.2574
G01 X-0.7477 Y65.8001
G01 X-0.2083 Y67.6600
G00 Z2.0000
G00 X-0.2083 Y68.1287
G01 F40.00
G01 Z-0.0584
G01 F100.00
G01 X-0.8735 Y65.8349
G01 X-0.8907 Y65.7696
G01 X-0.8907 Y66.2443
G01 X-0.2083 Y68.5975
G00 Z2.0000
G00 X-0.2083 Y69.0298
G01 F40.00
G01 Z-0.0584
G01 F100.00
G01 X-0.3331 Y68.6359
G01 X-0.8907 Y66.7130
G01 X-0.8907 Y67.1818
G01 X-0.4580 Y68.6738
G01 X-0.2083 Y69.4621
G00 Z2.0000
G00 X-0.2070 Y69.8985
G01 F40.00
G01 Z-0.0584
G01 F100.00
G01 X-0.5830 Y68.7117
G01 X-0.8907 Y67.6505
G01 X-0.8907 Y68.1192
G01 X-0.7079 Y68.7496
G01 X-0.0330 Y70.8799
G01 X0.1073 Y70.8907
G01 X-0.1592 Y70.0493
G00 Z2.0000
G00 X-0.2012 Y69.9295
G01 F40.00
G01 Z-0.0584
G01 F100.00
G01 X-0.2047 Y69.9141
G01 X-0.2058 Y69.9071
G01 X-0.2075 Y69.8937
G01 X-0.2083 Y69.8755
G01 X-0.2083 Y0.1245
G01 X-0.2077 Y0.1087
G01 X-0.2070 Y0.1016
G01 X-0.2051 Y0.0882
G01 X-0.2018 Y0.0728
G01 X-0.1830 Y0.0030
G01 X-0.1768 Y-0.0150
G01 X-0.1676 Y-0.0348
G01 X-0.1595 Y-0.0488
G01 X-0.1548 Y-0.0559
G01 X-0.1452 Y-0.0689
G01 X-0.1325 Y-0.0831
G01 X-0.0810 Y-0.1345
G01 X-0.0689 Y-0.1452
G01 X-0.0512 Y-0.1580
G01 X-0.0348 Y-0.1676
G01 X-0.0272 Y-0.1714
G01 X-0.0123 Y-0.1778
G01 X0.0057 Y-0.1838
G01 X0.0705 Y-0.2012
G01 X0.0859 Y-0.2047
G01 X0.1063 Y-0.2075
G01 X0.1245 Y-0.2083
G01 X109.8755 Y-0.2083
G01 X109.8913 Y-0.2077
G01 X109.8984 Y-0.2070
G01 X109.9118 Y-0.2051
G01 X109.9272 Y-0.2018
G01 X109.9970 Y-0.1830
G01 X110.0150 Y-0.1768
G01 X110.0348 Y-0.1676
G01 X110.0488 Y-0.1595
G01 X110.0559 Y-0.1548
G01 X110.0689 Y-0.1452
G01 X110.0831 Y-0.1325
G01 X110.1345 Y-0.0810
G01 X110.1452 Y-0.0689
G01 X110.1580 Y-0.0512
G01 X110.1676 Y-0.0348
G01 X110.1714 Y-0.0272
G01 X110.1778 Y-0.0123
G01 X110.1838 Y0.0057
G01 X110.2012 Y0.0705
G01 X110.2047 Y0.0859
G01 X110.2075 Y0.1063
G01 X110.2083 Y0.1245
G01 X110.2083 Y69.8755
G01 X110.2077 Y69.8913
G01 X110.2070 Y69.8984
G01 X110.2051 Y69.9118
G01 X110.2018 Y69.9272
G01 X110.1830 Y69.9970
G01 X110.1768 Y70.0150
G01 X110.1676 Y70.0348
G01 X110.1595 Y70.0488
G01 X110.1548 Y70.0559
G01 X110.1452 Y70.0689
G01 X110.1325 Y70.0831
G01 X110.0810 Y70.1345
G01 X110.0689 Y70.1452
G01 X110.0512 Y70.1580
G01 X110.0348 Y70.1676
G01 X110.0272 Y70.1714
G01 X110.0123 Y70.1778
G01 X109.9943 Y70.1838
G01 X109.9295 Y70.2012
G01 X109.9141 Y70.2047
G01 X109.8937 Y70.2075
G01 X109.8755 Y70.2083
G01 X0.1245 Y70.2083
G01 X0.1039 Y70.2073
G01 X0.0906 Y70.2055
G01 X0.0836 Y70.2042
G01 X0.0705 Y70.2012
G01 X0.0085 Y70.1846
G01 X-0.0070 Y70.1797
G01 X-0.0176 Y70.1756
G01 X-0.0297 Y70.1702
G01 X-0.0373 Y70.1662
G01 X-0.0536 Y70.1564
G01 X-0.0711 Y70.1433
G01 X-0.0851 Y70.1305
G01 X-0.1325 Y70.0831
G01 X-0.1469 Y70.0667
G01 X-0.1595 Y70.0488
G01 X-0.1702 Y70.0297
G01 X-0.1788 Y70.0097
G01 X-0.1846 Y69.9915
G01 X-0.2012 Y69.9295
G00 Z2.0000
G00 X0.0217 Y70.1881
G01 F40.00
G01 Z-0.0584
G01 F100.00
G01 X0.2443 Y70.8907
G01 X0.3812 Y70.8907
G01 X0.1651 Y70.2083
G01 X0.3020 Y70.2083
G01 X0.5182 Y70.8907
G01 X0.6551 Y70.8907
G01 X0.4389 Y70.2083
G01 X0.5759 Y70.2083
G01 X0.7921 Y70.8907
G01 X0.9290 Y70.8907
G01 X0.7128 Y70.2083
G01 X0.8498 Y70.2083
G01 X1.0660 Y70.8907
G01 X1.2029 Y70.8907
G01 X0.9867 Y70.2083
G01 X1.1237 Y70.2083
G01 X1.3398 Y70.8907
G01 X1.4768 Y70.8907
G01 X1.2606 Y70.2083
G01 X1.3976 Y70.2083
G01 X1.6137 Y70.8907
G01 X1.7507 Y70.8907
G01 X1.5345 Y70.2083
G01 X1.6714 Y70.2083
G01 X1.8876 Y70.8907
G01 X2.0255 Y70.8907
G01 X2.0134 Y70.8555
G01 X1.8084 Y70.2083
G01 X1.9453 Y70.2083
G01 X2.1374 Y70.8145
G01 X2.1636 Y70.8907
G01 X2.3017 Y70.8907
G01 X2.2614 Y70.7736
G01 X2.0823 Y70.2083
G01 X2.2192 Y70.2083
G01 X2.3853 Y70.7326
G01 X2.4397 Y70.8907
G01 X2.5778 Y70.8907
G01 X2.5093 Y70.6917
G01 X2.3562 Y70.2083
G01 X2.4931 Y70.2083
G01 X2.6333 Y70.6507
G01 X2.7158 Y70.8907
G01 X2.8539 Y70.8907
G01 X2.7572 Y70.6098
G01 X2.6301 Y70.2083
G01 X2.7670 Y70.2083
G01 X2.8812 Y70.5688
G01 X2.9919 Y70.8907
G01 X3.1300 Y70.8907
G01 X3.0052 Y70.5278
G01 X2.9039 Y70.2083
G01 X3.0409 Y70.2083
G01 X3.1291 Y70.4869
G01 X3.2681 Y70.8907
G01 X3.4061 Y70.8907
G01 X3.2531 Y70.4459
G01 X3.1778 Y70.2083
G01 X3.3148 Y70.2083
G01 X3.3771 Y70.4050
G01 X3.5442 Y70.8907
G01 X3.6822 Y70.8907
G01 X3.5011 Y70.3640
G01 X3.4517 Y70.2083
G01 X3.5887 Y70.2083
G01 X3.6250 Y70.3231
G01 X3.8203 Y70.8907
G01 X3.9584 Y70.8907
G01 X3.7490 Y70.2821
G01 X3.7256 Y70.2083
G01 X3.8626 Y70.2083
G01 X3.8730 Y70.2412
G01 X4.0964 Y70.8907
G01 X4.2345 Y70.8907
G01 X3.9997 Y70.2083
G01 X4.1378 Y70.2083
G01 X4.3725 Y70.8907
G01 X4.5106 Y70.8907
G01 X4.2758 Y70.2083
G01 X4.4139 Y70.2083
G01 X4.6487 Y70.8907
G01 X4.7867 Y70.8907
G01 X4.5520 Y70.2083
G01 X4.6900 Y70.2083
G01 X4.9248 Y70.8907
G01 X5.0628 Y70.8907
G01 X4.8281 Y70.2083
G01 X4.9661 Y70.2083
G01 X5.2009 Y70.8907
G01 X5.3390 Y70.8907
G01 X5.1042 Y70.2083
G01 X5.2423 Y70.2083
G01 X5.4770 Y70.8907
G01 X5.6151 Y70.8907
G01 X5.3803 Y70.2083
G01 X5.5184 Y70.2083
G01 X5.7531 Y70.8907
G01 X5.8912 Y70.8907
G01 X5.6564 Y70.2083
G01 X5.7945 Y70.2083
G01 X6.0293 Y70.8907
G01 X6.1673 Y70.8907
G01 X5.9326 Y70.2083
G01 X6.0706 Y70.2083
G01 X6.3054 Y70.8907
G01 X6.4434 Y70.8907
G01 X6.2087 Y70.2083
G01 X6.3467 Y70.2083
G01 X6.5815 Y70.8907
G01 X6.7196 Y70.8907
G01 X6.4848 Y70.2083
G01 X6.6229 Y70.2083
G01 X6.8576 Y70.8907
G01 X6.9957 Y70.8907
G01 X6.7609 Y70.2083
G01 X6.8990 Y70.2083
G01 X7.1337 Y70.8907
G01 X7.2718 Y70.8907
G01 X7.0370 Y70.2083
G01 X7.1751 Y70.2083
G01 X7.4099 Y70.8907
G01 X7.5479 Y70.8907
G01 X7.3132 Y70.2083
G01 X7.4512 Y70.2083
G01 X7.6860 Y70.8907
G01 X7.8240 Y70.8907
G01 X7.5893 Y70.2083
G01 X7.7273 Y70.2083
G01 X7.9621 Y70.8907
G01 X8.1002 Y70.8907
G01 X7.8654 Y70.2083
G01 X8.0035 Y70.2083
G01 X8.2382 Y70.8907
G01 X8.3763 Y70.8907
G01 X8.1415 Y70.2083
G01 X8.2796 Y70.2083
G01 X8.5143 Y70.8907
G01 X8.6524 Y70.8907
G01 X8.4176 Y70.2083
G01 X8.5557 Y70.2083
G01 X8.7905 Y70.8907
G01 X8.9285 Y70.8907
G01 X8.6938 Y70.2083
G01 X8.8318 Y70.2083
G01 X9.0666 Y70.8907
G01 X9.2046 Y70.8907
G01 X8.9699 Y70.2083
G01 X9.1079 Y70.2083
G01 X9.3427 Y70.8907
G01 X9.4808 Y70.8907
G01 X9.2460 Y70.2083
G01 X9.3840 Y70.2083
G01 X9.6188 Y70.8907
G01 X9.7569 Y70.8907
G01 X9.5221 Y70.2083
G01 X9.6602 Y70.2083
G01 X9.8949 Y70.8907
G01 X10.0330 Y70.8907
G01 X9.7982 Y70.2083
G01 X9.9363 Y70.2083
G01 X10.1710 Y70.8907
G01 X10.3097 Y70.8907
G01 X10.3017 Y70.8692
G01 X10.0743 Y70.2083
G01 X10.2124 Y70.2083
G01 X10.4246 Y70.8252
G01 X10.4490 Y70.8907
G01 X10.5883 Y70.8907
G01 X10.5476 Y70.7813
G01 X10.3505 Y70.2083
G01 X10.4885 Y70.2083
G01 X10.6705 Y70.7373
G01 X10.7275 Y70.8907
G01 X10.8668 Y70.8907
G01 X10.7934 Y70.6933
G01 X10.6266 Y70.2083
G01 X10.7646 Y70.2083
G01 X10.9164 Y70.6493
G01 X11.0061 Y70.8907
G01 X11.1454 Y70.8907
G01 X11.0393 Y70.6053
G01 X10.9027 Y70.2083
G01 X11.0408 Y70.2083
G01 X11.1622 Y70.5613
G01 X11.2846 Y70.8907
G01 X11.4239 Y70.8907
G01 X11.2851 Y70.5174
G01 X11.1788 Y70.2083
G01 X11.3169 Y70.2083
G01 X11.4081 Y70.4734
G01 X11.5632 Y70.8907
G01 X11.7025 Y70.8907
G01 X11.5310 Y70.4294
G01 X11.4549 Y70.2083
G01 X11.5930 Y70.2083
G01 X11.6539 Y70.3854
G01 X11.8418 Y70.8907
G01 X11.9810 Y70.8907
G01 X11.7769 Y70.3414
G01 X11.7311 Y70.2083
G01 X11.8691 Y70.2083
G01 X11.8998 Y70.2974
G01 X12.1203 Y70.8907
G01 X12.2596 Y70.8907
G01 X12.0227 Y70.2534
G01 X12.0072 Y70.2083
G01 X12.1452 Y70.2083
G01 X12.3989 Y70.8907
G01 X12.5381 Y70.8907
G01 X12.2845 Y70.2083
G01 X12.4238 Y70.2083
G01 X12.6774 Y70.8907
G01 X12.8167 Y70.8907
G01 X12.5630 Y70.2083
G01 X12.7023 Y70.2083
G01 X12.9560 Y70.8907
G01 X13.0953 Y70.8907
G01 X12.8416 Y70.2083
G01 X12.9809 Y70.2083
G01 X13.2345 Y70.8907
G01 X13.3738 Y70.8907
G01 X13.1202 Y70.2083
G01 X13.2594 Y70.2083
G01 X13.5131 Y70.8907
G01 X13.6524 Y70.8907
G01 X13.3987 Y70.2083
G01 X13.5380 Y70.2083
G01 X13.7916 Y70.8907
G01 X13.9309 Y70.8907
G01 X13.6773 Y70.2083
G01 X13.8165 Y70.2083
G01 X14.0702 Y70.8907
G01 X14.2095 Y70.8907
G01 X13.9558 Y70.2083
G01 X14.0951 Y70.2083
G01 X14.3487 Y70.8907
G01 X14.4880 Y70.8907
G01 X14.2344 Y70.2083
G01 X14.3736 Y70.2083
G01 X14.6273 Y70.8907
G01 X14.7666 Y70.8907
G01 X14.5129 Y70.2083
G01 X14.6522 Y70.2083
G01 X14.9059 Y70.8907
G01 X15.0451 Y70.8907
G01 X14.7915 Y70.2083
G01 X14.9308 Y70.2083
G01 X15.1844 Y70.8907
G01 X15.3237 Y70.8907
G01 X15.0700 Y70.2083
G01 X15.2093 Y70.2083
G01 X15.4630 Y70.8907
G01 X15.6022 Y70.8907
G01 X15.3486 Y70.2083
G01 X15.4879 Y70.2083
G01 X15.7415 Y70.8907
G01 X15.8808 Y70.8907
G01 X15.6271 Y70.2083
G01 X15.7664 Y70.2083
G01 X16.0201 Y70.8907
G01 X16.1594 Y70.8907
G01 X15.9057 Y70.2083
G01 X16.0450 Y70.2083
G01 X16.2986 Y70.8907
G01 X16.4379 Y70.8907
G01 X16.1843 Y70.2083
G01 X16.3235 Y70.2083
G01 X16.5772 Y70.8907
G01 X16.7165 Y70.8907
G01 X16.4628 Y70.2083
G01 X16.6021 Y70.2083
G01 X16.8557 Y70.8907
G01 X16.9950 Y70.8907
G01 X16.7414 Y70.2083
G01 X16.8806 Y70.2083
G01 X17.1343 Y70.8907
G01 X17.2736 Y70.8907
G01 X17.0199 Y70.2083
G01 X17.1592 Y70.2083
G01 X17.4129 Y70.8907
G01 X17.5526 Y70.8907
G01 X17.5464 Y70.8753
G01 X17.2985 Y70.2083
G01 X17.4378 Y70.2083
G01 X17.6682 Y70.8283
G01 X17.6932 Y70.8907
G01 X17.8338 Y70.8907
G01 X17.7900 Y70.7813
G01 X17.5770 Y70.2083
G01 X17.7163 Y70.2083
G01 X17.9118 Y70.7343
G01 X17.9744 Y70.8907
G01 X18.1150 Y70.8907
G01 X18.0336 Y70.6873
G01 X17.8556 Y70.2083
G01 X17.9949 Y70.2083
G01 X18.1554 Y70.6403
G01 X18.2556 Y70.8907
G01 X18.3962 Y70.8907
G01 X18.2773 Y70.5933
G01 X18.1341 Y70.2083
G01 X18.2734 Y70.2083
G01 X18.3991 Y70.5463
G01 X18.5368 Y70.8907
G01 X18.6774 Y70.8907
G01 X18.5209 Y70.4994
G01 X18.4127 Y70.2083
G01 X18.5520 Y70.2083
G01 X18.6427 Y70.4524
G01 X18.8180 Y70.8907
G01 X18.9586 Y70.8907
G01 X18.7645 Y70.4054
G01 X18.6912 Y70.2083
G01 X18.8305 Y70.2083
G01 X18.8863 Y70.3584
G01 X19.0992 Y70.8907
G01 X19.2398 Y70.8907
G01 X19.0081 Y70.3114
G01 X18.9698 Y70.2083
G01 X19.1091 Y70.2083
G01 X19.1299 Y70.2644
G01 X19.3804 Y70.8907
G01 X19.5210 Y70.8907
G01 X19.2484 Y70.2083
G01 X19.3887 Y70.2083
G01 X19.6616 Y70.8907
G01 X19.8022 Y70.8907
G01 X19.5293 Y70.2083
G01 X19.6699 Y70.2083
G01 X19.9428 Y70.8907
G01 X20.0834 Y70.8907
G01 X19.8105 Y70.2083
G01 X19.9511 Y70.2083
G01 X20.2240 Y70.8907
G01 X20.3646 Y70.8907
G01 X20.0917 Y70.2083
G01 X20.2323 Y70.2083
G01 X20.5052 Y70.8907
G01 X20.6458 Y70.8907
G01 X20.3729 Y70.2083
G01 X20.5135 Y70.2083
G01 X20.7864 Y70.8907
G01 X20.9270 Y70.8907
G01 X20.6541 Y70.2083
G01 X20.7947 Y70.2083
G01 X21.0676 Y70.8907
G01 X21.2082 Y70.8907
G01 X20.9353 Y70.2083
G01 X21.0759 Y70.2083
G01 X21.3488 Y70.8907
G01 X21.4894 Y70.8907
G01 X21.2165 Y70.2083
G01 X21.3571 Y70.2083
G01 X21.6300 Y70.8907
G01 X21.7706 Y70.8907
G01 X21.4977 Y70.2083
G01 X21.6383 Y70.2083
G01 X21.9112 Y70.8907
G01 X22.0518 Y70.8907
G01 X21.7789 Y70.2083
G01 X21.9195 Y70.2083
G01 X22.1924 Y70.8907
G01 X22.3330 Y70.8907
G01 X22.0601 Y70.2083
G01 X22.2008 Y70.2083
G01 X22.4736 Y70.8907
G01 X22.6143 Y70.8907
G01 X22.3414 Y70.2083
G01 X22.4820 Y70.2083
G01 X22.7549 Y70.8907
G01 X22.8955 Y70.8907
G01 X22.6226 Y70.2083
G01 X22.7632 Y70.2083
G01 X23.0361 Y70.8907
G01 X23.1767 Y70.8907
G01 X22.9038 Y70.2083
G01 X23.0444 Y70.2083
G01 X23.3173 Y70.8907
G01 X23.4579 Y70.8907
G01 X23.1850 Y70.2083
G01 X23.3256 Y70.2083
G01 X23.5985 Y70.8907
G01 X23.7391 Y70.8907
G01 X23.4662 Y70.2083
G01 X23.6068 Y70.2083
G01 X23.8797 Y70.8907
G01 X24.0215 Y70.8907
G01 X24.0034 Y70.8486
G01 X23.7474 Y70.2083
G01 X23.8880 Y70.2083
G01 X24.1240 Y70.7986
G01 X24.1635 Y70.8907
G01 X24.3056 Y70.8907
G01 X24.2447 Y70.7486
G01 X24.0286 Y70.2083
G01 X24.1692 Y70.2083
G01 X24.3653 Y70.6987
G01 X24.4476 Y70.8907
G01 X24.5896 Y70.8907
G01 X24.4859 Y70.6487
G01 X24.3098 Y70.2083
G01 X24.4504 Y70.2083
G01 X24.6065 Y70.5987
G01 X24.7317 Y70.8907
G01 X24.8737 Y70.8907
G01 X24.7272 Y70.5488
G01 X24.5910 Y70.2083
G01 X24.7316 Y70.2083
G01 X24.8478 Y70.4988
G01 X25.0158 Y70.8907
G01 X25.1578 Y70.8907
G01 X24.9684 Y70.4489
G01 X24.8722 Y70.2083
G01 X25.0128 Y70.2083
G01 X25.0890 Y70.3989
G01 X25.2998 Y70.8907
G01 X25.4419 Y70.8907
G01 X25.2096 Y70.3489
G01 X25.1534 Y70.2083
G01 X25.2940 Y70.2083
G01 X25.3303 Y70.2990
G01 X25.5839 Y70.8907
G01 X25.7260 Y70.8907
G01 X25.4509 Y70.2490
G01 X25.4346 Y70.2083
G01 X25.5755 Y70.2083
G01 X25.8680 Y70.8907
G01 X26.0100 Y70.8907
G01 X25.7175 Y70.2083
G01 X25.8596 Y70.2083
G01 X26.1521 Y70.8907
G01 X26.2941 Y70.8907
G01 X26.0016 Y70.2083
G01 X26.1436 Y70.2083
G01 X26.4362 Y70.8907
G01 X26.5782 Y70.8907
G01 X26.2857 Y70.2083
G01 X26.4277 Y70.2083
G01 X26.7202 Y70.8907
G01 X26.8623 Y70.8907
G01 X26.5697 Y70.2083
G01 X26.7118 Y70.2083
G01 X27.0043 Y70.8907
G01 X27.1463 Y70.8907
G01 X26.8538 Y70.2083
G01 X26.9959 Y70.2083
G01 X27.2884 Y70.8907
G01 X27.4304 Y70.8907
G01 X27.1379 Y70.2083
G01 X27.2799 Y70.2083
G01 X27.5725 Y70.8907
G01 X27.7145 Y70.8907
G01 X27.4220 Y70.2083
G01 X27.5640 Y70.2083
G01 X27.8565 Y70.8907
G01 X27.9986 Y70.8907
G01 X27.7061 Y70.2083
G01 X27.8481 Y70.2083
G01 X28.1406 Y70.8907
G01 X28.2827 Y70.8907
G01 X27.9901 Y70.2083
G01 X28.1322 Y70.2083
G01 X28.4247 Y70.8907
G01 X28.5667 Y70.8907
G01 X28.2742 Y70.2083
G01 X28.4163 Y70.2083
G01 X28.7088 Y70.8907
G01 X28.8508 Y70.8907
G01 X28.5583 Y70.2083
G01 X28.7003 Y70.2083
G01 X28.9929 Y70.8907
G01 X29.1349 Y70.8907
G01 X28.8424 Y70.2083
G01 X28.9844 Y70.2083
G01 X29.2769 Y70.8907
G01 X29.4190 Y70.8907
G01 X29.1265 Y70.2083
G01 X29.2685 Y70.2083
G01 X29.5610 Y70.8907
G01 X29.7044 Y70.8907
G01 X29.6836 Y70.8454
G01 X29.4105 Y70.2083
G01 X29.5526 Y70.2083
G01 X29.8030 Y70.7925
G01 X29.8480 Y70.8907
G01 X29.9916 Y70.8907
G01 X29.9223 Y70.7396
G01 X29.6946 Y70.2083
G01 X29.8366 Y70.2083
G01 X30.0417 Y70.6867
G01 X30.1352 Y70.8907
G01 X30.2788 Y70.8907
G01 X30.1611 Y70.6337
G01 X29.9787 Y70.2083
G01 X30.1207 Y70.2083
G01 X30.2804 Y70.5808
G01 X30.4223 Y70.8907
G01 X30.5659 Y70.8907
G01 X30.3998 Y70.5279
G01 X30.2628 Y70.2083
G01 X30.4048 Y70.2083
G01 X30.5191 Y70.4750
G01 X30.7095 Y70.8907
G01 X30.8531 Y70.8907
G01 X30.6385 Y70.4221
G01 X30.5468 Y70.2083
G01 X30.6889 Y70.2083
G01 X30.7579 Y70.3692
G01 X30.9967 Y70.8907
G01 X31.1403 Y70.8907
G01 X30.8772 Y70.3163
G01 X30.8309 Y70.2083
G01 X30.9730 Y70.2083
G01 X30.9966 Y70.2634
G01 X31.2839 Y70.8907
G01 X31.4275 Y70.8907
G01 X31.1150 Y70.2083
G01 X31.2585 Y70.2083
G01 X31.5711 Y70.8907
G01 X31.7147 Y70.8907
G01 X31.4021 Y70.2083
G01 X31.5457 Y70.2083
G01 X31.8583 Y70.8907
G01 X32.0019 Y70.8907
G01 X31.6893 Y70.2083
G01 X31.8329 Y70.2083
G01 X32.1455 Y70.8907
G01 X32.2891 Y70.8907
G01 X31.9765 Y70.2083
G01 X32.1201 Y70.2083
G01 X32.4327 Y70.8907
G01 X32.5762 Y70.8907
G01 X32.2637 Y70.2083
G01 X32.4073 Y70.2083
G01 X32.7198 Y70.8907
G01 X32.8634 Y70.8907
G01 X32.5509 Y70.2083
G01 X32.6945 Y70.2083
G01 X33.0070 Y70.8907
G01 X33.1506 Y70.8907
G01 X32.8381 Y70.2083
G01 X32.9816 Y70.2083
G01 X33.2942 Y70.8907
G01 X33.4378 Y70.8907
G01 X33.1252 Y70.2083
G01 X33.2688 Y70.2083
G01 X33.5814 Y70.8907
G01 X33.7250 Y70.8907
G01 X33.4124 Y70.2083
G01 X33.5560 Y70.2083
G01 X33.8686 Y70.8907
G01 X34.0122 Y70.8907
G01 X33.6996 Y70.2083
G01 X33.8432 Y70.2083
G01 X34.1558 Y70.8907
G01 X34.2994 Y70.8907
G01 X33.9868 Y70.2083
G01 X34.1304 Y70.2083
G01 X34.4430 Y70.8907
G01 X34.5865 Y70.8907
G01 X34.2740 Y70.2083
G01 X34.4176 Y70.2083
G01 X34.7185 Y70.8654
G01 X34.7309 Y70.8907
G01 X34.8762 Y70.8907
G01 X34.8366 Y70.8096
G01 X34.5612 Y70.2083
G01 X34.7048 Y70.2083
G01 X34.9546 Y70.7537
G01 X35.0214 Y70.8907
G01 X35.1667 Y70.8907
G01 X35.0726 Y70.6979
G01 X34.8484 Y70.2083
G01 X34.9919 Y70.2083
G01 X35.1906 Y70.6421
G01 X35.3120 Y70.8907
G01 X35.4572 Y70.8907
G01 X35.3087 Y70.5863
G01 X35.1355 Y70.2083
G01 X35.2791 Y70.2083
G01 X35.4267 Y70.5304
G01 X35.6025 Y70.8907
G01 X35.7478 Y70.8907
G01 X35.5447 Y70.4746
G01 X35.4227 Y70.2083
G01 X35.5663 Y70.2083
G01 X35.6627 Y70.4188
G01 X35.8931 Y70.8907
G01 X36.0383 Y70.8907
G01 X35.7808 Y70.3630
G01 X35.7099 Y70.2083
G01 X35.8535 Y70.2083
G01 X35.8988 Y70.3072
G01 X36.1836 Y70.8907
G01 X36.3289 Y70.8907
G01 X36.0168 Y70.2513
G01 X35.9971 Y70.2083
G01 X36.1411 Y70.2083
G01 X36.4741 Y70.8907
G01 X36.6194 Y70.8907
G01 X36.2863 Y70.2083
G01 X36.4316 Y70.2083
G01 X36.7647 Y70.8907
G01 X36.9099 Y70.8907
G01 X36.5769 Y70.2083
G01 X36.7222 Y70.2083
G01 X37.0552 Y70.8907
G01 X37.2005 Y70.8907
G01 X36.8674 Y70.2083
G01 X37.0127 Y70.2083
G01 X37.3458 Y70.8907
G01 X37.4910 Y70.8907
G01 X37.1580 Y70.2083
G01 X37.3032 Y70.2083
G01 X37.6363 Y70.8907
G01 X37.7816 Y70.8907
G01 X37.4485 Y70.2083
G01 X37.5938 Y70.2083
G01 X37.9268 Y70.8907
G01 X38.0721 Y70.8907
G01 X37.7390 Y70.2083
G01 X37.8843 Y70.2083
G01 X38.2174 Y70.8907
G01 X38.3626 Y70.8907
G01 X38.0296 Y70.2083
G01 X38.1749 Y70.2083
G01 X38.5079 Y70.8907
G01 X38.6532 Y70.8907
G01 X38.3201 Y70.2083
G01 X38.4654 Y70.2083
G01 X38.7985 Y70.8907
G01 X38.9437 Y70.8907
G01 X38.6107 Y70.2083
G01 X38.7559 Y70.2083
G01 X39.0890 Y70.8907
G01 X39.2343 Y70.8907
G01 X38.9012 Y70.2083
G01 X39.0465 Y70.2083
G01 X39.3534 Y70.8371
G01 X39.3812 Y70.8907
G01 X39.5283 Y70.8907
G01 X39.4700 Y70.7784
G01 X39.1917 Y70.2083
G01 X39.3370 Y70.2083
G01 X39.5866 Y70.7197
G01 X39.6753 Y70.8907
G01 X39.8224 Y70.8907
G01 X39.7032 Y70.6610
G01 X39.4823 Y70.2083
G01 X39.6275 Y70.2083
G01 X39.8199 Y70.6023
G01 X39.9695 Y70.8907
G01 X40.1166 Y70.8907
G01 X39.9365 Y70.5436
G01 X39.7728 Y70.2083
G01 X39.9181 Y70.2083
G01 X40.0531 Y70.4849
G01 X40.2636 Y70.8907
G01 X40.4107 Y70.8907
G01 X40.1697 Y70.4262
G01 X40.0634 Y70.2083
G01 X40.2086 Y70.2083
G01 X40.2863 Y70.3675
G01 X40.5578 Y70.8907
G01 X40.7049 Y70.8907
G01 X40.4030 Y70.3088
G01 X40.3539 Y70.2083
G01 X40.4992 Y70.2083
G01 X40.5196 Y70.2501
G01 X40.8519 Y70.8907
G01 X40.9990 Y70.8907
G01 X40.6450 Y70.2083
G01 X40.7920 Y70.2083
G01 X41.1461 Y70.8907
G01 X41.2932 Y70.8907
G01 X40.9391 Y70.2083
G01 X41.0862 Y70.2083
G01 X41.4402 Y70.8907
G01 X41.5873 Y70.8907
G01 X41.2333 Y70.2083
G01 X41.3803 Y70.2083
G01 X41.7344 Y70.8907
G01 X41.8815 Y70.8907
G01 X41.5274 Y70.2083
G01 X41.6745 Y70.2083
G01 X42.0285 Y70.8907
G01 X42.1756 Y70.8907
G01 X41.8216 Y70.2083
G01 X41.9686 Y70.2083
G01 X42.3227 Y70.8907
G01 X42.4698 Y70.8907
G01 X42.1157 Y70.2083
G01 X42.2628 Y70.2083
G01 X42.6168 Y70.8907
G01 X42.7639 Y70.8907
G01 X42.4099 Y70.2083
G01 X42.5569 Y70.2083
G01 X42.9110 Y70.8907
G01 X43.0581 Y70.8907
G01 X42.7040 Y70.2083
G01 X42.8511 Y70.2083
G01 X43.2051 Y70.8907
G01 X43.3522 Y70.8907
G01 X42.9982 Y70.2083
G01 X43.1452 Y70.2083
G01 X43.4783 Y70.8503
G01 X43.5006 Y70.8907
G01 X43.6496 Y70.8907
G01 X43.5935 Y70.7887
G01 X43.2923 Y70.2083
G01 X43.4394 Y70.2083
G01 X43.7086 Y70.7272
G01 X43.7986 Y70.8907
G01 X43.9476 Y70.8907
G01 X43.8238 Y70.6657
G01 X43.5865 Y70.2083
G01 X43.7335 Y70.2083
G01 X43.9389 Y70.6041
G01 X44.0966 Y70.8907
G01 X44.2457 Y70.8907
G01 X44.0540 Y70.5426
G01 X43.8806 Y70.2083
G01 X44.0277 Y70.2083
G01 X44.1692 Y70.4810
G01 X44.3947 Y70.8907
G01 X44.5437 Y70.8907
G01 X44.2843 Y70.4195
G01 X44.1748 Y70.2083
G01 X44.3218 Y70.2083
G01 X44.3995 Y70.3579
G01 X44.6927 Y70.8907
G01 X44.8417 Y70.8907
G01 X44.5146 Y70.2964
G01 X44.4689 Y70.2083
G01 X44.6160 Y70.2083
G01 X44.6298 Y70.2348
G01 X44.9908 Y70.8907
G01 X45.1398 Y70.8907
G01 X44.7642 Y70.2083
G01 X44.9132 Y70.2083
G01 X45.2888 Y70.8907
G01 X45.4378 Y70.8907
G01 X45.0622 Y70.2083
G01 X45.2112 Y70.2083
G01 X45.5868 Y70.8907
G01 X45.7358 Y70.8907
G01 X45.3603 Y70.2083
G01 X45.5093 Y70.2083
G01 X45.8849 Y70.8907
G01 X46.0339 Y70.8907
G01 X45.6583 Y70.2083
G01 X45.8073 Y70.2083
G01 X46.1829 Y70.8907
G01 X46.3319 Y70.8907
G01 X45.9563 Y70.2083
G01 X46.1053 Y70.2083
G01 X46.4809 Y70.8907
G01 X46.6299 Y70.8907
G01 X46.2544 Y70.2083
G01 X46.4034 Y70.2083
G01 X46.7790 Y70.8907
G01 X46.9280 Y70.8907
G01 X46.5524 Y70.2083
G01 X46.7014 Y70.2083
G01 X47.0770 Y70.8907
G01 X47.2265 Y70.8907
G01 X47.2183 Y70.8767
G01 X46.8504 Y70.2083
G01 X46.9994 Y70.2083
G01 X47.3319 Y70.8123
G01 X47.3776 Y70.8907
G01 X47.5287 Y70.8907
G01 X47.4455 Y70.7480
G01 X47.1485 Y70.2083
G01 X47.2975 Y70.2083
G01 X47.5591 Y70.6836
G01 X47.6798 Y70.8907
G01 X47.8309 Y70.8907
G01 X47.6727 Y70.6193
G01 X47.4465 Y70.2083
G01 X47.5955 Y70.2083
G01 X47.7863 Y70.5549
G01 X47.9820 Y70.8907
G01 X48.1331 Y70.8907
G01 X47.8999 Y70.4906
G01 X47.7445 Y70.2083
G01 X47.8936 Y70.2083
G01 X48.0135 Y70.4262
G01 X48.2842 Y70.8907
G01 X48.4353 Y70.8907
G01 X48.1271 Y70.3619
G01 X48.0426 Y70.2083
G01 X48.1916 Y70.2083
G01 X48.2407 Y70.2975
G01 X48.5864 Y70.8907
G01 X48.7375 Y70.8907
G01 X48.3543 Y70.2332
G01 X48.3406 Y70.2083
G01 X48.4909 Y70.2083
G01 X48.8886 Y70.8907
G01 X49.0397 Y70.8907
G01 X48.6420 Y70.2083
G01 X48.7931 Y70.2083
G01 X49.1908 Y70.8907
G01 X49.3419 Y70.8907
G01 X48.9442 Y70.2083
G01 X49.0953 Y70.2083
G01 X49.4930 Y70.8907
G01 X49.6441 Y70.8907
G01 X49.2464 Y70.2083
G01 X49.3975 Y70.2083
G01 X49.7953 Y70.8907
G01 X49.9464 Y70.8907
G01 X49.5486 Y70.2083
G01 X49.6997 Y70.2083
G01 X50.0975 Y70.8907
G01 X50.2486 Y70.8907
G01 X49.8509 Y70.2083
G01 X50.0020 Y70.2083
G01 X50.3997 Y70.8907
G01 X50.5508 Y70.8907
G01 X50.1531 Y70.2083
G01 X50.3042 Y70.2083
G01 X50.6935 Y70.8763
G01 X50.7024 Y70.8907
G01 X50.8557 Y70.8907
G01 X50.8055 Y70.8092
G01 X50.4553 Y70.2083
G01 X50.6064 Y70.2083
G01 X50.9175 Y70.7421
G01 X51.0090 Y70.8907
G01 X51.1624 Y70.8907
G01 X51.0294 Y70.6749
G01 X50.7575 Y70.2083
G01 X50.9086 Y70.2083
G01 X51.1414 Y70.6078
G01 X51.3157 Y70.8907
G01 X51.4691 Y70.8907
G01 X51.2534 Y70.5407
G01 X51.0597 Y70.2083
G01 X51.2108 Y70.2083
G01 X51.3654 Y70.4736
G01 X51.6224 Y70.8907
G01 X51.7758 Y70.8907
G01 X51.4774 Y70.4065
G01 X51.3619 Y70.2083
G01 X51.5130 Y70.2083
G01 X51.5894 Y70.3393
G01 X51.9291 Y70.8907
G01 X52.0825 Y70.8907
G01 X51.7014 Y70.2722
G01 X51.6641 Y70.2083
G01 X51.8153 Y70.2083
G01 X52.2358 Y70.8907
G01 X52.3891 Y70.8907
G01 X51.9687 Y70.2083
G01 X52.1220 Y70.2083
G01 X52.5425 Y70.8907
G01 X52.6958 Y70.8907
G01 X52.2753 Y70.2083
G01 X52.4287 Y70.2083
G01 X52.8492 Y70.8907
G01 X53.0025 Y70.8907
G01 X52.5820 Y70.2083
G01 X52.7354 Y70.2083
G01 X53.1559 Y70.8907
G01 X53.3092 Y70.8907
G01 X52.8887 Y70.2083
G01 X53.0421 Y70.2083
G01 X53.4625 Y70.8907
G01 X53.6159 Y70.8907
G01 X53.1954 Y70.2083
G01 X53.3488 Y70.2083
G01 X53.7692 Y70.8907
G01 X53.9234 Y70.8907
G01 X53.9084 Y70.8676
G01 X53.5021 Y70.2083
G01 X53.6554 Y70.2083
G01 X54.0187 Y70.7978
G01 X54.0791 Y70.8907
G01 X54.2349 Y70.8907
G01 X54.1290 Y70.7279
G01 X53.8088 Y70.2083
G01 X53.9621 Y70.2083
G01 X54.2393 Y70.6581
G01 X54.3906 Y70.8907
G01 X54.5464 Y70.8907
G01 X54.3496 Y70.5882
G01 X54.1155 Y70.2083
G01 X54.2688 Y70.2083
G01 X54.4599 Y70.5184
G01 X54.7021 Y70.8907
G01 X54.8579 Y70.8907
G01 X54.5702 Y70.4485
G01 X54.4222 Y70.2083
G01 X54.5755 Y70.2083
G01 X54.6805 Y70.3787
G01 X55.0136 Y70.8907
G01 X55.1693 Y70.8907
G01 X54.7908 Y70.3088
G01 X54.7289 Y70.2083
G01 X54.8822 Y70.2083
G01 X54.9011 Y70.2390
G01 X55.3251 Y70.8907
G01 X55.4808 Y70.8907
G01 X55.0369 Y70.2083
G01 X55.1926 Y70.2083
G01 X55.6366 Y70.8907
G01 X55.7923 Y70.8907
G01 X55.3484 Y70.2083
G01 X55.5041 Y70.2083
G01 X55.9481 Y70.8907
G01 X56.1038 Y70.8907
G01 X55.6599 Y70.2083
G01 X55.8156 Y70.2083
G01 X56.2596 Y70.8907
G01 X56.4153 Y70.8907
G01 X55.9714 Y70.2083
G01 X56.1271 Y70.2083
G01 X56.5711 Y70.8907
G01 X56.7268 Y70.8907
G01 X56.2829 Y70.2083
G01 X56.4386 Y70.2083
G01 X56.8682 Y70.8687
G01 X56.8833 Y70.8907
G01 X57.0417 Y70.8907
G01 X56.9768 Y70.7961
G01 X56.5943 Y70.2083
G01 X56.7501 Y70.2083
G01 X57.0853 Y70.7236
G01 X57.2000 Y70.8907
G01 X57.3583 Y70.8907
G01 X57.1939 Y70.6511
G01 X56.9058 Y70.2083
G01 X57.0616 Y70.2083
G01 X57.3025 Y70.5785
G01 X57.5166 Y70.8907
G01 X57.6749 Y70.8907
G01 X57.4110 Y70.5060
G01 X57.2173 Y70.2083
G01 X57.3731 Y70.2083
G01 X57.5196 Y70.4335
G01 X57.8333 Y70.8907
G01 X57.9916 Y70.8907
G01 X57.6281 Y70.3609
G01 X57.5288 Y70.2083
G01 X57.6846 Y70.2083
G01 X57.7367 Y70.2884
G01 X58.1499 Y70.8907
G01 X58.3082 Y70.8907
G01 X57.8403 Y70.2083
G01 X57.9984 Y70.2083
G01 X58.4665 Y70.8907
G01 X58.6249 Y70.8907
G01 X58.1567 Y70.2083
G01 X58.3150 Y70.2083
G01 X58.7832 Y70.8907
G01 X58.9415 Y70.8907
G01 X58.4733 Y70.2083
G01 X58.6317 Y70.2083
G01 X59.0998 Y70.8907
G01 X59.2582 Y70.8907
G01 X58.7900 Y70.2083
G01 X58.9483 Y70.2083
G01 X59.4165 Y70.8907
G01 X59.5748 Y70.8907
G01 X59.1066 Y70.2083
G01 X59.2649 Y70.2083
G01 X59.6860 Y70.8221
G01 X59.7356 Y70.8907
G01 X59.8967 Y70.8907
G01 X59.7928 Y70.7469
G01 X59.4233 Y70.2083
G01 X59.5816 Y70.2083
G01 X59.8995 Y70.6717
G01 X60.0578 Y70.8907
G01 X60.2189 Y70.8907
G01 X60.0063 Y70.5966
G01 X59.7399 Y70.2083
G01 X59.8982 Y70.2083
G01 X60.1130 Y70.5214
G01 X60.3800 Y70.8907
G01 X60.5410 Y70.8907
G01 X60.2198 Y70.4462
G01 X60.0565 Y70.2083
G01 X60.2149 Y70.2083
G01 X60.3265 Y70.3710
G01 X60.7021 Y70.8907
G01 X60.8632 Y70.8907
G01 X60.4333 Y70.2958
G01 X60.3732 Y70.2083
G01 X60.5315 Y70.2083
G01 X60.5400 Y70.2207
G01 X61.0243 Y70.8907
G01 X61.1854 Y70.8907
G01 X60.6921 Y70.2083
G01 X60.8532 Y70.2083
G01 X61.3465 Y70.8907
G01 X61.5075 Y70.8907
G01 X61.0143 Y70.2083
G01 X61.1754 Y70.2083
G01 X61.6686 Y70.8907
G01 X61.8297 Y70.8907
G01 X61.3365 Y70.2083
G01 X61.4975 Y70.2083
G01 X61.9908 Y70.8907
G01 X62.1519 Y70.8907
G01 X61.6586 Y70.2083
G01 X61.8197 Y70.2083
G01 X62.2583 Y70.8152
G01 X62.3158 Y70.8907
G01 X62.4799 Y70.8907
G01 X62.3632 Y70.7374
G01 X61.9808 Y70.2083
G01 X62.1419 Y70.2083
G01 X62.4681 Y70.6596
G01 X62.6439 Y70.8907
G01 X62.8080 Y70.8907
G01 X62.5730 Y70.5818
G01 X62.3030 Y70.2083
G01 X62.4640 Y70.2083
G01 X62.6778 Y70.5041
G01 X62.9720 Y70.8907
G01 X63.1360 Y70.8907
G01 X62.7827 Y70.4263
G01 X62.6251 Y70.2083
G01 X62.7862 Y70.2083
G01 X62.8876 Y70.3485
G01 X63.3001 Y70.8907
G01 X63.4641 Y70.8907
G01 X62.9924 Y70.2707
G01 X62.9473 Y70.2083
G01 X63.1090 Y70.2083
G01 X63.6282 Y70.8907
G01 X63.7922 Y70.8907
G01 X63.2730 Y70.2083
G01 X63.4370 Y70.2083
G01 X63.9562 Y70.8907
G01 X64.1203 Y70.8907
G01 X63.6011 Y70.2083
G01 X63.7651 Y70.2083
G01 X64.2843 Y70.8907
G01 X64.4484 Y70.8907
G01 X63.9292 Y70.2083
G01 X64.0932 Y70.2083
G01 X64.5928 Y70.8650
G01 X64.6134 Y70.8907
G01 X64.7806 Y70.8907
G01 X64.6957 Y70.7846
G01 X64.2572 Y70.2083
G01 X64.4213 Y70.2083
G01 X64.7987 Y70.7043
G01 X64.9478 Y70.8907
G01 X65.1151 Y70.8907
G01 X64.9016 Y70.6240
G01 X64.5853 Y70.2083
G01 X64.7494 Y70.2083
G01 X65.0045 Y70.5437
G01 X65.2823 Y70.8907
G01 X65.4495 Y70.8907
G01 X65.1074 Y70.4633
G01 X64.9134 Y70.2083
G01 X65.0775 Y70.2083
G01 X65.2104 Y70.3830
G01 X65.6167 Y70.8907
G01 X65.7839 Y70.8907
G01 X65.3133 Y70.3027
G01 X65.2415 Y70.2083
G01 X65.4055 Y70.2083
G01 X65.4162 Y70.2224
G01 X65.9511 Y70.8907
G01 X66.1183 Y70.8907
G01 X65.5722 Y70.2083
G01 X65.7394 Y70.2083
G01 X66.2856 Y70.8907
G01 X66.4528 Y70.8907
G01 X65.9066 Y70.2083
G01 X66.0738 Y70.2083
G01 X66.6200 Y70.8907
G01 X66.7872 Y70.8907
G01 X66.2410 Y70.2083
G01 X66.4083 Y70.2083
G01 X66.8998 Y70.8224
G01 X66.9572 Y70.8907
G01 X67.1278 Y70.8907
G01 X67.0007 Y70.7396
G01 X66.5755 Y70.2083
G01 X66.7427 Y70.2083
G01 X67.1016 Y70.6568
G01 X67.2985 Y70.8907
G01 X67.4691 Y70.8907
G01 X67.2025 Y70.5739
G01 X66.9099 Y70.2083
G01 X67.0771 Y70.2083
G01 X67.3035 Y70.4911
G01 X67.6397 Y70.8907
G01 X67.8103 Y70.8907
G01 X67.4044 Y70.4083
G01 X67.2443 Y70.2083
G01 X67.4115 Y70.2083
G01 X67.5053 Y70.3255
G01 X67.9809 Y70.8907
G01 X68.1515 Y70.8907
G01 X67.6062 Y70.2426
G01 X67.5788 Y70.2083
G01 X67.7480 Y70.2083
G01 X68.3222 Y70.8907
G01 X68.4928 Y70.8907
G01 X67.9186 Y70.2083
G01 X68.0892 Y70.2083
G01 X68.6634 Y70.8907
G01 X68.8340 Y70.8907
G01 X68.2598 Y70.2083
G01 X68.4304 Y70.2083
G01 X68.9784 Y70.8595
G01 X69.0060 Y70.8907
G01 X69.1802 Y70.8907
G01 X69.0772 Y70.7742
G01 X68.6010 Y70.2083
G01 X68.7717 Y70.2083
G01 X69.1761 Y70.6889
G01 X69.3545 Y70.8907
G01 X69.5288 Y70.8907
G01 X69.2750 Y70.6037
G01 X68.9423 Y70.2083
G01 X69.1129 Y70.2083
G01 X69.3738 Y70.5184
G01 X69.7030 Y70.8907
G01 X69.8773 Y70.8907
G01 X69.4727 Y70.4331
G01 X69.2835 Y70.2083
G01 X69.4541 Y70.2083
G01 X69.5715 Y70.3478
G01 X70.0516 Y70.8907
G01 X70.2258 Y70.8907
G01 X69.6704 Y70.2626
G01 X69.6247 Y70.2083
G01 X69.7967 Y70.2083
G01 X70.4001 Y70.8907
G01 X70.5744 Y70.8907
G01 X69.9710 Y70.2083
G01 X70.1452 Y70.2083
G01 X70.7486 Y70.8907
G01 X70.9229 Y70.8907
G01 X70.3195 Y70.2083
G01 X70.4938 Y70.2083
G01 X71.0318 Y70.8168
G01 X71.1005 Y70.8907
G01 X71.2787 Y70.8907
G01 X71.1285 Y70.7291
G01 X70.6680 Y70.2083
G01 X70.8423 Y70.2083
G01 X71.2253 Y70.6414
G01 X71.4568 Y70.8907
G01 X71.6350 Y70.8907
G01 X71.3220 Y70.5537
G01 X71.0166 Y70.2083
G01 X71.1908 Y70.2083
G01 X71.4187 Y70.4660
G01 X71.8132 Y70.8907
G01 X71.9914 Y70.8907
G01 X71.5155 Y70.3784
G01 X71.3651 Y70.2083
G01 X71.5394 Y70.2083
G01 X71.6122 Y70.2907
G01 X72.1696 Y70.8907
G01 X72.3478 Y70.8907
G01 X71.7139 Y70.2083
G01 X71.8921 Y70.2083
G01 X72.5260 Y70.8907
G01 X72.7042 Y70.8907
G01 X72.0702 Y70.2083
G01 X72.2484 Y70.2083
G01 X72.8683 Y70.8755
G01 X72.8831 Y70.8907
G01 X73.0655 Y70.8907
G01 X72.9628 Y70.7855
G01 X72.4266 Y70.2083
G01 X72.6048 Y70.2083
G01 X73.0574 Y70.6955
G01 X73.2479 Y70.8907
G01 X73.4303 Y70.8907
G01 X73.1519 Y70.6054
G01 X72.7830 Y70.2083
G01 X72.9612 Y70.2083
G01 X73.2465 Y70.5154
G01 X73.6127 Y70.8907
G01 X73.7951 Y70.8907
G01 X73.3410 Y70.4254
G01 X73.1394 Y70.2083
G01 X73.3176 Y70.2083
G01 X73.4356 Y70.3354
G01 X73.9775 Y70.8907
G01 X74.1599 Y70.8907
G01 X73.5302 Y70.2453
G01 X73.4958 Y70.2083
G01 X73.6764 Y70.2083
G01 X74.3423 Y70.8907
G01 X74.5247 Y70.8907
G01 X73.8588 Y70.2083
G01 X74.0412 Y70.2083
G01 X74.6832 Y70.8663
G01 X74.7083 Y70.8907
G01 X74.8952 Y70.8907
G01 X74.7756 Y70.7739
G01 X74.2236 Y70.2083
G01 X74.4060 Y70.2083
G01 X74.8679 Y70.6816
G01 X75.0821 Y70.8907
G01 X75.2691 Y70.8907
G01 X74.9602 Y70.5893
G01 X74.5884 Y70.2083
G01 X74.7708 Y70.2083
G01 X75.0525 Y70.4970
G01 X75.4560 Y70.8907
G01 X75.6429 Y70.8907
G01 X75.1448 Y70.4047
G01 X74.9532 Y70.2083
G01 X75.1356 Y70.2083
G01 X75.2372 Y70.3123
G01 X75.8299 Y70.8907
G01 X76.0168 Y70.8907
G01 X75.3295 Y70.2200
G01 X75.3180 Y70.2083
G01 X75.5044 Y70.2083
G01 X76.2037 Y70.8907
G01 X76.3910 Y70.8907
G01 X75.6913 Y70.2083
G01 X75.8783 Y70.2083
G01 X76.4745 Y70.7901
G01 X76.5828 Y70.8907
G01 X76.7746 Y70.8907
G01 X76.5645 Y70.6955
G01 X76.0652 Y70.2083
G01 X76.2521 Y70.2083
G01 X76.6546 Y70.6010
G01 X76.9664 Y70.8907
G01 X77.1583 Y70.8907
G01 X76.7446 Y70.5064
G01 X76.4391 Y70.2083
G01 X76.6260 Y70.2083
G01 X76.8346 Y70.4119
G01 X77.3501 Y70.8907
G01 X77.5419 Y70.8907
G01 X76.9246 Y70.3173
G01 X76.8129 Y70.2083
G01 X76.9999 Y70.2083
G01 X77.0147 Y70.2227
G01 X77.7337 Y70.8907
G01 X77.9255 Y70.8907
G01 X77.1909 Y70.2083
G01 X77.3827 Y70.2083
G01 X78.0645 Y70.8416
G01 X78.1200 Y70.8907
G01 X78.3171 Y70.8907
G01 X78.1522 Y70.7449
G01 X77.5746 Y70.2083
G01 X77.7664 Y70.2083
G01 X78.2399 Y70.6482
G01 X78.5142 Y70.8907
G01 X78.7113 Y70.8907
G01 X78.3276 Y70.5514
G01 X77.9582 Y70.2083
G01 X78.1500 Y70.2083
G01 X78.4152 Y70.4547
G01 X78.9083 Y70.8907
G01 X79.1054 Y70.8907
G01 X78.5029 Y70.3580
G01 X78.3418 Y70.2083
G01 X78.5336 Y70.2083
G01 X78.5906 Y70.2612
G01 X79.3025 Y70.8907
G01 X79.4996 Y70.8907
G01 X78.7278 Y70.2083
G01 X78.9249 Y70.2083
G01 X79.6361 Y70.8372
G01 X79.6997 Y70.8907
G01 X79.9025 Y70.8907
G01 X79.7214 Y70.7383
G01 X79.1220 Y70.2083
G01 X79.3191 Y70.2083
G01 X79.8067 Y70.6395
G01 X80.1053 Y70.8907
G01 X80.3081 Y70.8907
G01 X79.8920 Y70.5406
G01 X79.5162 Y70.2083
G01 X79.7133 Y70.2083
G01 X79.9772 Y70.4417
G01 X80.5108 Y70.8907
G01 X80.7136 Y70.8907
G01 X80.0625 Y70.3429
G01 X79.9103 Y70.2083
G01 X80.1074 Y70.2083
G01 X80.1478 Y70.2440
G01 X80.9164 Y70.8907
G01 X81.1199 Y70.8907
G01 X81.1047 Y70.8786
G01 X80.3081 Y70.2083
G01 X80.5109 Y70.2083
G01 X81.1875 Y70.7776
G01 X81.3288 Y70.8907
G01 X81.5377 Y70.8907
G01 X81.2704 Y70.6767
G01 X80.7137 Y70.2083
G01 X80.9164 Y70.2083
G01 X81.3532 Y70.5758
G01 X81.7467 Y70.8907
G01 X81.9556 Y70.8907
G01 X81.4360 Y70.4749
G01 X81.1192 Y70.2083
G01 X81.3220 Y70.2083
G01 X81.5189 Y70.3739
G01 X82.1645 Y70.8907
G01 X82.3734 Y70.8907
G01 X81.6017 Y70.2730
G01 X81.5248 Y70.2083
G01 X81.7297 Y70.2083
G01 X82.5564 Y70.8699
G01 X82.5837 Y70.8907
G01 X82.7993 Y70.8907
G01 X82.6367 Y70.7670
G01 X81.9387 Y70.2083
G01 X82.1476 Y70.2083
G01 X82.7170 Y70.6640
G01 X83.0149 Y70.8907
G01 X83.2305 Y70.8907
G01 X82.7973 Y70.5611
G01 X82.3565 Y70.2083
G01 X82.5654 Y70.2083
G01 X82.8777 Y70.4582
G01 X83.4461 Y70.8907
G01 X83.6617 Y70.8907
G01 X82.9580 Y70.3553
G01 X82.7744 Y70.2083
G01 X82.9833 Y70.2083
G01 X83.0383 Y70.2523
G01 X83.8773 Y70.8907
G01 X84.0984 Y70.8907
G01 X83.9895 Y70.8120
G01 X83.1960 Y70.2083
G01 X83.4116 Y70.2083
G01 X84.0673 Y70.7071
G01 X84.3212 Y70.8907
G01 X84.5441 Y70.8907
G01 X84.1451 Y70.6023
G01 X83.6273 Y70.2083
G01 X83.8429 Y70.2083
G01 X84.2228 Y70.4974
G01 X84.7670 Y70.8907
G01 X84.9898 Y70.8907
G01 X84.3006 Y70.3925
G01 X84.0585 Y70.2083
G01 X84.2741 Y70.2083
G01 X84.3784 Y70.2877
G01 X85.2127 Y70.8907
G01 X85.4413 Y70.8907
G01 X85.3274 Y70.8126
G01 X84.4914 Y70.2083
G01 X84.7143 Y70.2083
G01 X85.4026 Y70.7058
G01 X85.6721 Y70.8907
G01 X85.9028 Y70.8907
G01 X85.4778 Y70.5991
G01 X84.9371 Y70.2083
G01 X85.1600 Y70.2083
G01 X85.5530 Y70.4923
G01 X86.1336 Y70.8907
G01 X86.3644 Y70.8907
G01 X85.6282 Y70.3856
G01 X85.3829 Y70.2083
G01 X85.6057 Y70.2083
G01 X85.7033 Y70.2789
G01 X86.5766 Y70.8780
G01 X86.5962 Y70.8907
G01 X86.8356 Y70.8907
G01 X86.6491 Y70.7694
G01 X85.8313 Y70.2083
G01 X86.0620 Y70.2083
G01 X86.7217 Y70.6609
G01 X87.0749 Y70.8907
G01 X87.3143 Y70.8907
G01 X86.7942 Y70.5523
G01 X86.2928 Y70.2083
G01 X86.5236 Y70.2083
G01 X86.8667 Y70.4438
G01 X87.5537 Y70.8907
G01 X87.7931 Y70.8907
G01 X86.9393 Y70.3352
G01 X86.7543 Y70.2083
G01 X86.9851 Y70.2083
G01 X87.0118 Y70.2266
G01 X87.8834 Y70.7937
G01 X88.0409 Y70.8907
G01 X88.2897 Y70.8907
G01 X87.9533 Y70.6834
G01 X87.2230 Y70.2083
G01 X87.4624 Y70.2083
G01 X88.0231 Y70.5731
G01 X88.5386 Y70.8907
G01 X88.7875 Y70.8907
G01 X88.0930 Y70.4628
G01 X87.7018 Y70.2083
G01 X87.9412 Y70.2083
G01 X88.1628 Y70.3525
G01 X89.0363 Y70.8907
G01 X89.2955 Y70.8907
G01 X89.1043 Y70.7792
G01 X88.2327 Y70.2422
G01 X88.1806 Y70.2083
G01 X88.4266 Y70.2083
G01 X89.1714 Y70.6672
G01 X89.5548 Y70.8907
G01 X89.8141 Y70.8907
G01 X89.2385 Y70.5553
G01 X88.6754 Y70.2083
G01 X88.9243 Y70.2083
G01 X89.3056 Y70.4433
G01 X90.0733 Y70.8907
G01 X90.3377 Y70.8907
G01 X90.2462 Y70.8403
G01 X89.3727 Y70.3313
G01 X89.1732 Y70.2083
G01 X89.4220 Y70.2083
G01 X89.4399 Y70.2193
G01 X90.3105 Y70.7267
G01 X90.6084 Y70.8907
G01 X90.8792 Y70.8907
G01 X90.3749 Y70.6131
G01 X89.6803 Y70.2083
G01 X89.9395 Y70.2083
G01 X90.4393 Y70.4995
G01 X91.1499 Y70.8907
G01 X91.4233 Y70.8907
G01 X91.3781 Y70.8672
G01 X90.5036 Y70.3860
G01 X90.1988 Y70.2083
G01 X90.4581 Y70.2083
G01 X90.5680 Y70.2724
G01 X91.4396 Y70.7521
G01 X91.7067 Y70.8907
G01 X91.9902 Y70.8907
G01 X91.5011 Y70.6370
G01 X90.7223 Y70.2083
G01 X90.9931 Y70.2083
G01 X91.5627 Y70.5218
G01 X92.2737 Y70.8907
G01 X92.5608 Y70.8907
G01 X92.4989 Y70.8605
G01 X91.6242 Y70.4067
G01 X91.2638 Y70.2083
G01 X91.5346 Y70.2083
G01 X91.6858 Y70.2915
G01 X92.5576 Y70.7438
G01 X92.8585 Y70.8907
G01 X93.1561 Y70.8907
G01 X92.6163 Y70.6272
G01 X91.8089 Y70.2083
G01 X92.0923 Y70.2083
G01 X92.6750 Y70.5106
G01 X93.4538 Y70.8907
G01 X93.7608 Y70.8907
G01 X93.6076 Y70.8205
G01 X92.7337 Y70.3940
G01 X92.3758 Y70.2083
G01 X92.6593 Y70.2083
G01 X92.7924 Y70.2774
G01 X93.6635 Y70.7025
G01 X94.0743 Y70.8907
G01 X94.3878 Y70.8907
G01 X93.7193 Y70.5845
G01 X92.9485 Y70.2083
G01 X93.2462 Y70.2083
G01 X93.7751 Y70.4665
G01 X94.6506 Y70.8674
G01 X94.7048 Y70.8907
G01 X95.0362 Y70.8907
G01 X94.7035 Y70.7481
G01 X93.8309 Y70.3484
G01 X93.5438 Y70.2083
G01 X93.8414 Y70.2083
G01 X93.8868 Y70.2304
G01 X94.7564 Y70.6287
G01 X95.3675 Y70.8907
G01 X95.6998 Y70.8907
G01 X95.6855 Y70.8850
G01 X94.8093 Y70.5094
G01 X94.1520 Y70.2083
G01 X94.4655 Y70.2083
G01 X94.8622 Y70.3900
G01 X95.7354 Y70.7643
G01 X96.0514 Y70.8907
G01 X96.4030 Y70.8907
G01 X95.7854 Y70.6437
G01 X94.9151 Y70.2707
G01 X94.7790 Y70.2083
G01 X95.1010 Y70.2083
G01 X95.8354 Y70.5231
G01 X96.7116 Y70.8735
G01 X96.7578 Y70.8907
G01 X97.1325 Y70.8907
G01 X96.7586 Y70.7517
G01 X95.8853 Y70.4025
G01 X95.4323 Y70.2083
G01 X95.7637 Y70.2083
G01 X95.9353 Y70.2819
G01 X96.8055 Y70.6299
G01 X97.5072 Y70.8907
G01 X97.8943 Y70.8907
G01 X97.7281 Y70.8335
G01 X96.8525 Y70.5081
G01 X96.1029 Y70.2083
G01 X96.4545 Y70.2083
G01 X96.8995 Y70.3863
G01 X97.7720 Y70.7106
G01 X98.2956 Y70.8907
G01 X98.6972 Y70.8907
G01 X97.8160 Y70.5877
G01 X96.9465 Y70.2644
G01 X96.8061 Y70.2083
G01 X97.1702 Y70.2083
G01 X97.8600 Y70.4647
G01 X98.7342 Y70.7655
G01 X99.1295 Y70.8907
G01 X99.5618 Y70.8907
G01 X98.7751 Y70.6415
G01 X97.9040 Y70.3418
G01 X97.5449 Y70.2083
G01 X97.9196 Y70.2083
G01 X97.9480 Y70.2189
G01 X98.8161 Y70.5175
G01 X99.6913 Y70.7948
G01 X100.0221 Y70.8907
G01 X100.4908 Y70.8907
G01 X99.7292 Y70.6698
G01 X98.8571 Y70.3935
G01 X98.3186 Y70.2083
G01 X98.7199 Y70.2083
G01 X98.8980 Y70.2696
G01 X99.7671 Y70.5449
G01 X100.6426 Y70.7988
G01 X100.9913 Y70.8907
G01 X101.5035 Y70.8907
G01 X100.6775 Y70.6730
G01 X99.8050 Y70.4200
G01 X99.1369 Y70.2083
G01 X99.5691 Y70.2083
G01 X99.8429 Y70.2950
G01 X100.7123 Y70.5471
G01 X101.5876 Y70.7779
G01 X102.0628 Y70.8907
G01 X102.6437 Y70.8907
G01 X102.4970 Y70.8596
G01 X101.6193 Y70.6512
G01 X100.7471 Y70.4213
G01 X100.0126 Y70.2083
G01 X100.4813 Y70.2083
G01 X100.7819 Y70.2955
G01 X101.6511 Y70.5246
G01 X102.5256 Y70.7322
G01 X103.2741 Y70.8907
G01 X103.2023 Y70.2083
G01 X103.5322 Y70.2781
G01 X104.4001 Y70.4397
G01 X105.2717 Y70.5800
G01 X106.1465 Y70.6988
G01 X107.0239 Y70.7961
G01 X107.9034 Y70.8718
G01 X108.2107 Y70.8907
G01 X107.8064 Y70.2083
G01 X107.9515 Y70.2208
G01 X108.8166 Y70.2739
G01 X109.6828 Y70.3058
G01 X110.5495 Y70.3165
G01 X110.8048 Y70.3133
G00 Z2.0000
G00 X110.8399 Y70.1824
G01 F40.00
G01 Z-0.0584
G01 F100.00
G01 X110.5495 Y70.1859
G01 X110.0083 Y70.1793
G00 Z2.0000
G00 X110.1584 Y70.0506
G01 F40.00
G01 Z-0.0584
G01 F100.00
G01 X110.5495 Y70.0554
G01 X110.8750 Y70.0514
G01 X110.8907 Y69.9206
G01 X110.5495 Y69.9248
G01 X110.2033 Y69.9206
G00 Z2.0000
G00 X110.2083 Y69.7901
G01 F40.00
G01 Z-0.0584
G01 F100.00
G01 X110.5495 Y69.7942
G01 X110.8907 Y69.7901
G01 X110.8907 Y69.6595
G01 X110.5495 Y69.6637
G01 X110.2083 Y69.6595
G01 X110.2083 Y69.5289
G01 X110.5495 Y69.5331
G01 X110.8907 Y69.5289
G01 X110.8907 Y69.3984
G01 X110.5495 Y69.4026
G01 X110.2083 Y69.3984
G01 X110.2083 Y69.2678
G01 X110.5495 Y69.2720
G01 X110.8907 Y69.2678
G01 X110.8907 Y69.1373
G01 X110.5495 Y69.1414
G01 X110.2083 Y69.1373
G01 X110.2083 Y69.0067
G01 X110.5495 Y69.0109
G01 X110.8907 Y69.0067
G01 X110.8907 Y68.8761
G01 X110.5495 Y68.8803
G01 X110.2083 Y68.8761
G01 X110.2083 Y68.7456
G01 X110.5495 Y68.7498
G01 X110.8907 Y68.7456
G01 X110.8907 Y68.6150
G01 X110.5495 Y68.6192
G01 X110.2083 Y68.6150
G01 X110.2083 Y68.4845
G01 X110.5495 Y68.4886
G01 X110.8907 Y68.4845
G01 X110.8907 Y68.3539
G01 X110.5495 Y68.3581
G01 X110.2083 Y68.3539
G01 X110.2083 Y68.2233
G01 X110.5495 Y68.2275
G01 X110.8907 Y68.2233
G01 X110.8907 Y68.0928
G01 X110.5495 Y68.0970
G01 X110.2083 Y68.0928
G01 X110.2083 Y67.9622
G01 X110.5495 Y67.9664
G01 X110.8907 Y67.9622
G01 X110.8907 Y67.8317
G01 X110.5495 Y67.8358
G01 X110.2083 Y67.8317
G01 X110.2083 Y67.7011
G01 X110.5495 Y67.7053
G01 X110.8907 Y67.7011
G01 X110.8907 Y67.5705
G01 X110.5495 Y67.5747
G01 X110.2083 Y67.5705
G01 X110.2083 Y67.4400
G01 X110.5495 Y67.4442
G01 X110.8907 Y67.4400
G01 X110.8907 Y67.3094
G01 X110.5495 Y67.3136
G01 X110.2083 Y67.3094
G01 X110.2083 Y67.1789
G01 X110.5495 Y67.1830
G01 X110.8907 Y67.1789
G01 X110.8907 Y67.0483
G01 X110.5495 Y67.0525
G01 X110.2083 Y67.0483
G01 X110.2083 Y66.9177
G01 X110.5495 Y66.9219
G01 X110.8907 Y66.9177
G01 X110.8907 Y66.7872
G01 X110.5495 Y66.7914
G01 X110.2083 Y66.7872
G01 X110.2083 Y66.6566
G01 X110.5495 Y66.6608
G01 X110.8907 Y66.6566
G01 X110.8907 Y66.5261
G01 X110.5495 Y66.5302
G01 X110.2083 Y66.5261
G01 X110.2083 Y66.3955
G01 X110.5495 Y66.3997
G01 X110.8907 Y66.3955
G01 X110.8907 Y66.2649
G01 X110.5495 Y66.2691
G01 X110.2083 Y66.2649
G01 X110.2083 Y66.1344
G01 X110.5495 Y66.1386
G01 X110.8907 Y66.1344
G01 X110.8907 Y66.0038
G01 X110.5495 Y66.0080
G01 X110.2083 Y66.0038
G01 X110.2083 Y65.8733
G01 X110.5495 Y65.8774
G01 X110.8907 Y65.8733
G01 X110.8907 Y65.7427
G01 X110.5495 Y65.7469
G01 X110.2083 Y65.7427
G01 X110.2083 Y65.6121
G01 X110.5495 Y65.6163
G01 X110.8907 Y65.6121
G01 X110.8907 Y65.4816
G01 X110.5495 Y65.4858
G01 X110.2083 Y65.4816
G01 X110.2083 Y65.3510
G01 X110.5495 Y65.3552
G01 X110.8907 Y65.3510
G01 X110.8907 Y65.2205
G01 X110.5495 Y65.2246
G01 X110.2083 Y65.2205
G01 X110.2083 Y65.0899
G01 X110.5495 Y65.0941
G01 X110.8907 Y65.0899
G01 X110.8907 Y64.9593
G01 X110.5495 Y64.9635
G01 X110.2083 Y64.9593
G01 X110.2083 Y64.8288
G01 X110.5495 Y64.8330
G01 X110.8907 Y64.8288
G01 X110.8907 Y64.6982
G01 X110.5495 Y64.7024
G01 X110.2083 Y64.6982
G01 X110.2083 Y64.5677
G01 X110.5495 Y64.5718
G01 X110.8907 Y64.5677
G01 X110.8907 Y64.4371
G01 X110.5495 Y64.4413
G01 X110.2083 Y64.4371
G01 X110.2083 Y64.3065
G01 X110.5495 Y64.3107
G01 X110.8907 Y64.3065
G01 X110.8907 Y64.1760
G01 X110.5495 Y64.1802
G01 X110.2083 Y64.1760
G01 X110.2083 Y64.0454
G01 X110.5495 Y64.0496
G01 X110.8907 Y64.0454
G01 X110.8907 Y63.9149
G01 X110.5495 Y63.9190
G01 X110.2083 Y63.9149
G01 X110.2083 Y63.7843
G01 X110.5495 Y63.7885
G01 X110.8907 Y63.7843
G01 X110.8907 Y63.6537
G01 X110.5495 Y63.6579
G01 X110.2083 Y63.6537
G01 X110.2083 Y63.5232
G01 X110.5495 Y63.5274
G01 X110.8907 Y63.5232
G01 X110.8907 Y63.3926
G01 X110.5495 Y63.3968
G01 X110.2083 Y63.3926
G01 X110.2083 Y63.2621
G01 X110.5495 Y63.2662
G01 X110.8907 Y63.2621
G01 X110.8907 Y63.1315
G01 X110.5495 Y63.1357
G01 X110.2083 Y63.1315
G01 X110.2083 Y63.0009
G01 X110.5495 Y63.0051
G01 X110.8907 Y63.0009
G01 X110.8907 Y62.8704
G01 X110.5495 Y62.8746
G01 X110.2083 Y62.8704
G01 X110.2083 Y62.7398
G01 X110.5495 Y62.7440
G01 X110.8907 Y62.7398
G01 X110.8907 Y62.6093
G01 X110.5495 Y62.6134
G01 X110.2083 Y62.6093
G01 X110.2083 Y62.4787
G01 X110.5495 Y62.4829
G01 X110.8907 Y62.4787
G01 X110.8907 Y62.3481
G01 X110.5495 Y62.3523
G01 X110.2083 Y62.3481
G01 X110.2083 Y62.2176
G01 X110.5495 Y62.2218
G01 X110.8907 Y62.2176
G01 X110.8907 Y62.0870
G01 X110.5495 Y62.0912
G01 X110.2083 Y62.0870
G01 X110.2083 Y61.9565
G01 X110.5495 Y61.9606
G01 X110.8907 Y61.9565
G01 X110.8907 Y61.8259
G01 X110.5495 Y61.8301
G01 X110.2083 Y61.8259
G01 X110.2083 Y61.6953
G01 X110.5495 Y61.6995
G01 X110.8907 Y61.6953
G01 X110.8907 Y61.5648
G01 X110.5495 Y61.5690
G01 X110.2083 Y61.5648
G01 X110.2083 Y61.4342
G01 X110.5495 Y61.4384
G01 X110.8907 Y61.4342
G01 X110.8907 Y61.3037
G01 X110.5495 Y61.3078
G01 X110.2083 Y61.3037
G01 X110.2083 Y61.1731
G01 X110.5495 Y61.1773
G01 X110.8907 Y61.1731
G01 X110.8907 Y61.0425
G01 X110.5495 Y61.0467
G01 X110.2083 Y61.0425
G01 X110.2083 Y60.9120
G01 X110.5495 Y60.9162
G01 X110.8907 Y60.9120
G01 X110.8907 Y60.7814
G01 X110.5495 Y60.7856
G01 X110.2083 Y60.7814
G01 X110.2083 Y60.6509
G01 X110.5495 Y60.6550
G01 X110.8907 Y60.6509
G01 X110.8907 Y60.5203
G01 X110.5495 Y60.5245
G01 X110.2083 Y60.5203
G01 X110.2083 Y60.3897
G01 X110.5495 Y60.3939
G01 X110.8907 Y60.3897
G01 X110.8907 Y60.2592
G01 X110.5495 Y60.2634
G01 X110.2083 Y60.2592
G01 X110.2083 Y60.1286
G01 X110.5495 Y60.1328
G01 X110.8907 Y60.1286
G01 X110.8907 Y59.9981
G01 X110.5495 Y60.0022
G01 X110.2083 Y59.9981
G01 X110.2083 Y59.8675
G01 X110.5495 Y59.8717
G01 X110.8907 Y59.8675
G01 X110.8907 Y59.7369
G01 X110.5495 Y59.7411
G01 X110.2083 Y59.7369
G01 X110.2083 Y59.6064
G01 X110.5495 Y59.6106
G01 X110.8907 Y59.6064
G01 X110.8907 Y59.4758
G01 X110.5495 Y59.4800
G01 X110.2083 Y59.4758
G01 X110.2083 Y59.3453
G01 X110.5495 Y59.3494
G01 X110.8907 Y59.3453
G01 X110.8907 Y59.2147
G01 X110.5495 Y59.2189
G01 X110.2083 Y59.2147
G01 X110.2083 Y59.0841
G01 X110.5495 Y59.0883
G01 X110.8907 Y59.0841
G01 X110.8907 Y58.9536
G01 X110.5495 Y58.9578
G01 X110.2083 Y58.9536
G01 X110.2083 Y58.8230
G01 X110.5495 Y58.8272
G01 X110.8907 Y58.8230
G01 X110.8907 Y58.6925
G01 X110.5495 Y58.6966
G01 X110.2083 Y58.6925
G01 X110.2083 Y58.5619
G01 X110.5495 Y58.5661
G01 X110.8907 Y58.5619
G01 X110.8907 Y58.4313
G01 X110.5495 Y58.4355
G01 X110.2083 Y58.4313
G01 X110.2083 Y58.3008
G01 X110.5495 Y58.3050
G01 X110.8907 Y58.3008
G01 X110.8907 Y58.1702
G01 X110.5495 Y58.1744
G01 X110.2083 Y58.1702
G01 X110.2083 Y58.0397
G01 X110.5495 Y58.0438
G01 X110.8907 Y58.0397
G01 X110.8907 Y57.9091
G01 X110.5495 Y57.9133
G01 X110.2083 Y57.9091
G01 X110.2083 Y57.7785
G01 X110.5495 Y57.7827
G01 X110.8907 Y57.7785
G01 X110.8907 Y57.6480
G01 X110.5495 Y57.6522
G01 X110.2083 Y57.6480
G01 X110.2083 Y57.5174
G01 X110.5495 Y57.5216
G01 X110.8907 Y57.5174
G01 X110.8907 Y57.3869
G01 X110.5495 Y57.3910
G01 X110.2083 Y57.3869
G01 X110.2083 Y57.2563
G01 X110.5495 Y57.2605
G01 X110.8907 Y57.2563
G01 X110.8907 Y57.1257
G01 X110.5495 Y57.1299
G01 X110.2083 Y57.1257
G01 X110.2083 Y56.9952
G01 X110.5495 Y56.9994
G01 X110.8907 Y56.9952
G01 X110.8907 Y56.8646
G01 X110.5495 Y56.8688
G01 X110.2083 Y56.8646
G01 X110.2083 Y56.7341
G01 X110.5495 Y56.7382
G01 X110.8907 Y56.7341
G01 X110.8907 Y56.6035
G01 X110.5495 Y56.6077
G01 X110.2083 Y56.6035
G01 X110.2083 Y56.4729
G01 X110.5495 Y56.4771
G01 X110.8907 Y56.4729
G01 X110.8907 Y56.3424
G01 X110.5495 Y56.3466
G01 X110.2083 Y56.3424
G01 X110.2083 Y56.2118
G01 X110.5495 Y56.2160
G01 X110.8907 Y56.2118
G01 X110.8907 Y56.0813
G01 X110.5495 Y56.0854
G01 X110.2083 Y56.0813
G01 X110.2083 Y55.9507
G01 X110.5495 Y55.9549
G01 X110.8907 Y55.9507
G01 X110.8907 Y55.8201
G01 X110.5495 Y55.8243
G01 X110.2083 Y55.8201
G01 X110.2083 Y55.6896
G01 X110.5495 Y55.6938
G01 X110.8907 Y55.6896
G01 X110.8907 Y55.5590
G01 X110.5495 Y55.5632
G01 X110.2083 Y55.5590
G01 X110.2083 Y55.4285
G01 X110.5495 Y55.4326
G01 X110.8907 Y55.4285
G01 X110.8907 Y55.2979
G01 X110.5495 Y55.3021
G01 X110.2083 Y55.2979
G01 X110.2083 Y55.1673
G01 X110.5495 Y55.1715
G01 X110.8907 Y55.1673
G01 X110.8907 Y55.0368
G01 X110.5495 Y55.0410
G01 X110.2083 Y55.0368
G01 X110.2083 Y54.9062
G01 X110.5495 Y54.9104
G01 X110.8907 Y54.9062
G01 X110.8907 Y54.7757
G01 X110.5495 Y54.7798
G01 X110.2083 Y54.7757
G01 X110.2083 Y54.6451
G01 X110.5495 Y54.6493
G01 X110.8907 Y54.6451
G01 X110.8907 Y54.5145
G01 X110.5495 Y54.5187
G01 X110.2083 Y54.5145
G01 X110.2083 Y54.3840
G01 X110.5495 Y54.3882
G01 X110.8907 Y54.3840
G01 X110.8907 Y54.2534
G01 X110.5495 Y54.2576
G01 X110.2083 Y54.2534
G01 X110.2083 Y54.1229
G01 X110.5495 Y54.1270
G01 X110.8907 Y54.1229
G01 X110.8907 Y53.9923
G01 X110.5495 Y53.9965
G01 X110.2083 Y53.9923
G01 X110.2083 Y53.8617
G01 X110.5495 Y53.8659
G01 X110.8907 Y53.8617
G01 X110.8907 Y53.7312
G01 X110.5495 Y53.7354
G01 X110.2083 Y53.7312
G01 X110.2083 Y53.6006
G01 X110.5495 Y53.6048
G01 X110.8907 Y53.6006
G01 X110.8907 Y53.4701
G01 X110.5495 Y53.4742
G01 X110.2083 Y53.4701
G01 X110.2083 Y53.3395
G01 X110.5495 Y53.3437
G01 X110.8907 Y53.3395
G01 X110.8907 Y53.2089
G01 X110.5495 Y53.2131
G01 X110.2083 Y53.2089
G01 X110.2083 Y53.0784
G01 X110.5495 Y53.0826
G01 X110.8907 Y53.0784
G01 X110.8907 Y52.9478
G01 X110.5495 Y52.9520
G01 X110.2083 Y52.9478
G01 X110.2083 Y52.8173
G01 X110.5495 Y52.8214
G01 X110.8907 Y52.8173
G01 X110.8907 Y52.6867
G01 X110.5495 Y52.6909
G01 X110.2083 Y52.6867
G01 X110.2083 Y52.5561
G01 X110.5495 Y52.5603
G01 X110.8907 Y52.5561
G01 X110.8907 Y52.4256
G01 X110.5495 Y52.4298
G01 X110.2083 Y52.4256
G01 X110.2083 Y52.2950
G01 X110.5495 Y52.2992
G01 X110.8907 Y52.2950
G01 X110.8907 Y52.1645
G01 X110.5495 Y52.1686
G01 X110.2083 Y52.1645
G01 X110.2083 Y52.0339
G01 X110.5495 Y52.0381
G01 X110.8907 Y52.0339
G01 X110.8907 Y51.9033
G01 X110.5495 Y51.9075
G01 X110.2083 Y51.9033
G01 X110.2083 Y51.7728
G01 X110.5495 Y51.7770
G01 X110.8907 Y51.7728
G01 X110.8907 Y51.6422
G01 X110.5495 Y51.6464
G01 X110.2083 Y51.6422
G01 X110.2083 Y51.5117
G01 X110.5495 Y51.5158
G01 X110.8907 Y51.5117
G01 X110.8907 Y51.3811
G01 X110.5495 Y51.3853
G01 X110.2083 Y51.3811
G01 X110.2083 Y51.2505
G01 X110.5495 Y51.2547
G01 X110.8907 Y51.2505
G01 X110.8907 Y51.1200
G01 X110.5495 Y51.1242
G01 X110.2083 Y51.1200
G01 X110.2083 Y50.9894
G01 X110.5495 Y50.9936
G01 X110.8907 Y50.9894
G01 X110.8907 Y50.8589
G01 X110.5495 Y50.8630
G01 X110.2083 Y50.8589
G01 X110.2083 Y50.7283
G01 X110.5495 Y50.7325
G01 X110.8907 Y50.7283
G01 X110.8907 Y50.5977
G01 X110.5495 Y50.6019
G01 X110.2083 Y50.5977
G01 X110.2083 Y50.4672
G01 X110.5495 Y50.4714
G01 X110.8907 Y50.4672
G01 X110.8907 Y50.3366
G01 X110.5495 Y50.3408
G01 X110.2083 Y50.3366
G01 X110.2083 Y50.2061
G01 X110.5495 Y50.2102
G01 X110.8907 Y50.2061
G01 X110.8907 Y50.0755
G01 X110.5495 Y50.0797
G01 X110.2083 Y50.0755
G01 X110.2083 Y49.9449
G01 X110.5495 Y49.9491
G01 X110.8907 Y49.9449
G01 X110.8907 Y49.8144
G01 X110.5495 Y49.8186
G01 X110.2083 Y49.8144
G01 X110.2083 Y49.6838
G01 X110.5495 Y49.6880
G01 X110.8907 Y49.6838
G01 X110.8907 Y49.5533
G01 X110.5495 Y49.5574
G01 X110.2083 Y49.5533
G01 X110.2083 Y49.4227
G01 X110.5495 Y49.4269
G01 X110.8907 Y49.4227
G01 X110.8907 Y49.2921
G01 X110.5495 Y49.2963
G01 X110.2083 Y49.2921
G01 X110.2083 Y49.1616
G01 X110.5495 Y49.1658
G01 X110.8907 Y49.1616
G01 X110.8907 Y49.0310
G01 X110.5495 Y49.0352
G01 X110.2083 Y49.0310
G01 X110.2083 Y48.9005
G01 X110.5495 Y48.9046
G01 X110.8907 Y48.9005
G01 X110.8907 Y48.7698
G01 X110.5495 Y48.7741
G01 X110.2083 Y48.7698
G01 X110.2083 Y48.6392
G01 X110.5495 Y48.6435
G01 X110.8907 Y48.6392
G01 X110.8907 Y48.5085
G01 X110.5495 Y48.5130
G01 X110.2083 Y48.5085
G01 X110.2083 Y48.3779
G01 X110.2211 Y48.3784
G01 X110.5495 Y48.3824
G01 X110.8779 Y48.3784
G01 X110.8907 Y48.3779
G01 X110.8907 Y48.2473
G01 X110.8747 Y48.2478
G01 X110.5495 Y48.2518
G01 X110.2243 Y48.2478
G01 X110.2083 Y48.2473
G01 X110.2083 Y48.1166
G01 X110.2275 Y48.1173
G01 X110.5495 Y48.1213
G01 X110.8715 Y48.1173
G01 X110.8907 Y48.1166
G01 X110.8907 Y47.9860
G01 X110.8683 Y47.9868
G01 X110.5495 Y47.9907
G01 X110.2307 Y47.9868
G01 X110.2083 Y47.9860
G01 X110.2083 Y47.8553
G01 X110.2339 Y47.8563
G01 X110.5495 Y47.8602
G01 X110.8651 Y47.8563
G01 X110.8907 Y47.8553
G01 X110.8907 Y47.7247
G01 X110.8619 Y47.7258
G01 X110.5495 Y47.7296
G01 X110.2371 Y47.7258
G01 X110.2083 Y47.7247
G01 X110.2083 Y47.5941
G01 X110.2403 Y47.5952
G01 X110.5495 Y47.5990
G01 X110.8587 Y47.5952
G01 X110.8907 Y47.5941
G01 X110.8907 Y47.4634
G01 X110.8555 Y47.4647
G01 X110.5495 Y47.4685
G01 X110.2435 Y47.4647
G01 X110.2083 Y47.4634
G01 X110.2083 Y47.3328
G01 X110.2467 Y47.3342
G01 X110.5495 Y47.3379
G01 X110.8523 Y47.3342
G01 X110.8907 Y47.3328
G01 X110.8907 Y47.2022
G01 X110.8491 Y47.2037
G01 X110.5495 Y47.2074
G01 X110.2499 Y47.2037
G01 X110.2083 Y47.2022
G01 X110.2083 Y47.0715
G01 X110.2531 Y47.0732
G01 X110.5495 Y47.0768
G01 X110.8459 Y47.0732
G01 X110.8907 Y47.0715
G01 X110.8907 Y46.9409
G01 X110.8427 Y46.9426
G01 X110.5495 Y46.9462
G01 X110.2563 Y46.9426
G01 X110.2083 Y46.9409
G01 X110.2083 Y46.8102
G01 X110.2595 Y46.8121
G01 X110.5495 Y46.8157
G01 X110.8395 Y46.8121
G01 X110.8907 Y46.8102
G01 X110.8907 Y46.6796
G01 X110.8363 Y46.6816
G01 X110.5495 Y46.6851
G01 X110.2627 Y46.6816
G01 X110.2083 Y46.6796
G01 X110.2083 Y46.5490
G01 X110.2659 Y46.5511
G01 X110.5495 Y46.5546
G01 X110.8331 Y46.5511
G01 X110.8907 Y46.5490
G01 X110.8907 Y46.4183
G01 X110.8299 Y46.4206
G01 X110.5495 Y46.4240
G01 X110.2691 Y46.4206
G01 X110.2083 Y46.4183
G01 X110.2083 Y46.2877
G01 X110.2723 Y46.2900
G01 X110.5495 Y46.2934
G01 X110.8267 Y46.2900
G01 X110.8907 Y46.2877
G01 X110.8907 Y46.1570
G01 X110.8235 Y46.1595
G01 X110.5495 Y46.1629
G01 X110.2755 Y46.1595
G01 X110.2083 Y46.1570
G01 X110.2083 Y46.0264
G01 X110.2788 Y46.0290
G01 X110.5495 Y46.0323
G01 X110.8202 Y46.0290
G01 X110.8907 Y46.0264
G01 X110.8907 Y45.8958
G01 X110.8170 Y45.8985
G01 X110.5495 Y45.9018
G01 X110.2820 Y45.8985
G01 X110.2083 Y45.8958
G01 X110.2083 Y45.7651
G01 X110.2852 Y45.7680
G01 X110.5495 Y45.7712
G01 X110.8138 Y45.7680
G01 X110.8907 Y45.7651
G01 X110.8907 Y45.6345
G01 X110.8106 Y45.6374
G01 X110.5495 Y45.6406
G01 X110.2884 Y45.6374
G01 X110.2083 Y45.6345
G01 X110.2083 Y45.5038
G01 X110.2916 Y45.5069
G01 X110.5495 Y45.5101
G01 X110.8074 Y45.5069
G01 X110.8907 Y45.5038
G01 X110.8907 Y45.3732
G01 X110.8042 Y45.3764
G01 X110.5495 Y45.3795
G01 X110.2948 Y45.3764
G01 X110.2083 Y45.3732
G01 X110.2083 Y45.2426
G01 X110.2980 Y45.2459
G01 X110.5495 Y45.2490
G01 X110.8010 Y45.2459
G01 X110.8907 Y45.2426
G01 X110.8907 Y45.1119
G01 X110.7978 Y45.1154
G01 X110.5495 Y45.1184
G01 X110.3012 Y45.1154
G01 X110.2083 Y45.1119
G01 X110.2083 Y44.9813
G01 X110.3044 Y44.9848
G01 X110.5495 Y44.9878
G01 X110.7946 Y44.9848
G01 X110.8907 Y44.9813
G01 X110.8907 Y44.8507
G01 X110.7914 Y44.8543
G01 X110.5495 Y44.8573
G01 X110.3076 Y44.8543
G01 X110.2083 Y44.8507
G01 X110.2083 Y44.7200
G01 X110.3108 Y44.7238
G01 X110.5495 Y44.7267
G01 X110.7882 Y44.7238
G01 X110.8907 Y44.7200
G01 X110.8907 Y44.5894
G01 X110.7850 Y44.5933
G01 X110.5495 Y44.5962
G01 X110.3140 Y44.5933
G01 X110.2083 Y44.5894
G01 X110.2083 Y44.4587
G01 X110.3172 Y44.4627
G01 X110.5495 Y44.4656
G01 X110.7818 Y44.4627
G01 X110.8907 Y44.4587
G01 X110.8907 Y44.3281
G01 X110.7786 Y44.3322
G01 X110.5495 Y44.3350
G01 X110.3204 Y44.3322
G01 X110.2083 Y44.3281
G01 X110.2083 Y44.1975
G01 X110.3236 Y44.2017
G01 X110.5495 Y44.2045
G01 X110.7754 Y44.2017
G01 X110.8907 Y44.1975
G01 X110.8907 Y44.0668
G01 X110.7722 Y44.0712
G01 X110.5495 Y44.0739
G01 X110.3268 Y44.0712
G01 X110.2083 Y44.0668
G01 X110.2083 Y43.9362
G01 X110.3300 Y43.9407
G01 X110.5495 Y43.9434
G01 X110.7690 Y43.9407
G01 X110.8907 Y43.9362
G01 X110.8907 Y43.8055
G01 X110.7658 Y43.8101
G01 X110.5495 Y43.8128
G01 X110.3332 Y43.8101
G01 X110.2083 Y43.8055
G01 X110.2083 Y43.6749
G01 X110.3364 Y43.6796
G01 X110.5495 Y43.6822
G01 X110.7626 Y43.6796
G01 X110.8907 Y43.6749
G01 X110.8907 Y43.5443
G01 X110.7594 Y43.5491
G01 X110.5495 Y43.5517
G01 X110.3396 Y43.5491
G01 X110.2083 Y43.5443
G01 X110.2083 Y43.4136
G01 X110.3428 Y43.4186
G01 X110.5495 Y43.4211
G01 X110.7562 Y43.4186
G01 X110.8907 Y43.4136
G01 X110.8907 Y43.2830
G01 X110.7530 Y43.2881
G01 X110.5495 Y43.2906
G01 X110.3460 Y43.2881
G01 X110.2083 Y43.2830
G01 X110.2083 Y43.1524
G01 X110.3492 Y43.1575
G01 X110.5495 Y43.1600
G01 X110.7498 Y43.1575
G01 X110.8907 Y43.1524
G01 X110.8907 Y43.0217
G01 X110.7466 Y43.0270
G01 X110.5495 Y43.0294
G01 X110.3524 Y43.0270
G01 X110.2083 Y43.0217
G01 X110.2083 Y42.8911
G01 X110.3557 Y42.8965
G01 X110.5495 Y42.8989
G01 X110.7433 Y42.8965
G01 X110.8907 Y42.8911
G01 X110.8907 Y42.7604
G01 X110.7401 Y42.7660
G01 X110.5495 Y42.7683
G01 X110.3589 Y42.7660
G01 X110.2083 Y42.7604
G01 X110.2083 Y42.6298
G01 X110.3621 Y42.6355
G01 X110.5495 Y42.6378
G01 X110.7369 Y42.6355
G01 X110.8907 Y42.6298
G01 X110.8907 Y42.4992
G01 X110.7337 Y42.5049
G01 X110.5495 Y42.5072
G01 X110.3653 Y42.5049
G01 X110.2083 Y42.4992
G01 X110.2083 Y42.3685
G01 X110.3685 Y42.3744
G01 X110.5495 Y42.3766
G01 X110.7305 Y42.3744
G01 X110.8907 Y42.3685
G01 X110.8907 Y42.2379
G01 X110.7273 Y42.2439
G01 X110.5495 Y42.2461
G01 X110.3717 Y42.2439
G01 X110.2083 Y42.2379
G01 X110.2083 Y42.1072
G01 X110.3749 Y42.1134
G01 X110.5495 Y42.1155
G01 X110.7241 Y42.1134
G01 X110.8907 Y42.1072
G01 X110.8907 Y41.9766
G01 X110.7209 Y41.9829
G01 X110.5495 Y41.9850
G01 X110.3781 Y41.9829
G01 X110.2083 Y41.9766
G01 X110.2083 Y41.8458
G01 X110.3813 Y41.8523
G01 X110.5495 Y41.8544
G01 X110.7177 Y41.8523
G01 X110.8907 Y41.8458
G01 X110.8907 Y41.7150
G01 X110.8794 Y41.7157
G01 X110.7145 Y41.7218
G01 X110.5495 Y41.7238
G01 X110.3845 Y41.7218
G01 X110.2196 Y41.7157
G01 X110.2083 Y41.7150
G01 X110.2083 Y41.5843
G01 X110.2260 Y41.5853
G01 X110.3877 Y41.5913
G01 X110.5495 Y41.5933
G01 X110.7113 Y41.5913
G01 X110.8730 Y41.5853
G01 X110.8907 Y41.5843
G01 X110.8907 Y41.4535
G01 X110.8666 Y41.4549
G01 X110.7081 Y41.4608
G01 X110.5495 Y41.4627
G01 X110.3909 Y41.4608
G01 X110.2324 Y41.4549
G01 X110.2083 Y41.4535
G01 X110.2083 Y41.3227
G01 X110.2388 Y41.3245
G01 X110.3941 Y41.3303
G01 X110.5495 Y41.3322
G01 X110.7049 Y41.3303
G01 X110.8602 Y41.3245
G01 X110.8907 Y41.3227
G01 X110.8907 Y41.1919
G01 X110.8538 Y41.1941
G01 X110.7017 Y41.1997
G01 X110.5495 Y41.2016
G01 X110.3973 Y41.1997
G01 X110.2452 Y41.1941
G01 X110.2083 Y41.1919
G01 X110.2083 Y41.0611
G01 X110.2516 Y41.0637
G01 X110.4005 Y41.0692
G01 X110.5495 Y41.0710
G01 X110.6985 Y41.0692
G01 X110.8474 Y41.0637
G01 X110.8907 Y41.0611
G01 X110.8907 Y40.9303
G01 X110.8410 Y40.9333
G01 X110.6953 Y40.9387
G01 X110.5495 Y40.9405
G01 X110.4037 Y40.9387
G01 X110.2580 Y40.9333
G01 X110.2083 Y40.9303
G01 X110.2083 Y40.7995
G01 X110.2644 Y40.8029
G01 X110.4069 Y40.8082
G01 X110.5495 Y40.8099
G01 X110.6921 Y40.8082
G01 X110.8346 Y40.8029
G01 X110.8907 Y40.7995
G01 X110.8907 Y40.6687
G01 X110.8282 Y40.6725
G01 X110.6889 Y40.6776
G01 X110.5495 Y40.6794
G01 X110.4101 Y40.6776
G01 X110.2708 Y40.6725
G01 X110.2083 Y40.6687
G01 X110.2083 Y40.5379
G01 X110.2772 Y40.5421
G01 X110.4133 Y40.5471
G01 X110.5495 Y40.5488
G01 X110.6857 Y40.5471
G01 X110.8218 Y40.5421
G01 X110.8907 Y40.5379
G01 X110.8907 Y40.4071
G01 X110.8154 Y40.4117
G01 X110.6825 Y40.4166
G01 X110.5495 Y40.4182
G01 X110.4165 Y40.4166
G01 X110.2836 Y40.4117
G01 X110.2083 Y40.4071
G01 X110.2083 Y40.2763
G01 X110.2900 Y40.2813
G01 X110.4197 Y40.2861
G01 X110.5495 Y40.2877
G01 X110.6793 Y40.2861
G01 X110.8090 Y40.2813
G01 X110.8907 Y40.2763
G01 X110.8907 Y40.1455
G01 X110.8025 Y40.1509
G01 X110.6761 Y40.1556
G01 X110.5495 Y40.1571
G01 X110.4229 Y40.1556
G01 X110.2965 Y40.1509
G01 X110.2083 Y40.1455
G01 X110.2083 Y40.0147
G01 X110.3029 Y40.0205
G01 X110.4261 Y40.0250
G01 X110.5495 Y40.0266
G01 X110.6729 Y40.0250
G01 X110.7961 Y40.0205
G01 X110.8907 Y40.0147
G01 X110.8907 Y39.8839
G01 X110.7897 Y39.8901
G01 X110.6697 Y39.8945
G01 X110.5495 Y39.8960
G01 X110.4293 Y39.8945
G01 X110.3093 Y39.8901
G01 X110.2083 Y39.8839
G01 X110.2083 Y39.7531
G01 X110.3157 Y39.7597
G01 X110.4326 Y39.7640
G01 X110.5495 Y39.7654
G01 X110.6664 Y39.7640
G01 X110.7833 Y39.7597
G01 X110.8907 Y39.7531
G01 X110.8907 Y39.6223
G01 X110.7769 Y39.6293
G01 X110.6632 Y39.6335
G01 X110.5495 Y39.6349
G01 X110.4358 Y39.6335
G01 X110.3221 Y39.6293
G01 X110.2083 Y39.6223
G01 X110.2083 Y39.4913
G01 X110.3285 Y39.4989
G01 X110.4390 Y39.5030
G01 X110.5495 Y39.5043
G01 X110.6600 Y39.5030
G01 X110.7705 Y39.4989
G01 X110.8907 Y39.4913
G01 X110.8907 Y39.3602
G01 X110.8713 Y39.3619
G01 X110.7641 Y39.3685
G01 X110.6568 Y39.3724
G01 X110.5495 Y39.3738
G01 X110.4422 Y39.3724
G01 X110.3349 Y39.3685
G01 X110.2277 Y39.3619
G01 X110.2083 Y39.3602
G01 X110.2083 Y39.2292
G01 X110.2374 Y39.2317
G01 X110.3413 Y39.2381
G01 X110.4454 Y39.2419
G01 X110.5495 Y39.2432
G01 X110.6536 Y39.2419
G01 X110.7577 Y39.2381
G01 X110.8616 Y39.2317
G01 X110.8907 Y39.2292
G01 X110.8907 Y39.0982
G01 X110.8520 Y39.1015
G01 X110.7513 Y39.1077
G01 X110.6504 Y39.1114
G01 X110.5495 Y39.1126
G01 X110.4486 Y39.1114
G01 X110.3477 Y39.1077
G01 X110.2470 Y39.1015
G01 X110.2083 Y39.0982
G01 X110.2083 Y38.9671
G01 X110.2566 Y38.9713
G01 X110.3541 Y38.9773
G01 X110.4518 Y38.9809
G01 X110.5495 Y38.9821
G01 X110.6472 Y38.9809
G01 X110.7449 Y38.9773
G01 X110.8424 Y38.9713
G01 X110.8907 Y38.9671
G01 X110.8907 Y38.8361
G01 X110.8328 Y38.8411
G01 X110.7385 Y38.8469
G01 X110.6440 Y38.8504
G01 X110.5495 Y38.8515
G01 X110.4550 Y38.8504
G01 X110.3605 Y38.8469
G01 X110.2662 Y38.8411
G01 X110.2083 Y38.8361
G01 X110.2083 Y38.7051
G01 X110.2758 Y38.7109
G01 X110.3669 Y38.7165
G01 X110.4582 Y38.7198
G01 X110.5495 Y38.7210
G01 X110.6408 Y38.7198
G01 X110.7321 Y38.7165
G01 X110.8232 Y38.7109
G01 X110.8907 Y38.7051
G01 X110.8907 Y38.5740
G01 X110.8136 Y38.5807
G01 X110.7257 Y38.5861
G01 X110.6376 Y38.5893
G01 X110.5495 Y38.5904
G01 X110.4614 Y38.5893
G01 X110.3733 Y38.5861
G01 X110.2854 Y38.5807
G01 X110.2083 Y38.5740
G01 X110.2083 Y38.4429
G01 X110.2950 Y38.4505
G01 X110.3797 Y38.4557
G01 X110.4646 Y38.4588
G01 X110.5495 Y38.4598
G01 X110.6344 Y38.4588
G01 X110.7193 Y38.4557
G01 X110.8040 Y38.4505
G01 X110.8907 Y38.4429
G01 X110.8907 Y38.3116
G01 X110.8758 Y38.3132
G01 X110.7944 Y38.3203
G01 X110.7129 Y38.3253
G01 X110.6312 Y38.3283
G01 X110.5495 Y38.3293
G01 X110.4678 Y38.3283
G01 X110.3861 Y38.3253
G01 X110.3046 Y38.3203
G01 X110.2232 Y38.3132
G01 X110.2083 Y38.3116
G01 X110.2083 Y38.1802
G01 X110.2360 Y38.1833
G01 X110.3142 Y38.1901
G01 X110.3925 Y38.1949
G01 X110.4710 Y38.1978
G01 X110.5495 Y38.1987
G01 X110.6280 Y38.1978
G01 X110.7065 Y38.1949
G01 X110.7848 Y38.1901
G01 X110.8630 Y38.1833
G01 X110.8907 Y38.1802
G01 X110.8907 Y38.0489
G01 X110.8502 Y38.0534
G01 X110.7752 Y38.0598
G01 X110.7000 Y38.0645
G01 X110.6248 Y38.0672
G01 X110.5495 Y38.0682
G01 X110.4742 Y38.0672
G01 X110.3990 Y38.0645
G01 X110.3238 Y38.0598
G01 X110.2488 Y38.0534
G01 X110.2083 Y38.0489
G01 X110.2083 Y37.9175
G01 X110.2616 Y37.9235
G01 X110.3334 Y37.9296
G01 X110.4054 Y37.9341
G01 X110.4774 Y37.9367
G01 X110.5495 Y37.9376
G01 X110.6216 Y37.9367
G01 X110.6936 Y37.9341
G01 X110.7656 Y37.9296
G01 X110.8374 Y37.9235
G01 X110.8907 Y37.9175
G01 X110.8907 Y37.7862
G01 X110.8246 Y37.7935
G01 X110.7560 Y37.7994
G01 X110.6872 Y37.8037
G01 X110.6184 Y37.8062
G01 X110.5495 Y37.8070
G01 X110.4806 Y37.8062
G01 X110.4118 Y37.8037
G01 X110.3430 Y37.7994
G01 X110.2744 Y37.7935
G01 X110.2083 Y37.7862
G01 X110.2083 Y37.6545
G01 X110.2219 Y37.6564
G01 X110.2872 Y37.6636
G01 X110.3526 Y37.6692
G01 X110.4182 Y37.6733
G01 X110.4838 Y37.6757
G01 X110.5495 Y37.6765
G01 X110.6152 Y37.6757
G01 X110.6808 Y37.6733
G01 X110.7464 Y37.6692
G01 X110.8118 Y37.6636
G01 X110.8771 Y37.6564
G01 X110.8907 Y37.6545
G01 X110.8907 Y37.5228
G01 X110.8611 Y37.5268
G01 X110.7990 Y37.5337
G01 X110.7368 Y37.5390
G01 X110.6744 Y37.5429
G01 X110.6120 Y37.5452
G01 X110.5495 Y37.5459
G01 X110.4870 Y37.5452
G01 X110.4246 Y37.5429
G01 X110.3622 Y37.5390
G01 X110.3000 Y37.5337
G01 X110.2379 Y37.5268
G01 X110.2083 Y37.5228
G01 X110.2083 Y37.3910
G01 X110.2538 Y37.3972
G01 X110.3128 Y37.4037
G01 X110.3718 Y37.4088
G01 X110.4310 Y37.4125
G01 X110.4902 Y37.4146
G01 X110.5495 Y37.4154
G01 X110.6088 Y37.4146
G01 X110.6680 Y37.4125
G01 X110.7272 Y37.4088
G01 X110.7862 Y37.4037
G01 X110.8452 Y37.3972
G01 X110.8907 Y37.3910
G01 X110.8907 Y37.2591
G01 X110.8292 Y37.2676
G01 X110.7734 Y37.2738
G01 X110.7176 Y37.2786
G01 X110.6616 Y37.2820
G01 X110.6056 Y37.2841
G01 X110.5495 Y37.2848
G01 X110.4934 Y37.2841
G01 X110.4374 Y37.2820
G01 X110.3814 Y37.2786
G01 X110.3256 Y37.2738
G01 X110.2698 Y37.2676
G01 X110.2083 Y37.2591
G01 X110.2083 Y37.1269
G01 X110.2334 Y37.1309
G01 X110.2858 Y37.1380
G01 X110.3383 Y37.1439
G01 X110.3910 Y37.1484
G01 X110.4438 Y37.1516
G01 X110.4966 Y37.1536
G01 X110.5495 Y37.1542
G01 X110.6024 Y37.1536
G01 X110.6552 Y37.1516
G01 X110.7080 Y37.1484
G01 X110.7607 Y37.1439
G01 X110.8132 Y37.1380
G01 X110.8656 Y37.1309
G01 X110.8907 Y37.1269
G01 X110.8907 Y36.9947
G01 X110.8464 Y37.0018
G01 X110.7972 Y37.0085
G01 X110.7479 Y37.0139
G01 X110.6984 Y37.0182
G01 X110.6488 Y37.0212
G01 X110.5992 Y37.0231
G01 X110.5495 Y37.0237
G01 X110.4998 Y37.0231
G01 X110.4502 Y37.0212
G01 X110.4006 Y37.0182
G01 X110.3511 Y37.0139
G01 X110.3018 Y37.0085
G01 X110.2526 Y37.0018
G01 X110.2083 Y36.9947
G01 X110.2083 Y36.8620
G01 X110.2258 Y36.8652
G01 X110.2717 Y36.8726
G01 X110.3178 Y36.8789
G01 X110.3639 Y36.8840
G01 X110.4102 Y36.8880
G01 X110.4566 Y36.8908
G01 X110.5030 Y36.8925
G01 X110.5495 Y36.8931
G01 X110.5960 Y36.8925
G01 X110.6424 Y36.8908
G01 X110.6888 Y36.8880
G01 X110.7351 Y36.8840
G01 X110.7812 Y36.8789
G01 X110.8273 Y36.8726
G01 X110.8732 Y36.8652
G01 X110.8907 Y36.8620
G01 X110.8907 Y36.7292
G01 X110.8508 Y36.7366
G01 X110.8081 Y36.7435
G01 X110.7653 Y36.7493
G01 X110.7223 Y36.7541
G01 X110.6792 Y36.7578
G01 X110.6360 Y36.7604
G01 X110.5928 Y36.7620
G01 X110.5495 Y36.7626
G01 X110.5062 Y36.7620
G01 X110.4630 Y36.7604
G01 X110.4198 Y36.7578
G01 X110.3767 Y36.7541
G01 X110.3337 Y36.7493
G01 X110.2909 Y36.7435
G01 X110.2482 Y36.7366
G01 X110.2083 Y36.7292
G01 X110.2083 Y36.5958
G01 X110.2311 Y36.6006
G01 X110.2705 Y36.6080
G01 X110.3100 Y36.6143
G01 X110.3497 Y36.6197
G01 X110.3895 Y36.6241
G01 X110.4294 Y36.6276
G01 X110.4694 Y36.6300
G01 X110.5094 Y36.6315
G01 X110.5495 Y36.6320
G01 X110.5896 Y36.6315
G01 X110.6296 Y36.6300
G01 X110.6696 Y36.6276
G01 X110.7095 Y36.6241
G01 X110.7493 Y36.6197
G01 X110.7890 Y36.6143
G01 X110.8285 Y36.6080
G01 X110.8679 Y36.6006
G01 X110.8907 Y36.5958
G01 X110.8907 Y36.4621
G01 X110.8424 Y36.4726
G01 X110.8062 Y36.4793
G01 X110.7698 Y36.4852
G01 X110.7333 Y36.4901
G01 X110.6967 Y36.4942
G01 X110.6600 Y36.4974
G01 X110.6232 Y36.4996
G01 X110.5863 Y36.5010
G01 X110.5495 Y36.5014
G01 X110.5127 Y36.5010
G01 X110.4758 Y36.4996
G01 X110.4390 Y36.4974
G01 X110.4023 Y36.4942
G01 X110.3657 Y36.4901
G01 X110.3292 Y36.4852
G01 X110.2928 Y36.4793
G01 X110.2566 Y36.4726
G01 X110.2083 Y36.4621
G01 X110.2083 Y36.3277
G01 X110.2491 Y36.3376
G01 X110.2821 Y36.3445
G01 X110.3151 Y36.3507
G01 X110.3484 Y36.3560
G01 X110.3817 Y36.3606
G01 X110.4151 Y36.3643
G01 X110.4487 Y36.3672
G01 X110.4822 Y36.3692
G01 X110.5159 Y36.3705
G01 X110.5495 Y36.3709
G01 X110.5831 Y36.3705
G01 X110.6168 Y36.3692
G01 X110.6503 Y36.3672
G01 X110.6839 Y36.3643
G01 X110.7173 Y36.3606
G01 X110.7506 Y36.3560
G01 X110.7839 Y36.3507
G01 X110.8169 Y36.3445
G01 X110.8499 Y36.3376
G01 X110.8907 Y36.3277
G01 X110.8907 Y36.1924
G01 X110.8509 Y36.2031
G01 X110.8213 Y36.2102
G01 X110.7915 Y36.2165
G01 X110.7615 Y36.2221
G01 X110.7315 Y36.2269
G01 X110.7013 Y36.2310
G01 X110.6711 Y36.2343
G01 X110.6407 Y36.2370
G01 X110.6104 Y36.2388
G01 X110.5799 Y36.2399
G01 X110.5495 Y36.2403
G01 X110.5191 Y36.2399
G01 X110.4886 Y36.2388
G01 X110.4583 Y36.2370
G01 X110.4279 Y36.2343
G01 X110.3977 Y36.2310
G01 X110.3675 Y36.2269
G01 X110.3375 Y36.2221
G01 X110.3075 Y36.2165
G01 X110.2777 Y36.2102
G01 X110.2481 Y36.2031
G01 X110.2083 Y36.1924
G01 X110.2083 Y36.0559
G01 X110.2274 Y36.0620
G01 X110.2535 Y36.0696
G01 X110.2799 Y36.0765
G01 X110.3064 Y36.0828
G01 X110.3330 Y36.0884
G01 X110.3598 Y36.0934
G01 X110.3867 Y36.0977
G01 X110.4137 Y36.1014
G01 X110.4407 Y36.1044
G01 X110.4679 Y36.1068
G01 X110.4950 Y36.1084
G01 X110.5223 Y36.1094
G01 X110.5495 Y36.1098
G01 X110.5767 Y36.1094
G01 X110.6040 Y36.1084
G01 X110.6311 Y36.1068
G01 X110.6583 Y36.1044
G01 X110.6853 Y36.1014
G01 X110.7123 Y36.0977
G01 X110.7392 Y36.0934
G01 X110.7660 Y36.0884
G01 X110.7926 Y36.0828
G01 X110.8191 Y36.0765
G01 X110.8455 Y36.0696
G01 X110.8716 Y36.0620
G01 X110.8907 Y36.0559
G01 X110.8907 Y35.9178
G01 X110.8567 Y35.9298
G01 X110.8337 Y35.9370
G01 X110.8107 Y35.9437
G01 X110.7874 Y35.9499
G01 X110.7640 Y35.9554
G01 X110.7405 Y35.9604
G01 X110.7169 Y35.9648
G01 X110.6932 Y35.9686
G01 X110.6694 Y35.9718
G01 X110.6455 Y35.9745
G01 X110.6215 Y35.9765
G01 X110.5975 Y35.9780
G01 X110.5735 Y35.9789
G01 X110.5495 Y35.9792
G01 X110.5255 Y35.9789
G01 X110.5015 Y35.9780
G01 X110.4775 Y35.9765
G01 X110.4535 Y35.9745
G01 X110.4296 Y35.9718
G01 X110.4058 Y35.9686
G01 X110.3821 Y35.9648
G01 X110.3585 Y35.9604
G01 X110.3350 Y35.9554
G01 X110.3116 Y35.9499
G01 X110.2883 Y35.9437
G01 X110.2653 Y35.9370
G01 X110.2423 Y35.9298
G01 X110.2083 Y35.9178
G01 X110.2083 Y35.7770
G01 X110.2441 Y35.7918
G01 X110.2636 Y35.7990
G01 X110.2833 Y35.8058
G01 X110.3032 Y35.8121
G01 X110.3232 Y35.8179
G01 X110.3433 Y35.8232
G01 X110.3636 Y35.8280
G01 X110.3839 Y35.8323
G01 X110.4044 Y35.8361
G01 X110.4250 Y35.8395
G01 X110.4456 Y35.8423
G01 X110.4663 Y35.8446
G01 X110.4871 Y35.8463
G01 X110.5079 Y35.8476
G01 X110.5287 Y35.8484
G01 X110.5495 Y35.8486
G01 X110.5703 Y35.8484
G01 X110.5911 Y35.8476
G01 X110.6119 Y35.8463
G01 X110.6327 Y35.8446
G01 X110.6534 Y35.8423
G01 X110.6740 Y35.8395
G01 X110.6946 Y35.8361
G01 X110.7151 Y35.8323
G01 X110.7354 Y35.8280
G01 X110.7557 Y35.8232
G01 X110.7758 Y35.8179
G01 X110.7958 Y35.8121
G01 X110.8157 Y35.8058
G01 X110.8354 Y35.7990
G01 X110.8549 Y35.7918
G01 X110.8907 Y35.7770
G01 X110.8907 Y35.6318
G01 X110.8724 Y35.6414
G01 X110.8565 Y35.6491
G01 X110.8405 Y35.6565
G01 X110.8079 Y35.6700
G01 X110.7747 Y35.6818
G01 X110.7410 Y35.6921
G01 X110.7240 Y35.6966
G01 X110.7068 Y35.7006
G01 X110.6723 Y35.7075
G01 X110.6374 Y35.7127
G01 X110.6023 Y35.7161
G01 X110.5847 Y35.7172
G01 X110.5495 Y35.7181
G01 X110.5319 Y35.7179
G01 X110.4967 Y35.7161
G01 X110.4616 Y35.7127
G01 X110.4441 Y35.7103
G01 X110.4094 Y35.7043
G01 X110.3750 Y35.6966
G01 X110.3580 Y35.6921
G01 X110.3243 Y35.6818
G01 X110.2911 Y35.6700
G01 X110.2585 Y35.6565
G01 X110.2425 Y35.6491
G01 X110.2266 Y35.6414
G01 X110.2083 Y35.6318
G01 X110.2083 Y35.4783
G01 X110.2231 Y35.4885
G01 X110.2475 Y35.5039
G01 X110.2599 Y35.5112
G01 X110.2853 Y35.5248
G01 X110.3114 Y35.5371
G01 X110.3247 Y35.5428
G01 X110.3516 Y35.5532
G01 X110.3652 Y35.5579
G01 X110.3928 Y35.5662
G01 X110.4208 Y35.5732
G01 X110.4349 Y35.5762
G01 X110.4633 Y35.5812
G01 X110.4776 Y35.5831
G01 X110.5063 Y35.5859
G01 X110.5351 Y35.5873
G01 X110.5495 Y35.5875
G01 X110.5639 Y35.5873
G01 X110.5927 Y35.5859
G01 X110.6214 Y35.5831
G01 X110.6357 Y35.5812
G01 X110.6641 Y35.5762
G01 X110.6782 Y35.5732
G01 X110.7062 Y35.5662
G01 X110.7338 Y35.5579
G01 X110.7474 Y35.5532
G01 X110.7743 Y35.5428
G01 X110.8007 Y35.5311
G01 X110.8137 Y35.5248
G01 X110.8391 Y35.5112
G01 X110.8515 Y35.5039
G01 X110.8759 Y35.4885
G01 X110.8907 Y35.4783
G01 X110.8907 Y35.3039
G01 X110.8726 Y35.3231
G01 X110.8564 Y35.3386
G01 X110.8394 Y35.3532
G01 X110.8217 Y35.3670
G01 X110.8034 Y35.3799
G01 X110.7844 Y35.3919
G01 X110.7649 Y35.4030
G01 X110.7449 Y35.4131
G01 X110.7347 Y35.4178
G01 X110.7244 Y35.4222
G01 X110.7034 Y35.4302
G01 X110.6821 Y35.4373
G01 X110.6605 Y35.4433
G01 X110.6386 Y35.4482
G01 X110.6165 Y35.4520
G01 X110.5943 Y35.4548
G01 X110.5719 Y35.4564
G01 X110.5495 Y35.4570
G01 X110.5271 Y35.4564
G01 X110.5047 Y35.4548
G01 X110.4936 Y35.4535
G01 X110.4714 Y35.4502
G01 X110.4494 Y35.4459
G01 X110.4276 Y35.4404
G01 X110.4062 Y35.4339
G01 X110.3850 Y35.4263
G01 X110.3643 Y35.4178
G01 X110.3541 Y35.4131
G01 X110.3341 Y35.4030
G01 X110.3146 Y35.3919
G01 X110.2956 Y35.3799
G01 X110.2773 Y35.3670
G01 X110.2596 Y35.3532
G01 X110.2426 Y35.3386
G01 X110.2264 Y35.3231
G01 X110.2083 Y35.3039
G01 X110.6148 Y35.0000
G01 X110.6141 Y34.9904
G01 X110.6124 Y34.9826
G01 X110.6098 Y34.9750
G01 X110.6063 Y34.9678
G01 X110.6010 Y34.9598
G01 X110.5957 Y34.9538
G01 X110.5884 Y34.9476
G01 X110.5817 Y34.9432
G01 X110.5730 Y34.9391
G01 X110.5654 Y34.9367
G01 X110.5575 Y34.9352
G01 X110.5495 Y34.9347
G01 X110.5415 Y34.9352
G01 X110.5336 Y34.9367
G01 X110.5260 Y34.9391
G01 X110.5173 Y34.9432
G01 X110.5093 Y34.9485
G01 X110.5022 Y34.9550
G01 X110.4961 Y34.9624
G01 X110.4912 Y34.9706
G01 X110.4875 Y34.9795
G01 X110.4852 Y34.9888
G01 X110.4842 Y35.0000
G01 X110.4849 Y35.0096
G01 X110.4870 Y35.0189
G01 X110.4905 Y35.0279
G01 X110.4952 Y35.0363
G01 X110.5011 Y35.0438
G01 X110.5081 Y35.0505
G01 X110.5159 Y35.0560
G01 X110.5245 Y35.0603
G01 X110.5290 Y35.0620
G01 X110.5306 Y35.0625
G01 X110.5321 Y35.0629
G01 X110.5336 Y35.0633
G01 X110.5415 Y35.0648
G01 X110.5495 Y35.0653
G01 X110.5559 Y35.0650
G01 X110.5638 Y35.0637
G01 X110.5715 Y35.0615
G01 X110.5774 Y35.0590
G01 X110.5844 Y35.0552
G01 X110.5897 Y35.0515
G01 X110.5957 Y35.0462
G01 X110.6000 Y35.0414
G01 X110.6047 Y35.0349
G01 X110.6078 Y35.0294
G01 X110.6104 Y35.0235
G01 X110.6128 Y35.0159
G01 X110.6143 Y35.0080
G01 X110.6148 Y35.0000
G01 X110.7453 Y35.0000
G01 X110.7448 Y34.9856
G01 X110.7439 Y34.9760
G01 X110.7416 Y34.9618
G01 X110.7395 Y34.9524
G01 X110.7355 Y34.9386
G01 X110.7322 Y34.9295
G01 X110.7285 Y34.9206
G01 X110.7222 Y34.9077
G01 X110.7175 Y34.8993
G01 X110.7096 Y34.8872
G01 X110.7009 Y34.8758
G01 X110.6946 Y34.8685
G01 X110.6845 Y34.8582
G01 X110.6774 Y34.8517
G01 X110.6700 Y34.8456
G01 X110.6583 Y34.8372
G01 X110.6502 Y34.8320
G01 X110.6376 Y34.8251
G01 X110.6244 Y34.8191
G01 X110.6155 Y34.8156
G01 X110.6063 Y34.8126
G01 X110.5924 Y34.8089
G01 X110.5782 Y34.8063
G01 X110.5687 Y34.8051
G01 X110.5591 Y34.8044
G01 X110.5447 Y34.8042
G01 X110.5303 Y34.8051
G01 X110.5208 Y34.8063
G01 X110.5066 Y34.8089
G01 X110.4927 Y34.8126
G01 X110.4790 Y34.8173
G01 X110.4701 Y34.8210
G01 X110.4572 Y34.8273
G01 X110.4447 Y34.8345
G01 X110.4328 Y34.8427
G01 X110.4216 Y34.8517
G01 X110.4110 Y34.8615
G01 X110.4012 Y34.8721
G01 X110.3922 Y34.8833
G01 X110.3867 Y34.8912
G01 X110.3791 Y34.9035
G01 X110.3725 Y34.9163
G01 X110.3668 Y34.9295
G01 X110.3621 Y34.9432
G01 X110.3584 Y34.9571
G01 X110.3558 Y34.9713
G01 X110.3542 Y34.9856
G01 X110.3537 Y35.0000
G01 X110.3542 Y35.0144
G01 X110.3558 Y35.0287
G01 X110.3584 Y35.0429
G01 X110.3621 Y35.0568
G01 X110.3668 Y35.0705
G01 X110.3725 Y35.0837
G01 X110.3791 Y35.0965
G01 X110.3867 Y35.1088
G01 X110.3951 Y35.1205
G01 X110.4044 Y35.1315
G01 X110.4110 Y35.1385
G01 X110.4180 Y35.1451
G01 X110.4216 Y35.1483
G01 X110.4328 Y35.1573
G01 X110.4447 Y35.1655
G01 X110.4572 Y35.1727
G01 X110.4701 Y35.1790
G01 X110.4881 Y35.1860
G01 X110.5066 Y35.1911
G01 X110.5255 Y35.1944
G01 X110.5399 Y35.1956
G01 X110.5495 Y35.1958
G01 X110.5591 Y35.1956
G01 X110.5735 Y35.1944
G01 X110.5924 Y35.1911
G01 X110.6109 Y35.1860
G01 X110.6289 Y35.1790
G01 X110.6376 Y35.1749
G01 X110.6502 Y35.1680
G01 X110.6623 Y35.1601
G01 X110.6737 Y35.1514
G01 X110.6845 Y35.1418
G01 X110.6946 Y35.1315
G01 X110.7039 Y35.1205
G01 X110.7123 Y35.1088
G01 X110.7199 Y35.0965
G01 X110.7265 Y35.0837
G01 X110.7322 Y35.0705
G01 X110.7369 Y35.0568
G01 X110.7406 Y35.0429
G01 X110.7432 Y35.0287
G01 X110.7448 Y35.0144
G01 X110.7453 Y35.0000
G01 X110.8759 Y35.0000
G01 X110.8755 Y34.9840
G01 X110.8743 Y34.9680
G01 X110.8724 Y34.9521
G01 X110.8696 Y34.9363
G01 X110.8661 Y34.9207
G01 X110.8594 Y34.8976
G01 X110.8540 Y34.8825
G01 X110.8479 Y34.8677
G01 X110.8410 Y34.8532
G01 X110.8335 Y34.8391
G01 X110.8253 Y34.8254
G01 X110.8164 Y34.8121
G01 X110.8068 Y34.7992
G01 X110.7913 Y34.7808
G01 X110.7803 Y34.7692
G01 X110.7687 Y34.7582
G01 X110.7566 Y34.7477
G01 X110.7439 Y34.7378
G01 X110.7308 Y34.7286
G01 X110.7173 Y34.7200
G01 X110.6963 Y34.7085
G01 X110.6818 Y34.7016
G01 X110.6670 Y34.6955
G01 X110.6519 Y34.6901
G01 X110.6366 Y34.6854
G01 X110.6210 Y34.6815
G01 X110.6053 Y34.6784
G01 X110.5895 Y34.6761
G01 X110.5655 Y34.6740
G01 X110.5495 Y34.6736
G01 X110.5335 Y34.6740
G01 X110.5175 Y34.6752
G01 X110.5016 Y34.6771
G01 X110.4780 Y34.6815
G01 X110.4548 Y34.6877
G01 X110.4395 Y34.6927
G01 X110.4172 Y34.7016
G01 X110.4027 Y34.7085
G01 X110.3886 Y34.7160
G01 X110.3682 Y34.7286
G01 X110.3551 Y34.7378
G01 X110.3424 Y34.7477
G01 X110.3244 Y34.7636
G01 X110.3131 Y34.7749
G01 X110.3023 Y34.7868
G01 X110.2873 Y34.8056
G01 X110.2781 Y34.8187
G01 X110.2655 Y34.8391
G01 X110.2544 Y34.8604
G01 X110.2479 Y34.8751
G01 X110.2422 Y34.8900
G01 X110.2372 Y34.9053
G01 X110.2329 Y34.9207
G01 X110.2279 Y34.9442
G01 X110.2256 Y34.9600
G01 X110.2235 Y34.9840
G01 X110.2231 Y35.0000
G01 X110.2235 Y35.0160
G01 X110.2247 Y35.0320
G01 X110.2279 Y35.0558
G01 X110.2329 Y35.0793
G01 X110.2372 Y35.0947
G01 X110.2450 Y35.1175
G01 X110.2511 Y35.1323
G01 X110.2616 Y35.1539
G01 X110.2695 Y35.1678
G01 X110.2826 Y35.1879
G01 X110.2922 Y35.2008
G01 X110.3077 Y35.2192
G01 X110.3131 Y35.2251
G01 X110.3187 Y35.2308
G01 X110.3303 Y35.2418
G01 X110.3487 Y35.2573
G01 X110.3682 Y35.2714
G01 X110.3817 Y35.2800
G01 X110.4027 Y35.2915
G01 X110.4172 Y35.2984
G01 X110.4395 Y35.3073
G01 X110.4548 Y35.3123
G01 X110.4702 Y35.3166
G01 X110.4858 Y35.3201
G01 X110.5016 Y35.3229
G01 X110.5255 Y35.3255
G01 X110.5495 Y35.3264
G01 X110.5655 Y35.3260
G01 X110.5815 Y35.3248
G01 X110.5974 Y35.3229
G01 X110.6210 Y35.3185
G01 X110.6366 Y35.3146
G01 X110.6595 Y35.3073
G01 X110.6744 Y35.3016
G01 X110.6963 Y35.2915
G01 X110.7104 Y35.2840
G01 X110.7241 Y35.2758
G01 X110.7374 Y35.2669
G01 X110.7503 Y35.2573
G01 X110.7687 Y35.2418
G01 X110.7859 Y35.2251
G01 X110.7967 Y35.2132
G01 X110.8068 Y35.2008
G01 X110.8209 Y35.1813
G01 X110.8335 Y35.1609
G01 X110.8446 Y35.1396
G01 X110.8540 Y35.1175
G01 X110.8618 Y35.0947
G01 X110.8680 Y35.0715
G01 X110.8711 Y35.0558
G01 X110.8734 Y35.0400
G01 X110.8755 Y35.0160
G01 X110.8759 Y35.0000
G01 X110.8907 Y34.6961
G01 X110.8726 Y34.6769
G01 X110.8564 Y34.6614
G01 X110.8394 Y34.6468
G01 X110.8217 Y34.6330
G01 X110.8126 Y34.6264
G01 X110.7940 Y34.6139
G01 X110.7747 Y34.6024
G01 X110.7550 Y34.5918
G01 X110.7347 Y34.5822
G01 X110.7140 Y34.5737
G01 X110.6928 Y34.5661
G01 X110.6821 Y34.5627
G01 X110.6605 Y34.5567
G01 X110.6386 Y34.5518
G01 X110.6165 Y34.5480
G01 X110.5943 Y34.5452
G01 X110.5719 Y34.5436
G01 X110.5495 Y34.5430
G01 X110.5271 Y34.5436
G01 X110.5047 Y34.5452
G01 X110.4824 Y34.5480
G01 X110.4604 Y34.5518
G01 X110.4385 Y34.5567
G01 X110.4169 Y34.5627
G01 X110.4062 Y34.5661
G01 X110.3850 Y34.5737
G01 X110.3643 Y34.5822
G01 X110.3440 Y34.5918
G01 X110.3243 Y34.6024
G01 X110.3146 Y34.6081
G01 X110.2956 Y34.6201
G01 X110.2773 Y34.6330
G01 X110.2596 Y34.6468
G01 X110.2426 Y34.6614
G01 X110.2264 Y34.6769
G01 X110.2083 Y34.6961
G01 X110.2083 Y34.5217
G01 X110.2231 Y34.5115
G01 X110.2475 Y34.4961
G01 X110.2725 Y34.4819
G01 X110.2983 Y34.4689
G01 X110.3247 Y34.4572
G01 X110.3516 Y34.4468
G01 X110.3790 Y34.4378
G01 X110.4067 Y34.4301
G01 X110.4208 Y34.4268
G01 X110.4491 Y34.4211
G01 X110.4776 Y34.4169
G01 X110.5063 Y34.4141
G01 X110.5351 Y34.4127
G01 X110.5639 Y34.4127
G01 X110.5927 Y34.4141
G01 X110.6214 Y34.4169
G01 X110.6499 Y34.4211
G01 X110.6641 Y34.4238
G01 X110.6923 Y34.4301
G01 X110.7200 Y34.4378
G01 X110.7474 Y34.4468
G01 X110.7743 Y34.4572
G01 X110.7876 Y34.4629
G01 X110.8137 Y34.4752
G01 X110.8391 Y34.4888
G01 X110.8638 Y34.5036
G01 X110.8907 Y34.5217
G01 X110.8907 Y34.3682
G01 X110.8724 Y34.3586
G01 X110.8565 Y34.3509
G01 X110.8405 Y34.3435
G01 X110.8079 Y34.3300
G01 X110.7914 Y34.3239
G01 X110.7579 Y34.3128
G01 X110.7240 Y34.3034
G01 X110.7068 Y34.2994
G01 X110.6723 Y34.2925
G01 X110.6374 Y34.2873
G01 X110.6023 Y34.2839
G01 X110.5671 Y34.2821
G01 X110.5319 Y34.2821
G01 X110.4967 Y34.2839
G01 X110.4616 Y34.2873
G01 X110.4441 Y34.2897
G01 X110.4094 Y34.2957
G01 X110.3922 Y34.2994
G01 X110.3580 Y34.3079
G01 X110.3243 Y34.3182
G01 X110.2911 Y34.3300
G01 X110.2585 Y34.3435
G01 X110.2266 Y34.3586
G01 X110.2083 Y34.3682
G01 X110.2083 Y34.2230
G01 X110.2441 Y34.2082
G01 X110.2636 Y34.2010
G01 X110.2833 Y34.1942
G01 X110.3032 Y34.1879
G01 X110.3232 Y34.1821
G01 X110.3433 Y34.1768
G01 X110.3636 Y34.1720
G01 X110.3839 Y34.1677
G01 X110.4044 Y34.1639
G01 X110.4250 Y34.1605
G01 X110.4456 Y34.1577
G01 X110.4663 Y34.1554
G01 X110.4871 Y34.1537
G01 X110.5079 Y34.1524
G01 X110.5287 Y34.1516
G01 X110.5495 Y34.1514
G01 X110.5703 Y34.1516
G01 X110.5911 Y34.1524
G01 X110.6119 Y34.1537
G01 X110.6327 Y34.1554
G01 X110.6534 Y34.1577
G01 X110.6740 Y34.1605
G01 X110.6946 Y34.1639
G01 X110.7151 Y34.1677
G01 X110.7354 Y34.1720
G01 X110.7557 Y34.1768
G01 X110.7758 Y34.1821
G01 X110.7958 Y34.1879
G01 X110.8157 Y34.1942
G01 X110.8354 Y34.2010
G01 X110.8549 Y34.2082
G01 X110.8907 Y34.2230
G01 X110.8907 Y34.0822
G01 X110.8567 Y34.0702
G01 X110.8337 Y34.0630
G01 X110.8107 Y34.0563
G01 X110.7874 Y34.0501
G01 X110.7640 Y34.0446
G01 X110.7405 Y34.0396
G01 X110.7169 Y34.0352
G01 X110.6932 Y34.0314
G01 X110.6694 Y34.0282
G01 X110.6455 Y34.0255
G01 X110.6215 Y34.0235
G01 X110.5975 Y34.0220
G01 X110.5735 Y34.0211
G01 X110.5495 Y34.0208
G01 X110.5255 Y34.0211
G01 X110.5015 Y34.0220
G01 X110.4775 Y34.0235
G01 X110.4535 Y34.0255
G01 X110.4296 Y34.0282
G01 X110.4058 Y34.0314
G01 X110.3821 Y34.0352
G01 X110.3585 Y34.0396
G01 X110.3350 Y34.0446
G01 X110.3116 Y34.0501
G01 X110.2883 Y34.0563
G01 X110.2653 Y34.0630
G01 X110.2423 Y34.0702
G01 X110.2083 Y34.0822
G01 X110.2083 Y33.9441
G01 X110.2274 Y33.9380
G01 X110.2535 Y33.9304
G01 X110.2799 Y33.9235
G01 X110.3064 Y33.9172
G01 X110.3330 Y33.9116
G01 X110.3598 Y33.9066
G01 X110.3867 Y33.9023
G01 X110.4137 Y33.8986
G01 X110.4407 Y33.8956
G01 X110.4679 Y33.8932
G01 X110.4950 Y33.8916
G01 X110.5223 Y33.8906
G01 X110.5495 Y33.8902
G01 X110.5767 Y33.8906
G01 X110.6040 Y33.8916
G01 X110.6311 Y33.8932
G01 X110.6583 Y33.8956
G01 X110.6853 Y33.8986
G01 X110.7123 Y33.9023
G01 X110.7392 Y33.9066
G01 X110.7660 Y33.9116
G01 X110.7926 Y33.9172
G01 X110.8191 Y33.9235
G01 X110.8455 Y33.9304
G01 X110.8716 Y33.9380
G01 X110.8907 Y33.9441
G01 X110.8907 Y33.8076
G01 X110.8509 Y33.7969
G01 X110.8213 Y33.7898
G01 X110.7915 Y33.7835
G01 X110.7615 Y33.7779
G01 X110.7315 Y33.7731
G01 X110.7013 Y33.7690
G01 X110.6711 Y33.7657
G01 X110.6407 Y33.7630
G01 X110.6104 Y33.7612
G01 X110.5799 Y33.7601
G01 X110.5495 Y33.7597
G01 X110.5191 Y33.7601
G01 X110.4886 Y33.7612
G01 X110.4583 Y33.7630
G01 X110.4279 Y33.7657
G01 X110.3977 Y33.7690
G01 X110.3675 Y33.7731
G01 X110.3375 Y33.7779
G01 X110.3075 Y33.7835
G01 X110.2777 Y33.7898
G01 X110.2481 Y33.7969
G01 X110.2083 Y33.8076
G01 X110.2083 Y33.6723
G01 X110.2491 Y33.6624
G01 X110.2821 Y33.6555
G01 X110.3151 Y33.6493
G01 X110.3484 Y33.6440
G01 X110.3817 Y33.6394
G01 X110.4151 Y33.6357
G01 X110.4487 Y33.6328
G01 X110.4822 Y33.6308
G01 X110.5159 Y33.6295
G01 X110.5495 Y33.6291
G01 X110.5831 Y33.6295
G01 X110.6168 Y33.6308
G01 X110.6503 Y33.6328
G01 X110.6839 Y33.6357
G01 X110.7173 Y33.6394
G01 X110.7506 Y33.6440
G01 X110.7839 Y33.6493
G01 X110.8169 Y33.6555
G01 X110.8499 Y33.6624
G01 X110.8907 Y33.6723
G01 X110.8907 Y33.5379
G01 X110.8424 Y33.5274
G01 X110.8062 Y33.5207
G01 X110.7698 Y33.5148
G01 X110.7333 Y33.5099
G01 X110.6967 Y33.5058
G01 X110.6600 Y33.5026
G01 X110.6232 Y33.5004
G01 X110.5863 Y33.4990
G01 X110.5495 Y33.4986
G01 X110.5127 Y33.4990
G01 X110.4758 Y33.5004
G01 X110.4390 Y33.5026
G01 X110.4023 Y33.5058
G01 X110.3657 Y33.5099
G01 X110.3292 Y33.5148
G01 X110.2928 Y33.5207
G01 X110.2566 Y33.5274
G01 X110.2083 Y33.5379
G01 X110.2083 Y33.4042
G01 X110.2311 Y33.3994
G01 X110.2705 Y33.3920
G01 X110.3100 Y33.3857
G01 X110.3497 Y33.3803
G01 X110.3895 Y33.3759
G01 X110.4294 Y33.3724
G01 X110.4694 Y33.3700
G01 X110.5094 Y33.3685
G01 X110.5495 Y33.3680
G01 X110.5896 Y33.3685
G01 X110.6296 Y33.3700
G01 X110.6696 Y33.3724
G01 X110.7095 Y33.3759
G01 X110.7493 Y33.3803
G01 X110.7890 Y33.3857
G01 X110.8285 Y33.3920
G01 X110.8679 Y33.3994
G01 X110.8907 Y33.4042
G01 X110.8907 Y33.2708
G01 X110.8508 Y33.2634
G01 X110.8081 Y33.2565
G01 X110.7653 Y33.2507
G01 X110.7223 Y33.2459
G01 X110.6792 Y33.2422
G01 X110.6360 Y33.2396
G01 X110.5928 Y33.2380
G01 X110.5495 Y33.2374
G01 X110.5062 Y33.2380
G01 X110.4630 Y33.2396
G01 X110.4198 Y33.2422
G01 X110.3767 Y33.2459
G01 X110.3337 Y33.2507
G01 X110.2909 Y33.2565
G01 X110.2482 Y33.2634
G01 X110.2083 Y33.2708
G01 X110.2083 Y33.1380
G01 X110.2258 Y33.1348
G01 X110.2717 Y33.1274
G01 X110.3178 Y33.1211
G01 X110.3639 Y33.1160
G01 X110.4102 Y33.1120
G01 X110.4566 Y33.1092
G01 X110.5030 Y33.1075
G01 X110.5495 Y33.1069
G01 X110.5960 Y33.1075
G01 X110.6424 Y33.1092
G01 X110.6888 Y33.1120
G01 X110.7351 Y33.1160
G01 X110.7812 Y33.1211
G01 X110.8273 Y33.1274
G01 X110.8732 Y33.1348
G01 X110.8907 Y33.1380
G01 X110.8907 Y33.0053
G01 X110.8464 Y32.9982
G01 X110.7972 Y32.9915
G01 X110.7479 Y32.9861
G01 X110.6984 Y32.9818
G01 X110.6488 Y32.9788
G01 X110.5992 Y32.9769
G01 X110.5495 Y32.9763
G01 X110.4998 Y32.9769
G01 X110.4502 Y32.9788
G01 X110.4006 Y32.9818
G01 X110.3511 Y32.9861
G01 X110.3018 Y32.9915
G01 X110.2526 Y32.9982
G01 X110.2083 Y33.0053
G01 X110.2083 Y32.8731
G01 X110.2334 Y32.8691
G01 X110.2858 Y32.8620
G01 X110.3383 Y32.8561
G01 X110.3910 Y32.8516
G01 X110.4438 Y32.8484
G01 X110.4966 Y32.8464
G01 X110.5495 Y32.8458
G01 X110.6024 Y32.8464
G01 X110.6552 Y32.8484
G01 X110.7080 Y32.8516
G01 X110.7607 Y32.8561
G01 X110.8132 Y32.8620
G01 X110.8656 Y32.8691
G01 X110.8907 Y32.8731
G01 X110.8907 Y32.7409
G01 X110.8292 Y32.7324
G01 X110.7734 Y32.7262
G01 X110.7176 Y32.7214
G01 X110.6616 Y32.7180
G01 X110.6056 Y32.7159
G01 X110.5495 Y32.7152
G01 X110.4934 Y32.7159
G01 X110.4374 Y32.7180
G01 X110.3814 Y32.7214
G01 X110.3256 Y32.7262
G01 X110.2698 Y32.7324
G01 X110.2083 Y32.7409
G01 X110.2083 Y32.6090
G01 X110.2538 Y32.6028
G01 X110.3128 Y32.5963
G01 X110.3718 Y32.5912
G01 X110.4310 Y32.5875
G01 X110.4902 Y32.5854
G01 X110.5495 Y32.5846
G01 X110.6088 Y32.5854
G01 X110.6680 Y32.5875
G01 X110.7272 Y32.5912
G01 X110.7862 Y32.5963
G01 X110.8452 Y32.6028
G01 X110.8907 Y32.6090
G01 X110.8907 Y32.4772
G01 X110.8611 Y32.4732
G01 X110.7990 Y32.4663
G01 X110.7368 Y32.4610
G01 X110.6744 Y32.4571
G01 X110.6120 Y32.4548
G01 X110.5495 Y32.4541
G01 X110.4870 Y32.4548
G01 X110.4246 Y32.4571
G01 X110.3622 Y32.4610
G01 X110.3000 Y32.4663
G01 X110.2379 Y32.4732
G01 X110.2083 Y32.4772
G01 X110.2083 Y32.3455
G01 X110.2219 Y32.3436
G01 X110.2872 Y32.3364
G01 X110.3526 Y32.3308
G01 X110.4182 Y32.3267
G01 X110.4838 Y32.3243
G01 X110.5495 Y32.3235
G01 X110.6152 Y32.3243
G01 X110.6808 Y32.3267
G01 X110.7464 Y32.3308
G01 X110.8118 Y32.3364
G01 X110.8771 Y32.3436
G01 X110.8907 Y32.3455
G01 X110.8907 Y32.2138
G01 X110.8246 Y32.2065
G01 X110.7560 Y32.2006
G01 X110.6872 Y32.1963
G01 X110.6184 Y32.1938
G01 X110.5495 Y32.1930
G01 X110.4806 Y32.1938
G01 X110.4118 Y32.1963
G01 X110.3430 Y32.2006
G01 X110.2744 Y32.2065
G01 X110.2083 Y32.2138
G01 X110.2083 Y32.0825
G01 X110.2616 Y32.0765
G01 X110.3334 Y32.0704
G01 X110.4054 Y32.0659
G01 X110.4774 Y32.0633
G01 X110.5495 Y32.0624
G01 X110.6216 Y32.0633
G01 X110.6936 Y32.0659
G01 X110.7656 Y32.0704
G01 X110.8374 Y32.0765
G01 X110.8907 Y32.0825
G01 X110.8907 Y31.9511
G01 X110.8502 Y31.9466
G01 X110.7752 Y31.9402
G01 X110.7000 Y31.9355
G01 X110.6248 Y31.9328
G01 X110.5495 Y31.9318
G01 X110.4742 Y31.9328
G01 X110.3990 Y31.9355
G01 X110.3238 Y31.9402
G01 X110.2488 Y31.9466
G01 X110.2083 Y31.9511
G01 X110.2083 Y31.8198
G01 X110.2360 Y31.8167
G01 X110.3142 Y31.8099
G01 X110.3925 Y31.8051
G01 X110.4710 Y31.8022
G01 X110.5495 Y31.8013
G01 X110.6280 Y31.8022
G01 X110.7065 Y31.8051
G01 X110.7848 Y31.8099
G01 X110.8630 Y31.8167
G01 X110.8907 Y31.8198
G01 X110.8907 Y31.6884
G01 X110.8758 Y31.6868
G01 X110.7944 Y31.6797
G01 X110.7129 Y31.6747
G01 X110.6312 Y31.6717
G01 X110.5495 Y31.6707
G01 X110.4678 Y31.6717
G01 X110.3861 Y31.6747
G01 X110.3046 Y31.6797
G01 X110.2232 Y31.6868
G01 X110.2083 Y31.6884
G01 X110.2083 Y31.5571
G01 X110.2950 Y31.5495
G01 X110.3797 Y31.5443
G01 X110.4646 Y31.5412
G01 X110.5495 Y31.5402
G01 X110.6344 Y31.5412
G01 X110.7193 Y31.5443
G01 X110.8040 Y31.5495
G01 X110.8907 Y31.5571
G01 X110.8907 Y31.4260
G01 X110.8136 Y31.4193
G01 X110.7257 Y31.4139
G01 X110.6376 Y31.4107
G01 X110.5495 Y31.4096
G01 X110.4614 Y31.4107
G01 X110.3733 Y31.4139
G01 X110.2854 Y31.4193
G01 X110.2083 Y31.4260
G01 X110.2083 Y31.2949
G01 X110.2758 Y31.2891
G01 X110.3669 Y31.2835
G01 X110.4582 Y31.2802
G01 X110.5495 Y31.2790
G01 X110.6408 Y31.2802
G01 X110.7321 Y31.2835
G01 X110.8232 Y31.2891
G01 X110.8907 Y31.2949
G01 X110.8907 Y31.1639
G01 X110.8328 Y31.1589
G01 X110.7385 Y31.1531
G01 X110.6440 Y31.1496
G01 X110.5495 Y31.1485
G01 X110.4550 Y31.1496
G01 X110.3605 Y31.1531
G01 X110.2662 Y31.1589
G01 X110.2083 Y31.1639
G01 X110.2083 Y31.0329
G01 X110.2566 Y31.0287
G01 X110.3541 Y31.0227
G01 X110.4518 Y31.0191
G01 X110.5495 Y31.0179
G01 X110.6472 Y31.0191
G01 X110.7449 Y31.0227
G01 X110.8424 Y31.0287
G01 X110.8907 Y31.0329
G01 X110.8907 Y30.9018
G01 X110.8520 Y30.8985
G01 X110.7513 Y30.8923
G01 X110.6504 Y30.8886
G01 X110.5495 Y30.8874
G01 X110.4486 Y30.8886
G01 X110.3477 Y30.8923
G01 X110.2470 Y30.8985
G01 X110.2083 Y30.9018
G01 X110.2083 Y30.7708
G01 X110.2374 Y30.7683
G01 X110.3413 Y30.7619
G01 X110.4454 Y30.7581
G01 X110.5495 Y30.7568
G01 X110.6536 Y30.7581
G01 X110.7577 Y30.7619
G01 X110.8616 Y30.7683
G01 X110.8907 Y30.7708
G01 X110.8907 Y30.6398
G01 X110.8713 Y30.6381
G01 X110.7641 Y30.6315
G01 X110.6568 Y30.6276
G01 X110.5495 Y30.6262
G01 X110.4422 Y30.6276
G01 X110.3349 Y30.6315
G01 X110.2277 Y30.6381
G01 X110.2083 Y30.6398
G01 X110.2083 Y30.5087
G01 X110.3285 Y30.5011
G01 X110.4390 Y30.4970
G01 X110.5495 Y30.4957
G01 X110.6600 Y30.4970
G01 X110.7705 Y30.5011
G01 X110.8907 Y30.5087
G01 X110.8907 Y30.3777
G01 X110.7769 Y30.3707
G01 X110.6632 Y30.3665
G01 X110.5495 Y30.3651
G01 X110.4358 Y30.3665
G01 X110.3221 Y30.3707
G01 X110.2083 Y30.3777
G01 X110.2083 Y30.2469
G01 X110.3157 Y30.2403
G01 X110.4326 Y30.2360
G01 X110.5495 Y30.2346
G01 X110.6664 Y30.2360
G01 X110.7833 Y30.2403
G01 X110.8907 Y30.2469
G01 X110.8907 Y30.1161
G01 X110.7897 Y30.1099
G01 X110.6697 Y30.1055
G01 X110.5495 Y30.1040
G01 X110.4293 Y30.1055
G01 X110.3093 Y30.1099
G01 X110.2083 Y30.1161
G01 X110.2083 Y29.9853
G01 X110.3029 Y29.9795
G01 X110.4261 Y29.9750
G01 X110.5495 Y29.9734
G01 X110.6729 Y29.9750
G01 X110.7961 Y29.9795
G01 X110.8907 Y29.9853
G01 X110.8907 Y29.8545
G01 X110.8025 Y29.8491
G01 X110.6761 Y29.8444
G01 X110.5495 Y29.8429
G01 X110.4229 Y29.8444
G01 X110.2965 Y29.8491
G01 X110.2083 Y29.8545
G01 X110.2083 Y29.7237
G01 X110.2900 Y29.7187
G01 X110.4197 Y29.7139
G01 X110.5495 Y29.7123
G01 X110.6793 Y29.7139
G01 X110.8090 Y29.7187
G01 X110.8907 Y29.7237
G01 X110.8907 Y29.5929
G01 X110.8154 Y29.5883
G01 X110.6825 Y29.5834
G01 X110.5495 Y29.5818
G01 X110.4165 Y29.5834
G01 X110.2836 Y29.5883
G01 X110.2083 Y29.5929
G01 X110.2083 Y29.4621
G01 X110.2772 Y29.4579
G01 X110.4133 Y29.4529
G01 X110.5495 Y29.4512
G01 X110.6857 Y29.4529
G01 X110.8218 Y29.4579
G01 X110.8907 Y29.4621
G01 X110.8907 Y29.3313
G01 X110.8282 Y29.3275
G01 X110.6889 Y29.3224
G01 X110.5495 Y29.3206
G01 X110.4101 Y29.3224
G01 X110.2708 Y29.3275
G01 X110.2083 Y29.3313
G01 X110.2083 Y29.2005
G01 X110.2644 Y29.1971
G01 X110.4069 Y29.1918
G01 X110.5495 Y29.1901
G01 X110.6921 Y29.1918
G01 X110.8346 Y29.1971
G01 X110.8907 Y29.2005
G01 X110.8907 Y29.0697
G01 X110.8410 Y29.0667
G01 X110.6953 Y29.0613
G01 X110.5495 Y29.0595
G01 X110.4037 Y29.0613
G01 X110.2580 Y29.0667
G01 X110.2083 Y29.0697
G01 X110.2083 Y28.9389
G01 X110.2516 Y28.9363
G01 X110.4005 Y28.9308
G01 X110.5495 Y28.9290
G01 X110.6985 Y28.9308
G01 X110.8474 Y28.9363
G01 X110.8907 Y28.9389
G01 X110.8907 Y28.8081
G01 X110.8538 Y28.8059
G01 X110.7017 Y28.8003
G01 X110.5495 Y28.7984
G01 X110.3973 Y28.8003
G01 X110.2452 Y28.8059
G01 X110.2083 Y28.8081
G01 X110.2083 Y28.6773
G01 X110.2388 Y28.6755
G01 X110.3941 Y28.6697
G01 X110.5495 Y28.6678
G01 X110.7049 Y28.6697
G01 X110.8602 Y28.6755
G01 X110.8907 Y28.6773
G01 X110.8907 Y28.5465
G01 X110.8666 Y28.5451
G01 X110.7081 Y28.5392
G01 X110.5495 Y28.5373
G01 X110.3909 Y28.5392
G01 X110.2324 Y28.5451
G01 X110.2083 Y28.5465
G01 X110.2083 Y28.4157
G01 X110.2260 Y28.4147
G01 X110.3877 Y28.4087
G01 X110.5495 Y28.4067
G01 X110.7113 Y28.4087
G01 X110.8730 Y28.4147
G01 X110.8907 Y28.4157
G01 X110.8907 Y28.2850
G01 X110.8794 Y28.2843
G01 X110.7145 Y28.2782
G01 X110.5495 Y28.2762
G01 X110.3845 Y28.2782
G01 X110.2196 Y28.2843
G01 X110.2083 Y28.2850
G01 X110.2083 Y28.1542
G01 X110.3813 Y28.1477
G01 X110.5495 Y28.1456
G01 X110.7177 Y28.1477
G01 X110.8907 Y28.1542
G01 X110.8907 Y28.0234
G01 X110.7209 Y28.0171
G01 X110.5495 Y28.0150
G01 X110.3781 Y28.0171
G01 X110.2083 Y28.0234
G01 X110.2083 Y27.8928
G01 X110.3749 Y27.8866
G01 X110.5495 Y27.8845
G01 X110.7241 Y27.8866
G01 X110.8907 Y27.8928
G01 X110.8907 Y27.7621
G01 X110.7273 Y27.7561
G01 X110.5495 Y27.7539
G01 X110.3717 Y27.7561
G01 X110.2083 Y27.7621
G01 X110.2083 Y27.6315
G01 X110.3685 Y27.6256
G01 X110.5495 Y27.6234
G01 X110.7305 Y27.6256
G01 X110.8907 Y27.6315
G01 X110.8907 Y27.5008
G01 X110.7337 Y27.4951
G01 X110.5495 Y27.4928
G01 X110.3653 Y27.4951
G01 X110.2083 Y27.5008
G01 X110.2083 Y27.3702
G01 X110.3621 Y27.3645
G01 X110.5495 Y27.3622
G01 X110.7369 Y27.3645
G01 X110.8907 Y27.3702
G01 X110.8907 Y27.2396
G01 X110.7401 Y27.2340
G01 X110.5495 Y27.2317
G01 X110.3589 Y27.2340
G01 X110.2083 Y27.2396
G01 X110.2083 Y27.1089
G01 X110.3557 Y27.1035
G01 X110.5495 Y27.1011
G01 X110.7433 Y27.1035
G01 X110.8907 Y27.1089
G01 X110.8907 Y26.9783
G01 X110.7466 Y26.9730
G01 X110.5495 Y26.9706
G01 X110.3524 Y26.9730
G01 X110.2083 Y26.9783
G01 X110.2083 Y26.8476
G01 X110.3492 Y26.8425
G01 X110.5495 Y26.8400
G01 X110.7498 Y26.8425
G01 X110.8907 Y26.8476
G01 X110.8907 Y26.7170
G01 X110.7530 Y26.7119
G01 X110.5495 Y26.7094
G01 X110.3460 Y26.7119
G01 X110.2083 Y26.7170
G01 X110.2083 Y26.5864
G01 X110.3428 Y26.5814
G01 X110.5495 Y26.5789
G01 X110.7562 Y26.5814
G01 X110.8907 Y26.5864
G01 X110.8907 Y26.4557
G01 X110.7594 Y26.4509
G01 X110.5495 Y26.4483
G01 X110.3396 Y26.4509
G01 X110.2083 Y26.4557
G01 X110.2083 Y26.3251
G01 X110.3364 Y26.3204
G01 X110.5495 Y26.3178
G01 X110.7626 Y26.3204
G01 X110.8907 Y26.3251
G01 X110.8907 Y26.1945
G01 X110.7658 Y26.1899
G01 X110.5495 Y26.1872
G01 X110.3332 Y26.1899
G01 X110.2083 Y26.1945
G01 X110.2083 Y26.0638
G01 X110.3300 Y26.0593
G01 X110.5495 Y26.0566
G01 X110.7690 Y26.0593
G01 X110.8907 Y26.0638
G01 X110.8907 Y25.9332
G01 X110.7722 Y25.9288
G01 X110.5495 Y25.9261
G01 X110.3268 Y25.9288
G01 X110.2083 Y25.9332
G01 X110.2083 Y25.8025
G01 X110.3236 Y25.7983
G01 X110.5495 Y25.7955
G01 X110.7754 Y25.7983
G01 X110.8907 Y25.8025
G01 X110.8907 Y25.6719
G01 X110.7786 Y25.6678
G01 X110.5495 Y25.6650
G01 X110.3204 Y25.6678
