(G-CODE GENERATED BY FLATCAM v8.994 - www.flatcam.org - Version Date: 2020/11/7)

(Name: Sensorbox-B_Cu.gbr_iso_combined_cnc)
(Type: G-code from Geometry)
(Units: MM)

(Created on Monday, 05 February 2024 at 10:26)

(This preprocessor is the default preprocessor used by FlatCAM.)
(It is made to work with MACH3 compatible motion controllers.)

(TOOL DIAMETER: 0.2176 mm)
(Feedrate_XY: 80.0 mm/min)
(Feedrate_Z: 40.0 mm/min)
(Feedrate rapids 1500.0 mm/min)

(Z_Cut: -0.0499 mm)
(Z_Move: 2.0 mm)
(Z Start: None mm)
(Z End: 15.0 mm)
(X,Y End: None mm)
(Steps per circle: 64)
(Preprocessor Geometry: default)

(X range:   -0.1083 ...  110.1083  mm)
(Y range:   -0.1083 ...   70.1083  mm)

(Spindle Speed: 20000.0 RPM)
G21
G90
G94

G01 F80.00

M5
G00 Z15.0000
G00 X0.0000 Y0.0000
T2
M6    
(MSG, Change to Tool Dia = 0.2176)
M0
G00 Z15.0000

M03 S20000.0
G01 F80.00
G00 X3.1458 Y5.0678
G01 F40.00
G01 Z-0.0499
G01 F80.00
G01 X3.1754 Y5.3370
G01 X3.2088 Y5.4648
G01 X3.2439 Y5.5991
G01 X3.3499 Y5.8484
G01 X3.4910 Y6.0796
G01 X3.6643 Y6.2878
G01 X3.8660 Y6.4686
G01 X4.0919 Y6.6180
G01 X4.3372 Y6.7330
G01 X4.5966 Y6.8111
G01 X4.8646 Y6.8505
G01 X5.0676 Y6.8505
G01 X5.2702 Y6.8357
G01 X5.5346 Y6.7768
G01 X5.7876 Y6.6800
G01 X6.0238 Y6.5474
G01 X6.2382 Y6.3819
G01 X6.4262 Y6.1869
G01 X6.5838 Y5.9666
G01 X6.7077 Y5.7257
G01 X6.7951 Y5.4693
G01 X6.8443 Y5.2029
G01 X6.8542 Y4.9322
G01 X6.8246 Y4.6630
G01 X6.7561 Y4.4009
G01 X6.6501 Y4.1516
G01 X6.5090 Y3.9204
G01 X6.3357 Y3.7122
G01 X6.1340 Y3.5314
G01 X5.9081 Y3.3820
G01 X5.6628 Y3.2670
G01 X5.4034 Y3.1889
G01 X5.1354 Y3.1495
G01 X4.9324 Y3.1495
G01 X4.7298 Y3.1643
G01 X4.4655 Y3.2232
G01 X4.2124 Y3.3200
G01 X3.9762 Y3.4526
G01 X3.7618 Y3.6181
G01 X3.5738 Y3.8131
G01 X3.4162 Y4.0334
G01 X3.2923 Y4.2743
G01 X3.2049 Y4.5307
G01 X3.1557 Y4.7971
G01 X3.1458 Y5.0678
G00 Z2.0000
G00 X11.9303 Y2.1001
G01 F40.00
G01 Z-0.0499
G01 F80.00
G01 X11.9500 Y2.3376
G01 X11.9516 Y2.3477
G01 X12.0102 Y2.5787
G01 X12.0135 Y2.5884
G01 X12.1092 Y2.8067
G01 X12.1141 Y2.8157
G01 X12.2116 Y2.9649
G01 X12.5714 Y2.6051
G01 X12.5111 Y2.4777
G01 X12.4781 Y2.3853
G01 X12.4542 Y2.2901
G01 X12.4399 Y2.1937
G01 X12.4350 Y2.0950
G01 X12.4399 Y1.9963
G01 X12.4542 Y1.8999
G01 X12.4781 Y1.8047
G01 X12.5111 Y1.7123
G01 X12.5714 Y1.5849
G01 X12.2116 Y1.2251
G01 X12.1141 Y1.3743
G01 X12.1092 Y1.3833
G01 X12.0135 Y1.6016
G01 X12.0102 Y1.6113
G01 X11.9516 Y1.8423
G01 X11.9500 Y1.8524
G01 X11.9303 Y2.0899
G01 X11.9303 Y2.1001
G00 Z2.0000
G00 X12.5577 Y3.3258
G01 F40.00
G01 Z-0.0499
G01 F80.00
G01 X12.8259 Y3.4709
G01 X12.8352 Y3.4750
G01 X13.0607 Y3.5524
G01 X13.0706 Y3.5549
G01 X13.3056 Y3.5942
G01 X13.3158 Y3.5950
G01 X13.5542 Y3.5950
G01 X13.5644 Y3.5942
G01 X13.7994 Y3.5549
G01 X13.8093 Y3.5524
G01 X14.0348 Y3.4750
G01 X14.0441 Y3.4709
G01 X14.3123 Y3.3258
G01 X13.9451 Y2.9586
G01 X13.8177 Y3.0189
G01 X13.7253 Y3.0519
G01 X13.6301 Y3.0758
G01 X13.5337 Y3.0901
G01 X13.4350 Y3.0950
G01 X13.3363 Y3.0901
G01 X13.2399 Y3.0758
G01 X13.1447 Y3.0519
G01 X13.0523 Y3.0189
G01 X12.9249 Y2.9586
G01 X12.5577 Y3.3258
G00 Z2.0000
G00 X14.2986 Y2.6051
G01 F40.00
G01 Z-0.0499
G01 F80.00
G01 X14.6584 Y2.9649
G01 X14.7559 Y2.8157
G01 X14.7608 Y2.8067
G01 X14.8565 Y2.5884
G01 X14.8598 Y2.5787
G01 X14.9184 Y2.3477
G01 X14.9200 Y2.3376
G01 X14.9397 Y2.1001
G01 X14.9397 Y2.0899
G01 X14.9200 Y1.8524
G01 X14.9184 Y1.8423
G01 X14.8598 Y1.6113
G01 X14.8565 Y1.6016
G01 X14.7608 Y1.3833
G01 X14.7559 Y1.3743
G01 X14.6584 Y1.2251
G01 X14.2986 Y1.5849
G01 X14.3589 Y1.7123
G01 X14.3919 Y1.8047
G01 X14.4158 Y1.8999
G01 X14.4301 Y1.9963
G01 X14.4350 Y2.0950
G01 X14.4301 Y2.1937
G01 X14.4158 Y2.2901
G01 X14.3919 Y2.3853
G01 X14.3589 Y2.4777
G01 X14.2986 Y2.6051
G00 Z2.0000
G00 X16.5794 Y2.1534
G01 F40.00
G01 Z-0.0499
G01 F80.00
G01 X16.5999 Y2.4013
G01 X16.6610 Y2.6423
G01 X16.7608 Y2.8700
G01 X16.8969 Y3.0782
G01 X17.0653 Y3.2612
G01 X17.2615 Y3.4139
G01 X17.4802 Y3.5323
G01 X17.7154 Y3.6130
G01 X17.9607 Y3.6539
G01 X18.2094 Y3.6539
G01 X18.4546 Y3.6130
G01 X18.6898 Y3.5323
G01 X18.9085 Y3.4139
G01 X19.1048 Y3.2612
G01 X19.2732 Y3.0782
G01 X19.4092 Y2.8700
G01 X19.5091 Y2.6423
G01 X19.5701 Y2.4013
G01 X19.5907 Y2.1534
G01 X19.5701 Y1.9056
G01 X19.5091 Y1.6646
G01 X19.4092 Y1.4368
G01 X19.2732 Y1.2287
G01 X19.1048 Y1.0457
G01 X18.9085 Y0.8930
G01 X18.8693 Y0.8717
G01 X18.6898 Y0.7746
G01 X18.4546 Y0.6939
G01 X18.2094 Y0.6529
G01 X17.9607 Y0.6529
G01 X17.7154 Y0.6939
G01 X17.4802 Y0.7746
G01 X17.2615 Y0.8930
G01 X17.0653 Y1.0457
G01 X16.8969 Y1.2287
G01 X16.7608 Y1.4368
G01 X16.6886 Y1.6016
G01 X16.6610 Y1.6646
G01 X16.5999 Y1.9056
G01 X16.5794 Y2.1534
G00 Z2.0000
G00 X16.8745 Y2.2827
G01 F40.00
G01 Z-0.0499
G01 F80.00
G01 X16.8908 Y2.3910
G01 X16.9172 Y2.4972
G01 X16.9198 Y2.5069
G01 X16.9565 Y2.6101
G01 X16.9601 Y2.6194
G01 X16.9641 Y2.6286
G01 X17.0112 Y2.7274
G01 X17.0673 Y2.8215
G01 X17.0726 Y2.8299
G01 X17.0784 Y2.8381
G01 X17.1438 Y2.9259
G01 X17.2171 Y3.0072
G01 X17.2240 Y3.0144
G01 X17.2313 Y3.0213
G01 X17.3126 Y3.0947
G01 X17.4004 Y3.1601
G01 X17.4086 Y3.1658
G01 X17.4170 Y3.1712
G01 X17.5110 Y3.2273
G01 X17.6099 Y3.2743
G01 X17.6191 Y3.2784
G01 X17.7221 Y3.3155
G01 X17.7316 Y3.3186
G01 X17.7412 Y3.3213
G01 X17.8475 Y3.3477
G01 X17.9557 Y3.3640
G01 X17.9657 Y3.3652
G01 X17.9757 Y3.3659
G01 X18.0850 Y3.3710
G01 X18.1944 Y3.3659
G01 X18.2044 Y3.3652
G01 X18.2143 Y3.3640
G01 X18.3226 Y3.3477
G01 X18.4288 Y3.3213
G01 X18.4385 Y3.3186
G01 X18.5416 Y3.2820
G01 X18.5510 Y3.2784
G01 X18.5601 Y3.2743
G01 X18.6590 Y3.2273
G01 X18.7530 Y3.1712
G01 X18.7615 Y3.1658
G01 X18.7697 Y3.1601
G01 X18.8575 Y3.0947
G01 X18.9388 Y3.0213
G01 X18.9460 Y3.0144
G01 X18.9529 Y3.0072
G01 X19.0262 Y2.9259
G01 X19.0917 Y2.8381
G01 X19.0974 Y2.8299
G01 X19.1028 Y2.8215
G01 X19.1589 Y2.7274
G01 X19.2059 Y2.6286
G01 X19.2099 Y2.6194
G01 X19.2471 Y2.5164
G01 X19.2502 Y2.5069
G01 X19.2529 Y2.4972
G01 X19.2792 Y2.3910
G01 X19.2955 Y2.2827
G01 X19.2968 Y2.2728
G01 X19.2975 Y2.2628
G01 X19.3026 Y2.1534
G01 X19.2975 Y2.0441
G01 X19.2968 Y2.0341
G01 X19.2955 Y2.0242
G01 X19.2792 Y1.9159
G01 X19.2529 Y1.8096
G01 X19.2502 Y1.8000
G01 X19.2136 Y1.6968
G01 X19.2099 Y1.6875
G01 X19.2059 Y1.6783
G01 X19.1589 Y1.5795
G01 X19.1028 Y1.4854
G01 X19.0974 Y1.4770
G01 X19.0917 Y1.4688
G01 X19.0262 Y1.3810
G01 X18.9529 Y1.2997
G01 X18.9460 Y1.2925
G01 X18.9388 Y1.2856
G01 X18.8575 Y1.2122
G01 X18.7697 Y1.1468
G01 X18.7615 Y1.1410
G01 X18.7530 Y1.1357
G01 X18.6590 Y1.0796
G01 X18.5601 Y1.0326
G01 X18.5510 Y1.0285
G01 X18.4480 Y0.9914
G01 X18.4385 Y0.9883
G01 X18.4288 Y0.9856
G01 X18.3226 Y0.9592
G01 X18.2143 Y0.9429
G01 X18.2044 Y0.9417
G01 X18.1944 Y0.9410
G01 X18.0850 Y0.9358
G01 X17.9757 Y0.9410
G01 X17.9657 Y0.9417
G01 X17.9557 Y0.9429
G01 X17.8475 Y0.9592
G01 X17.7412 Y0.9856
G01 X17.7316 Y0.9883
G01 X17.6284 Y1.0249
G01 X17.6191 Y1.0285
G01 X17.6099 Y1.0326
G01 X17.5110 Y1.0796
G01 X17.4170 Y1.1357
G01 X17.4086 Y1.1410
G01 X17.4004 Y1.1468
G01 X17.3126 Y1.2122
G01 X17.2313 Y1.2856
G01 X17.2240 Y1.2925
G01 X17.2171 Y1.2997
G01 X17.1438 Y1.3810
G01 X17.0784 Y1.4688
G01 X17.0726 Y1.4770
G01 X17.0673 Y1.4854
G01 X17.0112 Y1.5795
G01 X16.9641 Y1.6783
G01 X16.9601 Y1.6875
G01 X16.9230 Y1.7905
G01 X16.9198 Y1.8000
G01 X16.9172 Y1.8096
G01 X16.8908 Y1.9159
G01 X16.8745 Y2.0242
G01 X16.8733 Y2.0341
G01 X16.8725 Y2.0441
G01 X16.8674 Y2.1534
G01 X16.8725 Y2.2628
G01 X16.8745 Y2.2827
G00 Z2.0000
G00 X12.5577 Y0.8642
G01 F40.00
G01 Z-0.0499
G01 F80.00
G01 X12.9249 Y1.2314
G01 X13.0523 Y1.1711
G01 X13.1447 Y1.1381
G01 X13.2399 Y1.1142
G01 X13.3363 Y1.0999
G01 X13.4350 Y1.0950
G01 X13.5337 Y1.0999
G01 X13.6301 Y1.1142
G01 X13.7253 Y1.1381
G01 X13.8177 Y1.1711
G01 X13.9451 Y1.2314
G01 X14.3123 Y0.8642
G01 X14.0441 Y0.7191
G01 X14.0348 Y0.7150
G01 X13.8093 Y0.6376
G01 X13.7994 Y0.6351
G01 X13.5644 Y0.5958
G01 X13.5542 Y0.5950
G01 X13.3158 Y0.5950
G01 X13.3056 Y0.5958
G01 X13.0706 Y0.6351
G01 X13.0607 Y0.6376
G01 X12.8352 Y0.7150
G01 X12.8259 Y0.7191
G01 X12.5577 Y0.8642
G00 Z2.0000
G00 X12.7032 Y14.2476
G01 F40.00
G01 Z-0.0499
G01 F80.00
G01 X13.0704 Y14.6147
G01 X13.1978 Y14.5545
G01 X13.2902 Y14.5214
G01 X13.3854 Y14.4976
G01 X13.4818 Y14.4833
G01 X13.5805 Y14.4784
G01 X13.6792 Y14.4833
G01 X13.7756 Y14.4976
G01 X13.8708 Y14.5214
G01 X13.9632 Y14.5545
G01 X14.0906 Y14.6147
G01 X14.4578 Y14.2476
G01 X14.1896 Y14.1024
G01 X14.1803 Y14.0983
G01 X13.9548 Y14.0210
G01 X13.9449 Y14.0184
G01 X13.7099 Y13.9792
G01 X13.6997 Y13.9784
G01 X13.4613 Y13.9784
G01 X13.4511 Y13.9792
G01 X13.2161 Y14.0184
G01 X13.2062 Y14.0210
G01 X12.9807 Y14.0983
G01 X12.9714 Y14.1024
G01 X12.7032 Y14.2476
G00 Z2.0000
G00 X12.0758 Y15.4835
G01 F40.00
G01 Z-0.0499
G01 F80.00
G01 X12.0955 Y15.7210
G01 X12.0972 Y15.7311
G01 X12.1557 Y15.9621
G01 X12.1590 Y15.9718
G01 X12.2547 Y16.1900
G01 X12.2596 Y16.1990
G01 X12.3571 Y16.3483
G01 X12.7169 Y15.9884
G01 X12.6566 Y15.8611
G01 X12.6236 Y15.7687
G01 X12.5997 Y15.6735
G01 X12.5854 Y15.5771
G01 X12.5805 Y15.4784
G01 X12.5854 Y15.3797
G01 X12.5997 Y15.2833
G01 X12.6236 Y15.1881
G01 X12.6566 Y15.0957
G01 X12.7169 Y14.9683
G01 X12.3571 Y14.6085
G01 X12.2596 Y14.7577
G01 X12.2547 Y14.7667
G01 X12.1590 Y14.9850
G01 X12.1557 Y14.9946
G01 X12.0972 Y15.2257
G01 X12.0955 Y15.2358
G01 X12.0758 Y15.4733
G01 X12.0758 Y15.4835
G00 Z2.0000
G00 X12.7032 Y16.7092
G01 F40.00
G01 Z-0.0499
G01 F80.00
G01 X12.9714 Y16.8543
G01 X12.9807 Y16.8584
G01 X13.2062 Y16.9358
G01 X13.2161 Y16.9383
G01 X13.4511 Y16.9775
G01 X13.4613 Y16.9784
G01 X13.6997 Y16.9784
G01 X13.7099 Y16.9775
G01 X13.9449 Y16.9383
G01 X13.9548 Y16.9358
G01 X14.1803 Y16.8584
G01 X14.1896 Y16.8543
G01 X14.4578 Y16.7092
G01 X14.0906 Y16.3420
G01 X13.9632 Y16.4022
G01 X13.8708 Y16.4353
G01 X13.7756 Y16.4592
G01 X13.6792 Y16.4735
G01 X13.5805 Y16.4784
G01 X13.4818 Y16.4735
G01 X13.3854 Y16.4592
G01 X13.2902 Y16.4353
G01 X13.1978 Y16.4022
G01 X13.0704 Y16.3420
G01 X12.7032 Y16.7092
G00 Z2.0000
G00 X14.4441 Y15.9884
G01 F40.00
G01 Z-0.0499
G01 F80.00
G01 X14.8039 Y16.3483
G01 X14.9014 Y16.1990
G01 X14.9063 Y16.1900
G01 X15.0020 Y15.9718
G01 X15.0054 Y15.9621
G01 X15.0639 Y15.7311
G01 X15.0655 Y15.7210
G01 X15.0852 Y15.4835
G01 X15.0852 Y15.4733
G01 X15.0655 Y15.2358
G01 X15.0639 Y15.2257
G01 X15.0054 Y14.9946
G01 X15.0020 Y14.9850
G01 X14.9063 Y14.7667
G01 X14.9014 Y14.7577
G01 X14.8039 Y14.6085
G01 X14.4441 Y14.9683
G01 X14.5044 Y15.0957
G01 X14.5374 Y15.1881
G01 X14.5613 Y15.2833
G01 X14.5756 Y15.3797
G01 X14.5805 Y15.4784
G01 X14.5756 Y15.5771
G01 X14.5613 Y15.6735
G01 X14.5374 Y15.7687
G01 X14.5044 Y15.8611
G01 X14.4441 Y15.9884
G00 Z2.0000
G00 X16.7249 Y15.5368
G01 F40.00
G01 Z-0.0499
G01 F80.00
G01 X16.7454 Y15.7846
G01 X16.8065 Y16.0257
G01 X16.9063 Y16.2534
G01 X17.0424 Y16.4616
G01 X17.2108 Y16.6446
G01 X17.4070 Y16.7973
G01 X17.6257 Y16.9156
G01 X17.8609 Y16.9964
G01 X18.1062 Y17.0373
G01 X18.3549 Y17.0373
G01 X18.6001 Y16.9964
G01 X18.8353 Y16.9156
G01 X19.0540 Y16.7973
G01 X19.2503 Y16.6446
G01 X19.4187 Y16.4616
G01 X19.5547 Y16.2534
G01 X19.6546 Y16.0257
G01 X19.7156 Y15.7846
G01 X19.7362 Y15.5368
G01 X19.7156 Y15.2890
G01 X19.6546 Y15.0479
G01 X19.6453 Y15.0267
G01 X19.5547 Y14.8202
G01 X19.4187 Y14.6120
G01 X19.2503 Y14.4291
G01 X19.0540 Y14.2763
G01 X18.8353 Y14.1580
G01 X18.6001 Y14.0772
G01 X18.3549 Y14.0363
G01 X18.1062 Y14.0363
G01 X17.8609 Y14.0772
G01 X17.6257 Y14.1580
G01 X17.4070 Y14.2763
G01 X17.2108 Y14.4291
G01 X17.0424 Y14.6120
G01 X16.9064 Y14.8202
G01 X16.8207 Y15.0155
G01 X16.8065 Y15.0479
G01 X16.7454 Y15.2890
G01 X16.7249 Y15.5368
G00 Z2.0000
G00 X17.0200 Y15.6661
G01 F40.00
G01 Z-0.0499
G01 F80.00
G01 X17.0363 Y15.7744
G01 X17.0627 Y15.8806
G01 X17.0653 Y15.8903
G01 X17.1020 Y15.9934
G01 X17.1056 Y16.0028
G01 X17.1097 Y16.0119
G01 X17.1567 Y16.1108
G01 X17.2128 Y16.2048
G01 X17.2181 Y16.2133
G01 X17.2239 Y16.2215
G01 X17.2893 Y16.3093
G01 X17.3626 Y16.3905
G01 X17.3695 Y16.3978
G01 X17.3768 Y16.4047
G01 X17.4581 Y16.4780
G01 X17.5459 Y16.5435
G01 X17.5541 Y16.5492
G01 X17.5625 Y16.5546
G01 X17.6565 Y16.6107
G01 X17.7554 Y16.6577
G01 X17.7646 Y16.6617
G01 X17.8676 Y16.6989
G01 X17.8771 Y16.7020
G01 X17.8867 Y16.7047
G01 X17.9930 Y16.7310
G01 X18.1012 Y16.7473
G01 X18.1112 Y16.7486
G01 X18.1212 Y16.7493
G01 X18.2305 Y16.7544
G01 X18.3399 Y16.7493
G01 X18.3499 Y16.7486
G01 X18.3598 Y16.7473
G01 X18.4681 Y16.7310
G01 X18.5743 Y16.7047
G01 X18.5840 Y16.7020
G01 X18.6871 Y16.6654
G01 X18.6965 Y16.6617
G01 X18.7056 Y16.6577
G01 X18.8045 Y16.6107
G01 X18.8985 Y16.5546
G01 X18.9070 Y16.5492
G01 X18.9152 Y16.5435
G01 X19.0030 Y16.4780
G01 X19.0843 Y16.4047
G01 X19.0915 Y16.3978
G01 X19.0984 Y16.3905
G01 X19.1717 Y16.3093
G01 X19.2372 Y16.2215
G01 X19.2429 Y16.2133
G01 X19.2483 Y16.2048
G01 X19.3044 Y16.1108
G01 X19.3514 Y16.0119
G01 X19.3554 Y16.0028
G01 X19.3926 Y15.8998
G01 X19.3957 Y15.8903
G01 X19.3984 Y15.8806
G01 X19.4247 Y15.7744
G01 X19.4411 Y15.6661
G01 X19.4423 Y15.6562
G01 X19.4430 Y15.6462
G01 X19.4481 Y15.5368
G01 X19.4430 Y15.4275
G01 X19.4423 Y15.4175
G01 X19.4411 Y15.4075
G01 X19.4247 Y15.2993
G01 X19.3984 Y15.1930
G01 X19.3957 Y15.1834
G01 X19.3591 Y15.0802
G01 X19.3554 Y15.0709
G01 X19.3514 Y15.0617
G01 X19.3044 Y14.9628
G01 X19.2483 Y14.8688
G01 X19.2429 Y14.8603
G01 X19.2372 Y14.8522
G01 X19.1717 Y14.7644
G01 X19.0984 Y14.6831
G01 X19.0915 Y14.6758
G01 X19.0843 Y14.6689
G01 X19.0030 Y14.5956
G01 X18.9152 Y14.5302
G01 X18.9070 Y14.5244
G01 X18.8985 Y14.5190
G01 X18.8045 Y14.4630
G01 X18.7056 Y14.4159
G01 X18.6965 Y14.4119
G01 X18.5935 Y14.3748
G01 X18.5840 Y14.3716
G01 X18.5743 Y14.3690
G01 X18.4681 Y14.3426
G01 X18.3598 Y14.3263
G01 X18.3499 Y14.3251
G01 X18.3399 Y14.3243
G01 X18.2305 Y14.3192
G01 X18.1212 Y14.3243
G01 X18.1112 Y14.3251
G01 X18.1012 Y14.3263
G01 X17.9930 Y14.3426
G01 X17.8867 Y14.3690
G01 X17.8771 Y14.3716
G01 X17.7739 Y14.4083
G01 X17.7646 Y14.4119
G01 X17.7554 Y14.4159
G01 X17.6565 Y14.4630
G01 X17.5625 Y14.5190
G01 X17.5541 Y14.5244
G01 X17.5459 Y14.5302
G01 X17.4581 Y14.5956
G01 X17.3768 Y14.6689
G01 X17.3695 Y14.6758
G01 X17.3626 Y14.6831
G01 X17.2893 Y14.7644
G01 X17.2239 Y14.8522
G01 X17.2181 Y14.8603
G01 X17.2128 Y14.8688
G01 X17.1567 Y14.9628
G01 X17.1097 Y15.0617
G01 X17.1056 Y15.0709
G01 X17.0685 Y15.1739
G01 X17.0653 Y15.1834
G01 X17.0627 Y15.1930
G01 X17.0363 Y15.2993
G01 X17.0200 Y15.4075
G01 X17.0188 Y15.4175
G01 X17.0180 Y15.4275
G01 X17.0129 Y15.5368
G01 X17.0180 Y15.6462
G01 X17.0200 Y15.6661
G00 Z2.0000
G00 X15.9963 Y23.0988
G01 F40.00
G01 Z-0.0499
G01 F80.00
G01 X16.0126 Y23.2070
G01 X16.0390 Y23.3133
G01 X16.0416 Y23.3229
G01 X16.0783 Y23.4261
G01 X16.0819 Y23.4354
G01 X16.1285 Y23.5345
G01 X16.1356 Y23.5481
G01 X16.1944 Y23.6459
G01 X16.2594 Y23.7340
G01 X16.2690 Y23.7460
G01 X16.3389 Y23.8232
G01 X16.3497 Y23.8342
G01 X16.4303 Y23.9073
G01 X16.4423 Y23.9169
G01 X16.4890 Y23.9515
G01 X16.4890 Y45.2075
G01 X16.4917 Y45.2672
G01 X16.4924 Y45.2772
G01 X16.4936 Y45.2871
G01 X16.5028 Y45.3469
G01 X16.5172 Y45.4056
G01 X16.5199 Y45.4152
G01 X16.5230 Y45.4247
G01 X16.5436 Y45.4815
G01 X16.5692 Y45.5363
G01 X16.5737 Y45.5452
G01 X16.6046 Y45.5972
G01 X16.6099 Y45.6056
G01 X16.6157 Y45.6138
G01 X16.6519 Y45.6622
G01 X16.6584 Y45.6698
G01 X16.6987 Y45.7139
G01 X17.7929 Y46.8081
G01 X17.8405 Y46.8515
G01 X17.8525 Y46.8611
G01 X17.8930 Y46.8911
G01 X17.9096 Y46.9022
G01 X17.9616 Y46.9331
G01 X17.9705 Y46.9376
G01 X18.0253 Y46.9632
G01 X18.0821 Y46.9838
G01 X18.0916 Y46.9869
G01 X18.1502 Y47.0019
G01 X18.1652 Y47.0050
G01 X18.2197 Y47.0132
G01 X18.2396 Y47.0151
G01 X18.2993 Y47.0179
G01 X40.6027 Y47.0179
G01 X41.3221 Y47.7373
G01 X41.3221 Y48.3745
G01 X41.3019 Y48.3897
G01 X41.2936 Y48.3964
G01 X41.2164 Y48.4664
G01 X41.2057 Y48.4774
G01 X41.1389 Y48.5511
G01 X41.1293 Y48.5631
G01 X41.0671 Y48.6474
G01 X41.0106 Y48.7412
G01 X41.0035 Y48.7549
G01 X40.9590 Y48.8497
G01 X40.9234 Y48.9483
G01 X40.9203 Y48.9578
G01 X40.8946 Y49.0595
G01 X40.8924 Y49.0692
G01 X40.8907 Y49.0791
G01 X40.8755 Y49.1828
G01 X40.8700 Y49.2922
G01 X40.8701 Y49.4025
G01 X40.8755 Y49.5072
G01 X40.8907 Y49.6109
G01 X40.8935 Y49.6260
G01 X40.9203 Y49.7322
G01 X40.9553 Y49.8309
G01 X40.9590 Y49.8403
G01 X40.9630 Y49.8494
G01 X41.0081 Y49.9441
G01 X41.0617 Y50.0341
G01 X41.0701 Y50.0470
G01 X41.1355 Y50.1348
G01 X41.2057 Y50.2126
G01 X41.2199 Y50.2268
G01 X41.2977 Y50.2970
G01 X41.3817 Y50.3597
G01 X41.3984 Y50.3708
G01 X41.4797 Y50.4195
G01 X41.4974 Y50.4290
G01 X41.5922 Y50.4735
G01 X41.6016 Y50.4772
G01 X41.7003 Y50.5122
G01 X41.8020 Y50.5379
G01 X41.8117 Y50.5401
G01 X41.8216 Y50.5418
G01 X41.9253 Y50.5570
G01 X42.0300 Y50.5624
G01 X42.0400 Y50.5626
G01 X42.1447 Y50.5577
G01 X42.1646 Y50.5558
G01 X42.2584 Y50.5418
G01 X42.2780 Y50.5379
G01 X42.3797 Y50.5122
G01 X42.4784 Y50.4772
G01 X42.4969 Y50.4695
G01 X42.5916 Y50.4244
G01 X42.6816 Y50.3708
G01 X42.6901 Y50.3654
G01 X42.6983 Y50.3597
G01 X42.7823 Y50.2970
G01 X42.7899 Y50.2905
G01 X42.8674 Y50.2199
G01 X42.9380 Y50.1424
G01 X42.9445 Y50.1348
G01 X43.0071 Y50.0508
G01 X43.0183 Y50.0341
G01 X43.0719 Y49.9441
G01 X43.1170 Y49.8494
G01 X43.1246 Y49.8309
G01 X43.1581 Y49.7373
G01 X43.1624 Y49.7225
G01 X43.1876 Y49.6208
G01 X43.1893 Y49.6109
G01 X43.2045 Y49.5072
G01 X43.2052 Y49.4972
G01 X43.2101 Y49.3932
G01 X43.2100 Y49.2922
G01 X43.2052 Y49.1928
G01 X43.2033 Y49.1729
G01 X43.1876 Y49.0692
G01 X43.1854 Y49.0595
G01 X43.1597 Y48.9578
G01 X43.1246 Y48.8591
G01 X43.1210 Y48.8497
G01 X43.1170 Y48.8406
G01 X43.0719 Y48.7459
G01 X43.0183 Y48.6559
G01 X43.0129 Y48.6474
G01 X42.9507 Y48.5631
G01 X42.9411 Y48.5511
G01 X42.8743 Y48.4774
G01 X42.8636 Y48.4664
G01 X42.7864 Y48.3964
G01 X42.7781 Y48.3897
G01 X42.7579 Y48.3745
G01 X42.7576 Y47.4300
G01 X42.7544 Y47.3696
G01 X42.7532 Y47.3597
G01 X42.7441 Y47.3000
G01 X42.7296 Y47.2413
G01 X42.7269 Y47.2316
G01 X42.7052 Y47.1702
G01 X42.6992 Y47.1561
G01 X42.6731 Y47.1016
G01 X42.6422 Y47.0496
G01 X42.6369 Y47.0412
G01 X42.6311 Y47.0330
G01 X42.5949 Y46.9846
G01 X42.5513 Y46.9362
G01 X41.4038 Y45.7887
G01 X41.3554 Y45.7451
G01 X41.3070 Y45.7089
G01 X41.2904 Y45.6978
G01 X41.2384 Y45.6669
G01 X41.1839 Y45.6408
G01 X41.1654 Y45.6332
G01 X41.1084 Y45.6131
G01 X41.0453 Y45.5970
G01 X41.0302 Y45.5942
G01 X40.9704 Y45.5856
G01 X40.9604 Y45.5849
G01 X40.9007 Y45.5821
G01 X18.5973 Y45.5821
G01 X17.9247 Y44.9095
G01 X17.9247 Y23.9515
G01 X17.9714 Y23.9169
G01 X17.9833 Y23.9073
G01 X18.0640 Y23.8342
G01 X18.0747 Y23.8232
G01 X18.1415 Y23.7495
G01 X18.1514 Y23.7377
G01 X18.2135 Y23.6541
G01 X18.2246 Y23.6375
G01 X18.2807 Y23.5435
G01 X18.3296 Y23.4403
G01 X18.3354 Y23.4261
G01 X18.3720 Y23.3229
G01 X18.3988 Y23.2168
G01 X18.4027 Y23.1972
G01 X18.4186 Y23.0888
G01 X18.4242 Y22.9795
G01 X18.4242 Y22.9595
G01 X18.4186 Y22.8501
G01 X18.4173 Y22.8402
G01 X18.4010 Y22.7319
G01 X18.3747 Y22.6257
G01 X18.3720 Y22.6160
G01 X18.3354 Y22.5129
G01 X18.3317 Y22.5035
G01 X18.3277 Y22.4944
G01 X18.2807 Y22.3955
G01 X18.2246 Y22.3015
G01 X18.2192 Y22.2930
G01 X18.2135 Y22.2848
G01 X18.1480 Y22.1970
G01 X18.0747 Y22.1157
G01 X18.0678 Y22.1085
G01 X18.0605 Y22.1016
G01 X17.9793 Y22.0283
G01 X17.8915 Y21.9628
G01 X17.8833 Y21.9571
G01 X17.8748 Y21.9517
G01 X17.7808 Y21.8956
G01 X17.6819 Y21.8486
G01 X17.6728 Y21.8446
G01 X17.5698 Y21.8074
G01 X17.5603 Y21.8043
G01 X17.5506 Y21.8016
G01 X17.4444 Y21.7753
G01 X17.3361 Y21.7589
G01 X17.3262 Y21.7577
G01 X17.3162 Y21.7570
G01 X17.2068 Y21.7519
G01 X17.0975 Y21.7570
G01 X17.0875 Y21.7577
G01 X17.0775 Y21.7589
G01 X16.9693 Y21.7753
G01 X16.8630 Y21.8016
G01 X16.8534 Y21.8043
G01 X16.7502 Y21.8409
G01 X16.7409 Y21.8446
G01 X16.7317 Y21.8486
G01 X16.6328 Y21.8956
G01 X16.5388 Y21.9517
G01 X16.5303 Y21.9571
G01 X16.5222 Y21.9628
G01 X16.4344 Y22.0283
G01 X16.3531 Y22.1016
G01 X16.3458 Y22.1085
G01 X16.3389 Y22.1157
G01 X16.2656 Y22.1970
G01 X16.2002 Y22.2848
G01 X16.1944 Y22.2930
G01 X16.1890 Y22.3015
G01 X16.1330 Y22.3955
G01 X16.0859 Y22.4944
G01 X16.0819 Y22.5035
G01 X16.0448 Y22.6065
G01 X16.0416 Y22.6160
G01 X16.0390 Y22.6257
G01 X16.0126 Y22.7319
G01 X15.9963 Y22.8402
G01 X15.9951 Y22.8501
G01 X15.9943 Y22.8601
G01 X15.9892 Y22.9695
G01 X15.9943 Y23.0788
G01 X15.9963 Y23.0988
G00 Z2.0000
G00 X13.3963 Y23.1188
G01 F40.00
G01 Z-0.0499
G01 F80.00
G01 X13.4126 Y23.2270
G01 X13.4390 Y23.3333
G01 X13.4416 Y23.3429
G01 X13.4783 Y23.4461
G01 X13.4819 Y23.4554
G01 X13.4859 Y23.4646
G01 X13.5330 Y23.5635
G01 X13.5890 Y23.6575
G01 X13.5944 Y23.6659
G01 X13.6002 Y23.6741
G01 X13.6656 Y23.7619
G01 X13.7389 Y23.8432
G01 X13.7458 Y23.8505
G01 X13.7531 Y23.8574
G01 X13.8344 Y23.9307
G01 X13.9222 Y23.9961
G01 X13.9303 Y24.0019
G01 X13.9388 Y24.0072
G01 X14.0328 Y24.0633
G01 X14.1317 Y24.1103
G01 X14.1409 Y24.1144
G01 X14.2439 Y24.1515
G01 X14.2534 Y24.1547
G01 X14.2630 Y24.1573
G01 X14.3693 Y24.1837
G01 X14.4775 Y24.2000
G01 X14.4875 Y24.2012
G01 X14.4975 Y24.2020
G01 X14.6068 Y24.2071
G01 X14.7162 Y24.2020
G01 X14.7262 Y24.2012
G01 X14.7361 Y24.2000
G01 X14.8444 Y24.1837
G01 X14.9506 Y24.1573
G01 X14.9603 Y24.1547
G01 X15.0634 Y24.1180
G01 X15.0728 Y24.1144
G01 X15.0819 Y24.1103
G01 X15.1808 Y24.0633
G01 X15.2748 Y24.0072
G01 X15.2833 Y24.0019
G01 X15.2915 Y23.9961
G01 X15.3793 Y23.9307
G01 X15.4605 Y23.8574
G01 X15.4678 Y23.8505
G01 X15.4747 Y23.8432
G01 X15.5480 Y23.7619
G01 X15.6135 Y23.6741
G01 X15.6192 Y23.6659
G01 X15.6246 Y23.6575
G01 X15.6807 Y23.5635
G01 X15.7277 Y23.4646
G01 X15.7317 Y23.4554
G01 X15.7689 Y23.3524
G01 X15.7720 Y23.3429
G01 X15.7747 Y23.3333
G01 X15.8010 Y23.2270
G01 X15.8173 Y23.1188
G01 X15.8186 Y23.1088
G01 X15.8193 Y23.0988
G01 X15.8244 Y22.9895
G01 X15.8193 Y22.8801
G01 X15.8186 Y22.8701
G01 X15.8173 Y22.8602
G01 X15.8010 Y22.7519
G01 X15.7747 Y22.6457
G01 X15.7720 Y22.6360
G01 X15.7354 Y22.5329
G01 X15.7317 Y22.5235
G01 X15.7277 Y22.5144
G01 X15.6807 Y22.4155
G01 X15.6246 Y22.3215
G01 X15.6192 Y22.3130
G01 X15.6135 Y22.3048
G01 X15.5480 Y22.2170
G01 X15.4747 Y22.1357
G01 X15.4678 Y22.1285
G01 X15.4605 Y22.1216
G01 X15.3793 Y22.0483
G01 X15.2915 Y21.9828
G01 X15.2833 Y21.9771
G01 X15.2748 Y21.9717
G01 X15.1808 Y21.9156
G01 X15.0819 Y21.8686
G01 X15.0728 Y21.8646
G01 X14.9698 Y21.8274
G01 X14.9603 Y21.8243
G01 X14.9506 Y21.8216
G01 X14.8444 Y21.7953
G01 X14.7361 Y21.7789
G01 X14.7262 Y21.7777
G01 X14.7162 Y21.7770
G01 X14.6068 Y21.7719
G01 X14.4975 Y21.7770
G01 X14.4875 Y21.7777
G01 X14.4775 Y21.7789
G01 X14.3693 Y21.7953
G01 X14.2630 Y21.8216
G01 X14.2534 Y21.8243
G01 X14.1502 Y21.8609
G01 X14.1409 Y21.8646
G01 X14.1317 Y21.8686
G01 X14.0328 Y21.9156
G01 X13.9388 Y21.9717
G01 X13.9303 Y21.9771
G01 X13.9222 Y21.9828
G01 X13.8344 Y22.0483
G01 X13.7531 Y22.1216
G01 X13.7458 Y22.1285
G01 X13.7389 Y22.1357
G01 X13.6656 Y22.2170
G01 X13.6002 Y22.3048
G01 X13.5944 Y22.3130
G01 X13.5890 Y22.3215
G01 X13.5330 Y22.4155
G01 X13.4859 Y22.5144
G01 X13.4819 Y22.5235
G01 X13.4448 Y22.6265
G01 X13.4416 Y22.6360
G01 X13.4390 Y22.6457
G01 X13.4126 Y22.7519
G01 X13.3963 Y22.8602
G01 X13.3951 Y22.8701
G01 X13.3943 Y22.8801
G01 X13.3892 Y22.9895
G01 X13.3943 Y23.0988
G01 X13.3963 Y23.1188
G00 Z2.0000
G00 X12.2668 Y21.4895
G01 F40.00
G01 Z-0.0499
G01 F80.00
G01 X12.2668 Y21.9895
G01 X13.0168 Y21.9895
G01 X13.0168 Y23.9888
G01 X13.0168 Y23.9895
G01 X13.0161 Y23.9895
G01 X12.2668 Y23.9895
G01 X12.2668 Y24.4895
G01 X13.0613 Y24.4895
G01 X13.0679 Y24.4891
G01 X13.1165 Y24.4839
G01 X13.1315 Y24.4804
G01 X13.2506 Y24.4359
G01 X13.2660 Y24.4275
G01 X13.3669 Y24.3520
G01 X13.3793 Y24.3396
G01 X13.4549 Y24.2387
G01 X13.4633 Y24.2233
G01 X13.4685 Y24.2092
G01 X13.5006 Y24.1614
G01 X13.5509 Y24.1332
G01 X13.6084 Y24.1308
G01 X13.6609 Y24.1547
G01 X13.7833 Y24.2500
G01 X14.0020 Y24.3683
G01 X14.2372 Y24.4490
G01 X14.4825 Y24.4900
G01 X14.7312 Y24.4900
G01 X14.9764 Y24.4490
G01 X15.2116 Y24.3683
G01 X15.4303 Y24.2500
G01 X15.6266 Y24.0972
G01 X15.7950 Y23.9143
G01 X15.8095 Y23.8920
G01 X15.8543 Y23.8507
G01 X15.9134 Y23.8358
G01 X15.9724 Y23.8507
G01 X16.0055 Y23.8812
G01 X16.0127 Y23.8859
G01 X16.0198 Y23.8955
G01 X16.1735 Y24.0625
G01 X16.1978 Y24.1014
G01 X16.2063 Y24.1471
G01 X16.2063 Y45.1922
G01 X16.2041 Y45.2832
G01 X16.2144 Y45.3407
G01 X16.2157 Y45.3501
G01 X16.2217 Y45.4093
G01 X16.2308 Y45.4383
G01 X16.2345 Y45.4530
G01 X16.2400 Y45.4835
G01 X16.2616 Y45.5378
G01 X16.2648 Y45.5466
G01 X16.2827 Y45.6034
G01 X16.2974 Y45.6300
G01 X16.3039 Y45.6437
G01 X16.3154 Y45.6724
G01 X16.3477 Y45.7214
G01 X16.3525 Y45.7293
G01 X16.3814 Y45.7813
G01 X16.4016 Y45.8049
G01 X16.4107 Y45.8169
G01 X16.4274 Y45.8423
G01 X16.4694 Y45.8844
G01 X16.4760 Y45.8915
G01 X16.5139 Y45.9357
G01 X16.5380 Y45.9543
G01 X16.5502 Y45.9651
G01 X17.5822 Y46.9971
G01 X17.6449 Y47.0631
G01 X17.6938 Y47.0971
G01 X17.7013 Y47.1027
G01 X17.7466 Y47.1397
G01 X17.7740 Y47.1541
G01 X17.7870 Y47.1619
G01 X17.8120 Y47.1793
G01 X17.8666 Y47.2028
G01 X17.8751 Y47.2068
G01 X17.9270 Y47.2339
G01 X17.9567 Y47.2425
G01 X17.9710 Y47.2475
G01 X17.9989 Y47.2595
G01 X18.0572 Y47.2715
G01 X18.0665 Y47.2738
G01 X18.1226 Y47.2899
G01 X18.1535 Y47.2923
G01 X18.1685 Y47.2944
G01 X18.1983 Y47.3005
G01 X18.2578 Y47.3005
G01 X18.2672 Y47.3009
G01 X18.3255 Y47.3053
G01 X18.3557 Y47.3015
G01 X18.3719 Y47.3005
G01 X40.4342 Y47.3005
G01 X40.4817 Y47.3099
G01 X40.5219 Y47.3368
G01 X41.0032 Y47.8181
G01 X41.0301 Y47.8583
G01 X41.0395 Y47.9065
G01 X41.0395 Y48.1906
G01 X41.0311 Y48.2350
G01 X41.0067 Y48.2746
G01 X40.8894 Y48.4020
G01 X40.8735 Y48.4264
G01 X40.8287 Y48.4676
G01 X40.7697 Y48.4826
G01 X40.7107 Y48.4676
G01 X40.6659 Y48.4264
G01 X40.6530 Y48.4066
G01 X40.6467 Y48.3985
G01 X40.4906 Y48.2290
G01 X40.4831 Y48.2221
G01 X40.3012 Y48.0805
G01 X40.2927 Y48.0749
G01 X40.0900 Y47.9652
G01 X40.0806 Y47.9611
G01 X39.7500 Y47.8476
G01 X39.7500 Y48.3765
G01 X39.8651 Y48.4178
G01 X39.9490 Y48.4575
G01 X40.0297 Y48.5059
G01 X40.1043 Y48.5612
G01 X40.1735 Y48.6240
G01 X40.2363 Y48.6932
G01 X40.2920 Y48.7683
G01 X40.3400 Y48.8485
G01 X40.3797 Y48.9324
G01 X40.4116 Y49.0217
G01 X40.4342 Y49.1117
G01 X40.4479 Y49.2041
G01 X40.4525 Y49.2975
G01 X40.4525 Y49.3918
G01 X40.4479 Y49.4859
G01 X40.4343 Y49.5777
G01 X40.4113 Y49.6696
G01 X40.3800 Y49.7570
G01 X40.3400 Y49.8415
G01 X40.2920 Y49.9217
G01 X40.2363 Y49.9968
G01 X40.1730 Y50.0665
G01 X40.1043 Y50.1288
G01 X40.0292 Y50.1845
G01 X39.9490 Y50.2325
G01 X39.8651 Y50.2722
G01 X39.7500 Y50.3135
G01 X39.7500 Y50.8424
G01 X40.0806 Y50.7289
G01 X40.0900 Y50.7248
G01 X40.2927 Y50.6151
G01 X40.3012 Y50.6095
G01 X40.4831 Y50.4679
G01 X40.4906 Y50.4610
G01 X40.6467 Y50.2915
G01 X40.6530 Y50.2834
G01 X40.6659 Y50.2636
G01 X40.7107 Y50.2224
G01 X40.7697 Y50.2074
G01 X40.8287 Y50.2224
G01 X40.8735 Y50.2636
G01 X40.8894 Y50.2880
G01 X41.0525 Y50.4652
G01 X41.2426 Y50.6131
G01 X41.4543 Y50.7277
G01 X41.6821 Y50.8059
G01 X41.9196 Y50.8455
G01 X42.1604 Y50.8455
G01 X42.3979 Y50.8059
G01 X42.6257 Y50.7277
G01 X42.8374 Y50.6131
G01 X43.0275 Y50.4652
G01 X43.1906 Y50.2880
G01 X43.3223 Y50.0864
G01 X43.4190 Y49.8659
G01 X43.4781 Y49.6325
G01 X43.4930 Y49.4526
G01 X43.4930 Y49.2374
G01 X43.4781 Y49.0575
G01 X43.4190 Y48.8241
G01 X43.3223 Y48.6036
G01 X43.1906 Y48.4020
G01 X43.0733 Y48.2746
G01 X43.0490 Y48.2357
G01 X43.0405 Y48.1900
G01 X43.0405 Y47.4546
G01 X43.0428 Y47.3636
G01 X43.0323 Y47.3050
G01 X43.0310 Y47.2957
G01 X43.0251 Y47.2376
G01 X43.0158 Y47.2080
G01 X43.0122 Y47.1933
G01 X43.0069 Y47.1633
G01 X42.9848 Y47.1081
G01 X42.9817 Y47.0992
G01 X42.9642 Y47.0434
G01 X42.9494 Y47.0168
G01 X42.9429 Y47.0031
G01 X42.9314 Y46.9744
G01 X42.8986 Y46.9246
G01 X42.8938 Y46.9166
G01 X42.8654 Y46.8655
G01 X42.8456 Y46.8424
G01 X42.8365 Y46.8303
G01 X42.8194 Y46.8045
G01 X42.7774 Y46.7624
G01 X42.7708 Y46.7553
G01 X42.7329 Y46.7111
G01 X42.7088 Y46.6925
G01 X42.6966 Y46.6817
G01 X41.6178 Y45.6029
G01 X41.5551 Y45.5369
G01 X41.5071 Y45.5035
G01 X41.4995 Y45.4979
G01 X41.4534 Y45.4603
G01 X41.4264 Y45.4462
G01 X41.4135 Y45.4384
G01 X41.3880 Y45.4207
G01 X41.3333 Y45.3972
G01 X41.3249 Y45.3932
G01 X41.2730 Y45.3661
G01 X41.2433 Y45.3575
G01 X41.2290 Y45.3525
G01 X41.2011 Y45.3405
G01 X41.1428 Y45.3285
G01 X41.1335 Y45.3262
G01 X41.0774 Y45.3101
G01 X41.0465 Y45.3077
G01 X41.0315 Y45.3056
G01 X41.0017 Y45.2995
G01 X40.9433 Y45.2995
G01 X40.9339 Y45.2992
G01 X40.8745 Y45.2947
G01 X40.8443 Y45.2985
G01 X40.8281 Y45.2995
G01 X18.7664 Y45.2995
G01 X18.7183 Y45.2901
G01 X18.6781 Y45.2632
G01 X18.2436 Y44.8287
G01 X18.2168 Y44.7885
G01 X18.2073 Y44.7404
G01 X18.2073 Y24.1465
G01 X18.2158 Y24.1014
G01 X18.2401 Y24.0625
G01 X18.3950 Y23.8943
G01 X18.5310 Y23.6861
G01 X18.6309 Y23.4584
G01 X18.6919 Y23.2173
G01 X18.7125 Y22.9695
G01 X18.6919 Y22.7217
G01 X18.6309 Y22.4806
G01 X18.5310 Y22.2529
G01 X18.3950 Y22.0447
G01 X18.2266 Y21.8617
G01 X18.0303 Y21.7090
G01 X17.8116 Y21.5906
G01 X17.5764 Y21.5099
G01 X17.3312 Y21.4690
G01 X17.0825 Y21.4690
G01 X16.8372 Y21.5099
G01 X16.6020 Y21.5906
G01 X16.3833 Y21.7090
G01 X16.1871 Y21.8617
G01 X16.0187 Y22.0447
G01 X16.0041 Y22.0670
G01 X15.9593 Y22.1082
G01 X15.9003 Y22.1231
G01 X15.8413 Y22.1082
G01 X15.8082 Y22.0777
G01 X15.8009 Y22.0730
G01 X15.7939 Y22.0635
G01 X15.6266 Y21.8817
G01 X15.4303 Y21.7290
G01 X15.2116 Y21.6106
G01 X14.9764 Y21.5299
G01 X14.7312 Y21.4890
G01 X14.4825 Y21.4890
G01 X14.2372 Y21.5299
G01 X14.0020 Y21.6106
G01 X13.7833 Y21.7290
G01 X13.6609 Y21.8243
G01 X13.6084 Y21.8481
G01 X13.5509 Y21.8457
G01 X13.5006 Y21.8176
G01 X13.4685 Y21.7698
G01 X13.4633 Y21.7557
G01 X13.4549 Y21.7403
G01 X13.3793 Y21.6394
G01 X13.3669 Y21.6270
G01 X13.2660 Y21.5514
G01 X13.2506 Y21.5430
G01 X13.1315 Y21.4986
G01 X13.1165 Y21.4950
G01 X13.0679 Y21.4898
G01 X13.0613 Y21.4895
G01 X12.2668 Y21.4895
G00 Z2.0000
G00 X10.5168 Y22.7395
G01 F40.00
G01 Z-0.0499
G01 F80.00
G01 X11.0168 Y22.7395
G01 X11.0168 Y21.9895
G01 X11.7668 Y21.9895
G01 X11.7668 Y21.4895
G01 X10.9723 Y21.4895
G01 X10.9657 Y21.4898
G01 X10.9171 Y21.4950
G01 X10.9022 Y21.4986
G01 X10.7830 Y21.5430
G01 X10.7676 Y21.5514
G01 X10.6667 Y21.6270
G01 X10.6543 Y21.6394
G01 X10.5788 Y21.7403
G01 X10.5704 Y21.7557
G01 X10.5259 Y21.8748
G01 X10.5224 Y21.8898
G01 X10.5172 Y21.9384
G01 X10.5168 Y21.9450
G01 X10.5168 Y22.7395
G00 Z2.0000
G00 X10.5168 Y23.2395
G01 F40.00
G01 Z-0.0499
G01 F80.00
G01 X10.5168 Y24.0340
G01 X10.5172 Y24.0406
G01 X10.5224 Y24.0891
G01 X10.5259 Y24.1041
G01 X10.5704 Y24.2233
G01 X10.5788 Y24.2387
G01 X10.6543 Y24.3396
G01 X10.6667 Y24.3520
G01 X10.7676 Y24.4275
G01 X10.7830 Y24.4359
G01 X10.9022 Y24.4804
G01 X10.9171 Y24.4839
G01 X10.9657 Y24.4891
G01 X10.9723 Y24.4895
G01 X11.7668 Y24.4895
G01 X11.7668 Y23.9895
G01 X11.0168 Y23.9895
G01 X11.0168 Y23.2395
G01 X10.5168 Y23.2395
G00 Z2.0000
G00 X20.5947 Y26.8000
G01 F40.00
G01 Z-0.0499
G01 F80.00
G01 X20.5988 Y26.8424
G01 X20.5995 Y26.8559
G01 X20.5995 Y33.6854
G01 X20.5972 Y33.7764
G01 X20.6076 Y33.8339
G01 X20.6089 Y33.8432
G01 X20.6149 Y33.9024
G01 X20.6240 Y33.9315
G01 X20.6276 Y33.9461
G01 X20.6331 Y33.9766
G01 X20.6548 Y34.0309
G01 X20.6580 Y34.0398
G01 X20.6758 Y34.0966
G01 X20.6906 Y34.1232
G01 X20.6971 Y34.1368
G01 X20.7086 Y34.1656
G01 X20.7409 Y34.2146
G01 X20.7457 Y34.2225
G01 X20.7746 Y34.2745
G01 X20.7947 Y34.2980
G01 X20.8038 Y34.3101
G01 X20.8206 Y34.3355
G01 X20.8626 Y34.3776
G01 X20.8691 Y34.3846
G01 X20.9071 Y34.4289
G01 X20.9312 Y34.4475
G01 X20.9434 Y34.4583
G01 X22.0822 Y35.5971
G01 X22.1449 Y35.6631
G01 X22.1938 Y35.6971
G01 X22.2013 Y35.7027
G01 X22.2466 Y35.7397
G01 X22.2740 Y35.7541
G01 X22.2870 Y35.7619
G01 X22.3120 Y35.7793
G01 X22.3666 Y35.8028
G01 X22.3751 Y35.8068
G01 X22.4270 Y35.8339
G01 X22.4567 Y35.8425
G01 X22.4710 Y35.8475
G01 X22.4989 Y35.8595
G01 X22.5572 Y35.8715
G01 X22.5665 Y35.8738
G01 X22.6226 Y35.8899
G01 X22.6535 Y35.8923
G01 X22.6685 Y35.8944
G01 X22.6983 Y35.9005
G01 X22.7567 Y35.9005
G01 X22.7661 Y35.9008
G01 X22.8255 Y35.9053
G01 X22.8557 Y35.9015
G01 X22.8719 Y35.9005
G01 X43.9749 Y35.9005
G01 X44.0375 Y35.9171
G01 X44.0829 Y35.9625
G01 X44.0995 Y36.0251
G01 X44.0995 Y49.3854
G01 X44.0972 Y49.4764
G01 X44.1076 Y49.5339
G01 X44.1089 Y49.5432
G01 X44.1149 Y49.6024
G01 X44.1240 Y49.6315
G01 X44.1276 Y49.6461
G01 X44.1331 Y49.6766
G01 X44.1548 Y49.7309
G01 X44.1580 Y49.7398
G01 X44.1758 Y49.7966
G01 X44.1906 Y49.8232
G01 X44.1971 Y49.8368
G01 X44.2086 Y49.8656
G01 X44.2409 Y49.9146
G01 X44.2457 Y49.9225
G01 X44.2746 Y49.9745
G01 X44.2947 Y49.9980
G01 X44.3038 Y50.0101
G01 X44.3206 Y50.0355
G01 X44.3626 Y50.0776
G01 X44.3691 Y50.0846
G01 X44.4071 Y50.1289
G01 X44.4312 Y50.1475
G01 X44.4434 Y50.1583
G01 X45.7972 Y51.5121
G01 X45.8599 Y51.5781
G01 X45.9088 Y51.6121
G01 X45.9163 Y51.6177
G01 X45.9616 Y51.6547
G01 X45.9890 Y51.6691
G01 X46.0020 Y51.6769
G01 X46.0270 Y51.6943
G01 X46.0816 Y51.7178
G01 X46.0901 Y51.7218
G01 X46.1420 Y51.7489
G01 X46.1717 Y51.7575
G01 X46.1860 Y51.7625
G01 X46.2139 Y51.7745
G01 X46.2722 Y51.7865
G01 X46.2815 Y51.7888
G01 X46.3376 Y51.8049
G01 X46.3685 Y51.8073
G01 X46.3835 Y51.8094
G01 X46.4133 Y51.8155
G01 X46.4728 Y51.8155
G01 X46.4822 Y51.8159
G01 X46.5405 Y51.8203
G01 X46.5707 Y51.8165
G01 X46.5869 Y51.8155
G01 X48.0155 Y51.8155
G01 X48.0775 Y51.8321
G01 X48.1229 Y51.8775
G01 X48.1395 Y51.9401
G01 X48.1395 Y56.2982
G01 X48.1363 Y56.3269
G01 X48.1320 Y56.3455
G01 X48.1101 Y56.4226
G01 X48.1089 Y56.4386
G01 X48.1061 Y56.4566
G01 X48.1024 Y56.4729
G01 X48.1005 Y56.5469
G01 X48.0947 Y56.6255
G01 X48.0967 Y56.6415
G01 X48.0976 Y56.6596
G01 X48.0972 Y56.6764
G01 X48.1103 Y56.7491
G01 X48.1204 Y56.8273
G01 X48.1256 Y56.8426
G01 X48.1301 Y56.8601
G01 X48.1331 Y56.8766
G01 X48.1605 Y56.9453
G01 X48.1862 Y57.0199
G01 X48.1943 Y57.0338
G01 X48.2023 Y57.0500
G01 X48.2086 Y57.0656
G01 X48.2493 Y57.1274
G01 X48.2894 Y57.1952
G01 X48.3006 Y57.2077
G01 X48.3117 Y57.2221
G01 X48.3206 Y57.2355
G01 X48.3762 Y57.2914
G01 X48.4258 Y57.3462
G01 X48.4388 Y57.3558
G01 X48.4536 Y57.3685
G01 X49.9822 Y58.8971
G01 X50.0449 Y58.9631
G01 X50.0938 Y58.9971
G01 X50.1013 Y59.0027
G01 X50.1466 Y59.0397
G01 X50.1740 Y59.0541
G01 X50.1870 Y59.0619
G01 X50.2120 Y59.0793
G01 X50.2666 Y59.1028
G01 X50.2751 Y59.1068
G01 X50.3270 Y59.1339
G01 X50.3567 Y59.1425
G01 X50.3710 Y59.1475
G01 X50.3989 Y59.1595
G01 X50.4572 Y59.1715
G01 X50.4665 Y59.1738
G01 X50.5226 Y59.1899
G01 X50.5535 Y59.1923
G01 X50.5685 Y59.1944
G01 X50.5983 Y59.2005
G01 X50.6578 Y59.2005
G01 X50.6672 Y59.2009
G01 X50.7255 Y59.2053
G01 X50.7557 Y59.2015
G01 X50.7719 Y59.2005
G01 X82.8854 Y59.2005
G01 X82.9764 Y59.2028
G01 X83.0339 Y59.1924
G01 X83.0432 Y59.1911
G01 X83.1024 Y59.1851
G01 X83.1320 Y59.1758
G01 X83.1467 Y59.1722
G01 X83.1767 Y59.1669
G01 X83.2309 Y59.1452
G01 X83.2398 Y59.1420
G01 X83.2966 Y59.1242
G01 X83.3237 Y59.1091
G01 X83.3374 Y59.1027
G01 X83.3656 Y59.0914
G01 X83.4146 Y59.0591
G01 X83.4225 Y59.0543
G01 X83.4745 Y59.0254
G01 X83.4976 Y59.0056
G01 X83.5097 Y58.9965
G01 X83.5355 Y58.9794
G01 X83.5776 Y58.9374
G01 X83.5846 Y58.9309
G01 X83.6289 Y58.8929
G01 X83.6475 Y58.8688
G01 X83.6583 Y58.8566
G01 X85.3972 Y57.1178
G01 X85.4631 Y57.0551
G01 X85.4965 Y57.0070
G01 X85.5021 Y56.9996
G01 X85.5397 Y56.9534
G01 X85.5538 Y56.9264
G01 X85.5616 Y56.9135
G01 X85.5793 Y56.8880
G01 X85.6028 Y56.8333
G01 X85.6068 Y56.8249
G01 X85.6339 Y56.7730
G01 X85.6425 Y56.7433
G01 X85.6475 Y56.7290
G01 X85.6595 Y56.7011
G01 X85.6715 Y56.6428
G01 X85.6738 Y56.6336
G01 X85.6899 Y56.5774
G01 X85.6923 Y56.5465
G01 X85.6944 Y56.5315
G01 X85.7005 Y56.5017
G01 X85.7005 Y56.4433
G01 X85.7008 Y56.4339
G01 X85.7053 Y56.3745
G01 X85.7015 Y56.3443
G01 X85.7005 Y56.3281
G01 X85.7005 Y22.9665
G01 X85.7099 Y22.9183
G01 X85.7373 Y22.8776
G01 X86.5781 Y22.0368
G01 X86.6183 Y22.0099
G01 X86.6658 Y22.0005
G01 X102.2854 Y22.0005
G01 X102.3764 Y22.0028
G01 X102.4339 Y21.9924
G01 X102.4432 Y21.9911
G01 X102.5024 Y21.9851
G01 X102.5320 Y21.9758
G01 X102.5467 Y21.9722
G01 X102.5767 Y21.9669
G01 X102.6309 Y21.9452
G01 X102.6398 Y21.9420
G01 X102.6966 Y21.9242
G01 X102.7237 Y21.9091
G01 X102.7374 Y21.9027
G01 X102.7656 Y21.8914
G01 X102.8146 Y21.8591
G01 X102.8225 Y21.8543
G01 X102.8745 Y21.8254
G01 X102.8976 Y21.8056
G01 X102.9097 Y21.7965
G01 X102.9355 Y21.7794
G01 X102.9776 Y21.7374
G01 X102.9846 Y21.7309
G01 X103.0289 Y21.6929
G01 X103.0475 Y21.6688
G01 X103.0583 Y21.6566
G01 X107.1971 Y17.5178
G01 X107.2631 Y17.4551
G01 X107.2965 Y17.4071
G01 X107.3021 Y17.3995
G01 X107.3397 Y17.3534
G01 X107.3538 Y17.3264
G01 X107.3616 Y17.3135
G01 X107.3793 Y17.2880
G01 X107.4028 Y17.2333
G01 X107.4068 Y17.2249
G01 X107.4339 Y17.1730
G01 X107.4425 Y17.1433
G01 X107.4475 Y17.1290
G01 X107.4595 Y17.1011
G01 X107.4715 Y17.0428
G01 X107.4738 Y17.0336
G01 X107.4899 Y16.9774
G01 X107.4923 Y16.9465
G01 X107.4944 Y16.9315
G01 X107.5005 Y16.9017
G01 X107.5005 Y16.8422
G01 X107.5009 Y16.8328
G01 X107.5053 Y16.7745
G01 X107.5015 Y16.7443
G01 X107.5005 Y16.7281
G01 X107.5005 Y14.0570
G01 X107.5090 Y14.0120
G01 X107.5333 Y13.9730
G01 X107.6882 Y13.8048
G01 X107.8242 Y13.5966
G01 X107.9241 Y13.3689
G01 X107.9851 Y13.1278
G01 X108.0056 Y12.8800
G01 X107.9851 Y12.6322
G01 X107.9241 Y12.3911
G01 X107.8242 Y12.1634
G01 X107.6882 Y11.9552
G01 X107.5197 Y11.7723
G01 X107.3235 Y11.6195
G01 X107.1048 Y11.5012
G01 X106.8696 Y11.4204
G01 X106.6243 Y11.3795
G01 X106.3757 Y11.3795
G01 X106.1304 Y11.4204
G01 X105.8952 Y11.5012
G01 X105.6765 Y11.6195
G01 X105.4803 Y11.7723
G01 X105.3118 Y11.9552
G01 X105.3028 Y11.9690
G01 X105.2641 Y12.0067
G01 X105.2131 Y12.0244
G01 X105.1372 Y12.0163
G01 X104.7836 Y12.3699
G01 X104.8439 Y12.4973
G01 X104.8769 Y12.5897
G01 X104.9008 Y12.6849
G01 X104.9151 Y12.7813
G01 X104.9200 Y12.8800
G01 X104.9151 Y12.9787
G01 X104.9008 Y13.0751
G01 X104.8769 Y13.1703
G01 X104.8439 Y13.2627
G01 X104.7836 Y13.3901
G01 X105.1372 Y13.7437
G01 X105.2131 Y13.7356
G01 X105.2641 Y13.7533
G01 X105.3028 Y13.7910
G01 X105.3118 Y13.8048
G01 X105.4667 Y13.9730
G01 X105.4910 Y14.0120
G01 X105.4995 Y14.0570
G01 X105.4995 Y16.3335
G01 X105.4901 Y16.3817
G01 X105.4627 Y16.4224
G01 X101.9224 Y19.9627
G01 X101.8817 Y19.9901
G01 X101.8336 Y19.9995
G01 X86.2146 Y19.9995
G01 X86.1236 Y19.9972
G01 X86.0661 Y20.0076
G01 X86.0568 Y20.0089
G01 X85.9976 Y20.0149
G01 X85.9680 Y20.0242
G01 X85.9533 Y20.0278
G01 X85.9234 Y20.0331
G01 X85.8690 Y20.0548
G01 X85.8602 Y20.0580
G01 X85.8034 Y20.0758
G01 X85.7763 Y20.0909
G01 X85.7626 Y20.0973
G01 X85.7344 Y20.1086
G01 X85.6846 Y20.1414
G01 X85.6766 Y20.1462
G01 X85.6255 Y20.1746
G01 X85.6020 Y20.1948
G01 X85.5899 Y20.2038
G01 X85.5645 Y20.2206
G01 X85.5224 Y20.2626
G01 X85.5153 Y20.2691
G01 X85.4711 Y20.3071
G01 X85.4525 Y20.3312
G01 X85.4417 Y20.3434
G01 X84.0029 Y21.7822
G01 X83.9369 Y21.8449
G01 X83.9035 Y21.8929
G01 X83.8979 Y21.9005
G01 X83.8603 Y21.9466
G01 X83.8462 Y21.9736
G01 X83.8384 Y21.9865
G01 X83.8207 Y22.0119
G01 X83.7972 Y22.0666
G01 X83.7932 Y22.0751
G01 X83.7661 Y22.1270
G01 X83.7575 Y22.1567
G01 X83.7525 Y22.1710
G01 X83.7405 Y22.1989
G01 X83.7285 Y22.2572
G01 X83.7262 Y22.2665
G01 X83.7101 Y22.3226
G01 X83.7077 Y22.3535
G01 X83.7056 Y22.3685
G01 X83.6995 Y22.3983
G01 X83.6995 Y22.4567
G01 X83.6992 Y22.4661
G01 X83.6947 Y22.5255
G01 X83.6985 Y22.5557
G01 X83.6995 Y22.5719
G01 X83.6995 Y55.9342
G01 X83.6901 Y55.9817
G01 X83.6632 Y56.0219
G01 X82.5224 Y57.1627
G01 X82.4817 Y57.1901
G01 X82.4342 Y57.1995
G01 X51.1658 Y57.1995
G01 X51.1183 Y57.1901
G01 X51.0781 Y57.1632
G01 X50.1773 Y56.2624
G01 X50.1499 Y56.2217
G01 X50.1405 Y56.1742
G01 X50.1405 Y51.5316
G01 X50.1476 Y51.4898
G01 X50.1687 Y51.4523
G01 X50.2218 Y51.3875
G01 X50.3170 Y51.2093
G01 X50.3757 Y51.0160
G01 X50.3955 Y50.8150
G01 X50.3823 Y50.6817
G01 X50.3945 Y50.6147
G01 X50.4403 Y50.5642
G01 X50.5057 Y50.5455
G01 X57.1785 Y50.5455
G01 X57.2267 Y50.5549
G01 X57.2674 Y50.5823
G01 X58.9822 Y52.2971
G01 X59.0449 Y52.3631
G01 X59.0929 Y52.3965
G01 X59.1005 Y52.4021
G01 X59.1466 Y52.4397
G01 X59.1736 Y52.4538
G01 X59.1865 Y52.4616
G01 X59.2120 Y52.4793
G01 X59.2657 Y52.5024
G01 X59.2768 Y52.5077
G01 X59.3230 Y52.5498
G01 X59.3237 Y52.5509
G01 X59.3432 Y52.6102
G01 X59.3310 Y52.6714
G01 X59.3305 Y52.6726
G01 X59.2897 Y52.7199
G01 X59.2303 Y52.7412
G01 X59.1473 Y52.7484
G01 X58.9410 Y52.8037
G01 X58.7474 Y52.8940
G01 X58.5725 Y53.0165
G01 X58.4215 Y53.1675
G01 X58.2990 Y53.3424
G01 X58.2087 Y53.5360
G01 X58.1535 Y53.7423
G01 X58.1348 Y53.9550
G01 X58.1535 Y54.1677
G01 X58.2087 Y54.3740
G01 X58.2990 Y54.5676
G01 X58.4215 Y54.7425
G01 X58.5725 Y54.8935
G01 X58.7474 Y55.0160
G01 X58.9410 Y55.1063
G01 X59.1473 Y55.1615
G01 X59.3600 Y55.1802
G01 X59.5727 Y55.1615
G01 X59.7790 Y55.1063
G01 X59.9726 Y55.0160
G01 X60.1475 Y54.8935
G01 X60.2985 Y54.7425
G01 X60.4210 Y54.5676
G01 X60.5113 Y54.3740
G01 X60.5665 Y54.1677
G01 X60.5852 Y53.9550
G01 X60.5665 Y53.7423
G01 X60.5113 Y53.5360
G01 X60.4210 Y53.3424
G01 X60.2985 Y53.1675
G01 X60.1475 Y53.0165
G01 X59.9726 Y52.8940
G01 X59.8501 Y52.8369
G01 X59.7997 Y52.7938
G01 X59.7789 Y52.7316
G01 X59.7789 Y52.7303
G01 X59.7931 Y52.6663
G01 X59.8387 Y52.6182
G01 X59.9032 Y52.6005
G01 X63.8975 Y52.6005
G01 X63.9613 Y52.6182
G01 X64.0069 Y52.6663
G01 X64.0213 Y52.7310
G01 X64.0003 Y52.7938
G01 X63.9499 Y52.8369
G01 X63.8274 Y52.8940
G01 X63.6525 Y53.0165
G01 X63.5015 Y53.1675
G01 X63.3790 Y53.3424
G01 X63.2887 Y53.5360
G01 X63.2335 Y53.7423
G01 X63.2148 Y53.9550
G01 X63.2335 Y54.1677
G01 X63.2887 Y54.3740
G01 X63.3790 Y54.5676
G01 X63.5015 Y54.7425
G01 X63.6525 Y54.8935
G01 X63.8274 Y55.0160
G01 X64.0210 Y55.1063
G01 X64.2273 Y55.1615
G01 X64.4400 Y55.1802
G01 X64.6527 Y55.1615
G01 X64.8590 Y55.1063
G01 X65.0526 Y55.0160
G01 X65.2275 Y54.8935
G01 X65.3785 Y54.7425
G01 X65.5010 Y54.5676
G01 X65.5913 Y54.3740
G01 X65.6465 Y54.1677
G01 X65.6652 Y53.9550
G01 X65.6465 Y53.7423
G01 X65.5913 Y53.5360
G01 X65.5010 Y53.3424
G01 X65.3785 Y53.1675
G01 X65.2275 Y53.0165
G01 X65.0526 Y52.8940
G01 X64.9301 Y52.8369
G01 X64.8797 Y52.7938
G01 X64.8587 Y52.7310
G01 X64.8731 Y52.6663
G01 X64.9187 Y52.6182
G01 X64.9825 Y52.6005
G01 X67.5854 Y52.6005
G01 X67.6764 Y52.6028
G01 X67.7339 Y52.5924
G01 X67.7432 Y52.5911
G01 X67.8024 Y52.5851
G01 X67.8320 Y52.5758
G01 X67.8467 Y52.5722
G01 X67.8767 Y52.5669
G01 X67.9309 Y52.5452
G01 X67.9398 Y52.5420
G01 X67.9966 Y52.5242
G01 X68.0237 Y52.5091
G01 X68.0374 Y52.5027
G01 X68.0656 Y52.4914
G01 X68.1146 Y52.4591
G01 X68.1225 Y52.4543
G01 X68.1745 Y52.4254
G01 X68.1976 Y52.4056
G01 X68.2097 Y52.3965
G01 X68.2355 Y52.3794
G01 X68.2776 Y52.3374
G01 X68.2846 Y52.3309
G01 X68.3289 Y52.2929
G01 X68.3475 Y52.2688
G01 X68.3583 Y52.2566
G01 X70.1972 Y50.4178
G01 X70.2631 Y50.3551
G01 X70.2971 Y50.3062
G01 X70.3027 Y50.2987
G01 X70.3397 Y50.2534
G01 X70.3538 Y50.2264
G01 X70.3616 Y50.2135
G01 X70.3793 Y50.1880
G01 X70.4028 Y50.1333
G01 X70.4068 Y50.1249
G01 X70.4339 Y50.0730
G01 X70.4425 Y50.0433
G01 X70.4475 Y50.0290
G01 X70.4595 Y50.0011
G01 X70.4715 Y49.9428
G01 X70.4738 Y49.9336
G01 X70.4899 Y49.8774
G01 X70.4923 Y49.8465
G01 X70.4944 Y49.8315
G01 X70.5005 Y49.8017
G01 X70.5005 Y49.7422
G01 X70.5009 Y49.7328
G01 X70.5053 Y49.6745
G01 X70.5015 Y49.6443
G01 X70.5005 Y49.6281
G01 X70.5005 Y47.7665
G01 X70.5099 Y47.7183
G01 X70.5373 Y47.6776
G01 X71.3781 Y46.8368
G01 X71.4183 Y46.8099
G01 X71.4658 Y46.8005
G01 X74.4342 Y46.8005
G01 X74.4817 Y46.8099
G01 X74.5219 Y46.8368
G01 X75.1227 Y47.4376
G01 X75.1501 Y47.4783
G01 X75.1595 Y47.5264
G01 X75.1595 Y48.2223
G01 X75.1510 Y48.2680
G01 X75.1267 Y48.3070
G01 X74.9718 Y48.4752
G01 X74.9573 Y48.4975
G01 X74.9125 Y48.5387
G01 X74.8535 Y48.5537
G01 X74.7945 Y48.5387
G01 X74.7613 Y48.5083
G01 X74.7541 Y48.5035
G01 X74.7471 Y48.4940
G01 X74.5797 Y48.3123
G01 X74.3835 Y48.1595
G01 X74.1648 Y48.0412
G01 X73.9296 Y47.9604
G01 X73.6843 Y47.9195
G01 X73.4357 Y47.9195
G01 X73.1904 Y47.9604
G01 X72.9552 Y48.0412
G01 X72.7365 Y48.1595
G01 X72.5403 Y48.3123
G01 X72.3718 Y48.4952
G01 X72.2358 Y48.7034
G01 X72.1359 Y48.9311
G01 X72.0749 Y49.1722
G01 X72.0544 Y49.4200
G01 X72.0749 Y49.6678
G01 X72.1359 Y49.9089
G01 X72.2358 Y50.1366
G01 X72.3588 Y50.3248
G01 X72.3718 Y50.3448
G01 X72.5403 Y50.5277
G01 X72.7365 Y50.6805
G01 X72.9552 Y50.7988
G01 X73.1904 Y50.8796
G01 X73.4357 Y50.9205
G01 X73.6843 Y50.9205
G01 X73.9296 Y50.8796
G01 X74.1648 Y50.7988
G01 X74.3835 Y50.6805
G01 X74.5797 Y50.5277
G01 X74.7482 Y50.3448
G01 X74.7627 Y50.3225
G01 X74.8075 Y50.2813
G01 X74.8665 Y50.2663
G01 X74.9255 Y50.2813
G01 X74.9586 Y50.3117
G01 X74.9659 Y50.3165
G01 X74.9729 Y50.3260
G01 X75.1403 Y50.5077
G01 X75.3365 Y50.6605
G01 X75.5552 Y50.7788
G01 X75.7904 Y50.8596
G01 X76.0357 Y50.9005
G01 X76.2843 Y50.9005
G01 X76.5296 Y50.8596
G01 X76.7648 Y50.7788
G01 X76.9835 Y50.6605
G01 X77.1060 Y50.5652
G01 X77.1584 Y50.5413
G01 X77.2159 Y50.5437
G01 X77.2662 Y50.5719
G01 X77.2983 Y50.6197
G01 X77.3035 Y50.6338
G01 X77.3120 Y50.6492
G01 X77.3875 Y50.7501
G01 X77.3999 Y50.7625
G01 X77.5008 Y50.8380
G01 X77.5162 Y50.8465
G01 X77.6354 Y50.8909
G01 X77.6503 Y50.8944
G01 X77.6989 Y50.8996
G01 X77.7055 Y50.9000
G01 X78.5000 Y50.9000
G01 X78.5000 Y50.4000
G01 X77.7500 Y50.4000
G01 X77.7500 Y48.4007
G01 X77.7500 Y48.4000
G01 X77.7507 Y48.4000
G01 X78.5000 Y48.4000
G01 X78.5000 Y47.9000
G01 X77.7055 Y47.9000
G01 X77.6989 Y47.9004
G01 X77.6503 Y47.9056
G01 X77.6354 Y47.9091
G01 X77.5162 Y47.9535
G01 X77.5008 Y47.9620
G01 X77.3999 Y48.0375
G01 X77.3879 Y48.0495
G01 X77.3838 Y48.0549
G01 X77.3360 Y48.0934
G01 X77.2757 Y48.1043
G01 X77.2175 Y48.0849
G01 X77.1757 Y48.0400
G01 X77.1605 Y47.9806
G01 X77.1605 Y47.0692
G01 X77.1644 Y46.9891
G01 X77.1526 Y46.9111
G01 X77.1451 Y46.8376
G01 X77.1403 Y46.8222
G01 X77.1362 Y46.8045
G01 X77.1336 Y46.7879
G01 X77.1063 Y46.7140
G01 X77.0842 Y46.6434
G01 X77.0763 Y46.6293
G01 X77.0688 Y46.6128
G01 X77.0629 Y46.5971
G01 X77.0213 Y46.5301
G01 X76.9854 Y46.4655
G01 X76.9749 Y46.4533
G01 X76.9642 Y46.4387
G01 X76.9553 Y46.4244
G01 X76.9010 Y46.3672
G01 X76.8529 Y46.3111
G01 X76.8401 Y46.3012
G01 X76.8267 Y46.2891
G01 X76.8151 Y46.2769
G01 X76.7544 Y46.2347
G01 X76.7403 Y46.2240
G01 X76.7281 Y46.2132
G01 X75.6178 Y45.1029
G01 X75.5551 Y45.0369
G01 X75.5071 Y45.0035
G01 X75.4995 Y44.9979
G01 X75.4534 Y44.9603
G01 X75.4264 Y44.9462
G01 X75.4135 Y44.9384
G01 X75.3880 Y44.9207
G01 X75.3333 Y44.8972
G01 X75.3249 Y44.8932
G01 X75.2730 Y44.8661
G01 X75.2433 Y44.8575
G01 X75.2290 Y44.8525
G01 X75.2011 Y44.8405
G01 X75.1428 Y44.8285
G01 X75.1335 Y44.8262
G01 X75.0774 Y44.8101
G01 X75.0465 Y44.8077
G01 X75.0315 Y44.8056
G01 X75.0017 Y44.7995
G01 X74.9433 Y44.7995
G01 X74.9339 Y44.7992
G01 X74.8745 Y44.7947
G01 X74.8443 Y44.7985
G01 X74.8281 Y44.7995
G01 X71.0146 Y44.7995
G01 X70.9236 Y44.7972
G01 X70.8661 Y44.8076
G01 X70.8568 Y44.8089
G01 X70.7976 Y44.8149
G01 X70.7680 Y44.8242
G01 X70.7533 Y44.8278
G01 X70.7234 Y44.8331
G01 X70.6690 Y44.8548
G01 X70.6602 Y44.8580
G01 X70.6034 Y44.8758
G01 X70.5763 Y44.8909
G01 X70.5626 Y44.8973
G01 X70.5344 Y44.9086
G01 X70.4846 Y44.9414
G01 X70.4766 Y44.9462
G01 X70.4255 Y44.9746
G01 X70.4020 Y44.9948
G01 X70.3899 Y45.0038
G01 X70.3645 Y45.0206
G01 X70.3224 Y45.0626
G01 X70.3153 Y45.0691
G01 X70.2711 Y45.1071
G01 X70.2525 Y45.1312
G01 X70.2417 Y45.1434
G01 X68.8029 Y46.5822
G01 X68.7369 Y46.6449
G01 X68.7035 Y46.6929
G01 X68.6979 Y46.7005
G01 X68.6603 Y46.7466
G01 X68.6462 Y46.7736
G01 X68.6384 Y46.7865
G01 X68.6207 Y46.8119
G01 X68.5972 Y46.8666
G01 X68.5932 Y46.8751
G01 X68.5661 Y46.9270
G01 X68.5575 Y46.9567
G01 X68.5525 Y46.9710
G01 X68.5405 Y46.9989
G01 X68.5285 Y47.0572
G01 X68.5262 Y47.0665
G01 X68.5101 Y47.1226
G01 X68.5077 Y47.1535
G01 X68.5056 Y47.1685
G01 X68.4995 Y47.1983
G01 X68.4995 Y47.2567
G01 X68.4992 Y47.2661
G01 X68.4947 Y47.3255
G01 X68.4985 Y47.3557
G01 X68.4995 Y47.3719
G01 X68.4995 Y49.2336
G01 X68.4901 Y49.2817
G01 X68.4627 Y49.3224
G01 X67.2224 Y50.5627
G01 X67.1817 Y50.5901
G01 X67.1336 Y50.5995
G01 X60.1658 Y50.5995
G01 X60.1183 Y50.5901
G01 X60.0781 Y50.5632
G01 X59.0531 Y49.5381
G01 X59.0205 Y49.4821
G01 X59.0205 Y49.4179
G01 X59.0526 Y49.3623
G01 X60.2971 Y48.1178
G01 X60.3631 Y48.0551
G01 X60.3965 Y48.0071
G01 X60.4021 Y47.9995
G01 X60.4397 Y47.9534
G01 X60.4538 Y47.9264
G01 X60.4616 Y47.9135
G01 X60.4793 Y47.8880
G01 X60.5028 Y47.8333
G01 X60.5068 Y47.8249
G01 X60.5339 Y47.7730
G01 X60.5425 Y47.7433
G01 X60.5475 Y47.7290
G01 X60.5595 Y47.7011
G01 X60.5715 Y47.6428
G01 X60.5738 Y47.6336
G01 X60.5899 Y47.5774
G01 X60.5923 Y47.5465
G01 X60.5944 Y47.5315
G01 X60.6005 Y47.5017
G01 X60.6005 Y47.4433
G01 X60.6008 Y47.4338
G01 X60.6053 Y47.3745
G01 X60.6015 Y47.3443
G01 X60.6005 Y47.3281
G01 X60.6005 Y9.9911
G01 X60.6062 Y9.9531
G01 X60.6226 Y9.9199
G01 X60.6871 Y9.8276
G01 X60.7796 Y9.6293
G01 X60.8362 Y9.4180
G01 X60.8553 Y9.2000
G01 X60.8362 Y8.9820
G01 X60.7796 Y8.7707
G01 X60.6871 Y8.5724
G01 X60.6229 Y8.4807
G01 X60.6062 Y8.4469
G01 X60.6005 Y8.4096
G01 X60.6005 Y8.3658
G01 X60.6099 Y8.3183
G01 X60.6368 Y8.2781
G01 X60.7781 Y8.1368
G01 X60.8183 Y8.1099
G01 X60.8658 Y8.1005
G01 X62.0317 Y8.1005
G01 X62.0880 Y8.1140
G01 X62.1320 Y8.1516
G01 X62.1541 Y8.2051
G01 X62.1496 Y8.2628
G01 X62.1193 Y8.3122
G01 X62.0384 Y8.3931
G01 X61.9129 Y8.5724
G01 X61.8204 Y8.7707
G01 X61.7638 Y8.9820
G01 X61.7447 Y9.2000
G01 X61.7638 Y9.4180
G01 X61.8204 Y9.6293
G01 X61.9129 Y9.8276
G01 X62.0384 Y10.0069
G01 X62.1931 Y10.1616
G01 X62.3724 Y10.2871
G01 X62.5707 Y10.3796
G01 X62.7820 Y10.4362
G01 X63.0000 Y10.4553
G01 X63.2180 Y10.4362
G01 X63.4293 Y10.3796
G01 X63.6276 Y10.2871
G01 X63.8069 Y10.1616
G01 X63.9616 Y10.0069
G01 X64.0871 Y9.8276
G01 X64.1796 Y9.6293
G01 X64.2362 Y9.4180
G01 X64.2553 Y9.2000
G01 X64.2362 Y8.9820
G01 X64.1796 Y8.7707
G01 X64.0871 Y8.5724
G01 X63.9616 Y8.3931
G01 X63.8807 Y8.3122
G01 X63.8504 Y8.2628
G01 X63.8459 Y8.2051
G01 X63.8680 Y8.1516
G01 X63.9120 Y8.1140
G01 X63.9683 Y8.1005
G01 X92.1342 Y8.1005
G01 X92.1817 Y8.1099
G01 X92.2219 Y8.1368
G01 X92.7627 Y8.6776
G01 X92.7901 Y8.7183
G01 X92.7995 Y8.7665
G01 X92.7995 Y9.2441
G01 X92.7988 Y9.2576
G01 X92.7947 Y9.3000
G01 X92.8137 Y9.4930
G01 X92.8155 Y9.5044
G01 X92.8438 Y9.5946
G01 X92.8704 Y9.6823
G01 X92.8772 Y9.6990
G01 X92.9211 Y9.7781
G01 X92.9630 Y9.8564
G01 X92.9678 Y9.8630
G01 X92.9764 Y9.8766
G01 X93.0330 Y9.9425
G01 X93.0883 Y10.0098
G01 X93.0943 Y10.0152
G01 X93.1090 Y10.0304
G01 X93.1752 Y10.0816
G01 X93.2404 Y10.1350
G01 X93.2474 Y10.1392
G01 X93.2695 Y10.1542
G01 X93.3422 Y10.1898
G01 X93.4136 Y10.2279
G01 X93.4225 Y10.2310
G01 X93.4404 Y10.2381
G01 X93.4514 Y10.2432
G01 X93.5274 Y10.2629
G01 X93.6039 Y10.2860
G01 X93.6149 Y10.2871
G01 X93.6332 Y10.2904
G01 X93.6477 Y10.2941
G01 X93.7233 Y10.2979
G01 X93.8000 Y10.3053
G01 X93.8146 Y10.3039
G01 X93.8324 Y10.3035
G01 X93.8509 Y10.3044
G01 X93.9223 Y10.2935
G01 X93.9961 Y10.2860
G01 X94.0136 Y10.2807
G01 X94.0302 Y10.2770
G01 X94.0521 Y10.2736
G01 X94.1165 Y10.2497
G01 X94.1847 Y10.2288
G01 X94.2040 Y10.2185
G01 X94.2188 Y10.2118
G01 X94.2429 Y10.2029
G01 X94.2981 Y10.1685
G01 X94.3585 Y10.1359
G01 X94.3782 Y10.1198
G01 X94.3908 Y10.1107
G01 X94.4156 Y10.0953
G01 X94.4604 Y10.0527
G01 X94.4672 Y10.0468
G01 X94.5109 Y10.0109
G01 X94.5293 Y9.9885
G01 X94.5393 Y9.9777
G01 X94.5631 Y9.9551
G01 X94.5961 Y9.9077
G01 X94.6020 Y9.8999
G01 X94.6359 Y9.8585
G01 X94.6513 Y9.8298
G01 X94.6584 Y9.8181
G01 X94.6793 Y9.7880
G01 X94.7007 Y9.7382
G01 X94.7053 Y9.7287
G01 X94.7288 Y9.6847
G01 X94.7393 Y9.6501
G01 X94.7438 Y9.6379
G01 X94.7595 Y9.6011
G01 X94.7698 Y9.5514
G01 X94.7726 Y9.5404
G01 X94.7860 Y9.4961
G01 X94.7898 Y9.4573
G01 X94.7917 Y9.4445
G01 X94.8005 Y9.4017
G01 X94.8005 Y9.3546
G01 X94.8012 Y9.3424
G01 X94.8053 Y9.3000
G01 X94.8012 Y9.2576
G01 X94.8005 Y9.2441
G01 X94.8005 Y8.3146
G01 X94.8028 Y8.2236
G01 X94.7924 Y8.1661
G01 X94.7911 Y8.1568
G01 X94.7851 Y8.0976
G01 X94.7758 Y8.0680
G01 X94.7722 Y8.0533
G01 X94.7669 Y8.0233
G01 X94.7448 Y7.9681
G01 X94.7417 Y7.9592
G01 X94.7242 Y7.9034
G01 X94.7094 Y7.8768
G01 X94.7029 Y7.8631
G01 X94.6914 Y7.8344
G01 X94.6586 Y7.7846
G01 X94.6538 Y7.7766
G01 X94.6254 Y7.7255
G01 X94.6056 Y7.7024
G01 X94.5965 Y7.6903
G01 X94.5794 Y7.6645
G01 X94.5374 Y7.6224
G01 X94.5308 Y7.6153
G01 X94.4929 Y7.5711
G01 X94.4688 Y7.5525
G01 X94.4566 Y7.5417
G01 X93.3178 Y6.4029
G01 X93.2551 Y6.3369
G01 X93.2071 Y6.3035
G01 X93.1995 Y6.2979
G01 X93.1534 Y6.2603
G01 X93.1264 Y6.2462
G01 X93.1135 Y6.2384
G01 X93.0880 Y6.2207
G01 X93.0333 Y6.1972
G01 X93.0249 Y6.1932
G01 X92.9730 Y6.1661
G01 X92.9433 Y6.1575
G01 X92.9290 Y6.1525
G01 X92.9011 Y6.1405
G01 X92.8428 Y6.1285
G01 X92.8335 Y6.1262
G01 X92.7774 Y6.1101
G01 X92.7465 Y6.1077
G01 X92.7315 Y6.1056
G01 X92.7017 Y6.0995
G01 X92.6433 Y6.0995
G01 X92.6339 Y6.0992
G01 X92.5745 Y6.0947
G01 X92.5443 Y6.0985
G01 X92.5281 Y6.0995
G01 X60.4146 Y6.0995
G01 X60.3236 Y6.0972
G01 X60.2651 Y6.1077
G01 X60.2557 Y6.1090
G01 X60.1976 Y6.1149
G01 X60.1680 Y6.1242
G01 X60.1533 Y6.1278
G01 X60.1233 Y6.1331
G01 X60.0690 Y6.1548
G01 X60.0602 Y6.1580
G01 X60.0034 Y6.1758
G01 X59.9768 Y6.1906
G01 X59.9632 Y6.1971
G01 X59.9344 Y6.2086
G01 X59.8846 Y6.2414
G01 X59.8766 Y6.2462
G01 X59.8255 Y6.2746
G01 X59.8024 Y6.2944
G01 X59.7903 Y6.3035
G01 X59.7645 Y6.3206
G01 X59.7224 Y6.3626
G01 X59.7154 Y6.3691
G01 X59.6711 Y6.4071
G01 X59.6525 Y6.4312
G01 X59.6417 Y6.4434
G01 X58.9029 Y7.1822
G01 X58.8369 Y7.2449
G01 X58.8035 Y7.2929
G01 X58.7979 Y7.3005
G01 X58.7603 Y7.3466
G01 X58.7462 Y7.3736
G01 X58.7384 Y7.3865
G01 X58.7207 Y7.4119
G01 X58.6972 Y7.4666
G01 X58.6932 Y7.4751
G01 X58.6661 Y7.5270
G01 X58.6575 Y7.5567
G01 X58.6525 Y7.5710
G01 X58.6405 Y7.5989
G01 X58.6285 Y7.6572
G01 X58.6262 Y7.6665
G01 X58.6101 Y7.7226
G01 X58.6077 Y7.7535
G01 X58.6056 Y7.7685
G01 X58.5995 Y7.7983
G01 X58.5995 Y7.8567
G01 X58.5992 Y7.8661
G01 X58.5947 Y7.9255
G01 X58.5985 Y7.9557
G01 X58.5995 Y7.9719
G01 X58.5995 Y8.4089
G01 X58.5938 Y8.4469
G01 X58.5771 Y8.4807
G01 X58.5129 Y8.5724
G01 X58.4204 Y8.7707
G01 X58.3638 Y8.9820
G01 X58.3447 Y9.2000
G01 X58.3638 Y9.4180
G01 X58.4204 Y9.6293
G01 X58.5129 Y9.8276
G01 X58.5774 Y9.9199
G01 X58.5938 Y9.9531
G01 X58.5995 Y9.9911
G01 X58.5995 Y46.9342
G01 X58.5901 Y46.9817
G01 X58.5627 Y47.0224
G01 X57.0774 Y48.5077
G01 X57.0367 Y48.5351
G01 X56.9886 Y48.5445
G01 X50.4556 Y48.5445
G01 X50.4075 Y48.5351
G01 X50.4000 Y48.5321
G01 X50.3737 Y48.5250
G01 X49.8900 Y48.5250
G01 X49.8900 Y48.8000
G01 X48.3907 Y48.8000
G01 X48.3900 Y48.8000
G01 X48.3900 Y48.7993
G01 X48.3900 Y48.5250
G01 X47.8900 Y48.5250
G01 X47.8900 Y48.8445
G01 X47.8904 Y48.8511
G01 X47.8956 Y48.8997
G01 X47.8991 Y48.9146
G01 X47.9435 Y49.0338
G01 X47.9541 Y49.0530
G01 X47.9690 Y49.1058
G01 X47.9629 Y49.1420
G01 X47.9630 Y49.1507
G01 X47.9043 Y49.3440
G01 X47.8845 Y49.5450
G01 X47.8977 Y49.6783
G01 X47.8855 Y49.7453
G01 X47.8397 Y49.7958
G01 X47.7743 Y49.8145
G01 X46.9814 Y49.8145
G01 X46.9333 Y49.8051
G01 X46.8926 Y49.7777
G01 X46.1368 Y49.0219
G01 X46.1099 Y48.9817
G01 X46.1005 Y48.9342
G01 X46.1005 Y36.0251
G01 X46.1171 Y35.9625
G01 X46.1625 Y35.9171
G01 X46.2245 Y35.9005
G01 X50.4854 Y35.9005
G01 X50.5764 Y35.9028
G01 X50.6339 Y35.8924
G01 X50.6432 Y35.8911
G01 X50.7024 Y35.8851
G01 X50.7320 Y35.8758
G01 X50.7467 Y35.8722
G01 X50.7767 Y35.8669
G01 X50.8309 Y35.8452
G01 X50.8398 Y35.8420
G01 X50.8966 Y35.8242
G01 X50.9237 Y35.8091
G01 X50.9374 Y35.8027
G01 X50.9656 Y35.7914
G01 X51.0146 Y35.7591
G01 X51.0225 Y35.7543
G01 X51.0745 Y35.7254
G01 X51.0976 Y35.7056
G01 X51.1097 Y35.6965
G01 X51.1355 Y35.6794
G01 X51.1776 Y35.6374
G01 X51.1847 Y35.6308
G01 X51.2289 Y35.5929
G01 X51.2475 Y35.5688
G01 X51.2583 Y35.5566
G01 X53.8972 Y32.9178
G01 X53.9631 Y32.8551
G01 X53.9971 Y32.8062
G01 X54.0027 Y32.7987
G01 X54.0397 Y32.7534
G01 X54.0538 Y32.7264
G01 X54.0616 Y32.7135
G01 X54.0793 Y32.6880
G01 X54.1028 Y32.6333
G01 X54.1068 Y32.6249
G01 X54.1339 Y32.5730
G01 X54.1425 Y32.5433
G01 X54.1475 Y32.5290
G01 X54.1595 Y32.5011
G01 X54.1715 Y32.4428
G01 X54.1738 Y32.4336
G01 X54.1899 Y32.3774
G01 X54.1923 Y32.3465
G01 X54.1944 Y32.3315
G01 X54.2005 Y32.3017
G01 X54.2005 Y32.2422
G01 X54.2009 Y32.2328
G01 X54.2053 Y32.1745
G01 X54.2015 Y32.1443
G01 X54.2005 Y32.1281
G01 X54.2005 Y23.7559
G01 X54.2012 Y23.7424
G01 X54.2053 Y23.7000
G01 X54.1863 Y23.5070
G01 X54.1845 Y23.4956
G01 X54.1561 Y23.4053
G01 X54.1295 Y23.3177
G01 X54.1228 Y23.3010
G01 X54.0789 Y23.2219
G01 X54.0370 Y23.1436
G01 X54.0322 Y23.1370
G01 X54.0236 Y23.1234
G01 X53.9670 Y23.0575
G01 X53.9117 Y22.9902
G01 X53.9057 Y22.9848
G01 X53.8909 Y22.9696
G01 X53.8248 Y22.9184
G01 X53.7596 Y22.8650
G01 X53.7526 Y22.8608
G01 X53.7305 Y22.8458
G01 X53.6578 Y22.8102
G01 X53.5864 Y22.7721
G01 X53.5775 Y22.7690
G01 X53.5596 Y22.7619
G01 X53.5486 Y22.7568
G01 X53.4727 Y22.7371
G01 X53.3961 Y22.7140
G01 X53.3851 Y22.7129
G01 X53.3668 Y22.7096
G01 X53.3523 Y22.7059
G01 X53.2767 Y22.7021
G01 X53.2000 Y22.6947
G01 X53.1854 Y22.6961
G01 X53.1676 Y22.6965
G01 X53.1491 Y22.6956
G01 X53.0777 Y22.7065
G01 X53.0039 Y22.7140
G01 X52.9864 Y22.7193
G01 X52.9698 Y22.7230
G01 X52.9479 Y22.7264
G01 X52.8835 Y22.7503
G01 X52.8153 Y22.7712
G01 X52.7960 Y22.7815
G01 X52.7812 Y22.7882
G01 X52.7571 Y22.7971
G01 X52.7019 Y22.8315
G01 X52.6415 Y22.8641
G01 X52.6218 Y22.8802
G01 X52.6092 Y22.8893
G01 X52.5844 Y22.9047
G01 X52.5396 Y22.9473
G01 X52.5328 Y22.9532
G01 X52.4891 Y22.9891
G01 X52.4707 Y23.0115
G01 X52.4607 Y23.0223
G01 X52.4369 Y23.0449
G01 X52.4039 Y23.0923
G01 X52.3980 Y23.1001
G01 X52.3641 Y23.1415
G01 X52.3487 Y23.1702
G01 X52.3416 Y23.1819
G01 X52.3207 Y23.2119
G01 X52.2993 Y23.2618
G01 X52.2947 Y23.2713
G01 X52.2712 Y23.3153
G01 X52.2607 Y23.3499
G01 X52.2562 Y23.3621
G01 X52.2405 Y23.3989
G01 X52.2302 Y23.4486
G01 X52.2274 Y23.4596
G01 X52.2140 Y23.5039
G01 X52.2102 Y23.5427
G01 X52.2082 Y23.5555
G01 X52.1995 Y23.5983
G01 X52.1995 Y23.6454
G01 X52.1988 Y23.6576
G01 X52.1947 Y23.7000
G01 X52.1988 Y23.7424
G01 X52.1995 Y23.7559
G01 X52.1995 Y31.7336
G01 X52.1901 Y31.7817
G01 X52.1627 Y31.8224
G01 X50.1224 Y33.8627
G01 X50.0817 Y33.8901
G01 X50.0336 Y33.8995
G01 X45.1292 Y33.8995
G01 X45.0491 Y33.8956
G01 X45.0331 Y33.8981
G01 X45.0137 Y33.8995
G01 X23.2665 Y33.8995
G01 X23.2183 Y33.8901
G01 X23.1776 Y33.8627
G01 X22.6368 Y33.3219
G01 X22.6099 Y33.2817
G01 X22.6005 Y33.2342
G01 X22.6005 Y26.8559
G01 X22.6012 Y26.8424
G01 X22.6053 Y26.8000
G01 X22.6012 Y26.7576
G01 X22.6005 Y26.7441
G01 X22.6005 Y18.3658
G01 X22.6099 Y18.3183
G01 X22.6368 Y18.2781
G01 X23.3679 Y17.5470
G01 X23.3779 Y17.5379
G01 X23.4109 Y17.5109
G01 X23.5339 Y17.3610
G01 X23.5406 Y17.3516
G01 X23.5846 Y17.2675
G01 X23.6276 Y17.1870
G01 X23.6347 Y17.1704
G01 X23.6596 Y17.0834
G01 X23.6853 Y16.9984
G01 X23.6866 Y16.9904
G01 X23.6901 Y16.9747
G01 X23.6967 Y16.8881
G01 X23.7052 Y16.8014
G01 X23.7047 Y16.7933
G01 X23.7050 Y16.7721
G01 X23.6944 Y16.6890
G01 X23.6862 Y16.6052
G01 X23.6841 Y16.5974
G01 X23.6791 Y16.5711
G01 X23.6529 Y16.4944
G01 X23.6294 Y16.4171
G01 X23.6253 Y16.4086
G01 X23.6176 Y16.3910
G01 X23.6135 Y16.3795
G01 X23.5737 Y16.3119
G01 X23.5359 Y16.2415
G01 X23.5289 Y16.2329
G01 X23.5183 Y16.2177
G01 X23.5106 Y16.2048
G01 X23.4598 Y16.1486
G01 X23.4109 Y16.0891
G01 X23.3995 Y16.0798
G01 X23.3867 Y16.0675
G01 X23.3742 Y16.0538
G01 X23.3160 Y16.0110
G01 X23.2585 Y15.9641
G01 X23.2424 Y15.9555
G01 X23.2280 Y15.9464
G01 X23.2102 Y15.9334
G01 X23.1477 Y15.9046
G01 X23.0847 Y15.8712
G01 X23.0638 Y15.8648
G01 X23.0486 Y15.8591
G01 X23.0253 Y15.8484
G01 X22.9621 Y15.8337
G01 X22.8961 Y15.8140
G01 X22.8708 Y15.8115
G01 X22.8555 Y15.8090
G01 X22.8271 Y15.8024
G01 X22.7653 Y15.8008
G01 X22.7563 Y15.8002
G01 X22.7000 Y15.7947
G01 X22.6711 Y15.7975
G01 X22.6564 Y15.7980
G01 X22.6236 Y15.7972
G01 X22.5668 Y15.8074
G01 X22.5571 Y15.8087
G01 X22.5039 Y15.8140
G01 X22.4727 Y15.8234
G01 X22.4593 Y15.8266
G01 X22.4233 Y15.8331
G01 X22.3730 Y15.8532
G01 X22.3630 Y15.8567
G01 X22.3153 Y15.8712
G01 X22.2834 Y15.8882
G01 X22.2716 Y15.8937
G01 X22.2344 Y15.9086
G01 X22.1920 Y15.9365
G01 X22.1822 Y15.9423
G01 X22.1415 Y15.9641
G01 X22.1113 Y15.9888
G01 X22.1009 Y15.9965
G01 X22.0645 Y16.0206
G01 X22.0311 Y16.0539
G01 X22.0221 Y16.0621
G01 X21.9891 Y16.0891
G01 X21.9621 Y16.1221
G01 X21.9530 Y16.1321
G01 X20.9029 Y17.1822
G01 X20.8369 Y17.2449
G01 X20.8035 Y17.2929
G01 X20.7979 Y17.3005
G01 X20.7603 Y17.3466
G01 X20.7462 Y17.3736
G01 X20.7384 Y17.3865
G01 X20.7207 Y17.4119
G01 X20.6972 Y17.4666
G01 X20.6932 Y17.4751
G01 X20.6661 Y17.5270
G01 X20.6575 Y17.5567
G01 X20.6525 Y17.5710
G01 X20.6405 Y17.5989
G01 X20.6285 Y17.6572
G01 X20.6262 Y17.6665
G01 X20.6101 Y17.7226
G01 X20.6077 Y17.7535
G01 X20.6056 Y17.7685
G01 X20.5995 Y17.7983
G01 X20.5995 Y17.8567
G01 X20.5992 Y17.8661
G01 X20.5947 Y17.9255
G01 X20.5985 Y17.9557
G01 X20.5995 Y17.9719
G01 X20.5995 Y26.7441
G01 X20.5988 Y26.7576
G01 X20.5947 Y26.8000
G00 Z2.0000
G00 X20.8824 Y33.7100
G01 F40.00
G01 Z-0.0499
G01 F80.00
G01 X20.8856 Y33.7704
G01 X20.8868 Y33.7803
G01 X20.8959 Y33.8400
G01 X20.9104 Y33.8987
G01 X20.9131 Y33.9084
G01 X20.9162 Y33.9179
G01 X20.9368 Y33.9747
G01 X20.9624 Y34.0295
G01 X20.9669 Y34.0384
G01 X20.9978 Y34.0904
G01 X21.0031 Y34.0988
G01 X21.0089 Y34.1070
G01 X21.0451 Y34.1554
G01 X21.0887 Y34.2038
G01 X22.2929 Y35.4081
G01 X22.3405 Y35.4515
G01 X22.3525 Y35.4611
G01 X22.3930 Y35.4911
G01 X22.4096 Y35.5022
G01 X22.4616 Y35.5331
G01 X22.4705 Y35.5376
G01 X22.5253 Y35.5632
G01 X22.5821 Y35.5838
G01 X22.5916 Y35.5869
G01 X22.6502 Y35.6019
G01 X22.6698 Y35.6058
G01 X22.7197 Y35.6132
G01 X22.7350 Y35.6149
G01 X22.7993 Y35.6179
G01 X44.3821 Y35.6179
G01 X44.3821 Y49.4007
G01 X44.3849 Y49.4604
G01 X44.3868 Y49.4803
G01 X44.3959 Y49.5400
G01 X44.4104 Y49.5987
G01 X44.4162 Y49.6179
G01 X44.4368 Y49.6747
G01 X44.4624 Y49.7295
G01 X44.4718 Y49.7471
G01 X44.5031 Y49.7988
G01 X44.5389 Y49.8475
G01 X44.5485 Y49.8595
G01 X44.5887 Y49.9038
G01 X46.0112 Y51.3263
G01 X46.0596 Y51.3699
G01 X46.1080 Y51.4061
G01 X46.1246 Y51.4172
G01 X46.1719 Y51.4455
G01 X46.1855 Y51.4526
G01 X46.2403 Y51.4782
G01 X46.2971 Y51.4988
G01 X46.3117 Y51.5034
G01 X46.3652 Y51.5169
G01 X46.3848 Y51.5208
G01 X46.4446 Y51.5294
G01 X46.5097 Y51.5328
G01 X48.4221 Y51.5329
G01 X48.4221 Y56.3654
G01 X48.4147 Y56.3865
G01 X48.4116 Y56.3967
G01 X48.3981 Y56.4502
G01 X48.3950 Y56.4652
G01 X48.3856 Y56.5296
G01 X48.3849 Y56.5396
G01 X48.3821 Y56.6000
G01 X48.3849 Y56.6604
G01 X48.3868 Y56.6803
G01 X48.3959 Y56.7400
G01 X48.4116 Y56.8033
G01 X48.4162 Y56.8179
G01 X48.4368 Y56.8747
G01 X48.4624 Y56.9295
G01 X48.4718 Y56.9471
G01 X48.5031 Y56.9988
G01 X48.5389 Y57.0475
G01 X48.5516 Y57.0630
G01 X48.5919 Y57.1071
G01 X50.1962 Y58.7113
G01 X50.2446 Y58.7549
G01 X50.2930 Y58.7911
G01 X50.3012 Y58.7969
G01 X50.3096 Y58.8022
G01 X50.3616 Y58.8331
G01 X50.3705 Y58.8376
G01 X50.4253 Y58.8632
G01 X50.4821 Y58.8838
G01 X50.4916 Y58.8869
G01 X50.5013 Y58.8896
G01 X50.5600 Y58.9041
G01 X50.6197 Y58.9132
G01 X50.6296 Y58.9144
G01 X50.6396 Y58.9151
G01 X50.6993 Y58.9179
G01 X82.9007 Y58.9179
G01 X82.9604 Y58.9151
G01 X82.9704 Y58.9144
G01 X83.0302 Y58.9058
G01 X83.0498 Y58.9019
G01 X83.1084 Y58.8869
G01 X83.1654 Y58.8668
G01 X83.1839 Y58.8592
G01 X83.2384 Y58.8331
G01 X83.2904 Y58.8022
G01 X83.3070 Y58.7911
G01 X83.3554 Y58.7549
G01 X83.4004 Y58.7145
G01 X85.2113 Y56.9038
G01 X85.2549 Y56.8554
G01 X85.2911 Y56.8070
G01 X85.2969 Y56.7988
G01 X85.3022 Y56.7904
G01 X85.3331 Y56.7384
G01 X85.3592 Y56.6839
G01 X85.3652 Y56.6698
G01 X85.3838 Y56.6179
G01 X85.3896 Y56.5987
G01 X85.4041 Y56.5400
G01 X85.4132 Y56.4803
G01 X85.4149 Y56.4650
G01 X85.4179 Y56.4007
G01 X85.4179 Y22.7973
G01 X86.4973 Y21.7179
G01 X102.3007 Y21.7179
G01 X102.3604 Y21.7151
G01 X102.3704 Y21.7144
G01 X102.3803 Y21.7132
G01 X102.4400 Y21.7041
G01 X102.4987 Y21.6896
G01 X102.5084 Y21.6869
G01 X102.5654 Y21.6668
G01 X102.5796 Y21.6611
G01 X102.6384 Y21.6331
G01 X102.6904 Y21.6022
G01 X102.6988 Y21.5969
G01 X102.7070 Y21.5911
G01 X102.7554 Y21.5549
G01 X102.7630 Y21.5484
G01 X102.8071 Y21.5081
G01 X107.0081 Y17.3071
G01 X107.0484 Y17.2630
G01 X107.0611 Y17.2475
G01 X107.0969 Y17.1988
G01 X107.1305 Y17.1431
G01 X107.1376 Y17.1295
G01 X107.1632 Y17.0747
G01 X107.1838 Y17.0179
G01 X107.1896 Y16.9987
G01 X107.2041 Y16.9400
G01 X107.2132 Y16.8803
G01 X107.2149 Y16.8650
G01 X107.2178 Y16.8053
G01 X107.2179 Y13.8620
G01 X107.2646 Y13.8274
G01 X107.2765 Y13.8178
G01 X107.3572 Y13.7447
G01 X107.3679 Y13.7337
G01 X107.4347 Y13.6600
G01 X107.4446 Y13.6483
G01 X107.5124 Y13.5565
G01 X107.5689 Y13.4627
G01 X107.5783 Y13.4450
G01 X107.6209 Y13.3551
G01 X107.6269 Y13.3410
G01 X107.6652 Y13.2335
G01 X107.6920 Y13.1273
G01 X107.6959 Y13.1077
G01 X107.7117 Y12.9993
G01 X107.7125 Y12.9894
G01 X107.7176 Y12.8800
G01 X107.7125 Y12.7706
G01 X107.7105 Y12.7507
G01 X107.6959 Y12.6523
G01 X107.6920 Y12.6327
G01 X107.6652 Y12.5265
G01 X107.6285 Y12.4234
G01 X107.6209 Y12.4049
G01 X107.5738 Y12.3060
G01 X107.5178 Y12.2120
G01 X107.5124 Y12.2035
G01 X107.4474 Y12.1154
G01 X107.4347 Y12.1000
G01 X107.3610 Y12.0190
G01 X107.2800 Y11.9453
G01 X107.2646 Y11.9326
G01 X107.1765 Y11.8676
G01 X107.1680 Y11.8622
G01 X107.0740 Y11.8062
G01 X106.9751 Y11.7591
G01 X106.9566 Y11.7515
G01 X106.8535 Y11.7148
G01 X106.7473 Y11.6880
G01 X106.7277 Y11.6841
G01 X106.6293 Y11.6695
G01 X106.6094 Y11.6675
G01 X106.5000 Y11.6624
G01 X106.3906 Y11.6675
G01 X106.3807 Y11.6683
G01 X106.2723 Y11.6841
G01 X106.2527 Y11.6880
G01 X106.1465 Y11.7148
G01 X106.0434 Y11.7515
G01 X106.0249 Y11.7591
G01 X105.9260 Y11.8062
G01 X105.8320 Y11.8622
G01 X105.8153 Y11.8734
G01 X105.7276 Y11.9388
G01 X105.6463 Y12.0121
G01 X105.6321 Y12.0263
G01 X105.5653 Y12.1000
G01 X105.5526 Y12.1154
G01 X105.4876 Y12.2035
G01 X105.4822 Y12.2120
G01 X105.4262 Y12.3060
G01 X105.3791 Y12.4049
G01 X105.3751 Y12.4140
G01 X105.3380 Y12.5170
G01 X105.3348 Y12.5265
G01 X105.3321 Y12.5362
G01 X105.3058 Y12.6425
G01 X105.2895 Y12.7507
G01 X105.2883 Y12.7607
G01 X105.2875 Y12.7706
G01 X105.2824 Y12.8800
G01 X105.2875 Y12.9894
G01 X105.2895 Y13.0093
G01 X105.3058 Y13.1175
G01 X105.3321 Y13.2238
G01 X105.3348 Y13.2335
G01 X105.3715 Y13.3366
G01 X105.3751 Y13.3460
G01 X105.4217 Y13.4450
G01 X105.4287 Y13.4587
G01 X105.4876 Y13.5565
G01 X105.5526 Y13.6446
G01 X105.5622 Y13.6565
G01 X105.6321 Y13.7337
G01 X105.6428 Y13.7447
G01 X105.7235 Y13.8178
G01 X105.7354 Y13.8274
G01 X105.7821 Y13.8620
G01 X105.7821 Y16.5027
G01 X102.0027 Y20.2821
G01 X86.1993 Y20.2821
G01 X86.1396 Y20.2849
G01 X86.1296 Y20.2856
G01 X86.1197 Y20.2868
G01 X86.0600 Y20.2959
G01 X86.0013 Y20.3104
G01 X85.9821 Y20.3162
G01 X85.9302 Y20.3348
G01 X85.9161 Y20.3408
G01 X85.8616 Y20.3669
G01 X85.8096 Y20.3978
G01 X85.8012 Y20.4031
G01 X85.7930 Y20.4089
G01 X85.7446 Y20.4451
G01 X85.6996 Y20.4855
G01 X84.1887 Y21.9962
G01 X84.1451 Y22.0446
G01 X84.1089 Y22.0930
G01 X84.1002 Y22.1057
G01 X84.0695 Y22.1569
G01 X84.0624 Y22.1705
G01 X84.0368 Y22.2253
G01 X84.0162 Y22.2821
G01 X84.0104 Y22.3013
G01 X83.9959 Y22.3600
G01 X83.9868 Y22.4197
G01 X83.9849 Y22.4396
G01 X83.9821 Y22.4993
G01 X83.9821 Y56.1027
G01 X82.6027 Y57.4821
G01 X50.9973 Y57.4821
G01 X49.8579 Y56.3427
G01 X49.8579 Y51.3697
G01 X49.8829 Y51.3470
G01 X49.8938 Y51.3363
G01 X49.9325 Y51.2937
G01 X49.9424 Y51.2819
G01 X49.9825 Y51.2276
G01 X50.0173 Y51.1697
G01 X50.0244 Y51.1561
G01 X50.0470 Y51.1083
G01 X50.0547 Y51.0898
G01 X50.0756 Y51.0306
G01 X50.0912 Y50.9696
G01 X50.0943 Y50.9546
G01 X50.1040 Y50.8878
G01 X50.1048 Y50.8778
G01 X50.1076 Y50.8150
G01 X50.1048 Y50.7522
G01 X50.1040 Y50.7422
G01 X50.0951 Y50.6800
G01 X50.0912 Y50.6604
G01 X50.0771 Y50.6046
G01 X50.0725 Y50.5899
G01 X50.0511 Y50.5308
G01 X50.0244 Y50.4739
G01 X50.0173 Y50.4603
G01 X49.9878 Y50.4109
G01 X49.9767 Y50.3942
G01 X49.9390 Y50.3439
G01 X49.8970 Y50.2971
G01 X49.8829 Y50.2830
G01 X49.8361 Y50.2410
G01 X49.8282 Y50.2348
G01 X49.7776 Y50.1975
G01 X49.7238 Y50.1650
G01 X49.7151 Y50.1601
G01 X49.6583 Y50.1330
G01 X49.6398 Y50.1253
G01 X49.5806 Y50.1044
G01 X49.5196 Y50.0888
G01 X49.5000 Y50.0849
G01 X49.4431 Y50.0766
G01 X49.4278 Y50.0752
G01 X49.3657 Y50.0724
G01 X48.9097 Y50.0725
G01 X48.8522 Y50.0752
G01 X48.8369 Y50.0766
G01 X48.7701 Y50.0867
G01 X48.7272 Y50.0971
G01 X46.8123 Y50.0971
G01 X45.8179 Y49.1027
G01 X45.8179 Y35.6179
G01 X50.5007 Y35.6179
G01 X50.5604 Y35.6151
G01 X50.5704 Y35.6144
G01 X50.5803 Y35.6132
G01 X50.6400 Y35.6041
G01 X50.6498 Y35.6019
G01 X50.7084 Y35.5869
G01 X50.7698 Y35.5652
G01 X50.7839 Y35.5592
G01 X50.8384 Y35.5331
G01 X50.8904 Y35.5022
G01 X50.8988 Y35.4969
G01 X50.9070 Y35.4911
G01 X50.9554 Y35.4549
G01 X50.9630 Y35.4484
G01 X51.0071 Y35.4081
G01 X53.7081 Y32.7071
G01 X53.7484 Y32.6630
G01 X53.7549 Y32.6554
G01 X53.7911 Y32.6070
G01 X53.8022 Y32.5904
G01 X53.8331 Y32.5384
G01 X53.8592 Y32.4839
G01 X53.8668 Y32.4654
G01 X53.8869 Y32.4084
G01 X53.9019 Y32.3498
G01 X53.9058 Y32.3302
G01 X53.9144 Y32.2704
G01 X53.9178 Y32.2053
G01 X53.9178 Y23.6947
G01 X53.9144 Y23.6296
G01 X53.9058 Y23.5698
G01 X53.9019 Y23.5502
G01 X53.8869 Y23.4916
G01 X53.8668 Y23.4346
G01 X53.8592 Y23.4161
G01 X53.8331 Y23.3616
G01 X53.8022 Y23.3096
G01 X53.7969 Y23.3012
G01 X53.7911 Y23.2930
G01 X53.7549 Y23.2446
G01 X53.7145 Y23.1996
G01 X53.7004 Y23.1855
G01 X53.6554 Y23.1451
G01 X53.6070 Y23.1089
G01 X53.5988 Y23.1031
G01 X53.5471 Y23.0718
G01 X53.5295 Y23.0624
G01 X53.4839 Y23.0408
G01 X53.4698 Y23.0348
G01 X53.4084 Y23.0131
G01 X53.3498 Y22.9981
G01 X53.3302 Y22.9942
G01 X53.2757 Y22.9862
G01 X53.2604 Y22.9849
G01 X53.2000 Y22.9821
G01 X53.1396 Y22.9849
G01 X53.1197 Y22.9868
G01 X53.0600 Y22.9959
G01 X53.0502 Y22.9981
G01 X52.9916 Y23.0131
G01 X52.9346 Y23.0332
G01 X52.9253 Y23.0368
G01 X52.8705 Y23.0624
G01 X52.8529 Y23.0718
G01 X52.8057 Y23.1002
G01 X52.7930 Y23.1089
G01 X52.7446 Y23.1451
G01 X52.6996 Y23.1855
G01 X52.6855 Y23.1996
G01 X52.6451 Y23.2446
G01 X52.6089 Y23.2930
G01 X52.6031 Y23.3012
G01 X52.5978 Y23.3096
G01 X52.5669 Y23.3616
G01 X52.5408 Y23.4161
G01 X52.5332 Y23.4346
G01 X52.5131 Y23.4916
G01 X52.4981 Y23.5502
G01 X52.4950 Y23.5652
G01 X52.4862 Y23.6243
G01 X52.4849 Y23.6396
G01 X52.4821 Y23.6993
G01 X52.4821 Y31.9027
G01 X50.2027 Y34.1821
G01 X23.0973 Y34.1821
G01 X22.3179 Y33.4027
G01 X22.3179 Y18.1973
G01 X23.2081 Y17.3071
G01 X23.2484 Y17.2630
G01 X23.2582 Y17.2512
G01 X23.2969 Y17.1988
G01 X23.3022 Y17.1904
G01 X23.3331 Y17.1384
G01 X23.3376 Y17.1295
G01 X23.3632 Y17.0747
G01 X23.3838 Y17.0179
G01 X23.3896 Y16.9987
G01 X23.4030 Y16.9453
G01 X23.4058 Y16.9302
G01 X23.4144 Y16.8704
G01 X23.4176 Y16.8100
G01 X23.4178 Y16.7947
G01 X23.4149 Y16.7350
G01 X23.4132 Y16.7197
G01 X23.4041 Y16.6600
G01 X23.3896 Y16.6013
G01 X23.3838 Y16.5821
G01 X23.3632 Y16.5253
G01 X23.3376 Y16.4705
G01 X23.3331 Y16.4616
G01 X23.3022 Y16.4096
G01 X23.2969 Y16.4012
G01 X23.2611 Y16.3525
G01 X23.2484 Y16.3370
G01 X23.2113 Y16.2962
G01 X23.2004 Y16.2855
G01 X23.1554 Y16.2451
G01 X23.1070 Y16.2089
G01 X23.0904 Y16.1978
G01 X23.0384 Y16.1669
G01 X23.0295 Y16.1624
G01 X22.9747 Y16.1368
G01 X22.9179 Y16.1162
G01 X22.9084 Y16.1131
G01 X22.8498 Y16.0981
G01 X22.8302 Y16.0942
G01 X22.7757 Y16.0862
G01 X22.7604 Y16.0849
G01 X22.7000 Y16.0821
G01 X22.6396 Y16.0849
G01 X22.6197 Y16.0868
G01 X22.5600 Y16.0959
G01 X22.5013 Y16.1104
G01 X22.4865 Y16.1147
G01 X22.4253 Y16.1368
G01 X22.3705 Y16.1624
G01 X22.3529 Y16.1718
G01 X22.3057 Y16.2002
G01 X22.2930 Y16.2089
G01 X22.2446 Y16.2451
G01 X22.1996 Y16.2855
G01 X21.0887 Y17.3962
G01 X21.0451 Y17.4446
G01 X21.0089 Y17.4930
G01 X21.0031 Y17.5012
G01 X20.9978 Y17.5096
G01 X20.9669 Y17.5616
G01 X20.9408 Y17.6161
G01 X20.9348 Y17.6302
G01 X20.9162 Y17.6821
G01 X20.9104 Y17.7013
G01 X20.8959 Y17.7600
G01 X20.8868 Y17.8197
G01 X20.8856 Y17.8296
G01 X20.8849 Y17.8396
G01 X20.8821 Y17.8993
G01 X20.8824 Y33.7100
G00 Z2.0000
G00 X35.5070 Y48.2971
G01 F40.00
G01 Z-0.0499
G01 F80.00
G01 X35.5070 Y50.3929
G01 X35.5134 Y50.4525
G01 X35.5637 Y50.5873
G01 X35.6500 Y50.7025
G01 X35.7652 Y50.7888
G01 X35.9000 Y50.8391
G01 X35.9596 Y50.8455
G01 X37.9604 Y50.8455
G01 X38.0200 Y50.8391
G01 X38.1548 Y50.7888
G01 X38.2700 Y50.7025
G01 X38.3563 Y50.5873
G01 X38.3679 Y50.5562
G01 X38.4000 Y50.5084
G01 X38.4503 Y50.4802
G01 X38.5078 Y50.4778
G01 X38.5602 Y50.5017
G01 X38.6988 Y50.6095
G01 X38.7073 Y50.6151
G01 X38.9100 Y50.7248
G01 X38.9194 Y50.7289
G01 X39.2500 Y50.8424
G01 X39.2500 Y50.3135
G01 X39.1349 Y50.2722
G01 X39.0510 Y50.2325
G01 X38.9703 Y50.1841
G01 X38.8957 Y50.1288
G01 X38.8265 Y50.0660
G01 X38.7637 Y49.9968
G01 X38.7080 Y49.9217
G01 X38.6600 Y49.8415
G01 X38.6203 Y49.7576
G01 X38.5884 Y49.6683
G01 X38.5658 Y49.5783
G01 X38.5521 Y49.4859
G01 X38.5475 Y49.3925
G01 X38.5475 Y49.2982
G01 X38.5521 Y49.2041
G01 X38.5657 Y49.1123
G01 X38.5887 Y49.0204
G01 X38.6200 Y48.9330
G01 X38.6600 Y48.8485
G01 X38.7080 Y48.7683
G01 X38.7637 Y48.6932
G01 X38.8265 Y48.6240
G01 X38.8952 Y48.5617
G01 X38.9708 Y48.5055
G01 X39.0510 Y48.4575
G01 X39.1349 Y48.4178
G01 X39.2500 Y48.3765
G01 X39.2500 Y47.8476
G01 X38.9194 Y47.9611
G01 X38.9100 Y47.9652
G01 X38.7073 Y48.0749
G01 X38.6988 Y48.0805
G01 X38.5602 Y48.1883
G01 X38.5078 Y48.2122
G01 X38.4503 Y48.2098
G01 X38.4000 Y48.1816
G01 X38.3679 Y48.1338
G01 X38.3563 Y48.1027
G01 X38.2700 Y47.9875
G01 X38.1548 Y47.9012
G01 X38.0200 Y47.8509
G01 X37.9604 Y47.8445
G01 X35.9596 Y47.8445
G01 X35.9000 Y47.8509
G01 X35.7652 Y47.9012
G01 X35.6500 Y47.9875
G01 X35.5637 Y48.1027
G01 X35.5134 Y48.2375
G01 X35.5070 Y48.2971
G00 Z2.0000
G00 X36.0068 Y50.5626
G01 F40.00
G01 Z-0.0499
G01 F80.00
G01 X37.9178 Y50.5625
G01 X37.9285 Y50.5620
G01 X37.9391 Y50.5610
G01 X37.9497 Y50.5594
G01 X37.9602 Y50.5573
G01 X37.9757 Y50.5532
G01 X37.9858 Y50.5499
G01 X37.9958 Y50.5460
G01 X38.0055 Y50.5417
G01 X38.0151 Y50.5369
G01 X38.0244 Y50.5316
G01 X38.0334 Y50.5259
G01 X38.0421 Y50.5198
G01 X38.0505 Y50.5132
G01 X38.0586 Y50.5062
G01 X38.0664 Y50.4989
G01 X38.0773 Y50.4871
G01 X38.0873 Y50.4746
G01 X38.0934 Y50.4659
G01 X38.0991 Y50.4569
G01 X38.1069 Y50.4428
G01 X38.1114 Y50.4332
G01 X38.1155 Y50.4233
G01 X38.1191 Y50.4133
G01 X38.1222 Y50.4030
G01 X38.1259 Y50.3875
G01 X38.1278 Y50.3769
G01 X38.1291 Y50.3663
G01 X38.1300 Y50.3503
G01 X38.1301 Y48.3443
G01 X38.1295 Y48.3290
G01 X38.1285 Y48.3184
G01 X38.1269 Y48.3078
G01 X38.1248 Y48.2973
G01 X38.1207 Y48.2818
G01 X38.1174 Y48.2717
G01 X38.1135 Y48.2617
G01 X38.1092 Y48.2520
G01 X38.1044 Y48.2424
G01 X38.0963 Y48.2286
G01 X38.0904 Y48.2197
G01 X38.0840 Y48.2111
G01 X38.0773 Y48.2029
G01 X38.0701 Y48.1950
G01 X38.0625 Y48.1874
G01 X38.0546 Y48.1802
G01 X38.0421 Y48.1702
G01 X38.0334 Y48.1641
G01 X38.0244 Y48.1584
G01 X38.0151 Y48.1531
G01 X38.0055 Y48.1483
G01 X37.9908 Y48.1420
G01 X37.9808 Y48.1384
G01 X37.9705 Y48.1353
G01 X37.9550 Y48.1316
G01 X37.9444 Y48.1297
G01 X37.9338 Y48.1284
G01 X37.9178 Y48.1275
G01 X36.0068 Y48.1274
G01 X35.9915 Y48.1280
G01 X35.9809 Y48.1290
G01 X35.9703 Y48.1306
G01 X35.9598 Y48.1327
G01 X35.9495 Y48.1353
G01 X35.9392 Y48.1384
G01 X35.9292 Y48.1420
G01 X35.9145 Y48.1483
G01 X35.9049 Y48.1531
G01 X35.8956 Y48.1584
G01 X35.8866 Y48.1641
G01 X35.8779 Y48.1702
G01 X35.8694 Y48.1768
G01 X35.8574 Y48.1874
G01 X35.8499 Y48.1950
G01 X35.8427 Y48.2029
G01 X35.8359 Y48.2111
G01 X35.8296 Y48.2197
G01 X35.8209 Y48.2331
G01 X35.8156 Y48.2424
G01 X35.8108 Y48.2520
G01 X35.8045 Y48.2667
G01 X35.7993 Y48.2818
G01 X35.7964 Y48.2921
G01 X35.7941 Y48.3025
G01 X35.7915 Y48.3184
G01 X35.7905 Y48.3290
G01 X35.7900 Y48.3397
G01 X35.7899 Y50.3457
G01 X35.7905 Y50.3610
G01 X35.7915 Y50.3716
G01 X35.7931 Y50.3822
G01 X35.7964 Y50.3979
G01 X35.7993 Y50.4082
G01 X35.8026 Y50.4183
G01 X35.8065 Y50.4283
G01 X35.8108 Y50.4380
G01 X35.8156 Y50.4476
G01 X35.8209 Y50.4569
G01 X35.8266 Y50.4659
G01 X35.8327 Y50.4746
G01 X35.8427 Y50.4871
G01 X35.8499 Y50.4951
G01 X35.8574 Y50.5026
G01 X35.8654 Y50.5098
G01 X35.8736 Y50.5166
G01 X35.8866 Y50.5259
G01 X35.8956 Y50.5316
G01 X35.9049 Y50.5369
G01 X35.9145 Y50.5417
G01 X35.9242 Y50.5460
G01 X35.9342 Y50.5499
G01 X35.9443 Y50.5532
G01 X35.9546 Y50.5561
G01 X35.9650 Y50.5584
G01 X35.9756 Y50.5603
G01 X35.9862 Y50.5616
G01 X36.0068 Y50.5626
G00 Z2.0000
G00 X34.0324 Y54.8493
G01 F40.00
G01 Z-0.0499
G01 F80.00
G01 X34.0324 Y56.8507
G01 X34.0327 Y56.8607
G01 X34.0340 Y56.8766
G01 X34.0366 Y56.8925
G01 X34.0403 Y56.9080
G01 X34.0451 Y56.9233
G01 X34.0490 Y56.9333
G01 X34.0556 Y56.9478
G01 X34.0634 Y56.9619
G01 X34.0721 Y56.9753
G01 X34.0818 Y56.9881
G01 X34.0924 Y57.0001
G01 X34.1039 Y57.0112
G01 X34.1161 Y57.0216
G01 X34.1291 Y57.0309
G01 X34.1427 Y57.0393
G01 X34.1570 Y57.0467
G01 X34.1667 Y57.0510
G01 X34.1767 Y57.0549
G01 X34.1868 Y57.0582
G01 X34.1971 Y57.0611
G01 X34.2075 Y57.0634
G01 X34.2181 Y57.0653
G01 X34.2287 Y57.0666
G01 X34.2493 Y57.0676
G01 X38.8553 Y57.0675
G01 X38.8713 Y57.0666
G01 X38.8872 Y57.0644
G01 X38.9029 Y57.0611
G01 X38.9183 Y57.0566
G01 X38.9333 Y57.0510
G01 X38.9430 Y57.0467
G01 X38.9573 Y57.0393
G01 X38.9709 Y57.0309
G01 X38.9839 Y57.0216
G01 X38.9961 Y57.0112
G01 X39.0076 Y57.0001
G01 X39.0182 Y56.9881
G01 X39.0279 Y56.9753
G01 X39.0366 Y56.9619
G01 X39.0444 Y56.9478
G01 X39.0510 Y56.9333
G01 X39.0549 Y56.9233
G01 X39.0582 Y56.9132
G01 X39.0611 Y56.9029
G01 X39.0634 Y56.8925
G01 X39.0653 Y56.8819
G01 X39.0666 Y56.8713
G01 X39.0676 Y56.8507
G01 X39.0676 Y54.8493
G01 X39.0673 Y54.8393
G01 X39.0666 Y54.8287
G01 X39.0644 Y54.8128
G01 X39.0611 Y54.7971
G01 X39.0566 Y54.7817
G01 X39.0510 Y54.7667
G01 X39.0444 Y54.7522
G01 X39.0366 Y54.7381
G01 X39.0279 Y54.7247
G01 X39.0182 Y54.7120
G01 X39.0076 Y54.7000
G01 X38.9961 Y54.6888
G01 X38.9880 Y54.6818
G01 X38.9753 Y54.6721
G01 X38.9619 Y54.6634
G01 X38.9478 Y54.6556
G01 X38.9333 Y54.6490
G01 X38.9233 Y54.6451
G01 X38.9132 Y54.6418
G01 X38.9029 Y54.6389
G01 X38.8925 Y54.6366
G01 X38.8819 Y54.6347
G01 X38.8713 Y54.6334
G01 X38.8507 Y54.6324
G01 X34.2493 Y54.6324
G01 X34.2393 Y54.6327
G01 X34.2234 Y54.6340
G01 X34.2128 Y54.6356
G01 X34.2023 Y54.6377
G01 X34.1920 Y54.6403
G01 X34.1817 Y54.6434
G01 X34.1717 Y54.6470
G01 X34.1618 Y54.6511
G01 X34.1522 Y54.6556
G01 X34.1427 Y54.6607
G01 X34.1336 Y54.6662
G01 X34.1247 Y54.6721
G01 X34.1161 Y54.6785
G01 X34.1079 Y54.6852
G01 X34.0999 Y54.6924
G01 X34.0924 Y54.7000
G01 X34.0818 Y54.7120
G01 X34.0752 Y54.7204
G01 X34.0691 Y54.7291
G01 X34.0634 Y54.7381
G01 X34.0581 Y54.7474
G01 X34.0533 Y54.7570
G01 X34.0490 Y54.7667
G01 X34.0451 Y54.7767
G01 X34.0418 Y54.7868
G01 X34.0389 Y54.7971
G01 X34.0366 Y54.8075
G01 X34.0347 Y54.8181
G01 X34.0334 Y54.8287
G01 X34.0324 Y54.8493
G00 Z2.0000
G00 X33.7495 Y54.8021
G01 F40.00
G01 Z-0.0499
G01 F80.00
G01 X33.7495 Y56.8979
G01 X33.7559 Y56.9575
G01 X33.8062 Y57.0923
G01 X33.8925 Y57.2075
G01 X34.0077 Y57.2938
G01 X34.1425 Y57.3441
G01 X34.2021 Y57.3505
G01 X38.8979 Y57.3505
G01 X38.9575 Y57.3441
G01 X39.0923 Y57.2938
G01 X39.2075 Y57.2075
G01 X39.2938 Y57.0923
G01 X39.3441 Y56.9575
G01 X39.3505 Y56.8979
G01 X39.3505 Y54.8021
G01 X39.3441 Y54.7425
G01 X39.2938 Y54.6077
G01 X39.2075 Y54.4925
G01 X39.0923 Y54.4062
G01 X38.9575 Y54.3559
G01 X38.8979 Y54.3495
G01 X34.2021 Y54.3495
G01 X34.1425 Y54.3559
G01 X34.0077 Y54.4062
G01 X33.8925 Y54.4925
G01 X33.8062 Y54.6077
G01 X33.7559 Y54.7425
G01 X33.7495 Y54.8021
G00 Z2.0000
G00 X36.8000 Y60.6500
G01 F40.00
G01 Z-0.0499
G01 F80.00
G01 X36.8000 Y61.1500
G01 X37.6507 Y61.1500
G01 X37.7480 Y61.1548
G01 X37.8444 Y61.1691
G01 X37.9403 Y61.1931
G01 X38.0327 Y61.2261
G01 X38.1220 Y61.2684
G01 X38.2056 Y61.3185
G01 X38.2839 Y61.3766
G01 X38.3571 Y61.4429
G01 X38.4234 Y61.5161
G01 X38.4815 Y61.5944
G01 X38.5319 Y61.6786
G01 X38.5739 Y61.7673
G01 X38.6214 Y61.9000
G01 X39.1501 Y61.9000
G01 X39.0300 Y61.5502
G01 X39.0259 Y61.5409
G01 X38.9125 Y61.3313
G01 X38.9069 Y61.3227
G01 X38.7605 Y61.1346
G01 X38.7536 Y61.1271
G01 X38.5783 Y60.9657
G01 X38.5702 Y60.9594
G01 X38.3707 Y60.8291
G01 X38.3617 Y60.8242
G01 X38.1434 Y60.7285
G01 X38.1337 Y60.7252
G01 X37.9027 Y60.6666
G01 X37.8926 Y60.6650
G01 X37.7095 Y60.6500
G01 X36.8000 Y60.6500
G00 Z2.0000
G00 X36.8000 Y63.6500
G01 F40.00
G01 Z-0.0499
G01 F80.00
G01 X37.7095 Y63.6500
G01 X37.8926 Y63.6350
G01 X37.9027 Y63.6334
G01 X38.1337 Y63.5748
G01 X38.1434 Y63.5715
G01 X38.3617 Y63.4758
G01 X38.3707 Y63.4709
G01 X38.5702 Y63.3406
G01 X38.5783 Y63.3343
G01 X38.7536 Y63.1729
G01 X38.7605 Y63.1654
G01 X38.9069 Y62.9773
G01 X38.9125 Y62.9687
G01 X39.0259 Y62.7591
G01 X39.0300 Y62.7498
G01 X39.1501 Y62.4000
G01 X38.6214 Y62.4000
G01 X38.5739 Y62.5327
G01 X38.5319 Y62.6214
G01 X38.4815 Y62.7056
G01 X38.4234 Y62.7839
G01 X38.3571 Y62.8571
G01 X38.2839 Y62.9234
G01 X38.2056 Y62.9815
G01 X38.1220 Y63.0316
G01 X38.0327 Y63.0739
G01 X37.9403 Y63.1069
G01 X37.8444 Y63.1309
G01 X37.7480 Y63.1452
G01 X37.6507 Y63.1500
G01 X36.8000 Y63.1500
G01 X36.8000 Y63.6500
G00 Z2.0000
G00 X33.9499 Y62.4000
G01 F40.00
G01 Z-0.0499
G01 F80.00
G01 X34.0700 Y62.7498
G01 X34.0741 Y62.7591
G01 X34.1875 Y62.9687
G01 X34.1931 Y62.9773
G01 X34.3395 Y63.1654
G01 X34.3464 Y63.1729
G01 X34.5217 Y63.3343
G01 X34.5298 Y63.3406
G01 X34.7293 Y63.4709
G01 X34.7383 Y63.4758
G01 X34.9566 Y63.5715
G01 X34.9663 Y63.5748
G01 X35.1973 Y63.6334
G01 X35.2074 Y63.6350
G01 X35.3905 Y63.6500
G01 X36.3000 Y63.6500
G01 X36.3000 Y63.1500
G01 X35.4493 Y63.1500
G01 X35.3520 Y63.1452
G01 X35.2556 Y63.1309
G01 X35.1597 Y63.1069
G01 X35.0673 Y63.0739
G01 X34.9780 Y63.0316
G01 X34.8944 Y62.9815
G01 X34.8161 Y62.9234
G01 X34.7429 Y62.8571
G01 X34.6766 Y62.7839
G01 X34.6185 Y62.7056
G01 X34.5681 Y62.6214
G01 X34.5261 Y62.5327
G01 X34.4786 Y62.4000
G01 X33.9499 Y62.4000
G00 Z2.0000
G00 X33.9499 Y61.9000
G01 F40.00
G01 Z-0.0499
G01 F80.00
G01 X34.4786 Y61.9000
G01 X34.5261 Y61.7673
G01 X34.5681 Y61.6786
G01 X34.6185 Y61.5944
G01 X34.6766 Y61.5161
G01 X34.7429 Y61.4429
G01 X34.8161 Y61.3766
G01 X34.8944 Y61.3185
G01 X34.9780 Y61.2684
G01 X35.0673 Y61.2261
G01 X35.1597 Y61.1931
G01 X35.2556 Y61.1691
G01 X35.3520 Y61.1548
G01 X35.4493 Y61.1500
G01 X36.3000 Y61.1500
G01 X36.3000 Y60.6500
G01 X35.3905 Y60.6500
G01 X35.2074 Y60.6650
G01 X35.1973 Y60.6666
G01 X34.9663 Y60.7252
G01 X34.9566 Y60.7285
G01 X34.7383 Y60.8242
G01 X34.7293 Y60.8291
G01 X34.5298 Y60.9594
G01 X34.5217 Y60.9657
G01 X34.3464 Y61.1271
G01 X34.3395 Y61.1346
G01 X34.1931 Y61.3227
G01 X34.1875 Y61.3313
G01 X34.0741 Y61.5409
G01 X34.0700 Y61.5502
G01 X33.9499 Y61.9000
G00 Z2.0000
G00 X39.8500 Y59.0000
G01 F40.00
G01 Z-0.0499
G01 F80.00
G01 X39.8500 Y59.9095
G01 X39.8650 Y60.0926
G01 X39.8666 Y60.1027
G01 X39.9252 Y60.3337
G01 X39.9285 Y60.3434
G01 X40.0242 Y60.5617
G01 X40.0291 Y60.5707
G01 X40.1594 Y60.7702
G01 X40.1657 Y60.7783
G01 X40.3271 Y60.9536
G01 X40.3346 Y60.9605
G01 X40.5227 Y61.1069
G01 X40.5313 Y61.1125
G01 X40.7409 Y61.2259
G01 X40.7502 Y61.2300
G01 X41.1000 Y61.3501
G01 X41.1000 Y60.8214
G01 X40.9673 Y60.7739
G01 X40.8786 Y60.7319
G01 X40.7944 Y60.6815
G01 X40.7161 Y60.6234
G01 X40.6429 Y60.5571
G01 X40.5766 Y60.4839
G01 X40.5185 Y60.4056
G01 X40.4684 Y60.3220
G01 X40.4261 Y60.2327
G01 X40.3931 Y60.1403
G01 X40.3691 Y60.0444
G01 X40.3548 Y59.9480
G01 X40.3500 Y59.8507
G01 X40.3500 Y59.0000
G01 X39.8500 Y59.0000
G00 Z2.0000
G00 X39.8500 Y58.5000
G01 F40.00
G01 Z-0.0499
G01 F80.00
G01 X40.3500 Y58.5000
G01 X40.3500 Y57.6493
G01 X40.3548 Y57.5520
G01 X40.3691 Y57.4556
G01 X40.3931 Y57.3597
G01 X40.4261 Y57.2673
G01 X40.4684 Y57.1780
G01 X40.5185 Y57.0944
G01 X40.5766 Y57.0161
G01 X40.6429 Y56.9429
G01 X40.7161 Y56.8766
G01 X40.7944 Y56.8185
G01 X40.8786 Y56.7681
G01 X40.9673 Y56.7261
G01 X41.1000 Y56.6786
G01 X41.1000 Y56.1499
G01 X40.7502 Y56.2700
G01 X40.7409 Y56.2741
G01 X40.5313 Y56.3875
G01 X40.5227 Y56.3931
G01 X40.3346 Y56.5395
G01 X40.3271 Y56.5464
G01 X40.1657 Y56.7217
G01 X40.1594 Y56.7298
G01 X40.0291 Y56.9293
G01 X40.0242 Y56.9383
G01 X39.9285 Y57.1566
G01 X39.9252 Y57.1663
G01 X39.8666 Y57.3973
G01 X39.8650 Y57.4074
G01 X39.8500 Y57.5905
G01 X39.8500 Y58.5000
G00 Z2.0000
G00 X41.6000 Y56.1499
G01 F40.00
G01 Z-0.0499
G01 F80.00
G01 X41.6000 Y56.6786
G01 X41.7327 Y56.7261
G01 X41.8214 Y56.7681
G01 X41.9056 Y56.8185
G01 X41.9839 Y56.8766
G01 X42.0571 Y56.9429
G01 X42.1234 Y57.0161
G01 X42.1815 Y57.0944
G01 X42.2316 Y57.1780
G01 X42.2739 Y57.2673
G01 X42.3069 Y57.3597
G01 X42.3309 Y57.4556
G01 X42.3452 Y57.5520
G01 X42.3500 Y57.6493
G01 X42.3500 Y58.5000
G01 X42.8500 Y58.5000
G01 X42.8500 Y57.5905
G01 X42.8350 Y57.4074
G01 X42.8334 Y57.3973
G01 X42.7748 Y57.1663
G01 X42.7715 Y57.1566
G01 X42.6758 Y56.9383
G01 X42.6709 Y56.9293
G01 X42.5406 Y56.7298
G01 X42.5343 Y56.7217
G01 X42.3729 Y56.5464
G01 X42.3654 Y56.5395
G01 X42.1773 Y56.3931
G01 X42.1687 Y56.3875
G01 X41.9591 Y56.2741
G01 X41.9498 Y56.2700
G01 X41.6000 Y56.1499
G00 Z2.0000
G00 X41.6000 Y61.3501
G01 F40.00
G01 Z-0.0499
G01 F80.00
G01 X41.9498 Y61.2300
G01 X41.9591 Y61.2259
G01 X42.1687 Y61.1125
G01 X42.1773 Y61.1069
G01 X42.3654 Y60.9605
G01 X42.3729 Y60.9536
G01 X42.5343 Y60.7783
G01 X42.5406 Y60.7702
G01 X42.6709 Y60.5707
G01 X42.6758 Y60.5617
G01 X42.7715 Y60.3434
G01 X42.7748 Y60.3337
G01 X42.8334 Y60.1027
G01 X42.8350 Y60.0926
G01 X42.8500 Y59.9095
G01 X42.8500 Y59.0000
G01 X42.3500 Y59.0000
G01 X42.3500 Y59.8507
G01 X42.3452 Y59.9480
G01 X42.3309 Y60.0444
G01 X42.3069 Y60.1403
G01 X42.2739 Y60.2327
G01 X42.2316 Y60.3220
G01 X42.1815 Y60.4056
G01 X42.1234 Y60.4839
G01 X42.0571 Y60.5571
G01 X41.9839 Y60.6234
G01 X41.9056 Y60.6815
G01 X41.8214 Y60.7319
G01 X41.7327 Y60.7739
G01 X41.6000 Y60.8214
G01 X41.6000 Y61.3501
G00 Z2.0000
G00 X48.1772 Y49.6277
G01 F40.00
G01 Z-0.0499
G01 F80.00
G01 X48.1867 Y49.6899
G01 X48.1888 Y49.6996
G01 X48.2044 Y49.7606
G01 X48.2253 Y49.8198
G01 X48.2289 Y49.8292
G01 X48.2556 Y49.8861
G01 X48.2650 Y49.9038
G01 X48.2946 Y49.9531
G01 X48.3033 Y49.9658
G01 X48.3410 Y50.0161
G01 X48.3475 Y50.0237
G01 X48.3899 Y50.0701
G01 X48.4363 Y50.1125
G01 X48.4439 Y50.1190
G01 X48.4518 Y50.1252
G01 X48.5024 Y50.1625
G01 X48.5562 Y50.1950
G01 X48.5649 Y50.1999
G01 X48.6217 Y50.2270
G01 X48.6402 Y50.2347
G01 X48.6943 Y50.2540
G01 X48.7091 Y50.2583
G01 X48.7701 Y50.2733
G01 X48.8323 Y50.2828
G01 X48.8475 Y50.2845
G01 X48.9143 Y50.2876
G01 X49.3703 Y50.2875
G01 X49.4278 Y50.2848
G01 X49.4431 Y50.2834
G01 X49.5099 Y50.2733
G01 X49.5528 Y50.2629
G01 X57.3477 Y50.2629
G01 X59.1929 Y52.1081
G01 X59.2370 Y52.1484
G01 X59.2488 Y52.1582
G01 X59.2930 Y52.1911
G01 X59.3096 Y52.2022
G01 X59.3616 Y52.2331
G01 X59.4204 Y52.2611
G01 X59.4346 Y52.2668
G01 X59.4821 Y52.2838
G01 X59.5013 Y52.2896
G01 X59.5600 Y52.3041
G01 X59.6197 Y52.3132
G01 X59.6396 Y52.3151
G01 X59.6993 Y52.3179
G01 X67.6007 Y52.3179
G01 X67.6604 Y52.3151
G01 X67.6757 Y52.3138
G01 X67.7400 Y52.3041
G01 X67.7987 Y52.2896
G01 X67.8179 Y52.2838
G01 X67.8698 Y52.2652
G01 X67.8839 Y52.2592
G01 X67.9384 Y52.2331
G01 X67.9904 Y52.2022
G01 X67.9988 Y52.1969
G01 X68.0070 Y52.1911
G01 X68.0554 Y52.1549
G01 X68.1004 Y52.1145
G01 X70.0081 Y50.2071
G01 X70.0484 Y50.1630
G01 X70.0549 Y50.1554
G01 X70.0911 Y50.1070
G01 X70.0998 Y50.0943
G01 X70.1331 Y50.0384
G01 X70.1592 Y49.9839
G01 X70.1668 Y49.9654
G01 X70.1869 Y49.9084
G01 X70.2019 Y49.8498
G01 X70.2058 Y49.8302
G01 X70.2144 Y49.7704
G01 X70.2176 Y49.7100
G01 X70.2179 Y47.5973
G01 X71.2973 Y46.5179
G01 X74.6027 Y46.5179
G01 X75.4421 Y47.3573
G01 X75.4421 Y48.4180
G01 X75.3954 Y48.4526
G01 X75.3835 Y48.4622
G01 X75.3028 Y48.5353
G01 X75.2921 Y48.5463
G01 X75.2222 Y48.6235
G01 X75.2126 Y48.6354
G01 X75.1476 Y48.7235
G01 X75.0887 Y48.8213
G01 X75.0817 Y48.8350
G01 X75.0351 Y48.9340
G01 X74.9980 Y49.0370
G01 X74.9948 Y49.0465
G01 X74.9921 Y49.0562
G01 X74.9658 Y49.1625
G01 X74.9495 Y49.2707
G01 X74.9478 Y49.2860
G01 X74.9424 Y49.4000
G01 X74.9475 Y49.5094
G01 X74.9483 Y49.5193
G01 X74.9495 Y49.5293
G01 X74.9658 Y49.6375
G01 X74.9921 Y49.7438
G01 X74.9948 Y49.7535
G01 X75.0315 Y49.8566
G01 X75.0351 Y49.8660
G01 X75.0391 Y49.8751
G01 X75.0862 Y49.9740
G01 X75.1422 Y50.0680
G01 X75.1476 Y50.0765
G01 X75.2126 Y50.1646
G01 X75.2222 Y50.1765
G01 X75.2990 Y50.2610
G01 X75.3800 Y50.3347
G01 X75.3954 Y50.3474
G01 X75.4835 Y50.4124
G01 X75.5773 Y50.4689
G01 X75.5950 Y50.4783
G01 X75.6940 Y50.5249
G01 X75.7970 Y50.5620
G01 X75.8162 Y50.5679
G01 X75.9225 Y50.5942
G01 X76.0307 Y50.6105
G01 X76.0506 Y50.6125
G01 X76.1600 Y50.6176
G01 X76.2694 Y50.6125
G01 X76.2893 Y50.6105
G01 X76.3975 Y50.5942
G01 X76.5038 Y50.5679
G01 X76.5135 Y50.5652
G01 X76.6166 Y50.5285
G01 X76.6351 Y50.5209
G01 X76.7340 Y50.4738
G01 X76.8280 Y50.4178
G01 X76.8447 Y50.4066
G01 X76.9324 Y50.3412
G01 X77.0137 Y50.2679
G01 X77.0279 Y50.2537
G01 X77.1012 Y50.1724
G01 X77.1666 Y50.0847
G01 X77.1778 Y50.0680
G01 X77.2338 Y49.9740
G01 X77.2809 Y49.8751
G01 X77.2885 Y49.8566
G01 X77.3252 Y49.7535
G01 X77.3279 Y49.7438
G01 X77.3542 Y49.6375
G01 X77.3705 Y49.5293
G01 X77.3725 Y49.5094
G01 X77.3776 Y49.4000
G01 X77.3725 Y49.2906
G01 X77.3717 Y49.2807
G01 X77.3559 Y49.1723
G01 X77.3520 Y49.1527
G01 X77.3279 Y49.0562
G01 X77.3236 Y49.0415
G01 X77.2849 Y48.9340
G01 X77.2383 Y48.8350
G01 X77.2289 Y48.8173
G01 X77.1778 Y48.7320
G01 X77.1694 Y48.7191
G01 X77.1012 Y48.6276
G01 X77.0247 Y48.5428
G01 X77.0137 Y48.5321
G01 X76.9365 Y48.4622
G01 X76.9246 Y48.4526
G01 X76.8779 Y48.4180
G01 X76.8776 Y47.0300
G01 X76.8749 Y46.9750
G01 X76.8732 Y46.9597
G01 X76.8641 Y46.9000
G01 X76.8496 Y46.8413
G01 X76.8438 Y46.8221
G01 X76.8232 Y46.7653
G01 X76.7956 Y46.7063
G01 X76.7882 Y46.6929
G01 X76.7622 Y46.6496
G01 X76.7511 Y46.6330
G01 X76.7149 Y46.5846
G01 X76.6745 Y46.5396
G01 X76.6676 Y46.5324
G01 X76.6604 Y46.5255
G01 X76.6154 Y46.4851
G01 X76.5670 Y46.4489
G01 X76.5574 Y46.4422
G01 X75.4071 Y45.2919
G01 X75.3595 Y45.2485
G01 X75.3475 Y45.2389
G01 X75.2988 Y45.2031
G01 X75.2471 Y45.1718
G01 X75.2295 Y45.1624
G01 X75.1796 Y45.1389
G01 X75.1654 Y45.1332
G01 X75.1084 Y45.1131
G01 X75.0987 Y45.1104
G01 X75.0400 Y45.0959
G01 X74.9803 Y45.0868
G01 X74.9704 Y45.0856
G01 X74.9053 Y45.0822
G01 X70.9947 Y45.0822
G01 X70.9296 Y45.0856
G01 X70.8698 Y45.0942
G01 X70.8547 Y45.0970
G01 X70.8013 Y45.1104
G01 X70.7821 Y45.1162
G01 X70.7253 Y45.1368
G01 X70.6705 Y45.1624
G01 X70.6616 Y45.1669
G01 X70.6096 Y45.1978
G01 X70.6012 Y45.2031
G01 X70.5488 Y45.2418
G01 X70.5370 Y45.2516
G01 X70.4929 Y45.2919
G01 X68.9919 Y46.7929
G01 X68.9516 Y46.8370
G01 X68.9389 Y46.8525
G01 X68.9031 Y46.9012
G01 X68.8695 Y46.9569
G01 X68.8624 Y46.9705
G01 X68.8368 Y47.0253
G01 X68.8162 Y47.0821
G01 X68.8104 Y47.1013
G01 X68.7959 Y47.1600
G01 X68.7868 Y47.2197
G01 X68.7851 Y47.2350
G01 X68.7822 Y47.2947
G01 X68.7821 Y49.4027
G01 X67.3027 Y50.8821
G01 X59.9973 Y50.8821
G01 X58.5652 Y49.4500
G01 X60.1081 Y47.9071
G01 X60.1515 Y47.8595
G01 X60.1611 Y47.8475
G01 X60.1911 Y47.8070
G01 X60.2022 Y47.7904
G01 X60.2331 Y47.7384
G01 X60.2376 Y47.7295
G01 X60.2632 Y47.6747
G01 X60.2838 Y47.6179
G01 X60.2869 Y47.6084
G01 X60.3019 Y47.5498
G01 X60.3050 Y47.5348
G01 X60.3132 Y47.4803
G01 X60.3151 Y47.4604
G01 X60.3179 Y47.4007
G01 X60.3179 Y9.8474
G01 X60.3414 Y9.8214
G01 X60.3513 Y9.8097
G01 X60.3988 Y9.7458
G01 X60.4074 Y9.7331
G01 X60.4534 Y9.6561
G01 X60.4899 Y9.5794
G01 X60.4959 Y9.5653
G01 X60.5259 Y9.4809
G01 X60.5286 Y9.4712
G01 X60.5490 Y9.3888
G01 X60.5617 Y9.3048
G01 X60.5629 Y9.2948
G01 X60.5637 Y9.2849
G01 X60.5676 Y9.2000
G01 X60.5637 Y9.1151
G01 X60.5629 Y9.1052
G01 X60.5617 Y9.0952
G01 X60.5490 Y9.0112
G01 X60.5286 Y8.9288
G01 X60.5259 Y8.9191
G01 X60.4959 Y8.8347
G01 X60.4899 Y8.8206
G01 X60.4534 Y8.7439
G01 X60.4074 Y8.6669
G01 X60.3988 Y8.6542
G01 X60.3513 Y8.5903
G01 X60.3414 Y8.5786
G01 X60.3179 Y8.5525
G01 X60.3179 Y8.1973
G01 X60.6973 Y7.8179
G01 X92.3027 Y7.8179
G01 X93.0821 Y8.5973
G01 X93.0821 Y9.3007
G01 X93.0849 Y9.3604
G01 X93.0856 Y9.3704
G01 X93.0868 Y9.3803
G01 X93.0959 Y9.4400
G01 X93.1104 Y9.4987
G01 X93.1162 Y9.5179
G01 X93.1368 Y9.5747
G01 X93.1624 Y9.6295
G01 X93.1718 Y9.6471
G01 X93.2031 Y9.6988
G01 X93.2089 Y9.7070
G01 X93.2451 Y9.7554
G01 X93.2855 Y9.8004
G01 X93.2996 Y9.8145
G01 X93.3446 Y9.8549
G01 X93.3930 Y9.8911
G01 X93.4096 Y9.9022
G01 X93.4616 Y9.9331
G01 X93.4705 Y9.9376
G01 X93.5253 Y9.9632
G01 X93.5821 Y9.9838
G01 X93.6013 Y9.9896
G01 X93.6600 Y10.0041
G01 X93.7197 Y10.0132
G01 X93.7396 Y10.0151
G01 X93.8000 Y10.0179
G01 X93.8604 Y10.0151
G01 X93.8704 Y10.0144
G01 X93.9302 Y10.0058
G01 X93.9453 Y10.0030
G01 X93.9987 Y9.9896
G01 X94.0179 Y9.9838
G01 X94.0747 Y9.9632
G01 X94.1295 Y9.9376
G01 X94.1384 Y9.9331
G01 X94.1904 Y9.9022
G01 X94.1988 Y9.8969
G01 X94.2475 Y9.8611
G01 X94.2595 Y9.8515
G01 X94.3004 Y9.8145
G01 X94.3145 Y9.8004
G01 X94.3549 Y9.7554
G01 X94.3911 Y9.7070
G01 X94.3969 Y9.6988
G01 X94.4022 Y9.6904
G01 X94.4331 Y9.6384
G01 X94.4592 Y9.5839
G01 X94.4652 Y9.5698
G01 X94.4838 Y9.5179
G01 X94.4896 Y9.4987
G01 X94.5041 Y9.4400
G01 X94.5132 Y9.3803
G01 X94.5149 Y9.3650
G01 X94.5178 Y9.3053
G01 X94.5179 Y8.2993
G01 X94.5149 Y8.2350
G01 X94.5132 Y8.2197
G01 X94.5058 Y8.1698
G01 X94.5019 Y8.1502
G01 X94.4869 Y8.0916
G01 X94.4668 Y8.0346
G01 X94.4632 Y8.0253
G01 X94.4376 Y7.9705
G01 X94.4331 Y7.9616
G01 X94.4022 Y7.9096
G01 X94.3911 Y7.8930
G01 X94.3582 Y7.8488
G01 X94.3484 Y7.8370
G01 X94.3081 Y7.7929
G01 X93.1071 Y6.5919
G01 X93.0630 Y6.5516
G01 X93.0554 Y6.5451
G01 X93.0070 Y6.5089
G01 X92.9988 Y6.5031
G01 X92.9471 Y6.4718
G01 X92.9295 Y6.4624
G01 X92.8796 Y6.4389
G01 X92.8654 Y6.4332
G01 X92.8084 Y6.4131
G01 X92.7987 Y6.4104
G01 X92.7400 Y6.3959
G01 X92.6803 Y6.3868
G01 X92.6704 Y6.3856
G01 X92.6100 Y6.3824
G01 X60.3993 Y6.3821
G01 X60.3396 Y6.3849
G01 X60.3296 Y6.3856
G01 X60.3197 Y6.3868
G01 X60.2600 Y6.3959
G01 X60.2013 Y6.4104
G01 X60.1916 Y6.4131
G01 X60.1346 Y6.4332
G01 X60.1204 Y6.4389
G01 X60.0663 Y6.4644
G01 X60.0529 Y6.4718
G01 X60.0096 Y6.4978
G01 X59.9930 Y6.5089
G01 X59.9488 Y6.5418
G01 X59.9370 Y6.5516
G01 X59.8929 Y6.5919
G01 X59.0887 Y7.3962
G01 X59.0451 Y7.4446
G01 X59.0089 Y7.4930
G01 X58.9978 Y7.5096
G01 X58.9718 Y7.5529
G01 X58.9644 Y7.5663
G01 X58.9368 Y7.6253
G01 X58.9162 Y7.6821
G01 X58.9131 Y7.6916
G01 X58.9104 Y7.7013
G01 X58.8959 Y7.7600
G01 X58.8868 Y7.8197
G01 X58.8851 Y7.8350
G01 X58.8822 Y7.8993
G01 X58.8821 Y8.5526
G01 X58.8586 Y8.5786
G01 X58.8487 Y8.5903
G01 X58.8012 Y8.6542
G01 X58.7926 Y8.6669
G01 X58.7466 Y8.7439
G01 X58.7101 Y8.8206
G01 X58.7041 Y8.8347
G01 X58.6741 Y8.9191
G01 X58.6714 Y8.9288
G01 X58.6510 Y9.0112
G01 X58.6383 Y9.0952
G01 X58.6371 Y9.1052
G01 X58.6325 Y9.1947
G01 X58.6326 Y9.2100
G01 X58.6371 Y9.2948
G01 X58.6383 Y9.3048
G01 X58.6510 Y9.3888
G01 X58.6714 Y9.4712
G01 X58.6741 Y9.4809
G01 X58.7041 Y9.5653
G01 X58.7101 Y9.5794
G01 X58.7466 Y9.6561
G01 X58.7926 Y9.7331
G01 X58.8012 Y9.7458
G01 X58.8487 Y9.8097
G01 X58.8586 Y9.8214
G01 X58.8821 Y9.8475
G01 X58.8821 Y47.1027
G01 X57.1577 Y48.8271
G01 X49.5528 Y48.8271
G01 X49.5099 Y48.8167
G01 X49.4431 Y48.8066
G01 X49.4278 Y48.8052
G01 X49.3703 Y48.8025
G01 X48.9143 Y48.8024
G01 X48.8522 Y48.8052
G01 X48.8422 Y48.8060
G01 X48.8323 Y48.8072
G01 X48.7701 Y48.8167
G01 X48.7604 Y48.8188
G01 X48.6994 Y48.8344
G01 X48.6402 Y48.8553
G01 X48.6308 Y48.8589
G01 X48.5739 Y48.8856
G01 X48.5649 Y48.8901
G01 X48.5562 Y48.8950
G01 X48.5024 Y48.9275
G01 X48.4518 Y48.9648
G01 X48.4439 Y48.9710
G01 X48.4363 Y48.9775
G01 X48.3899 Y49.0199
G01 X48.3475 Y49.0663
G01 X48.3410 Y49.0739
G01 X48.3348 Y49.0818
G01 X48.2975 Y49.1324
G01 X48.2650 Y49.1862
G01 X48.2601 Y49.1949
G01 X48.2556 Y49.2039
G01 X48.2289 Y49.2608
G01 X48.2253 Y49.2702
G01 X48.2044 Y49.3294
G01 X48.2017 Y49.3391
G01 X48.1867 Y49.4001
G01 X48.1772 Y49.4623
G01 X48.1760 Y49.4722
G01 X48.1752 Y49.4822
G01 X48.1724 Y49.5450
G01 X48.1752 Y49.6078
G01 X48.1772 Y49.6277
G00 Z2.0000
G00 X47.8900 Y48.0250
G01 F40.00
G01 Z-0.0499
G01 F80.00
G01 X48.3900 Y48.0250
G01 X48.3900 Y47.7500
G01 X48.8900 Y47.7500
G01 X48.8900 Y47.2500
G01 X48.3455 Y47.2500
G01 X48.3389 Y47.2504
G01 X48.2903 Y47.2556
G01 X48.2754 Y47.2591
G01 X48.1562 Y47.3035
G01 X48.1408 Y47.3120
G01 X48.0399 Y47.3875
G01 X48.0275 Y47.3999
G01 X47.9520 Y47.5008
G01 X47.9435 Y47.5162
G01 X47.8991 Y47.6354
G01 X47.8956 Y47.6503
G01 X47.8904 Y47.6989
G01 X47.8900 Y47.7055
G01 X47.8900 Y48.0250
G00 Z2.0000
G00 X49.3900 Y47.2500
G01 F40.00
G01 Z-0.0499
G01 F80.00
G01 X49.3900 Y47.7500
G01 X49.8900 Y47.7500
G01 X49.8900 Y48.0250
G01 X50.3900 Y48.0250
G01 X50.3900 Y47.7055
G01 X50.3896 Y47.6989
G01 X50.3844 Y47.6503
G01 X50.3809 Y47.6354
G01 X50.3365 Y47.5162
G01 X50.3280 Y47.5008
G01 X50.2525 Y47.3999
G01 X50.2401 Y47.3875
G01 X50.1392 Y47.3120
G01 X50.1238 Y47.3035
G01 X50.0046 Y47.2591
G01 X49.9897 Y47.2556
G01 X49.9411 Y47.2504
G01 X49.9345 Y47.2500
G01 X49.3900 Y47.2500
G00 Z2.0000
G00 X47.7229 Y44.1865
G01 F40.00
G01 Z-0.0499
G01 F80.00
G01 X47.7421 Y44.3695
G01 X47.7864 Y44.5057
G01 X47.7990 Y44.5445
G01 X47.8910 Y44.7038
G01 X48.0141 Y44.8405
G01 X48.1629 Y44.9487
G01 X48.3310 Y45.0235
G01 X48.5110 Y45.0618
G01 X48.6950 Y45.0618
G01 X48.8749 Y45.0235
G01 X49.0430 Y44.9487
G01 X49.1918 Y44.8405
G01 X49.3150 Y44.7038
G01 X49.4070 Y44.5445
G01 X49.4638 Y44.3695
G01 X49.4830 Y44.1865
G01 X49.4638 Y44.0035
G01 X49.4070 Y43.8286
G01 X49.3150 Y43.6692
G01 X49.1918 Y43.5325
G01 X49.0430 Y43.4243
G01 X48.8749 Y43.3495
G01 X48.6950 Y43.3113
G01 X48.5110 Y43.3113
G01 X48.3310 Y43.3495
G01 X48.1629 Y43.4243
G01 X48.0141 Y43.5325
G01 X47.8910 Y43.6692
G01 X47.7990 Y43.8286
G01 X47.7421 Y44.0035
G01 X47.7229 Y44.1865
G00 Z2.0000
G00 X60.6748 Y48.8750
G01 F40.00
G01 Z-0.0499
G01 F80.00
G01 X60.6935 Y49.0877
G01 X60.7487 Y49.2940
G01 X60.8390 Y49.4876
G01 X60.9615 Y49.6625
G01 X61.1125 Y49.8135
G01 X61.2874 Y49.9360
G01 X61.4810 Y50.0263
G01 X61.6873 Y50.0815
G01 X61.9000 Y50.1002
G01 X62.1127 Y50.0815
G01 X62.3190 Y50.0263
G01 X62.5126 Y49.9360
G01 X62.6875 Y49.8135
G01 X62.8385 Y49.6625
G01 X62.9610 Y49.4876
G01 X63.0513 Y49.2940
G01 X63.1065 Y49.0877
G01 X63.1252 Y48.8750
G01 X63.1065 Y48.6623
G01 X63.0513 Y48.4560
G01 X62.9610 Y48.2624
G01 X62.8385 Y48.0875
G01 X62.6875 Y47.9365
G01 X62.5126 Y47.8140
G01 X62.3190 Y47.7237
G01 X62.1127 Y47.6685
G01 X61.9000 Y47.6498
G01 X61.6873 Y47.6685
G01 X61.4810 Y47.7237
G01 X61.2874 Y47.8140
G01 X61.1125 Y47.9365
G01 X60.9615 Y48.0875
G01 X60.8390 Y48.2624
G01 X60.7487 Y48.4560
G01 X60.6935 Y48.6623
G01 X60.6748 Y48.8750
G00 Z2.0000
G00 X60.9681 Y48.9768
G01 F40.00
G01 Z-0.0499
G01 F80.00
G01 X60.9804 Y49.0579
G01 X61.0001 Y49.1375
G01 X61.0028 Y49.1472
G01 X61.0059 Y49.1567
G01 X61.0338 Y49.2338
G01 X61.0686 Y49.3080
G01 X61.0731 Y49.3170
G01 X61.1150 Y49.3875
G01 X61.1204 Y49.3959
G01 X61.1262 Y49.4041
G01 X61.1752 Y49.4698
G01 X61.1818 Y49.4774
G01 X61.2370 Y49.5380
G01 X61.2976 Y49.5932
G01 X61.3052 Y49.5998
G01 X61.3709 Y49.6488
G01 X61.3791 Y49.6546
G01 X61.3875 Y49.6600
G01 X61.4580 Y49.7019
G01 X61.4670 Y49.7064
G01 X61.5412 Y49.7412
G01 X61.6183 Y49.7691
G01 X61.6278 Y49.7722
G01 X61.6375 Y49.7749
G01 X61.7171 Y49.7946
G01 X61.7269 Y49.7963
G01 X61.8081 Y49.8081
G01 X61.8900 Y49.8124
G01 X61.9000 Y49.8126
G01 X61.9100 Y49.8124
G01 X61.9919 Y49.8081
G01 X62.0731 Y49.7963
G01 X62.0829 Y49.7946
G01 X62.0927 Y49.7924
G01 X62.1722 Y49.7722
G01 X62.1817 Y49.7691
G01 X62.2588 Y49.7412
G01 X62.3330 Y49.7064
G01 X62.3420 Y49.7019
G01 X62.4125 Y49.6600
G01 X62.4209 Y49.6546
G01 X62.4291 Y49.6488
G01 X62.4948 Y49.5998
G01 X62.5024 Y49.5932
G01 X62.5630 Y49.5380
G01 X62.6182 Y49.4774
G01 X62.6248 Y49.4698
G01 X62.6738 Y49.4041
G01 X62.6796 Y49.3959
G01 X62.6850 Y49.3875
G01 X62.7269 Y49.3170
G01 X62.7314 Y49.3080
G01 X62.7662 Y49.2338
G01 X62.7941 Y49.1567
G01 X62.7972 Y49.1472
G01 X62.7999 Y49.1375
G01 X62.8196 Y49.0579
G01 X62.8213 Y49.0481
G01 X62.8331 Y48.9669
G01 X62.8374 Y48.8850
G01 X62.8376 Y48.8750
G01 X62.8374 Y48.8650
G01 X62.8331 Y48.7831
G01 X62.8213 Y48.7019
G01 X62.8196 Y48.6921
G01 X62.8174 Y48.6823
G01 X62.7972 Y48.6028
G01 X62.7941 Y48.5933
G01 X62.7662 Y48.5162
G01 X62.7314 Y48.4420
G01 X62.7269 Y48.4330
G01 X62.6850 Y48.3625
G01 X62.6796 Y48.3541
G01 X62.6738 Y48.3459
G01 X62.6248 Y48.2802
G01 X62.6182 Y48.2726
G01 X62.5630 Y48.2120
G01 X62.5024 Y48.1568
G01 X62.4948 Y48.1502
G01 X62.4291 Y48.1012
G01 X62.4209 Y48.0954
G01 X62.4125 Y48.0900
G01 X62.3420 Y48.0481
G01 X62.3330 Y48.0436
G01 X62.2588 Y48.0088
G01 X62.1817 Y47.9809
G01 X62.1722 Y47.9778
G01 X62.1625 Y47.9751
G01 X62.0829 Y47.9554
G01 X62.0731 Y47.9537
G01 X61.9919 Y47.9419
G01 X61.9100 Y47.9376
G01 X61.9000 Y47.9374
G01 X61.8900 Y47.9376
G01 X61.8081 Y47.9419
G01 X61.7269 Y47.9537
G01 X61.7171 Y47.9554
G01 X61.6375 Y47.9751
G01 X61.6278 Y47.9778
G01 X61.6183 Y47.9809
G01 X61.5412 Y48.0088
G01 X61.4670 Y48.0436
G01 X61.4580 Y48.0481
G01 X61.3875 Y48.0900
G01 X61.3791 Y48.0954
G01 X61.3709 Y48.1012
G01 X61.3052 Y48.1502
G01 X61.2976 Y48.1568
G01 X61.2370 Y48.2120
G01 X61.1818 Y48.2726
G01 X61.1752 Y48.2802
G01 X61.1262 Y48.3459
G01 X61.1204 Y48.3541
G01 X61.1150 Y48.3625
G01 X61.0731 Y48.4330
G01 X61.0686 Y48.4420
G01 X61.0338 Y48.5162
G01 X61.0059 Y48.5933
G01 X61.0028 Y48.6028
G01 X61.0001 Y48.6125
G01 X60.9804 Y48.6921
G01 X60.9787 Y48.7019
G01 X60.9669 Y48.7831
G01 X60.9626 Y48.8650
G01 X60.9624 Y48.8750
G01 X60.9662 Y48.9569
G01 X60.9681 Y48.9768
G00 Z2.0000
G00 X58.4281 Y54.0568
G01 F40.00
G01 Z-0.0499
G01 F80.00
G01 X58.4404 Y54.1379
G01 X58.4601 Y54.2175
G01 X58.4628 Y54.2272
