(G-CODE GENERATED BY FLATCAM v8.994 - www.flatcam.org - Version Date: 2020/11/7)

(Name: Sensorbox-B_Cu.gbr_ncc_cnc)
(Type: G-code from Geometry)
(Units: MM)

(Created on Monday, 19 February 2024 at 14:31)

(This preprocessor is the default preprocessor used by FlatCAM.)
(It is made to work with MACH3 compatible motion controllers.)

(TOOL DIAMETER: 0.1322 mm)
(Feedrate_XY: 40.0 mm/min)
(Feedrate_Z: 20.0 mm/min)
(Feedrate rapids 1500.0 mm/min)

(Z_Cut: -0.0601 mm)
(Z_Move: 2.0 mm)
(Z Start: None mm)
(Z End: 15.0 mm)
(X,Y End: None mm)
(Steps per circle: 64)
(Preprocessor Geometry: default)

(X range:   -0.9334 ...  110.9334  mm)
(Y range:   -0.9334 ...   70.9334  mm)

(Spindle Speed: 20000.0 RPM)
G21
G90
G94

G01 F40.00

M5
G00 Z15.0000
G00 X0.0000 Y0.0000
T1
M6    
(MSG, Change to Tool Dia = 0.1322)
M0
G00 Z15.0000

M03 S20000.0
G01 F40.00
G00 X-0.0002 Y-0.0137
G01 F20.00
G01 Z-0.0601
G01 F40.00
G01 X-0.4995 Y-0.0198
G01 X-0.9291 Y-0.0145
G01 X-0.9334 Y0.0649
G01 X-0.4995 Y0.0595
G01 X-0.0520 Y0.0650
G00 Z2.0000
G00 X-0.0656 Y0.1442
G01 F20.00
G01 Z-0.0601
G01 F40.00
G01 X-0.4995 Y0.1389
G01 X-0.9334 Y0.1442
G01 X-0.9334 Y0.2235
G01 X-0.4995 Y0.2182
G01 X-0.0656 Y0.2235
G00 Z2.0000
G00 X-0.0656 Y0.3028
G01 F20.00
G01 Z-0.0601
G01 F40.00
G01 X-0.4995 Y0.2975
G01 X-0.9334 Y0.3028
G01 X-0.9334 Y0.3821
G01 X-0.4995 Y0.3768
G01 X-0.0656 Y0.3821
G00 Z2.0000
G00 X-0.0656 Y0.4615
G01 F20.00
G01 Z-0.0601
G01 F40.00
G01 X-0.4995 Y0.4561
G01 X-0.9334 Y0.4615
G01 X-0.9334 Y0.5408
G01 X-0.4995 Y0.5355
G01 X-0.0656 Y0.5408
G00 Z2.0000
G00 X-0.0656 Y0.6201
G01 F20.00
G01 Z-0.0601
G01 F40.00
G01 X-0.4995 Y0.6148
G01 X-0.9334 Y0.6201
G01 X-0.9334 Y0.6994
G01 X-0.4995 Y0.6941
G01 X-0.0656 Y0.6994
G00 Z2.0000
G00 X-0.0656 Y0.7787
G01 F20.00
G01 Z-0.0601
G01 F40.00
G01 X-0.4995 Y0.7734
G01 X-0.9334 Y0.7787
G01 X-0.9334 Y0.8581
G01 X-0.4995 Y0.8527
G01 X-0.0656 Y0.8581
G00 Z2.0000
G00 X-0.0656 Y0.9374
G01 F20.00
G01 Z-0.0601
G01 F40.00
G01 X-0.4995 Y0.9321
G01 X-0.9334 Y0.9374
G01 X-0.9334 Y1.0167
G01 X-0.4995 Y1.0114
G01 X-0.0656 Y1.0167
G00 Z2.0000
G00 X-0.0656 Y1.0960
G01 F20.00
G01 Z-0.0601
G01 F40.00
G01 X-0.4995 Y1.0907
G01 X-0.9334 Y1.0960
G01 X-0.9334 Y1.1753
G01 X-0.4995 Y1.1700
G01 X-0.0656 Y1.1753
G00 Z2.0000
G00 X-0.0656 Y1.2547
G01 F20.00
G01 Z-0.0601
G01 F40.00
G01 X-0.4995 Y1.2493
G01 X-0.9334 Y1.2547
G01 X-0.9334 Y1.3340
G01 X-0.4995 Y1.3287
G01 X-0.0656 Y1.3340
G00 Z2.0000
G00 X-0.0656 Y1.4133
G01 F20.00
G01 Z-0.0601
G01 F40.00
G01 X-0.4995 Y1.4080
G01 X-0.9334 Y1.4133
G01 X-0.9334 Y1.4926
G01 X-0.4995 Y1.4873
G01 X-0.0656 Y1.4926
G00 Z2.0000
G00 X-0.0656 Y1.5719
G01 F20.00
G01 Z-0.0601
G01 F40.00
G01 X-0.4995 Y1.5666
G01 X-0.9334 Y1.5719
G01 X-0.9334 Y1.6513
G01 X-0.4995 Y1.6459
G01 X-0.0656 Y1.6513
G00 Z2.0000
G00 X-0.0656 Y1.7306
G01 F20.00
G01 Z-0.0601
G01 F40.00
G01 X-0.4995 Y1.7253
G01 X-0.9334 Y1.7306
G01 X-0.9334 Y1.8099
G01 X-0.4995 Y1.8046
G01 X-0.0656 Y1.8099
G00 Z2.0000
G00 X-0.0656 Y1.8892
G01 F20.00
G01 Z-0.0601
G01 F40.00
G01 X-0.4995 Y1.8839
G01 X-0.9334 Y1.8892
G01 X-0.9334 Y1.9685
G01 X-0.4995 Y1.9632
G01 X-0.0656 Y1.9685
G00 Z2.0000
G00 X-0.0656 Y2.0479
G01 F20.00
G01 Z-0.0601
G01 F40.00
G01 X-0.4995 Y2.0425
G01 X-0.9334 Y2.0479
G01 X-0.9334 Y2.1272
G01 X-0.4995 Y2.1219
G01 X-0.0656 Y2.1272
G00 Z2.0000
G00 X-0.0656 Y2.2065
G01 F20.00
G01 Z-0.0601
G01 F40.00
G01 X-0.4995 Y2.2012
G01 X-0.9334 Y2.2065
G01 X-0.9334 Y2.2858
G01 X-0.4995 Y2.2805
G01 X-0.0656 Y2.2858
G00 Z2.0000
G00 X-0.0656 Y2.3651
G01 F20.00
G01 Z-0.0601
G01 F40.00
G01 X-0.4995 Y2.3598
G01 X-0.9334 Y2.3651
G01 X-0.9334 Y2.4445
G01 X-0.4995 Y2.4391
G01 X-0.0656 Y2.4445
G00 Z2.0000
G00 X-0.0656 Y2.5238
G01 F20.00
G01 Z-0.0601
G01 F40.00
G01 X-0.4995 Y2.5185
G01 X-0.9334 Y2.5238
G01 X-0.9334 Y2.6031
G01 X-0.4995 Y2.5978
G01 X-0.0656 Y2.6031
G00 Z2.0000
G00 X-0.0656 Y2.6824
G01 F20.00
G01 Z-0.0601
G01 F40.00
G01 X-0.4995 Y2.6771
G01 X-0.9334 Y2.6824
G01 X-0.9334 Y2.7617
G01 X-0.4995 Y2.7564
G01 X-0.0656 Y2.7617
G00 Z2.0000
G00 X-0.0656 Y2.8411
G01 F20.00
G01 Z-0.0601
G01 F40.00
G01 X-0.4995 Y2.8357
G01 X-0.9334 Y2.8411
G01 X-0.9334 Y2.9204
G01 X-0.4995 Y2.9151
G01 X-0.0656 Y2.9204
G00 Z2.0000
G00 X-0.0656 Y2.9997
G01 F20.00
G01 Z-0.0601
G01 F40.00
G01 X-0.4995 Y2.9944
G01 X-0.9334 Y2.9997
G01 X-0.9334 Y3.0790
G01 X-0.4995 Y3.0737
G01 X-0.0656 Y3.0790
G00 Z2.0000
G00 X-0.0656 Y3.1583
G01 F20.00
G01 Z-0.0601
G01 F40.00
G01 X-0.4995 Y3.1530
G01 X-0.9334 Y3.1583
G01 X-0.9334 Y3.2377
G01 X-0.4995 Y3.2323
G01 X-0.0656 Y3.2377
G00 Z2.0000
G00 X-0.0656 Y3.3170
G01 F20.00
G01 Z-0.0601
G01 F40.00
G01 X-0.4995 Y3.3117
G01 X-0.9334 Y3.3170
G01 X-0.9334 Y3.3963
G01 X-0.4995 Y3.3910
G01 X-0.0656 Y3.3963
G00 Z2.0000
G00 X-0.0656 Y3.4756
G01 F20.00
G01 Z-0.0601
G01 F40.00
G01 X-0.4995 Y3.4703
G01 X-0.9334 Y3.4756
G01 X-0.9334 Y3.5549
G01 X-0.4995 Y3.5496
G01 X-0.0656 Y3.5549
G00 Z2.0000
G00 X-0.0656 Y3.6343
G01 F20.00
G01 Z-0.0601
G01 F40.00
G01 X-0.4995 Y3.6289
G01 X-0.9334 Y3.6343
G01 X-0.9334 Y3.7136
G01 X-0.4995 Y3.7083
G01 X-0.0656 Y3.7136
G00 Z2.0000
G00 X-0.0656 Y3.7929
G01 F20.00
G01 Z-0.0601
G01 F40.00
G01 X-0.4995 Y3.7876
G01 X-0.9334 Y3.7929
G01 X-0.9334 Y3.8722
G01 X-0.4995 Y3.8669
G01 X-0.0656 Y3.8722
G00 Z2.0000
G00 X-0.0656 Y3.9515
G01 F20.00
G01 Z-0.0601
G01 F40.00
G01 X-0.4995 Y3.9462
G01 X-0.9334 Y3.9515
G01 X-0.9334 Y4.0309
G01 X-0.4995 Y4.0255
G01 X-0.0656 Y4.0309
G00 Z2.0000
G00 X-0.0656 Y4.1102
G01 F20.00
G01 Z-0.0601
G01 F40.00
G01 X-0.4995 Y4.1049
G01 X-0.9334 Y4.1102
G01 X-0.9334 Y4.1895
G01 X-0.4995 Y4.1842
G01 X-0.0656 Y4.1895
G00 Z2.0000
G00 X-0.0656 Y4.2688
G01 F20.00
G01 Z-0.0601
G01 F40.00
G01 X-0.4995 Y4.2635
G01 X-0.9334 Y4.2688
G01 X-0.9334 Y4.3481
G01 X-0.4995 Y4.3428
G01 X-0.0656 Y4.3481
G00 Z2.0000
G00 X-0.0656 Y4.4275
G01 F20.00
G01 Z-0.0601
G01 F40.00
G01 X-0.4995 Y4.4221
G01 X-0.9334 Y4.4275
G01 X-0.9334 Y4.5068
G01 X-0.4995 Y4.5015
G01 X-0.0656 Y4.5068
G00 Z2.0000
G00 X-0.0656 Y4.5861
G01 F20.00
G01 Z-0.0601
G01 F40.00
G01 X-0.4995 Y4.5808
G01 X-0.9334 Y4.5861
G01 X-0.9334 Y4.6654
G01 X-0.4995 Y4.6601
G01 X-0.0656 Y4.6654
G00 Z2.0000
G00 X-0.0656 Y4.7447
G01 F20.00
G01 Z-0.0601
G01 F40.00
G01 X-0.4995 Y4.7394
G01 X-0.9334 Y4.7447
G01 X-0.9334 Y4.8241
G01 X-0.4995 Y4.8187
G01 X-0.0656 Y4.8241
G00 Z2.0000
G00 X-0.0656 Y4.9034
G01 F20.00
G01 Z-0.0601
G01 F40.00
G01 X-0.4995 Y4.8981
G01 X-0.9334 Y4.9034
G01 X-0.9334 Y4.9827
G01 X-0.4995 Y4.9774
G01 X-0.0656 Y4.9827
G00 Z2.0000
G00 X-0.0656 Y5.0620
G01 F20.00
G01 Z-0.0601
G01 F40.00
G01 X-0.4995 Y5.0567
G01 X-0.9334 Y5.0620
G01 X-0.9334 Y5.1413
G01 X-0.4995 Y5.1360
G01 X-0.0656 Y5.1413
G00 Z2.0000
G00 X-0.0656 Y5.2207
G01 F20.00
G01 Z-0.0601
G01 F40.00
G01 X-0.4995 Y5.2153
G01 X-0.9334 Y5.2207
G01 X-0.9334 Y5.3000
G01 X-0.4995 Y5.2947
G01 X-0.0656 Y5.3000
G00 Z2.0000
G00 X-0.0656 Y5.3793
G01 F20.00
G01 Z-0.0601
G01 F40.00
G01 X-0.4995 Y5.3740
G01 X-0.9334 Y5.3793
G01 X-0.9334 Y5.4586
G01 X-0.4995 Y5.4533
G01 X-0.0656 Y5.4586
G00 Z2.0000
G00 X-0.0656 Y5.5379
G01 F20.00
G01 Z-0.0601
G01 F40.00
G01 X-0.4995 Y5.5326
G01 X-0.9334 Y5.5379
G01 X-0.9334 Y5.6173
G01 X-0.4995 Y5.6119
G01 X-0.0656 Y5.6173
G00 Z2.0000
G00 X-0.0656 Y5.6966
G01 F20.00
G01 Z-0.0601
G01 F40.00
G01 X-0.4995 Y5.6913
G01 X-0.9334 Y5.6966
G01 X-0.9334 Y5.7759
G01 X-0.4995 Y5.7706
G01 X-0.0656 Y5.7759
G00 Z2.0000
G00 X-0.0656 Y5.8552
G01 F20.00
G01 Z-0.0601
G01 F40.00
G01 X-0.4995 Y5.8499
G01 X-0.9334 Y5.8552
G01 X-0.9334 Y5.9345
G01 X-0.4995 Y5.9292
G01 X-0.0656 Y5.9345
G00 Z2.0000
G00 X-0.0656 Y6.0139
G01 F20.00
G01 Z-0.0601
G01 F40.00
G01 X-0.4995 Y6.0085
G01 X-0.9334 Y6.0139
G01 X-0.9334 Y6.0932
G01 X-0.4995 Y6.0879
G01 X-0.0656 Y6.0932
G00 Z2.0000
G00 X-0.0656 Y6.1725
G01 F20.00
G01 Z-0.0601
G01 F40.00
G01 X-0.4995 Y6.1672
G01 X-0.9334 Y6.1725
G01 X-0.9334 Y6.2518
G01 X-0.4995 Y6.2465
G01 X-0.0656 Y6.2518
G00 Z2.0000
G00 X-0.0656 Y6.3311
G01 F20.00
G01 Z-0.0601
G01 F40.00
G01 X-0.4995 Y6.3258
G01 X-0.9334 Y6.3311
G01 X-0.9334 Y6.4105
G01 X-0.4995 Y6.4051
G01 X-0.0656 Y6.4105
G00 Z2.0000
G00 X-0.0656 Y6.4898
G01 F20.00
G01 Z-0.0601
G01 F40.00
G01 X-0.4995 Y6.4845
G01 X-0.9334 Y6.4898
G01 X-0.9334 Y6.5691
G01 X-0.4995 Y6.5638
G01 X-0.0656 Y6.5691
G00 Z2.0000
G00 X-0.0656 Y6.6484
G01 F20.00
G01 Z-0.0601
G01 F40.00
G01 X-0.4995 Y6.6431
G01 X-0.9334 Y6.6484
G01 X-0.9334 Y6.7277
G01 X-0.4995 Y6.7224
G01 X-0.0656 Y6.7277
G00 Z2.0000
G00 X-0.0656 Y6.8071
G01 F20.00
G01 Z-0.0601
G01 F40.00
G01 X-0.4995 Y6.8017
G01 X-0.9334 Y6.8071
G01 X-0.9334 Y6.8864
G01 X-0.4995 Y6.8811
G01 X-0.0656 Y6.8864
G00 Z2.0000
G00 X-0.0656 Y6.9657
G01 F20.00
G01 Z-0.0601
G01 F40.00
G01 X-0.4995 Y6.9604
G01 X-0.9334 Y6.9657
G01 X-0.9334 Y7.0450
G01 X-0.4995 Y7.0397
G01 X-0.0656 Y7.0450
G00 Z2.0000
G00 X-0.0656 Y7.1243
G01 F20.00
G01 Z-0.0601
G01 F40.00
G01 X-0.4995 Y7.1190
G01 X-0.9334 Y7.1243
G01 X-0.9334 Y7.2037
G01 X-0.4995 Y7.1983
G01 X-0.0656 Y7.2037
G00 Z2.0000
G00 X-0.0656 Y7.2830
G01 F20.00
G01 Z-0.0601
G01 F40.00
G01 X-0.4995 Y7.2777
G01 X-0.9334 Y7.2830
G01 X-0.9334 Y7.3623
G01 X-0.4995 Y7.3570
G01 X-0.0656 Y7.3623
G00 Z2.0000
G00 X-0.0656 Y7.4416
G01 F20.00
G01 Z-0.0601
G01 F40.00
G01 X-0.4995 Y7.4363
G01 X-0.9334 Y7.4416
G01 X-0.9334 Y7.5209
G01 X-0.4995 Y7.5156
G01 X-0.0656 Y7.5209
G00 Z2.0000
G00 X-0.0656 Y7.6003
G01 F20.00
G01 Z-0.0601
G01 F40.00
G01 X-0.4995 Y7.5949
G01 X-0.9334 Y7.6003
G01 X-0.9334 Y7.6796
G01 X-0.4995 Y7.6743
G01 X-0.0656 Y7.6796
G00 Z2.0000
G00 X-0.0656 Y7.7589
G01 F20.00
G01 Z-0.0601
G01 F40.00
G01 X-0.4995 Y7.7536
G01 X-0.9334 Y7.7589
G01 X-0.9334 Y7.8382
G01 X-0.4995 Y7.8329
G01 X-0.0656 Y7.8382
G00 Z2.0000
G00 X-0.0656 Y7.9175
G01 F20.00
G01 Z-0.0601
G01 F40.00
G01 X-0.4995 Y7.9122
G01 X-0.9334 Y7.9175
G01 X-0.9334 Y7.9969
G01 X-0.4995 Y7.9915
G01 X-0.0656 Y7.9969
G00 Z2.0000
G00 X-0.0656 Y8.0762
G01 F20.00
G01 Z-0.0601
G01 F40.00
G01 X-0.4995 Y8.0709
G01 X-0.9334 Y8.0762
G01 X-0.9334 Y8.1555
G01 X-0.4995 Y8.1502
G01 X-0.0656 Y8.1555
G00 Z2.0000
G00 X-0.0656 Y8.2348
G01 F20.00
G01 Z-0.0601
G01 F40.00
G01 X-0.4995 Y8.2295
G01 X-0.9334 Y8.2348
G01 X-0.9334 Y8.3141
G01 X-0.4995 Y8.3088
G01 X-0.0656 Y8.3141
G00 Z2.0000
G00 X-0.0656 Y8.3935
G01 F20.00
G01 Z-0.0601
G01 F40.00
G01 X-0.4995 Y8.3881
G01 X-0.9334 Y8.3935
G01 X-0.9334 Y8.4728
G01 X-0.4995 Y8.4675
G01 X-0.0656 Y8.4728
G00 Z2.0000
G00 X-0.0656 Y8.5521
G01 F20.00
G01 Z-0.0601
G01 F40.00
G01 X-0.4995 Y8.5468
G01 X-0.9334 Y8.5521
G01 X-0.9334 Y8.6314
G01 X-0.4995 Y8.6261
G01 X-0.0656 Y8.6314
G00 Z2.0000
G00 X-0.0656 Y8.7107
G01 F20.00
G01 Z-0.0601
G01 F40.00
G01 X-0.4995 Y8.7054
G01 X-0.9334 Y8.7107
G01 X-0.9334 Y8.7901
G01 X-0.4995 Y8.7847
G01 X-0.0656 Y8.7901
G00 Z2.0000
G00 X-0.0656 Y8.8694
G01 F20.00
G01 Z-0.0601
G01 F40.00
G01 X-0.4995 Y8.8641
G01 X-0.9334 Y8.8694
G01 X-0.9334 Y8.9487
G01 X-0.4995 Y8.9434
G01 X-0.0656 Y8.9487
G00 Z2.0000
G00 X-0.0656 Y9.0280
G01 F20.00
G01 Z-0.0601
G01 F40.00
G01 X-0.4995 Y9.0227
G01 X-0.9334 Y9.0280
G01 X-0.9334 Y9.1073
G01 X-0.4995 Y9.1020
G01 X-0.0656 Y9.1073
G00 Z2.0000
G00 X-0.0656 Y9.1867
G01 F20.00
G01 Z-0.0601
G01 F40.00
G01 X-0.4995 Y9.1813
G01 X-0.9334 Y9.1867
G01 X-0.9334 Y9.2660
G01 X-0.4995 Y9.2607
G01 X-0.0656 Y9.2660
G00 Z2.0000
G00 X-0.0656 Y9.3453
G01 F20.00
G01 Z-0.0601
G01 F40.00
G01 X-0.4995 Y9.3400
G01 X-0.9334 Y9.3453
G01 X-0.9334 Y9.4246
G01 X-0.4995 Y9.4193
G01 X-0.0656 Y9.4246
G00 Z2.0000
G00 X-0.0656 Y9.5039
G01 F20.00
G01 Z-0.0601
G01 F40.00
G01 X-0.4995 Y9.4986
G01 X-0.9334 Y9.5039
G01 X-0.9334 Y9.5833
G01 X-0.4995 Y9.5779
G01 X-0.0656 Y9.5833
G00 Z2.0000
G00 X-0.0656 Y9.6626
G01 F20.00
G01 Z-0.0601
G01 F40.00
G01 X-0.4995 Y9.6573
G01 X-0.9334 Y9.6626
G01 X-0.9334 Y9.7419
G01 X-0.4995 Y9.7366
G01 X-0.0656 Y9.7419
G00 Z2.0000
G00 X-0.0656 Y9.8212
G01 F20.00
G01 Z-0.0601
G01 F40.00
G01 X-0.4995 Y9.8159
G01 X-0.9334 Y9.8212
G01 X-0.9334 Y9.9005
G01 X-0.4995 Y9.8952
G01 X-0.0656 Y9.9005
G00 Z2.0000
G00 X-0.0656 Y9.9799
G01 F20.00
G01 Z-0.0601
G01 F40.00
G01 X-0.4995 Y9.9745
G01 X-0.9334 Y9.9799
G01 X-0.9334 Y10.0592
G01 X-0.4995 Y10.0539
G01 X-0.0656 Y10.0592
G00 Z2.0000
G00 X-0.0656 Y10.1385
G01 F20.00
G01 Z-0.0601
G01 F40.00
G01 X-0.4995 Y10.1332
G01 X-0.9334 Y10.1385
G01 X-0.9334 Y10.2178
G01 X-0.4995 Y10.2125
G01 X-0.0656 Y10.2178
G00 Z2.0000
G00 X-0.0656 Y10.2971
G01 F20.00
G01 Z-0.0601
G01 F40.00
G01 X-0.4995 Y10.2918
G01 X-0.9334 Y10.2971
G01 X-0.9334 Y10.3765
G01 X-0.4995 Y10.3711
G01 X-0.0656 Y10.3765
G00 Z2.0000
G00 X-0.0656 Y10.4558
G01 F20.00
G01 Z-0.0601
G01 F40.00
G01 X-0.4995 Y10.4505
G01 X-0.9334 Y10.4558
G01 X-0.9334 Y10.5351
G01 X-0.4995 Y10.5298
G01 X-0.0656 Y10.5351
G00 Z2.0000
G00 X-0.0656 Y10.6144
G01 F20.00
G01 Z-0.0601
G01 F40.00
G01 X-0.4995 Y10.6091
G01 X-0.9334 Y10.6144
G01 X-0.9334 Y10.6937
G01 X-0.4995 Y10.6884
G01 X-0.0656 Y10.6937
G00 Z2.0000
G00 X-0.0656 Y10.7731
G01 F20.00
G01 Z-0.0601
G01 F40.00
G01 X-0.4995 Y10.7677
G01 X-0.9334 Y10.7731
G01 X-0.9334 Y10.8524
G01 X-0.4995 Y10.8471
G01 X-0.0656 Y10.8524
G00 Z2.0000
G00 X-0.0656 Y10.9317
G01 F20.00
G01 Z-0.0601
G01 F40.00
G01 X-0.4995 Y10.9264
G01 X-0.9334 Y10.9317
G01 X-0.9334 Y11.0110
G01 X-0.4995 Y11.0057
G01 X-0.0656 Y11.0110
G00 Z2.0000
G00 X-0.0656 Y11.0903
G01 F20.00
G01 Z-0.0601
G01 F40.00
G01 X-0.4995 Y11.0850
G01 X-0.9334 Y11.0903
G01 X-0.9334 Y11.1697
G01 X-0.4995 Y11.1643
G01 X-0.0656 Y11.1697
G00 Z2.0000
G00 X-0.0656 Y11.2490
G01 F20.00
G01 Z-0.0601
G01 F40.00
G01 X-0.4995 Y11.2437
G01 X-0.9334 Y11.2490
G01 X-0.9334 Y11.3283
G01 X-0.4995 Y11.3230
G01 X-0.0656 Y11.3283
G00 Z2.0000
G00 X-0.0656 Y11.4076
G01 F20.00
G01 Z-0.0601
G01 F40.00
G01 X-0.4995 Y11.4023
G01 X-0.9334 Y11.4076
G01 X-0.9334 Y11.4869
G01 X-0.4995 Y11.4816
G01 X-0.0656 Y11.4869
G00 Z2.0000
G00 X-0.0656 Y11.5663
G01 F20.00
G01 Z-0.0601
G01 F40.00
G01 X-0.4995 Y11.5609
G01 X-0.9334 Y11.5663
G01 X-0.9334 Y11.6456
G01 X-0.4995 Y11.6403
G01 X-0.0656 Y11.6456
G00 Z2.0000
G00 X-0.0656 Y11.7249
G01 F20.00
G01 Z-0.0601
G01 F40.00
G01 X-0.4995 Y11.7196
G01 X-0.9334 Y11.7249
G01 X-0.9334 Y11.8042
G01 X-0.4995 Y11.7989
G01 X-0.0656 Y11.8042
G00 Z2.0000
G00 X-0.0656 Y11.8835
G01 F20.00
G01 Z-0.0601
G01 F40.00
G01 X-0.4995 Y11.8782
G01 X-0.9334 Y11.8835
G01 X-0.9334 Y11.9629
G01 X-0.4995 Y11.9575
G01 X-0.0656 Y11.9629
G00 Z2.0000
G00 X-0.0656 Y12.0422
G01 F20.00
G01 Z-0.0601
G01 F40.00
G01 X-0.4995 Y12.0369
G01 X-0.9334 Y12.0422
G01 X-0.9334 Y12.1215
G01 X-0.4995 Y12.1162
G01 X-0.0656 Y12.1215
G00 Z2.0000
G00 X-0.0656 Y12.2008
G01 F20.00
G01 Z-0.0601
G01 F40.00
G01 X-0.4995 Y12.1955
G01 X-0.9334 Y12.2008
G01 X-0.9334 Y12.2801
G01 X-0.4995 Y12.2748
G01 X-0.0656 Y12.2801
G00 Z2.0000
G00 X-0.0656 Y12.3595
G01 F20.00
G01 Z-0.0601
G01 F40.00
G01 X-0.4995 Y12.3541
G01 X-0.9334 Y12.3595
G01 X-0.9334 Y12.4388
G01 X-0.4995 Y12.4335
G01 X-0.0656 Y12.4388
G00 Z2.0000
G00 X-0.0656 Y12.5181
G01 F20.00
G01 Z-0.0601
G01 F40.00
G01 X-0.4995 Y12.5128
G01 X-0.9334 Y12.5181
G01 X-0.9334 Y12.5974
G01 X-0.4995 Y12.5921
G01 X-0.0656 Y12.5974
G00 Z2.0000
G00 X-0.0656 Y12.6767
G01 F20.00
G01 Z-0.0601
G01 F40.00
G01 X-0.4995 Y12.6714
G01 X-0.9334 Y12.6767
G01 X-0.9334 Y12.7561
G01 X-0.4995 Y12.7507
G01 X-0.0656 Y12.7561
G00 Z2.0000
G00 X-0.0656 Y12.8354
G01 F20.00
G01 Z-0.0601
G01 F40.00
G01 X-0.4995 Y12.8301
G01 X-0.9334 Y12.8354
G01 X-0.9334 Y12.9147
G01 X-0.4995 Y12.9094
G01 X-0.0656 Y12.9147
G00 Z2.0000
G00 X-0.0656 Y12.9940
G01 F20.00
G01 Z-0.0601
G01 F40.00
G01 X-0.4995 Y12.9887
G01 X-0.9334 Y12.9940
G01 X-0.9334 Y13.0733
G01 X-0.4995 Y13.0680
G01 X-0.0656 Y13.0733
G00 Z2.0000
G00 X-0.0656 Y13.1527
G01 F20.00
G01 Z-0.0601
G01 F40.00
G01 X-0.4995 Y13.1473
G01 X-0.9334 Y13.1527
G01 X-0.9334 Y13.2320
G01 X-0.4995 Y13.2267
G01 X-0.0656 Y13.2320
G00 Z2.0000
G00 X-0.0656 Y13.3113
G01 F20.00
G01 Z-0.0601
G01 F40.00
G01 X-0.4995 Y13.3060
G01 X-0.9334 Y13.3113
G01 X-0.9334 Y13.3906
G01 X-0.4995 Y13.3853
G01 X-0.0656 Y13.3906
G00 Z2.0000
G00 X-0.0656 Y13.4699
G01 F20.00
G01 Z-0.0601
G01 F40.00
G01 X-0.4995 Y13.4646
G01 X-0.9334 Y13.4699
G01 X-0.9334 Y13.5493
G01 X-0.4995 Y13.5439
G01 X-0.0656 Y13.5493
G00 Z2.0000
G00 X-0.0656 Y13.6286
G01 F20.00
G01 Z-0.0601
G01 F40.00
G01 X-0.4995 Y13.6233
G01 X-0.9334 Y13.6286
G01 X-0.9334 Y13.7079
G01 X-0.4995 Y13.7026
G01 X-0.0656 Y13.7079
G00 Z2.0000
G00 X-0.0656 Y13.7872
G01 F20.00
G01 Z-0.0601
G01 F40.00
G01 X-0.4995 Y13.7819
G01 X-0.9334 Y13.7872
G01 X-0.9334 Y13.8665
G01 X-0.4995 Y13.8612
G01 X-0.0656 Y13.8665
G00 Z2.0000
G00 X-0.0656 Y13.9459
G01 F20.00
G01 Z-0.0601
G01 F40.00
G01 X-0.4995 Y13.9405
G01 X-0.9334 Y13.9459
G01 X-0.9334 Y14.0252
G01 X-0.4995 Y14.0199
G01 X-0.0656 Y14.0252
G00 Z2.0000
G00 X-0.0656 Y14.1045
G01 F20.00
G01 Z-0.0601
G01 F40.00
G01 X-0.4995 Y14.0992
G01 X-0.9334 Y14.1045
G01 X-0.9334 Y14.1838
G01 X-0.4995 Y14.1785
G01 X-0.0656 Y14.1838
G00 Z2.0000
G00 X-0.0656 Y14.2631
G01 F20.00
G01 Z-0.0601
G01 F40.00
G01 X-0.4995 Y14.2578
G01 X-0.9334 Y14.2631
G01 X-0.9334 Y14.3425
G01 X-0.4995 Y14.3371
G01 X-0.0656 Y14.3425
G00 Z2.0000
G00 X-0.0656 Y14.4218
G01 F20.00
G01 Z-0.0601
G01 F40.00
G01 X-0.4995 Y14.4165
G01 X-0.9334 Y14.4218
G01 X-0.9334 Y14.5011
G01 X-0.4995 Y14.4958
G01 X-0.0656 Y14.5011
G00 Z2.0000
G00 X-0.0656 Y14.5804
G01 F20.00
G01 Z-0.0601
G01 F40.00
G01 X-0.4995 Y14.5751
G01 X-0.9334 Y14.5804
G01 X-0.9334 Y14.6597
G01 X-0.4995 Y14.6544
G01 X-0.0656 Y14.6597
G00 Z2.0000
G00 X-0.0656 Y14.7391
G01 F20.00
G01 Z-0.0601
G01 F40.00
G01 X-0.4995 Y14.7337
G01 X-0.9334 Y14.7391
G01 X-0.9334 Y14.8184
G01 X-0.4995 Y14.8131
G01 X-0.0656 Y14.8184
G00 Z2.0000
G00 X-0.0656 Y14.8977
G01 F20.00
G01 Z-0.0601
G01 F40.00
G01 X-0.4995 Y14.8924
G01 X-0.9334 Y14.8977
G01 X-0.9334 Y14.9770
G01 X-0.4995 Y14.9717
G01 X-0.0656 Y14.9770
G00 Z2.0000
G00 X-0.0656 Y15.0563
G01 F20.00
G01 Z-0.0601
G01 F40.00
G01 X-0.4995 Y15.0510
G01 X-0.9334 Y15.0563
G01 X-0.9334 Y15.1357
G01 X-0.4995 Y15.1303
G01 X-0.0656 Y15.1357
G00 Z2.0000
G00 X-0.0656 Y15.2150
G01 F20.00
G01 Z-0.0601
G01 F40.00
G01 X-0.4995 Y15.2097
G01 X-0.9334 Y15.2150
G01 X-0.9334 Y15.2943
G01 X-0.4995 Y15.2890
G01 X-0.0656 Y15.2943
G00 Z2.0000
G00 X-0.0656 Y15.3736
G01 F20.00
G01 Z-0.0601
G01 F40.00
G01 X-0.4995 Y15.3683
G01 X-0.9334 Y15.3736
G01 X-0.9334 Y15.4529
G01 X-0.4995 Y15.4476
G01 X-0.0656 Y15.4529
G00 Z2.0000
G00 X-0.0656 Y15.5323
G01 F20.00
G01 Z-0.0601
G01 F40.00
G01 X-0.4995 Y15.5269
G01 X-0.9334 Y15.5323
G01 X-0.9334 Y15.6116
G01 X-0.4995 Y15.6063
G01 X-0.0656 Y15.6116
G00 Z2.0000
G00 X-0.0656 Y15.6909
G01 F20.00
G01 Z-0.0601
G01 F40.00
G01 X-0.4995 Y15.6856
G01 X-0.9334 Y15.6909
G01 X-0.9334 Y15.7702
G01 X-0.4995 Y15.7649
G01 X-0.0656 Y15.7702
G00 Z2.0000
G00 X-0.0656 Y15.8495
G01 F20.00
G01 Z-0.0601
G01 F40.00
G01 X-0.4995 Y15.8442
G01 X-0.9334 Y15.8495
G01 X-0.9334 Y15.9289
G01 X-0.4995 Y15.9235
G01 X-0.0656 Y15.9289
G00 Z2.0000
G00 X-0.0656 Y16.0082
G01 F20.00
G01 Z-0.0601
G01 F40.00
G01 X-0.4995 Y16.0029
G01 X-0.9334 Y16.0082
G01 X-0.9334 Y16.0875
G01 X-0.4995 Y16.0822
G01 X-0.0656 Y16.0875
G00 Z2.0000
G00 X-0.0656 Y16.1668
G01 F20.00
G01 Z-0.0601
G01 F40.00
G01 X-0.4995 Y16.1615
G01 X-0.9334 Y16.1668
G01 X-0.9334 Y16.2461
G01 X-0.4995 Y16.2408
G01 X-0.0656 Y16.2461
G00 Z2.0000
G00 X-0.0656 Y16.3255
G01 F20.00
G01 Z-0.0601
G01 F40.00
G01 X-0.4995 Y16.3201
G01 X-0.9334 Y16.3255
G01 X-0.9334 Y16.4048
G01 X-0.4995 Y16.3995
G01 X-0.0656 Y16.4048
G00 Z2.0000
G00 X-0.0656 Y16.4841
G01 F20.00
G01 Z-0.0601
G01 F40.00
G01 X-0.4995 Y16.4788
G01 X-0.9334 Y16.4841
G01 X-0.9334 Y16.5634
G01 X-0.4995 Y16.5581
G01 X-0.0656 Y16.5634
G00 Z2.0000
G00 X-0.0656 Y16.6427
G01 F20.00
G01 Z-0.0601
G01 F40.00
G01 X-0.4995 Y16.6374
G01 X-0.9334 Y16.6427
G01 X-0.9334 Y16.7221
G01 X-0.4995 Y16.7167
G01 X-0.0656 Y16.7221
G00 Z2.0000
G00 X-0.0656 Y16.8014
G01 F20.00
G01 Z-0.0601
G01 F40.00
G01 X-0.4995 Y16.7961
G01 X-0.9334 Y16.8014
G01 X-0.9334 Y16.8807
G01 X-0.4995 Y16.8754
G01 X-0.0656 Y16.8807
G00 Z2.0000
G00 X-0.0656 Y16.9600
G01 F20.00
G01 Z-0.0601
G01 F40.00
G01 X-0.4995 Y16.9547
G01 X-0.9334 Y16.9600
G01 X-0.9334 Y17.0393
G01 X-0.4995 Y17.0340
G01 X-0.0656 Y17.0393
G00 Z2.0000
G00 X-0.0656 Y17.1187
G01 F20.00
G01 Z-0.0601
G01 F40.00
G01 X-0.4995 Y17.1133
G01 X-0.9334 Y17.1187
G01 X-0.9334 Y17.1980
G01 X-0.4995 Y17.1927
G01 X-0.0656 Y17.1980
G00 Z2.0000
G00 X-0.0656 Y17.2773
G01 F20.00
G01 Z-0.0601
G01 F40.00
G01 X-0.4995 Y17.2720
G01 X-0.9334 Y17.2773
G01 X-0.9334 Y17.3566
G01 X-0.4995 Y17.3513
G01 X-0.0656 Y17.3566
G00 Z2.0000
G00 X-0.0656 Y17.4360
G01 F20.00
G01 Z-0.0601
G01 F40.00
G01 X-0.4995 Y17.4306
G01 X-0.9334 Y17.4360
G01 X-0.9334 Y17.5154
G01 X-0.4995 Y17.5099
G01 X-0.0656 Y17.5154
G00 Z2.0000
G00 X-0.0656 Y17.5947
G01 F20.00
G01 Z-0.0601
G01 F40.00
G01 X-0.4995 Y17.5893
G01 X-0.9334 Y17.5947
G01 X-0.9334 Y17.6741
G01 X-0.4995 Y17.6686
G01 X-0.0656 Y17.6741
G00 Z2.0000
G00 X-0.0656 Y17.7535
G01 F20.00
G01 Z-0.0601
G01 F40.00
G01 X-0.0761 Y17.7531
G01 X-0.4995 Y17.7479
G01 X-0.9229 Y17.7531
G01 X-0.9334 Y17.7535
G01 X-0.9334 Y17.8329
G01 X-0.9209 Y17.8324
G01 X-0.4995 Y17.8272
G01 X-0.0781 Y17.8324
G01 X-0.0656 Y17.8329
G00 Z2.0000
G00 X-0.0656 Y17.9122
G01 F20.00
G01 Z-0.0601
G01 F40.00
G01 X-0.0800 Y17.9117
G01 X-0.4995 Y17.9065
G01 X-0.9190 Y17.9117
G01 X-0.9334 Y17.9122
G01 X-0.9334 Y17.9916
G01 X-0.9170 Y17.9910
G01 X-0.4995 Y17.9859
G01 X-0.0820 Y17.9910
G01 X-0.0656 Y17.9916
G00 Z2.0000
G00 X-0.0656 Y18.0710
G01 F20.00
G01 Z-0.0601
G01 F40.00
G01 X-0.0839 Y18.0703
G01 X-0.4995 Y18.0652
G01 X-0.9151 Y18.0703
G01 X-0.9334 Y18.0710
G01 X-0.9334 Y18.1503
G01 X-0.9132 Y18.1496
G01 X-0.4995 Y18.1445
G01 X-0.0858 Y18.1496
G01 X-0.0656 Y18.1503
G00 Z2.0000
G00 X-0.0656 Y18.2297
G01 F20.00
G01 Z-0.0601
G01 F40.00
G01 X-0.0878 Y18.2289
G01 X-0.4995 Y18.2238
G01 X-0.9112 Y18.2289
G01 X-0.9334 Y18.2297
G01 X-0.9334 Y18.3091
G01 X-0.9093 Y18.3082
G01 X-0.4995 Y18.3031
G01 X-0.0897 Y18.3082
G01 X-0.0656 Y18.3091
G00 Z2.0000
G00 X-0.0656 Y18.3884
G01 F20.00
G01 Z-0.0601
G01 F40.00
G01 X-0.0917 Y18.3875
G01 X-0.4995 Y18.3825
G01 X-0.9073 Y18.3875
G01 X-0.9334 Y18.3884
G01 X-0.9334 Y18.4678
G01 X-0.9054 Y18.4668
G01 X-0.4995 Y18.4618
G01 X-0.0936 Y18.4668
G01 X-0.0656 Y18.4678
G00 Z2.0000
G00 X-0.0656 Y18.5472
G01 F20.00
G01 Z-0.0601
G01 F40.00
G01 X-0.0956 Y18.5461
G01 X-0.4995 Y18.5411
G01 X-0.9034 Y18.5461
G01 X-0.9334 Y18.5472
G01 X-0.9334 Y18.6265
G01 X-0.9015 Y18.6254
G01 X-0.4995 Y18.6204
G01 X-0.0975 Y18.6254
G01 X-0.0656 Y18.6265
G00 Z2.0000
G00 X-0.0656 Y18.7059
G01 F20.00
G01 Z-0.0601
G01 F40.00
G01 X-0.0995 Y18.7046
G01 X-0.4995 Y18.6997
G01 X-0.8995 Y18.7046
G01 X-0.9334 Y18.7059
G01 X-0.9334 Y18.7853
G01 X-0.8976 Y18.7839
G01 X-0.4995 Y18.7791
G01 X-0.1014 Y18.7839
G01 X-0.0656 Y18.7853
G00 Z2.0000
G00 X-0.0656 Y18.8646
G01 F20.00
G01 Z-0.0601
G01 F40.00
G01 X-0.1034 Y18.8632
G01 X-0.4995 Y18.8584
G01 X-0.8956 Y18.8632
G01 X-0.9334 Y18.8646
G01 X-0.9334 Y18.9440
G01 X-0.8937 Y18.9425
G01 X-0.4995 Y18.9377
G01 X-0.1053 Y18.9425
G01 X-0.0656 Y18.9440
G00 Z2.0000
G00 X-0.0656 Y19.0234
G01 F20.00
G01 Z-0.0601
G01 F40.00
G01 X-0.1073 Y19.0218
G01 X-0.4995 Y19.0170
G01 X-0.8917 Y19.0218
G01 X-0.9334 Y19.0234
G01 X-0.9334 Y19.1027
G01 X-0.8898 Y19.1011
G01 X-0.4995 Y19.0963
G01 X-0.1092 Y19.1011
G01 X-0.0656 Y19.1027
G00 Z2.0000
G00 X-0.0656 Y19.1821
G01 F20.00
G01 Z-0.0601
G01 F40.00
G01 X-0.1112 Y19.1804
G01 X-0.4995 Y19.1757
G01 X-0.8878 Y19.1804
G01 X-0.9334 Y19.1821
G01 X-0.9334 Y19.2615
G01 X-0.8859 Y19.2597
G01 X-0.4995 Y19.2550
G01 X-0.1131 Y19.2597
G01 X-0.0656 Y19.2615
G00 Z2.0000
G00 X-0.0656 Y19.3408
G01 F20.00
G01 Z-0.0601
G01 F40.00
G01 X-0.1150 Y19.3390
G01 X-0.4995 Y19.3343
G01 X-0.8840 Y19.3390
G01 X-0.9334 Y19.3408
G01 X-0.9334 Y19.4202
G01 X-0.8820 Y19.4183
G01 X-0.4995 Y19.4136
G01 X-0.1170 Y19.4183
G01 X-0.0656 Y19.4202
G00 Z2.0000
G00 X-0.0656 Y19.4996
G01 F20.00
G01 Z-0.0601
G01 F40.00
G01 X-0.1189 Y19.4976
G01 X-0.4995 Y19.4929
G01 X-0.8801 Y19.4976
G01 X-0.9334 Y19.4996
G01 X-0.9334 Y19.5789
G01 X-0.8781 Y19.5769
G01 X-0.4995 Y19.5723
G01 X-0.1209 Y19.5769
G01 X-0.0656 Y19.5789
G00 Z2.0000
G00 X-0.0656 Y19.6583
G01 F20.00
G01 Z-0.0601
G01 F40.00
G01 X-0.1228 Y19.6562
G01 X-0.4995 Y19.6516
G01 X-0.8762 Y19.6562
G01 X-0.9334 Y19.6583
G01 X-0.9334 Y19.7377
G01 X-0.8742 Y19.7355
G01 X-0.4995 Y19.7309
G01 X-0.1248 Y19.7355
G01 X-0.0656 Y19.7377
G00 Z2.0000
G00 X-0.0656 Y19.8170
G01 F20.00
G01 Z-0.0601
G01 F40.00
G01 X-0.1267 Y19.8148
G01 X-0.4995 Y19.8102
G01 X-0.8723 Y19.8148
G01 X-0.9334 Y19.8170
G01 X-0.9334 Y19.8964
G01 X-0.8703 Y19.8941
G01 X-0.4995 Y19.8895
G01 X-0.1287 Y19.8941
G01 X-0.0656 Y19.8964
G00 Z2.0000
G00 X-0.0656 Y19.9758
G01 F20.00
G01 Z-0.0601
G01 F40.00
G01 X-0.1306 Y19.9734
G01 X-0.4995 Y19.9689
G01 X-0.8684 Y19.9734
G01 X-0.9334 Y19.9758
G01 X-0.9334 Y20.0551
G01 X-0.8664 Y20.0527
G01 X-0.4995 Y20.0482
G01 X-0.1326 Y20.0527
G01 X-0.0656 Y20.0551
G00 Z2.0000
G00 X-0.0656 Y20.1345
G01 F20.00
G01 Z-0.0601
G01 F40.00
G01 X-0.1345 Y20.1320
G01 X-0.4995 Y20.1275
G01 X-0.8645 Y20.1320
G01 X-0.9334 Y20.1345
G01 X-0.9334 Y20.2139
G01 X-0.8625 Y20.2113
G01 X-0.4995 Y20.2068
G01 X-0.1365 Y20.2113
G01 X-0.0656 Y20.2139
G00 Z2.0000
G00 X-0.0656 Y20.2933
G01 F20.00
G01 Z-0.0601
G01 F40.00
G01 X-0.1384 Y20.2906
G01 X-0.4995 Y20.2861
G01 X-0.8606 Y20.2906
G01 X-0.9334 Y20.2933
G01 X-0.9334 Y20.3726
G01 X-0.8586 Y20.3699
G01 X-0.4995 Y20.3655
G01 X-0.1404 Y20.3699
G01 X-0.0656 Y20.3726
G00 Z2.0000
G00 X-0.0656 Y20.4520
G01 F20.00
G01 Z-0.0601
G01 F40.00
G01 X-0.1423 Y20.4492
G01 X-0.4995 Y20.4448
G01 X-0.8567 Y20.4492
G01 X-0.9334 Y20.4520
G01 X-0.9334 Y20.5314
G01 X-0.8548 Y20.5285
G01 X-0.4995 Y20.5241
G01 X-0.1442 Y20.5285
G01 X-0.0656 Y20.5314
G00 Z2.0000
G00 X-0.0656 Y20.6107
G01 F20.00
G01 Z-0.0601
G01 F40.00
G01 X-0.1462 Y20.6078
G01 X-0.4995 Y20.6034
G01 X-0.8528 Y20.6078
G01 X-0.9334 Y20.6107
G01 X-0.9334 Y20.6901
G01 X-0.8509 Y20.6871
G01 X-0.4995 Y20.6827
G01 X-0.1481 Y20.6871
G01 X-0.0656 Y20.6901
G00 Z2.0000
G00 X-0.0656 Y20.7695
G01 F20.00
G01 Z-0.0601
G01 F40.00
G01 X-0.1501 Y20.7663
G01 X-0.4995 Y20.7621
G01 X-0.8489 Y20.7663
G01 X-0.9334 Y20.7695
G01 X-0.9334 Y20.8488
G01 X-0.8470 Y20.8456
G01 X-0.4995 Y20.8414
G01 X-0.1520 Y20.8456
G01 X-0.0656 Y20.8488
G00 Z2.0000
G00 X-0.0656 Y20.9282
G01 F20.00
G01 Z-0.0601
G01 F40.00
G01 X-0.1540 Y20.9249
G01 X-0.4995 Y20.9207
G01 X-0.8450 Y20.9249
G01 X-0.9334 Y20.9282
G01 X-0.9334 Y21.0076
G01 X-0.8431 Y21.0042
G01 X-0.4995 Y21.0000
G01 X-0.1559 Y21.0042
G01 X-0.0656 Y21.0076
G00 Z2.0000
G00 X-0.0656 Y21.0869
G01 F20.00
G01 Z-0.0601
G01 F40.00
G01 X-0.1579 Y21.0835
G01 X-0.4995 Y21.0793
G01 X-0.8411 Y21.0835
G01 X-0.9334 Y21.0869
G01 X-0.9334 Y21.1663
G01 X-0.8392 Y21.1628
G01 X-0.4995 Y21.1587
G01 X-0.1598 Y21.1628
G01 X-0.0656 Y21.1663
G00 Z2.0000
G00 X-0.0656 Y21.2457
G01 F20.00
G01 Z-0.0601
G01 F40.00
G01 X-0.1618 Y21.2421
G01 X-0.4995 Y21.2380
G01 X-0.8372 Y21.2421
G01 X-0.9334 Y21.2457
G01 X-0.9334 Y21.3250
G01 X-0.8353 Y21.3214
G01 X-0.4995 Y21.3173
G01 X-0.1637 Y21.3214
G01 X-0.0656 Y21.3250
G00 Z2.0000
G00 X-0.0656 Y21.4044
G01 F20.00
G01 Z-0.0601
G01 F40.00
G01 X-0.1657 Y21.4007
G01 X-0.4995 Y21.3966
G01 X-0.8333 Y21.4007
G01 X-0.9334 Y21.4044
G01 X-0.9334 Y21.4838
G01 X-0.8314 Y21.4800
G01 X-0.4995 Y21.4759
G01 X-0.1676 Y21.4800
G01 X-0.0656 Y21.4838
G00 Z2.0000
G00 X-0.0656 Y21.5631
G01 F20.00
G01 Z-0.0601
G01 F40.00
G01 X-0.1695 Y21.5593
G01 X-0.4995 Y21.5553
G01 X-0.8295 Y21.5593
G01 X-0.9334 Y21.5631
G01 X-0.9334 Y21.6425
G01 X-0.8275 Y21.6386
G01 X-0.4995 Y21.6346
G01 X-0.1715 Y21.6386
G01 X-0.0656 Y21.6425
G00 Z2.0000
G00 X-0.0656 Y21.7219
G01 F20.00
G01 Z-0.0601
G01 F40.00
G01 X-0.1734 Y21.7179
G01 X-0.4995 Y21.7139
G01 X-0.8256 Y21.7179
G01 X-0.9334 Y21.7219
G01 X-0.9334 Y21.8012
G01 X-0.8236 Y21.7972
G01 X-0.4995 Y21.7932
G01 X-0.1754 Y21.7972
G01 X-0.0656 Y21.8012
G00 Z2.0000
G00 X-0.0656 Y21.8806
G01 F20.00
G01 Z-0.0601
G01 F40.00
G01 X-0.1773 Y21.8765
G01 X-0.4995 Y21.8725
G01 X-0.8217 Y21.8765
G01 X-0.9334 Y21.8806
G01 X-0.9334 Y21.9600
G01 X-0.8197 Y21.9558
G01 X-0.4995 Y21.9519
G01 X-0.1793 Y21.9558
G01 X-0.0656 Y21.9600
G00 Z2.0000
G00 X-0.0656 Y22.0393
G01 F20.00
G01 Z-0.0601
G01 F40.00
G01 X-0.1812 Y22.0351
G01 X-0.4995 Y22.0312
G01 X-0.8178 Y22.0351
G01 X-0.9334 Y22.0393
G01 X-0.9334 Y22.1187
G01 X-0.8158 Y22.1144
G01 X-0.4995 Y22.1105
G01 X-0.1832 Y22.1144
G01 X-0.0656 Y22.1187
G00 Z2.0000
G00 X-0.0656 Y22.1981
G01 F20.00
G01 Z-0.0601
G01 F40.00
G01 X-0.1851 Y22.1937
G01 X-0.4995 Y22.1898
G01 X-0.8139 Y22.1937
G01 X-0.9334 Y22.1981
G01 X-0.9334 Y22.2774
G01 X-0.8119 Y22.2730
G01 X-0.4995 Y22.2691
G01 X-0.1871 Y22.2730
G01 X-0.0656 Y22.2774
G00 Z2.0000
G00 X-0.0656 Y22.3568
G01 F20.00
G01 Z-0.0601
G01 F40.00
G01 X-0.1890 Y22.3523
G01 X-0.4995 Y22.3485
G01 X-0.8100 Y22.3523
G01 X-0.9334 Y22.3568
G01 X-0.9334 Y22.4362
G01 X-0.8080 Y22.4316
G01 X-0.4995 Y22.4278
G01 X-0.1910 Y22.4316
G01 X-0.0656 Y22.4362
G00 Z2.0000
G00 X-0.0656 Y22.5156
G01 F20.00
G01 Z-0.0601
G01 F40.00
G01 X-0.1929 Y22.5109
G01 X-0.4995 Y22.5071
G01 X-0.8061 Y22.5109
G01 X-0.9334 Y22.5156
G01 X-0.9334 Y22.5949
G01 X-0.8041 Y22.5902
G01 X-0.4995 Y22.5864
G01 X-0.1949 Y22.5902
G01 X-0.0656 Y22.5949
G00 Z2.0000
G00 X-0.0656 Y22.6743
G01 F20.00
G01 Z-0.0601
G01 F40.00
G01 X-0.1968 Y22.6695
G01 X-0.4995 Y22.6657
G01 X-0.8022 Y22.6695
G01 X-0.9334 Y22.6743
G01 X-0.9334 Y22.7537
G01 X-0.8003 Y22.7488
G01 X-0.4995 Y22.7451
G01 X-0.1987 Y22.7488
G01 X-0.0656 Y22.7537
G00 Z2.0000
G00 X-0.0656 Y22.8330
G01 F20.00
G01 Z-0.0601
G01 F40.00
G01 X-0.2007 Y22.8280
G01 X-0.4995 Y22.8244
G01 X-0.7983 Y22.8280
G01 X-0.9334 Y22.8330
G01 X-0.9334 Y22.9124
G01 X-0.7964 Y22.9073
G01 X-0.4995 Y22.9037
G01 X-0.2026 Y22.9073
G01 X-0.0656 Y22.9124
G00 Z2.0000
G00 X-0.0656 Y22.9918
G01 F20.00
G01 Z-0.0601
G01 F40.00
G01 X-0.2046 Y22.9866
G01 X-0.4995 Y22.9830
G01 X-0.7944 Y22.9866
G01 X-0.9334 Y22.9918
G01 X-0.9334 Y23.0711
G01 X-0.7925 Y23.0659
G01 X-0.4995 Y23.0623
G01 X-0.2065 Y23.0659
G01 X-0.0656 Y23.0711
G00 Z2.0000
G00 X-0.0656 Y23.1505
G01 F20.00
G01 Z-0.0601
G01 F40.00
G01 X-0.2085 Y23.1452
G01 X-0.4995 Y23.1417
G01 X-0.7905 Y23.1452
G01 X-0.9334 Y23.1505
G01 X-0.9334 Y23.2299
G01 X-0.7886 Y23.2245
G01 X-0.4995 Y23.2210
G01 X-0.2104 Y23.2245
G01 X-0.0656 Y23.2299
G00 Z2.0000
G00 X-0.0656 Y23.3092
G01 F20.00
G01 Z-0.0601
G01 F40.00
G01 X-0.2124 Y23.3038
G01 X-0.4995 Y23.3003
G01 X-0.7866 Y23.3038
G01 X-0.9334 Y23.3092
G01 X-0.9334 Y23.3886
G01 X-0.7847 Y23.3831
G01 X-0.4995 Y23.3796
G01 X-0.2143 Y23.3831
G01 X-0.0656 Y23.3886
G00 Z2.0000
G00 X-0.0656 Y23.4680
G01 F20.00
G01 Z-0.0601
G01 F40.00
G01 X-0.2163 Y23.4624
G01 X-0.4995 Y23.4589
G01 X-0.7827 Y23.4624
G01 X-0.9334 Y23.4680
G01 X-0.9334 Y23.5473
G01 X-0.7808 Y23.5417
G01 X-0.4995 Y23.5383
G01 X-0.2182 Y23.5417
G01 X-0.0656 Y23.5473
G00 Z2.0000
G00 X-0.0656 Y23.6267
G01 F20.00
G01 Z-0.0601
G01 F40.00
G01 X-0.2202 Y23.6210
G01 X-0.4995 Y23.6176
G01 X-0.7788 Y23.6210
G01 X-0.9334 Y23.6267
G01 X-0.9334 Y23.7061
G01 X-0.7769 Y23.7003
G01 X-0.4995 Y23.6969
G01 X-0.2221 Y23.7003
G01 X-0.0656 Y23.7061
G00 Z2.0000
G00 X-0.0656 Y23.7854
G01 F20.00
G01 Z-0.0601
G01 F40.00
G01 X-0.2241 Y23.7796
G01 X-0.4995 Y23.7762
G01 X-0.7749 Y23.7796
G01 X-0.9334 Y23.7854
G01 X-0.9334 Y23.8648
G01 X-0.7730 Y23.8589
G01 X-0.4995 Y23.8555
G01 X-0.2260 Y23.8589
G01 X-0.0656 Y23.8648
G00 Z2.0000
G00 X-0.0656 Y23.9442
G01 F20.00
G01 Z-0.0601
G01 F40.00
G01 X-0.2279 Y23.9382
G01 X-0.4995 Y23.9349
G01 X-0.7711 Y23.9382
G01 X-0.9334 Y23.9442
G01 X-0.9334 Y24.0235
G01 X-0.7691 Y24.0175
G01 X-0.4995 Y24.0142
G01 X-0.2299 Y24.0175
G01 X-0.0656 Y24.0235
G00 Z2.0000
G00 X-0.0656 Y24.1029
G01 F20.00
G01 Z-0.0601
G01 F40.00
G01 X-0.2318 Y24.0968
G01 X-0.4995 Y24.0935
G01 X-0.7672 Y24.0968
G01 X-0.9334 Y24.1029
G01 X-0.9334 Y24.1823
G01 X-0.7652 Y24.1761
G01 X-0.4995 Y24.1728
G01 X-0.2338 Y24.1761
G01 X-0.0656 Y24.1823
G00 Z2.0000
G00 X-0.0656 Y24.2616
G01 F20.00
G01 Z-0.0601
G01 F40.00
G01 X-0.2357 Y24.2554
G01 X-0.4995 Y24.2521
G01 X-0.7633 Y24.2554
G01 X-0.9334 Y24.2616
G01 X-0.9334 Y24.3410
G01 X-0.7613 Y24.3347
G01 X-0.4995 Y24.3315
G01 X-0.2377 Y24.3347
G01 X-0.0656 Y24.3410
G00 Z2.0000
G00 X-0.0656 Y24.4204
G01 F20.00
G01 Z-0.0601
G01 F40.00
G01 X-0.2396 Y24.4140
G01 X-0.4995 Y24.4108
G01 X-0.7594 Y24.4140
G01 X-0.9334 Y24.4204
G01 X-0.9334 Y24.4997
G01 X-0.7574 Y24.4933
G01 X-0.4995 Y24.4901
G01 X-0.2416 Y24.4933
G01 X-0.0656 Y24.4997
G00 Z2.0000
G00 X-0.0656 Y24.5791
G01 F20.00
G01 Z-0.0601
G01 F40.00
G01 X-0.2435 Y24.5726
G01 X-0.4995 Y24.5694
G01 X-0.7555 Y24.5726
G01 X-0.9334 Y24.5791
G01 X-0.9334 Y24.6585
G01 X-0.7535 Y24.6519
G01 X-0.4995 Y24.6487
G01 X-0.2455 Y24.6519
G01 X-0.0656 Y24.6585
G00 Z2.0000
G00 X-0.0656 Y24.7379
G01 F20.00
G01 Z-0.0601
G01 F40.00
G01 X-0.2474 Y24.7312
G01 X-0.4995 Y24.7281
G01 X-0.7516 Y24.7312
G01 X-0.9334 Y24.7379
G01 X-0.9334 Y24.8172
G01 X-0.7496 Y24.8104
G01 X-0.4995 Y24.8074
G01 X-0.2494 Y24.8104
G01 X-0.0656 Y24.8172
G00 Z2.0000
G00 X-0.0656 Y24.8966
G01 F20.00
G01 Z-0.0601
G01 F40.00
G01 X-0.2513 Y24.8897
G01 X-0.4995 Y24.8867
G01 X-0.7477 Y24.8897
G01 X-0.9334 Y24.8966
G01 X-0.9334 Y24.9760
G01 X-0.7457 Y24.9690
G01 X-0.4995 Y24.9660
G01 X-0.2533 Y24.9690
G01 X-0.0656 Y24.9760
G00 Z2.0000
G00 X-0.0656 Y25.0553
G01 F20.00
G01 Z-0.0601
G01 F40.00
G01 X-0.2552 Y25.0483
G01 X-0.4995 Y25.0453
G01 X-0.7438 Y25.0483
G01 X-0.9334 Y25.0553
G01 X-0.9334 Y25.1347
G01 X-0.7419 Y25.1276
G01 X-0.4995 Y25.1247
G01 X-0.2571 Y25.1276
G01 X-0.0656 Y25.1347
G00 Z2.0000
G00 X-0.0656 Y25.2141
G01 F20.00
G01 Z-0.0601
G01 F40.00
G01 X-0.2591 Y25.2069
G01 X-0.4995 Y25.2040
G01 X-0.7399 Y25.2069
G01 X-0.9334 Y25.2141
G01 X-0.9334 Y25.2934
G01 X-0.7380 Y25.2862
G01 X-0.4995 Y25.2833
G01 X-0.2610 Y25.2862
G01 X-0.0656 Y25.2934
G00 Z2.0000
G00 X-0.0656 Y25.3728
G01 F20.00
G01 Z-0.0601
G01 F40.00
G01 X-0.2630 Y25.3655
G01 X-0.4995 Y25.3626
G01 X-0.7360 Y25.3655
G01 X-0.9334 Y25.3728
G01 X-0.9334 Y25.4522
G01 X-0.7341 Y25.4448
G01 X-0.4995 Y25.4419
G01 X-0.2649 Y25.4448
G01 X-0.0656 Y25.4522
G00 Z2.0000
G00 X-0.0656 Y25.5315
G01 F20.00
G01 Z-0.0601
G01 F40.00
G01 X-0.2669 Y25.5241
G01 X-0.4995 Y25.5213
G01 X-0.7321 Y25.5241
G01 X-0.9334 Y25.5315
G01 X-0.9334 Y25.6109
G01 X-0.7302 Y25.6034
G01 X-0.4995 Y25.6006
G01 X-0.2688 Y25.6034
G01 X-0.0656 Y25.6109
G00 Z2.0000
G00 X-0.0656 Y25.6903
G01 F20.00
G01 Z-0.0601
G01 F40.00
G01 X-0.2708 Y25.6827
G01 X-0.4995 Y25.6799
G01 X-0.7282 Y25.6827
G01 X-0.9334 Y25.6903
G01 X-0.9334 Y25.7696
G01 X-0.7263 Y25.7620
G01 X-0.4995 Y25.7592
G01 X-0.2727 Y25.7620
G01 X-0.0656 Y25.7696
G00 Z2.0000
G00 X-0.0656 Y25.8490
G01 F20.00
G01 Z-0.0601
G01 F40.00
G01 X-0.2747 Y25.8413
G01 X-0.4995 Y25.8385
G01 X-0.7243 Y25.8413
G01 X-0.9334 Y25.8490
G01 X-0.9334 Y25.9284
G01 X-0.7224 Y25.9206
G01 X-0.4995 Y25.9179
G01 X-0.2766 Y25.9206
G01 X-0.0656 Y25.9284
G00 Z2.0000
G00 X-0.0656 Y26.0077
G01 F20.00
G01 Z-0.0601
G01 F40.00
G01 X-0.2786 Y25.9999
G01 X-0.4995 Y25.9972
G01 X-0.7204 Y25.9999
G01 X-0.9334 Y26.0077
G01 X-0.9334 Y26.0871
G01 X-0.7185 Y26.0792
G01 X-0.4995 Y26.0765
G01 X-0.2805 Y26.0792
G01 X-0.0656 Y26.0871
G00 Z2.0000
G00 X-0.0656 Y26.1665
G01 F20.00
G01 Z-0.0601
G01 F40.00
G01 X-0.2825 Y26.1585
G01 X-0.4995 Y26.1558
G01 X-0.7165 Y26.1585
G01 X-0.9334 Y26.1665
G01 X-0.9334 Y26.2459
G01 X-0.7146 Y26.2378
G01 X-0.4995 Y26.2351
G01 X-0.2844 Y26.2378
G01 X-0.0656 Y26.2459
G00 Z2.0000
G00 X-0.0656 Y26.3254
G01 F20.00
G01 Z-0.0601
G01 F40.00
G01 X-0.2863 Y26.3171
G01 X-0.4995 Y26.3145
G01 X-0.7127 Y26.3171
G01 X-0.9334 Y26.3254
G01 X-0.9334 Y26.4049
G01 X-0.9218 Y26.4041
G01 X-0.7107 Y26.3964
G01 X-0.4995 Y26.3938
G01 X-0.2883 Y26.3964
G01 X-0.0772 Y26.4041
G01 X-0.0656 Y26.4049
G00 Z2.0000
G00 X-0.0656 Y26.4843
G01 F20.00
G01 Z-0.0601
G01 F40.00
G01 X-0.0811 Y26.4834
G01 X-0.2902 Y26.4757
G01 X-0.4995 Y26.4731
G01 X-0.7088 Y26.4757
G01 X-0.9179 Y26.4834
G01 X-0.9334 Y26.4843
G01 X-0.9334 Y26.5638
G01 X-0.9140 Y26.5626
G01 X-0.7068 Y26.5550
G01 X-0.4995 Y26.5524
G01 X-0.2922 Y26.5550
G01 X-0.0850 Y26.5626
G01 X-0.0656 Y26.5638
G00 Z2.0000
G00 X-0.0656 Y26.6433
G01 F20.00
G01 Z-0.0601
G01 F40.00
G01 X-0.0889 Y26.6418
G01 X-0.2941 Y26.6343
G01 X-0.4995 Y26.6317
G01 X-0.7049 Y26.6343
G01 X-0.9101 Y26.6418
G01 X-0.9334 Y26.6433
G01 X-0.9334 Y26.7227
G01 X-0.9062 Y26.7210
G01 X-0.7029 Y26.7136
G01 X-0.4995 Y26.7111
G01 X-0.2961 Y26.7136
G01 X-0.0928 Y26.7210
G01 X-0.0656 Y26.7227
G00 Z2.0000
G00 X-0.0656 Y26.8022
G01 F20.00
G01 Z-0.0601
G01 F40.00
G01 X-0.0967 Y26.8003
G01 X-0.2980 Y26.7929
G01 X-0.4995 Y26.7904
G01 X-0.7010 Y26.7929
G01 X-0.9023 Y26.8003
G01 X-0.9334 Y26.8022
G01 X-0.9334 Y26.8816
G01 X-0.8984 Y26.8795
G01 X-0.6990 Y26.8721
G01 X-0.4995 Y26.8697
G01 X-0.3000 Y26.8721
G01 X-0.1006 Y26.8795
G01 X-0.0656 Y26.8816
G00 Z2.0000
G00 X-0.0656 Y26.9611
G01 F20.00
G01 Z-0.0601
G01 F40.00
G01 X-0.1045 Y26.9587
G01 X-0.3019 Y26.9514
G01 X-0.4995 Y26.9490
G01 X-0.6971 Y26.9514
G01 X-0.8945 Y26.9587
G01 X-0.9334 Y26.9611
G01 X-0.9334 Y27.0406
G01 X-0.8907 Y27.0379
G01 X-0.6951 Y27.0307
G01 X-0.4995 Y27.0283
G01 X-0.3039 Y27.0307
G01 X-0.1083 Y27.0379
G01 X-0.0656 Y27.0406
G00 Z2.0000
G00 X-0.0656 Y27.1200
G01 F20.00
G01 Z-0.0601
G01 F40.00
G01 X-0.1122 Y27.1172
G01 X-0.3058 Y27.1100
G01 X-0.4995 Y27.1077
G01 X-0.6932 Y27.1100
G01 X-0.8868 Y27.1172
G01 X-0.9334 Y27.1200
G01 X-0.9334 Y27.1995
G01 X-0.8829 Y27.1964
G01 X-0.6912 Y27.1893
G01 X-0.4995 Y27.1870
G01 X-0.3078 Y27.1893
G01 X-0.1161 Y27.1964
G01 X-0.0656 Y27.1995
G00 Z2.0000
G00 X-0.0656 Y27.2790
G01 F20.00
G01 Z-0.0601
G01 F40.00
G01 X-0.1200 Y27.2756
G01 X-0.3097 Y27.2686
G01 X-0.4995 Y27.2663
G01 X-0.6893 Y27.2686
G01 X-0.8790 Y27.2756
G01 X-0.9334 Y27.2790
G01 X-0.9334 Y27.3584
G01 X-0.8751 Y27.3548
G01 X-0.6873 Y27.3479
G01 X-0.4995 Y27.3456
G01 X-0.3117 Y27.3479
G01 X-0.1239 Y27.3548
G01 X-0.0656 Y27.3584
G00 Z2.0000
G00 X-0.0656 Y27.4379
G01 F20.00
G01 Z-0.0601
G01 F40.00
G01 X-0.1278 Y27.4341
G01 X-0.3136 Y27.4272
G01 X-0.4995 Y27.4249
G01 X-0.6854 Y27.4272
G01 X-0.8712 Y27.4341
G01 X-0.9334 Y27.4379
G01 X-0.9334 Y27.5173
G01 X-0.8673 Y27.5133
G01 X-0.6835 Y27.5065
G01 X-0.4995 Y27.5043
G01 X-0.3155 Y27.5065
G01 X-0.1317 Y27.5133
G01 X-0.0656 Y27.5173
G00 Z2.0000
G00 X-0.0656 Y27.5968
G01 F20.00
G01 Z-0.0601
G01 F40.00
G01 X-0.1356 Y27.5925
G01 X-0.3175 Y27.5858
G01 X-0.4995 Y27.5836
G01 X-0.6815 Y27.5858
G01 X-0.8634 Y27.5925
G01 X-0.9334 Y27.5968
G01 X-0.9334 Y27.6763
G01 X-0.8595 Y27.6717
G01 X-0.6796 Y27.6651
G01 X-0.4995 Y27.6629
G01 X-0.3194 Y27.6651
G01 X-0.1395 Y27.6717
G01 X-0.0656 Y27.6763
G00 Z2.0000
G00 X-0.0656 Y27.7557
G01 F20.00
G01 Z-0.0601
G01 F40.00
G01 X-0.1434 Y27.7510
G01 X-0.3214 Y27.7444
G01 X-0.4995 Y27.7422
G01 X-0.6776 Y27.7444
G01 X-0.8556 Y27.7510
G01 X-0.9334 Y27.7557
G01 X-0.9334 Y27.8352
G01 X-0.8517 Y27.8302
G01 X-0.6757 Y27.8237
G01 X-0.4995 Y27.8215
G01 X-0.3233 Y27.8237
G01 X-0.1473 Y27.8302
G01 X-0.0656 Y27.8352
G00 Z2.0000
G00 X-0.0656 Y27.9147
G01 F20.00
G01 Z-0.0601
G01 F40.00
G01 X-0.1512 Y27.9094
G01 X-0.3253 Y27.9030
G01 X-0.4995 Y27.9009
G01 X-0.6737 Y27.9030
G01 X-0.8478 Y27.9094
G01 X-0.9334 Y27.9147
G01 X-0.9334 Y27.9941
G01 X-0.8439 Y27.9886
G01 X-0.6718 Y27.9823
G01 X-0.4995 Y27.9802
G01 X-0.3272 Y27.9823
G01 X-0.1551 Y27.9886
G01 X-0.0656 Y27.9941
G00 Z2.0000
G00 X-0.0656 Y28.0736
G01 F20.00
G01 Z-0.0601
G01 F40.00
G01 X-0.1589 Y28.0679
G01 X-0.3292 Y28.0616
G01 X-0.4995 Y28.0595
G01 X-0.6698 Y28.0616
G01 X-0.8401 Y28.0679
G01 X-0.9334 Y28.0736
G01 X-0.9334 Y28.1531
G01 X-0.8362 Y28.1471
G01 X-0.6679 Y28.1409
G01 X-0.4995 Y28.1388
G01 X-0.3311 Y28.1409
G01 X-0.1628 Y28.1471
G01 X-0.0656 Y28.1531
G00 Z2.0000
G00 X-0.0656 Y28.2325
G01 F20.00
G01 Z-0.0601
G01 F40.00
G01 X-0.1667 Y28.2263
G01 X-0.3331 Y28.2202
G01 X-0.4995 Y28.2181
G01 X-0.6659 Y28.2202
G01 X-0.8323 Y28.2263
G01 X-0.9334 Y28.2325
G01 X-0.9334 Y28.3120
G01 X-0.8284 Y28.3055
G01 X-0.6640 Y28.2995
G01 X-0.4995 Y28.2975
G01 X-0.3350 Y28.2995
G01 X-0.1706 Y28.3055
G01 X-0.0656 Y28.3120
G00 Z2.0000
G00 X-0.0656 Y28.3914
G01 F20.00
G01 Z-0.0601
G01 F40.00
G01 X-0.1745 Y28.3848
G01 X-0.3370 Y28.3788
G01 X-0.4995 Y28.3768
G01 X-0.6620 Y28.3788
G01 X-0.8245 Y28.3848
G01 X-0.9334 Y28.3914
G01 X-0.9334 Y28.4709
G01 X-0.8206 Y28.4640
G01 X-0.6601 Y28.4581
G01 X-0.4995 Y28.4561
G01 X-0.3389 Y28.4581
G01 X-0.1784 Y28.4640
G01 X-0.0656 Y28.4709
G00 Z2.0000
G00 X-0.0656 Y28.5504
G01 F20.00
G01 Z-0.0601
G01 F40.00
G01 X-0.1823 Y28.5432
G01 X-0.3409 Y28.5374
G01 X-0.4995 Y28.5354
G01 X-0.6581 Y28.5374
G01 X-0.8167 Y28.5432
G01 X-0.9334 Y28.5504
G01 X-0.9334 Y28.6298
G01 X-0.8128 Y28.6224
G01 X-0.6562 Y28.6167
G01 X-0.4995 Y28.6147
G01 X-0.3428 Y28.6167
G01 X-0.1862 Y28.6224
G01 X-0.0656 Y28.6298
G00 Z2.0000
G00 X-0.0656 Y28.7093
G01 F20.00
G01 Z-0.0601
G01 F40.00
G01 X-0.1901 Y28.7017
G01 X-0.3447 Y28.6960
G01 X-0.4995 Y28.6941
G01 X-0.6543 Y28.6960
G01 X-0.8089 Y28.7017
G01 X-0.9334 Y28.7093
G01 X-0.9334 Y28.7888
G01 X-0.8050 Y28.7809
G01 X-0.6523 Y28.7753
G01 X-0.4995 Y28.7734
G01 X-0.3467 Y28.7753
G01 X-0.1940 Y28.7809
G01 X-0.0656 Y28.7888
G00 Z2.0000
G00 X-0.0656 Y28.8682
G01 F20.00
G01 Z-0.0601
G01 F40.00
G01 X-0.1979 Y28.8601
G01 X-0.3486 Y28.8546
G01 X-0.4995 Y28.8527
G01 X-0.6504 Y28.8546
G01 X-0.8011 Y28.8601
G01 X-0.9334 Y28.8682
G01 X-0.9334 Y28.9477
G01 X-0.7972 Y28.9393
G01 X-0.6484 Y28.9338
G01 X-0.4995 Y28.9320
G01 X-0.3506 Y28.9338
G01 X-0.2018 Y28.9393
G01 X-0.0656 Y28.9477
G00 Z2.0000
G00 X-0.0656 Y29.0272
G01 F20.00
G01 Z-0.0601
G01 F40.00
G01 X-0.2057 Y29.0186
G01 X-0.3525 Y29.0131
G01 X-0.4995 Y29.0113
G01 X-0.6465 Y29.0131
G01 X-0.7933 Y29.0186
G01 X-0.9334 Y29.0272
G01 X-0.9334 Y29.1066
G01 X-0.7895 Y29.0978
G01 X-0.6445 Y29.0924
G01 X-0.4995 Y29.0907
G01 X-0.3545 Y29.0924
G01 X-0.2095 Y29.0978
G01 X-0.0656 Y29.1066
G00 Z2.0000
G00 X-0.0656 Y29.1862
G01 F20.00
G01 Z-0.0601
G01 F40.00
G01 X-0.2134 Y29.1770
G01 X-0.3564 Y29.1717
G01 X-0.4995 Y29.1700
G01 X-0.6426 Y29.1717
G01 X-0.7856 Y29.1770
G01 X-0.9334 Y29.1862
G01 X-0.9334 Y29.2658
G01 X-0.7817 Y29.2562
G01 X-0.6406 Y29.2510
G01 X-0.4995 Y29.2493
G01 X-0.3584 Y29.2510
G01 X-0.2173 Y29.2562
G01 X-0.0656 Y29.2658
G00 Z2.0000
G00 X-0.0656 Y29.3454
G01 F20.00
G01 Z-0.0601
G01 F40.00
G01 X-0.0823 Y29.3440
G01 X-0.2212 Y29.3355
G01 X-0.3603 Y29.3303
G01 X-0.4995 Y29.3286
G01 X-0.6387 Y29.3303
G01 X-0.7778 Y29.3355
G01 X-0.9167 Y29.3440
G01 X-0.9334 Y29.3454
G01 X-0.9334 Y29.4250
G01 X-0.9109 Y29.4231
G01 X-0.7739 Y29.4147
G01 X-0.6367 Y29.4096
G01 X-0.4995 Y29.4079
G01 X-0.3623 Y29.4096
G01 X-0.2251 Y29.4147
G01 X-0.0881 Y29.4231
G01 X-0.0656 Y29.4250
G00 Z2.0000
G00 X-0.0656 Y29.5046
G01 F20.00
G01 Z-0.0601
G01 F40.00
G01 X-0.0940 Y29.5022
G01 X-0.2290 Y29.4939
G01 X-0.3642 Y29.4889
G01 X-0.4995 Y29.4873
G01 X-0.6348 Y29.4889
G01 X-0.7700 Y29.4939
G01 X-0.9050 Y29.5022
G01 X-0.9334 Y29.5046
G01 X-0.9334 Y29.5842
G01 X-0.8992 Y29.5813
G01 X-0.7661 Y29.5731
G01 X-0.6328 Y29.5682
G01 X-0.4995 Y29.5666
G01 X-0.3662 Y29.5682
G01 X-0.2329 Y29.5731
G01 X-0.0998 Y29.5813
G01 X-0.0656 Y29.5842
G00 Z2.0000
G00 X-0.0656 Y29.6639
G01 F20.00
G01 Z-0.0601
G01 F40.00
G01 X-0.1056 Y29.6604
G01 X-0.2368 Y29.6523
G01 X-0.3681 Y29.6475
G01 X-0.4995 Y29.6459
G01 X-0.6309 Y29.6475
G01 X-0.7622 Y29.6523
G01 X-0.8934 Y29.6604
G01 X-0.9334 Y29.6639
G01 X-0.9334 Y29.7435
G01 X-0.8875 Y29.7395
G01 X-0.7583 Y29.7316
G01 X-0.6289 Y29.7268
G01 X-0.4995 Y29.7252
G01 X-0.3701 Y29.7268
G01 X-0.2407 Y29.7316
G01 X-0.1115 Y29.7395
G01 X-0.0656 Y29.7435
G00 Z2.0000
G00 X-0.0656 Y29.8231
G01 F20.00
G01 Z-0.0601
G01 F40.00
G01 X-0.1173 Y29.8186
G01 X-0.2446 Y29.8108
G01 X-0.3720 Y29.8061
G01 X-0.4995 Y29.8045
G01 X-0.6270 Y29.8061
G01 X-0.7544 Y29.8108
G01 X-0.8817 Y29.8186
G01 X-0.9334 Y29.8231
G01 X-0.9334 Y29.9027
G01 X-0.8759 Y29.8977
G01 X-0.7505 Y29.8900
G01 X-0.6251 Y29.8854
G01 X-0.4995 Y29.8839
G01 X-0.3739 Y29.8854
G01 X-0.2485 Y29.8900
G01 X-0.1231 Y29.8977
G01 X-0.0656 Y29.9027
G00 Z2.0000
G00 X-0.0656 Y29.9823
G01 F20.00
G01 Z-0.0601
G01 F40.00
G01 X-0.1290 Y29.9768
G01 X-0.2524 Y29.9692
G01 X-0.3759 Y29.9647
G01 X-0.4995 Y29.9632
G01 X-0.6231 Y29.9647
G01 X-0.7466 Y29.9692
G01 X-0.8700 Y29.9768
G01 X-0.9334 Y29.9823
G01 X-0.9334 Y30.0619
G01 X-0.8642 Y30.0559
G01 X-0.7428 Y30.0485
G01 X-0.6212 Y30.0440
G01 X-0.4995 Y30.0425
G01 X-0.3778 Y30.0440
G01 X-0.2562 Y30.0485
G01 X-0.1348 Y30.0559
G01 X-0.0656 Y30.0619
G00 Z2.0000
G00 X-0.0656 Y30.1415
G01 F20.00
G01 Z-0.0601
G01 F40.00
G01 X-0.1406 Y30.1350
G01 X-0.2601 Y30.1277
G01 X-0.3798 Y30.1233
G01 X-0.4995 Y30.1218
G01 X-0.6192 Y30.1233
G01 X-0.7389 Y30.1277
G01 X-0.8584 Y30.1350
G01 X-0.9334 Y30.1415
G01 X-0.9334 Y30.2211
G01 X-0.8525 Y30.2141
G01 X-0.7350 Y30.2069
G01 X-0.6173 Y30.2026
G01 X-0.4995 Y30.2011
G01 X-0.3817 Y30.2026
G01 X-0.2640 Y30.2069
G01 X-0.1465 Y30.2141
G01 X-0.0656 Y30.2211
G00 Z2.0000
G00 X-0.0656 Y30.3007
G01 F20.00
G01 Z-0.0601
G01 F40.00
G01 X-0.1523 Y30.2932
G01 X-0.2679 Y30.2861
G01 X-0.3837 Y30.2819
G01 X-0.4995 Y30.2805
G01 X-0.6153 Y30.2819
G01 X-0.7311 Y30.2861
G01 X-0.8467 Y30.2932
G01 X-0.9334 Y30.3007
G01 X-0.9334 Y30.3803
G01 X-0.8409 Y30.3724
G01 X-0.7272 Y30.3654
G01 X-0.6134 Y30.3612
G01 X-0.4995 Y30.3598
G01 X-0.3856 Y30.3612
G01 X-0.2718 Y30.3654
G01 X-0.1581 Y30.3724
G01 X-0.0656 Y30.3803
G00 Z2.0000
G00 X-0.0656 Y30.4599
G01 F20.00
G01 Z-0.0601
G01 F40.00
G01 X-0.1640 Y30.4515
G01 X-0.2757 Y30.4446
G01 X-0.3876 Y30.4405
G01 X-0.4995 Y30.4391
G01 X-0.6114 Y30.4405
G01 X-0.7233 Y30.4446
G01 X-0.8350 Y30.4515
G01 X-0.9334 Y30.4599
G01 X-0.9334 Y30.5395
G01 X-0.8292 Y30.5306
G01 X-0.7194 Y30.5238
G01 X-0.6095 Y30.5198
G01 X-0.4995 Y30.5184
G01 X-0.3895 Y30.5198
G01 X-0.2796 Y30.5238
G01 X-0.1698 Y30.5306
G01 X-0.0656 Y30.5395
G00 Z2.0000
G00 X-0.0656 Y30.6192
G01 F20.00
G01 Z-0.0601
G01 F40.00
G01 X-0.1756 Y30.6097
G01 X-0.2835 Y30.6030
G01 X-0.3915 Y30.5991
G01 X-0.4995 Y30.5977
G01 X-0.6075 Y30.5991
G01 X-0.7155 Y30.6030
G01 X-0.8234 Y30.6097
G01 X-0.9310 Y30.6189
G01 X-0.9334 Y30.6192
G01 X-0.9334 Y30.6990
G01 X-0.8175 Y30.6888
G01 X-0.7116 Y30.6823
G01 X-0.6056 Y30.6784
G01 X-0.4995 Y30.6771
G01 X-0.3934 Y30.6784
G01 X-0.2874 Y30.6823
G01 X-0.1815 Y30.6888
G01 X-0.0656 Y30.6990
G00 Z2.0000
G00 X-0.0656 Y30.7788
G01 F20.00
G01 Z-0.0601
G01 F40.00
G01 X-0.0836 Y30.7768
G01 X-0.1873 Y30.7679
G01 X-0.2913 Y30.7615
G01 X-0.3954 Y30.7577
G01 X-0.4995 Y30.7564
G01 X-0.6036 Y30.7577
G01 X-0.7077 Y30.7615
G01 X-0.8117 Y30.7679
G01 X-0.9154 Y30.7768
G01 X-0.9334 Y30.7788
G01 X-0.9334 Y30.8586
G01 X-0.9077 Y30.8558
G01 X-0.8058 Y30.8470
G01 X-0.7038 Y30.8407
G01 X-0.6017 Y30.8370
G01 X-0.4995 Y30.8357
G01 X-0.3973 Y30.8370
G01 X-0.2952 Y30.8407
G01 X-0.1932 Y30.8470
G01 X-0.0913 Y30.8558
G01 X-0.0656 Y30.8586
G00 Z2.0000
G00 X-0.0656 Y30.9384
G01 F20.00
G01 Z-0.0601
G01 F40.00
G01 X-0.0991 Y30.9347
G01 X-0.1990 Y30.9261
G01 X-0.2991 Y30.9199
G01 X-0.3992 Y30.9163
G01 X-0.4995 Y30.9150
G01 X-0.5998 Y30.9163
G01 X-0.6999 Y30.9199
G01 X-0.8000 Y30.9261
G01 X-0.8999 Y30.9347
G01 X-0.9334 Y30.9384
G01 X-0.9334 Y31.0182
G01 X-0.8921 Y31.0136
G01 X-0.7942 Y31.0052
G01 X-0.6960 Y30.9992
G01 X-0.5978 Y30.9955
G01 X-0.4995 Y30.9943
G01 X-0.4012 Y30.9955
G01 X-0.3030 Y30.9992
G01 X-0.2048 Y31.0052
G01 X-0.1069 Y31.0136
G01 X-0.0656 Y31.0182
G00 Z2.0000
G00 X-0.0656 Y31.0980
G01 F20.00
G01 Z-0.0601
G01 F40.00
G01 X-0.1147 Y31.0926
G01 X-0.2107 Y31.0843
G01 X-0.3068 Y31.0784
G01 X-0.4031 Y31.0748
G01 X-0.4995 Y31.0737
G01 X-0.5959 Y31.0748
G01 X-0.6922 Y31.0784
G01 X-0.7883 Y31.0843
G01 X-0.8843 Y31.0926
G01 X-0.9334 Y31.0980
G01 X-0.9334 Y31.1778
G01 X-0.8766 Y31.1715
G01 X-0.7825 Y31.1634
G01 X-0.6883 Y31.1576
G01 X-0.5939 Y31.1541
G01 X-0.4995 Y31.1530
G01 X-0.4051 Y31.1541
G01 X-0.3107 Y31.1576
G01 X-0.2165 Y31.1634
G01 X-0.1224 Y31.1715
G01 X-0.0656 Y31.1778
G00 Z2.0000
G00 X-0.0656 Y31.2576
G01 F20.00
G01 Z-0.0601
G01 F40.00
G01 X-0.1302 Y31.2504
G01 X-0.2223 Y31.2425
G01 X-0.3146 Y31.2368
G01 X-0.4070 Y31.2334
G01 X-0.4995 Y31.2323
G01 X-0.5920 Y31.2334
G01 X-0.6844 Y31.2368
G01 X-0.7767 Y31.2425
G01 X-0.8688 Y31.2504
G01 X-0.9334 Y31.2576
G01 X-0.9334 Y31.3374
G01 X-0.8610 Y31.3294
G01 X-0.7708 Y31.3216
G01 X-0.6805 Y31.3161
G01 X-0.5900 Y31.3127
G01 X-0.4995 Y31.3116
G01 X-0.4090 Y31.3127
G01 X-0.3185 Y31.3161
G01 X-0.2282 Y31.3216
G01 X-0.1380 Y31.3294
G01 X-0.0656 Y31.3374
G00 Z2.0000
G00 X-0.0656 Y31.4172
G01 F20.00
G01 Z-0.0601
G01 F40.00
G01 X-0.1458 Y31.4083
G01 X-0.2340 Y31.4007
G01 X-0.3224 Y31.3953
G01 X-0.4109 Y31.3920
G01 X-0.4995 Y31.3909
G01 X-0.5881 Y31.3920
G01 X-0.6766 Y31.3953
G01 X-0.7650 Y31.4007
G01 X-0.8532 Y31.4083
G01 X-0.9334 Y31.4172
G01 X-0.9334 Y31.4971
G01 X-0.8455 Y31.4873
G01 X-0.7592 Y31.4798
G01 X-0.6727 Y31.4745
G01 X-0.5861 Y31.4713
G01 X-0.4995 Y31.4703
G01 X-0.4129 Y31.4713
G01 X-0.3263 Y31.4745
G01 X-0.2398 Y31.4798
G01 X-0.1535 Y31.4873
G01 X-0.0656 Y31.4971
G00 Z2.0000
G00 X-0.0656 Y31.5771
G01 F20.00
G01 Z-0.0601
G01 F40.00
G01 X-0.0771 Y31.5755
G01 X-0.1613 Y31.5662
G01 X-0.2457 Y31.5589
G01 X-0.3302 Y31.5537
G01 X-0.4148 Y31.5506
G01 X-0.4995 Y31.5496
G01 X-0.5842 Y31.5506
G01 X-0.6688 Y31.5537
G01 X-0.7533 Y31.5589
G01 X-0.8377 Y31.5662
G01 X-0.9219 Y31.5755
G01 X-0.9334 Y31.5771
G01 X-0.9334 Y31.6571
G01 X-0.9122 Y31.6543
G01 X-0.8299 Y31.6451
G01 X-0.7475 Y31.6380
G01 X-0.6649 Y31.6330
G01 X-0.5822 Y31.6299
G01 X-0.4995 Y31.6289
G01 X-0.4168 Y31.6299
G01 X-0.3341 Y31.6330
G01 X-0.2515 Y31.6380
G01 X-0.1691 Y31.6451
G01 X-0.0868 Y31.6543
G01 X-0.0656 Y31.6571
G00 Z2.0000
G00 X-0.0656 Y31.7372
G01 F20.00
G01 Z-0.0601
G01 F40.00
G01 X-0.0966 Y31.7330
G01 X-0.1768 Y31.7241
G01 X-0.2573 Y31.7171
G01 X-0.3380 Y31.7122
G01 X-0.4187 Y31.7092
G01 X-0.4995 Y31.7082
G01 X-0.5803 Y31.7092
G01 X-0.6610 Y31.7122
G01 X-0.7417 Y31.7171
G01 X-0.8222 Y31.7241
G01 X-0.9024 Y31.7330
G01 X-0.9334 Y31.7372
G01 X-0.9334 Y31.8172
G01 X-0.8927 Y31.8117
G01 X-0.8144 Y31.8030
G01 X-0.7358 Y31.7962
G01 X-0.6571 Y31.7914
G01 X-0.5783 Y31.7885
G01 X-0.4995 Y31.7875
G01 X-0.4207 Y31.7885
G01 X-0.3419 Y31.7914
G01 X-0.2632 Y31.7962
G01 X-0.1846 Y31.8030
G01 X-0.1063 Y31.8117
G01 X-0.0656 Y31.8172
G00 Z2.0000
G00 X-0.0656 Y31.8973
G01 F20.00
G01 Z-0.0601
G01 F40.00
G01 X-0.1160 Y31.8904
G01 X-0.1924 Y31.8819
G01 X-0.2690 Y31.8753
G01 X-0.3458 Y31.8706
G01 X-0.4226 Y31.8678
G01 X-0.4995 Y31.8669
G01 X-0.5764 Y31.8678
G01 X-0.6532 Y31.8706
G01 X-0.7300 Y31.8753
G01 X-0.8066 Y31.8819
G01 X-0.8830 Y31.8904
G01 X-0.9334 Y31.8973
G01 X-0.9334 Y31.9773
G01 X-0.8733 Y31.9691
G01 X-0.7988 Y31.9609
G01 X-0.7242 Y31.9545
G01 X-0.6493 Y31.9499
G01 X-0.5744 Y31.9471
G01 X-0.4995 Y31.9462
G01 X-0.4246 Y31.9471
G01 X-0.3497 Y31.9499
G01 X-0.2748 Y31.9545
G01 X-0.2002 Y31.9609
G01 X-0.1257 Y31.9691
G01 X-0.0656 Y31.9773
G00 Z2.0000
G00 X-0.0656 Y32.0573
G01 F20.00
G01 Z-0.0601
G01 F40.00
G01 X-0.1354 Y32.0479
G01 X-0.2079 Y32.0398
G01 X-0.2807 Y32.0336
G01 X-0.3535 Y32.0291
G01 X-0.4265 Y32.0264
G01 X-0.4995 Y32.0255
G01 X-0.5725 Y32.0264
G01 X-0.6455 Y32.0291
G01 X-0.7183 Y32.0336
G01 X-0.7911 Y32.0398
G01 X-0.8636 Y32.0479
G01 X-0.9334 Y32.0573
G01 X-0.9334 Y32.1376
G01 X-0.8539 Y32.1266
G01 X-0.7833 Y32.1188
G01 X-0.7125 Y32.1127
G01 X-0.6416 Y32.1083
G01 X-0.5706 Y32.1057
G01 X-0.4995 Y32.1048
G01 X-0.4284 Y32.1057
G01 X-0.3574 Y32.1083
G01 X-0.2865 Y32.1127
G01 X-0.2157 Y32.1188
G01 X-0.1451 Y32.1266
G01 X-0.0656 Y32.1376
G00 Z2.0000
G00 X-0.0656 Y32.2180
G01 F20.00
G01 Z-0.0601
G01 F40.00
G01 X-0.0863 Y32.2146
G01 X-0.1548 Y32.2053
G01 X-0.2235 Y32.1977
G01 X-0.2924 Y32.1918
G01 X-0.3613 Y32.1875
G01 X-0.4304 Y32.1850
G01 X-0.4995 Y32.1841
G01 X-0.5686 Y32.1850
G01 X-0.6377 Y32.1875
G01 X-0.7066 Y32.1918
G01 X-0.7755 Y32.1977
G01 X-0.8442 Y32.2053
G01 X-0.9127 Y32.2146
G01 X-0.9334 Y32.2180
G01 X-0.9334 Y32.2983
G01 X-0.9010 Y32.2931
G01 X-0.8345 Y32.2840
G01 X-0.7677 Y32.2766
G01 X-0.7008 Y32.2709
G01 X-0.6338 Y32.2668
G01 X-0.5667 Y32.2643
G01 X-0.4995 Y32.2635
G01 X-0.4323 Y32.2643
G01 X-0.3652 Y32.2668
G01 X-0.2982 Y32.2709
G01 X-0.2313 Y32.2766
G01 X-0.1645 Y32.2840
G01 X-0.0980 Y32.2931
G01 X-0.0656 Y32.2983
G00 Z2.0000
G00 X-0.0656 Y32.3786
G01 F20.00
G01 Z-0.0601
G01 F40.00
G01 X-0.1096 Y32.3715
G01 X-0.1742 Y32.3628
G01 X-0.2390 Y32.3556
G01 X-0.3040 Y32.3500
G01 X-0.3691 Y32.3460
G01 X-0.4343 Y32.3436
G01 X-0.4995 Y32.3428
G01 X-0.5647 Y32.3436
G01 X-0.6299 Y32.3460
G01 X-0.6950 Y32.3500
G01 X-0.7600 Y32.3556
G01 X-0.8248 Y32.3628
G01 X-0.8894 Y32.3715
G01 X-0.9334 Y32.3786
G01 X-0.9334 Y32.4590
G01 X-0.8778 Y32.4500
G01 X-0.8151 Y32.4415
G01 X-0.7522 Y32.4345
G01 X-0.6891 Y32.4291
G01 X-0.6260 Y32.4252
G01 X-0.5628 Y32.4229
G01 X-0.4995 Y32.4221
G01 X-0.4362 Y32.4229
G01 X-0.3730 Y32.4252
G01 X-0.3099 Y32.4291
G01 X-0.2468 Y32.4345
G01 X-0.1839 Y32.4415
G01 X-0.1212 Y32.4500
G01 X-0.0656 Y32.4590
G00 Z2.0000
G00 X-0.0656 Y32.5395
G01 F20.00
G01 Z-0.0601
G01 F40.00
G01 X-0.1329 Y32.5285
G01 X-0.1936 Y32.5202
G01 X-0.2546 Y32.5135
G01 X-0.3157 Y32.5082
G01 X-0.3769 Y32.5044
G01 X-0.4382 Y32.5022
G01 X-0.4995 Y32.5014
G01 X-0.5608 Y32.5022
G01 X-0.6221 Y32.5044
G01 X-0.6833 Y32.5082
G01 X-0.7444 Y32.5135
G01 X-0.8054 Y32.5202
G01 X-0.8661 Y32.5285
G01 X-0.9334 Y32.5395
G01 X-0.9334 Y32.6201
G01 X-0.9131 Y32.6164
G01 X-0.8545 Y32.6069
G01 X-0.7956 Y32.5989
G01 X-0.7366 Y32.5924
G01 X-0.6775 Y32.5873
G01 X-0.6182 Y32.5837
G01 X-0.5589 Y32.5815
G01 X-0.4995 Y32.5807
G01 X-0.4401 Y32.5815
G01 X-0.3808 Y32.5837
G01 X-0.3215 Y32.5873
G01 X-0.2624 Y32.5924
G01 X-0.2034 Y32.5989
G01 X-0.1445 Y32.6069
G01 X-0.0859 Y32.6164
G01 X-0.0656 Y32.6201
G00 Z2.0000
G00 X-0.0656 Y32.7008
G01 F20.00
G01 Z-0.0601
G01 F40.00
G01 X-0.0995 Y32.6945
G01 X-0.1562 Y32.6854
G01 X-0.2131 Y32.6777
G01 X-0.2701 Y32.6713
G01 X-0.3274 Y32.6664
G01 X-0.3847 Y32.6629
G01 X-0.4421 Y32.6608
G01 X-0.4995 Y32.6601
G01 X-0.5569 Y32.6608
G01 X-0.6143 Y32.6629
G01 X-0.6716 Y32.6664
G01 X-0.7289 Y32.6713
G01 X-0.7859 Y32.6777
G01 X-0.8428 Y32.6854
G01 X-0.8995 Y32.6945
G01 X-0.9334 Y32.7008
G01 X-0.9334 Y32.7815
G01 X-0.8860 Y32.7727
G01 X-0.8312 Y32.7638
G01 X-0.7762 Y32.7564
G01 X-0.7211 Y32.7503
G01 X-0.6658 Y32.7455
G01 X-0.6104 Y32.7421
G01 X-0.5550 Y32.7401
G01 X-0.4995 Y32.7394
G01 X-0.4440 Y32.7401
G01 X-0.3886 Y32.7421
G01 X-0.3332 Y32.7455
G01 X-0.2779 Y32.7503
G01 X-0.2228 Y32.7564
G01 X-0.1678 Y32.7638
G01 X-0.1130 Y32.7727
G01 X-0.0656 Y32.7815
G00 Z2.0000
G00 X-0.0656 Y32.8624
G01 F20.00
G01 Z-0.0601
G01 F40.00
G01 X-0.1266 Y32.8508
G01 X-0.1794 Y32.8423
G01 X-0.2325 Y32.8351
G01 X-0.2857 Y32.8292
G01 X-0.3390 Y32.8246
G01 X-0.3925 Y32.8213
G01 X-0.4460 Y32.8194
G01 X-0.4995 Y32.8187
G01 X-0.5530 Y32.8194
G01 X-0.6065 Y32.8213
G01 X-0.6600 Y32.8246
G01 X-0.7133 Y32.8292
G01 X-0.7665 Y32.8351
G01 X-0.8196 Y32.8423
G01 X-0.8724 Y32.8508
G01 X-0.9334 Y32.8624
G01 X-0.9334 Y32.9435
G01 X-0.9096 Y32.9384
G01 X-0.8589 Y32.9290
G01 X-0.8079 Y32.9208
G01 X-0.7568 Y32.9138
G01 X-0.7055 Y32.9081
G01 X-0.6541 Y32.9037
G01 X-0.6026 Y32.9006
G01 X-0.5511 Y32.8987
G01 X-0.4995 Y32.8980
G01 X-0.4479 Y32.8987
G01 X-0.3964 Y32.9006
G01 X-0.3449 Y32.9037
G01 X-0.2935 Y32.9081
G01 X-0.2422 Y32.9138
G01 X-0.1911 Y32.9208
G01 X-0.1401 Y32.9290
G01 X-0.0894 Y32.9384
G01 X-0.0656 Y32.9435
G00 Z2.0000
G00 X-0.0656 Y33.0245
G01 F20.00
G01 Z-0.0601
G01 F40.00
G01 X-0.1049 Y33.0162
G01 X-0.1537 Y33.0071
G01 X-0.2027 Y32.9992
G01 X-0.2519 Y32.9926
G01 X-0.3012 Y32.9871
G01 X-0.3507 Y32.9828
G01 X-0.4003 Y32.9798
G01 X-0.4499 Y32.9779
G01 X-0.4995 Y32.9773
G01 X-0.5491 Y32.9779
G01 X-0.5987 Y32.9798
G01 X-0.6483 Y32.9828
G01 X-0.6978 Y32.9871
G01 X-0.7471 Y32.9926
G01 X-0.7963 Y32.9992
G01 X-0.8453 Y33.0071
G01 X-0.8941 Y33.0162
G01 X-0.9334 Y33.0245
G01 X-0.9334 Y33.1058
G01 X-0.8786 Y33.0940
G01 X-0.8317 Y33.0853
G01 X-0.7846 Y33.0777
G01 X-0.7374 Y33.0713
G01 X-0.6900 Y33.0660
G01 X-0.6425 Y33.0619
G01 X-0.5949 Y33.0590
G01 X-0.5472 Y33.0572
G01 X-0.4995 Y33.0567
G01 X-0.4518 Y33.0572
G01 X-0.4041 Y33.0590
G01 X-0.3565 Y33.0619
G01 X-0.3090 Y33.0660
G01 X-0.2616 Y33.0713
G01 X-0.2144 Y33.0777
G01 X-0.1673 Y33.0853
G01 X-0.1204 Y33.0940
G01 X-0.0656 Y33.1058
G00 Z2.0000
G00 X-0.0656 Y33.1873
G01 F20.00
G01 Z-0.0601
G01 F40.00
G01 X-0.0911 Y33.1813
G01 X-0.1358 Y33.1718
G01 X-0.1808 Y33.1634
G01 X-0.2260 Y33.1562
G01 X-0.2713 Y33.1500
G01 X-0.3168 Y33.1450
G01 X-0.3624 Y33.1410
G01 X-0.4080 Y33.1382
G01 X-0.4538 Y33.1365
G01 X-0.4995 Y33.1360
G01 X-0.5452 Y33.1365
G01 X-0.5910 Y33.1382
G01 X-0.6366 Y33.1410
G01 X-0.6822 Y33.1450
G01 X-0.7277 Y33.1500
G01 X-0.7730 Y33.1562
G01 X-0.8182 Y33.1634
G01 X-0.8632 Y33.1718
G01 X-0.9079 Y33.1813
G01 X-0.9334 Y33.1873
G01 X-0.9334 Y33.2689
G01 X-0.8905 Y33.2587
G01 X-0.8477 Y33.2496
G01 X-0.8046 Y33.2416
G01 X-0.7614 Y33.2346
G01 X-0.7180 Y33.2287
G01 X-0.6744 Y33.2239
G01 X-0.6308 Y33.2201
G01 X-0.5871 Y33.2174
G01 X-0.5433 Y33.2158
G01 X-0.4995 Y33.2153
G01 X-0.4557 Y33.2158
G01 X-0.4119 Y33.2174
G01 X-0.3682 Y33.2201
G01 X-0.3246 Y33.2239
G01 X-0.2810 Y33.2287
G01 X-0.2376 Y33.2346
G01 X-0.1944 Y33.2416
G01 X-0.1513 Y33.2496
G01 X-0.1085 Y33.2587
G01 X-0.0656 Y33.2689
G00 Z2.0000
G00 X-0.0656 Y33.3509
G01 F20.00
G01 Z-0.0601
G01 F40.00
G01 X-0.0851 Y33.3457
G01 X-0.1258 Y33.3361
G01 X-0.1668 Y33.3274
G01 X-0.2079 Y33.3197
G01 X-0.2493 Y33.3131
G01 X-0.2907 Y33.3074
G01 X-0.3323 Y33.3028
G01 X-0.3740 Y33.2992
G01 X-0.4158 Y33.2967
G01 X-0.4576 Y33.2951
G01 X-0.4995 Y33.2946
G01 X-0.5414 Y33.2951
G01 X-0.5832 Y33.2967
G01 X-0.6250 Y33.2992
G01 X-0.6667 Y33.3028
G01 X-0.7083 Y33.3074
G01 X-0.7497 Y33.3131
G01 X-0.7911 Y33.3197
G01 X-0.8322 Y33.3274
G01 X-0.8732 Y33.3361
G01 X-0.9139 Y33.3457
G01 X-0.9334 Y33.3509
G01 X-0.9334 Y33.4329
G01 X-0.8946 Y33.4227
G01 X-0.8558 Y33.4134
G01 X-0.8167 Y33.4052
G01 X-0.7775 Y33.3979
G01 X-0.7381 Y33.3915
G01 X-0.6985 Y33.3862
G01 X-0.6589 Y33.3818
G01 X-0.6191 Y33.3783
G01 X-0.5793 Y33.3759
G01 X-0.5394 Y33.3744
G01 X-0.4995 Y33.3739
G01 X-0.4596 Y33.3744
G01 X-0.4197 Y33.3759
G01 X-0.3799 Y33.3783
G01 X-0.3401 Y33.3818
G01 X-0.3005 Y33.3862
G01 X-0.2609 Y33.3915
G01 X-0.2215 Y33.3979
G01 X-0.1823 Y33.4052
G01 X-0.1432 Y33.4134
G01 X-0.1044 Y33.4227
G01 X-0.0656 Y33.4329
G00 Z2.0000
G00 X-0.0656 Y33.5155
G01 F20.00
G01 Z-0.0601
G01 F40.00
G01 X-0.0870 Y33.5093
G01 X-0.1237 Y33.4996
G01 X-0.1606 Y33.4908
G01 X-0.1977 Y33.4830
G01 X-0.2351 Y33.4760
G01 X-0.2725 Y33.4700
G01 X-0.3102 Y33.4649
G01 X-0.3479 Y33.4607
G01 X-0.3857 Y33.4575
G01 X-0.4236 Y33.4551
G01 X-0.4615 Y33.4537
G01 X-0.4995 Y33.4533
G01 X-0.5375 Y33.4537
G01 X-0.5754 Y33.4551
G01 X-0.6133 Y33.4575
G01 X-0.6511 Y33.4607
G01 X-0.6888 Y33.4649
G01 X-0.7265 Y33.4700
G01 X-0.7639 Y33.4760
G01 X-0.8013 Y33.4830
G01 X-0.8384 Y33.4908
G01 X-0.8753 Y33.4996
G01 X-0.9120 Y33.5093
G01 X-0.9334 Y33.5155
G01 X-0.9334 Y33.5983
G01 X-0.8909 Y33.5857
G01 X-0.8561 Y33.5766
G01 X-0.8210 Y33.5682
G01 X-0.7858 Y33.5608
G01 X-0.7504 Y33.5542
G01 X-0.7148 Y33.5485
G01 X-0.6791 Y33.5436
G01 X-0.6433 Y33.5396
G01 X-0.6075 Y33.5366
G01 X-0.5715 Y33.5343
G01 X-0.5355 Y33.5330
G01 X-0.4995 Y33.5326
G01 X-0.4635 Y33.5330
G01 X-0.4275 Y33.5343
G01 X-0.3915 Y33.5366
G01 X-0.3557 Y33.5396
G01 X-0.3199 Y33.5436
G01 X-0.2842 Y33.5485
G01 X-0.2486 Y33.5542
G01 X-0.2132 Y33.5608
G01 X-0.1780 Y33.5682
G01 X-0.1429 Y33.5766
G01 X-0.1081 Y33.5857
G01 X-0.0656 Y33.5983
G00 Z2.0000
G00 X-0.0656 Y33.6815
G01 F20.00
G01 Z-0.0601
G01 F40.00
G01 X-0.0966 Y33.6717
G01 X-0.1293 Y33.6622
G01 X-0.1622 Y33.6535
G01 X-0.1954 Y33.6456
G01 X-0.2287 Y33.6386
G01 X-0.2622 Y33.6323
G01 X-0.2958 Y33.6269
G01 X-0.3296 Y33.6223
G01 X-0.3634 Y33.6186
G01 X-0.3974 Y33.6157
G01 X-0.4314 Y33.6136
G01 X-0.4654 Y33.6123
G01 X-0.4995 Y33.6119
G01 X-0.5336 Y33.6123
G01 X-0.5676 Y33.6136
G01 X-0.6016 Y33.6157
G01 X-0.6356 Y33.6186
G01 X-0.6694 Y33.6223
G01 X-0.7032 Y33.6269
G01 X-0.7368 Y33.6323
G01 X-0.7703 Y33.6386
G01 X-0.8036 Y33.6456
G01 X-0.8368 Y33.6535
G01 X-0.8697 Y33.6622
G01 X-0.9024 Y33.6717
G01 X-0.9334 Y33.6815
G01 X-0.9334 Y33.7653
G01 X-0.9100 Y33.7573
G01 X-0.8794 Y33.7476
G01 X-0.8486 Y33.7386
G01 X-0.8175 Y33.7304
G01 X-0.7863 Y33.7230
G01 X-0.7548 Y33.7164
G01 X-0.7233 Y33.7105
G01 X-0.6915 Y33.7054
G01 X-0.6597 Y33.7011
G01 X-0.6278 Y33.6975
G01 X-0.5958 Y33.6948
G01 X-0.5637 Y33.6928
G01 X-0.5316 Y33.6916
G01 X-0.4995 Y33.6912
G01 X-0.4674 Y33.6916
G01 X-0.4353 Y33.6928
G01 X-0.4032 Y33.6948
G01 X-0.3712 Y33.6975
G01 X-0.3393 Y33.7011
G01 X-0.3075 Y33.7054
G01 X-0.2757 Y33.7105
G01 X-0.2442 Y33.7164
G01 X-0.2127 Y33.7230
G01 X-0.1815 Y33.7304
G01 X-0.1504 Y33.7386
G01 X-0.1196 Y33.7476
G01 X-0.0890 Y33.7573
G01 X-0.0656 Y33.7653
G00 Z2.0000
G00 X-0.0656 Y33.8497
G01 F20.00
G01 Z-0.0601
G01 F40.00
G01 X-0.0853 Y33.8424
G01 X-0.1138 Y33.8326
G01 X-0.1426 Y33.8235
G01 X-0.1716 Y33.8151
G01 X-0.2008 Y33.8074
G01 X-0.2301 Y33.8004
G01 X-0.2596 Y33.7942
G01 X-0.2893 Y33.7886
G01 X-0.3191 Y33.7838
G01 X-0.3490 Y33.7798
G01 X-0.3790 Y33.7765
G01 X-0.4091 Y33.7739
G01 X-0.4392 Y33.7720
G01 X-0.4693 Y33.7709
G01 X-0.4995 Y33.7705
G01 X-0.5297 Y33.7709
G01 X-0.5598 Y33.7720
G01 X-0.5899 Y33.7739
G01 X-0.6200 Y33.7765
G01 X-0.6500 Y33.7798
G01 X-0.6799 Y33.7838
G01 X-0.7097 Y33.7886
G01 X-0.7394 Y33.7942
G01 X-0.7689 Y33.8004
G01 X-0.7982 Y33.8074
G01 X-0.8274 Y33.8151
G01 X-0.8564 Y33.8235
G01 X-0.8852 Y33.8326
G01 X-0.9137 Y33.8424
G01 X-0.9334 Y33.8497
G01 X-0.9334 Y33.9349
G01 X-0.9134 Y33.9269
G01 X-0.8870 Y33.9171
G01 X-0.8603 Y33.9079
G01 X-0.8334 Y33.8994
G01 X-0.8063 Y33.8915
G01 X-0.7790 Y33.8843
G01 X-0.7515 Y33.8778
G01 X-0.7239 Y33.8720
G01 X-0.6961 Y33.8668
G01 X-0.6683 Y33.8623
G01 X-0.6403 Y33.8585
G01 X-0.6122 Y33.8554
G01 X-0.5841 Y33.8530
G01 X-0.5559 Y33.8512
G01 X-0.5277 Y33.8502
G01 X-0.4995 Y33.8499
G01 X-0.4713 Y33.8502
G01 X-0.4431 Y33.8512
G01 X-0.4149 Y33.8530
G01 X-0.3868 Y33.8554
G01 X-0.3587 Y33.8585
G01 X-0.3307 Y33.8623
G01 X-0.3029 Y33.8668
G01 X-0.2751 Y33.8720
G01 X-0.2475 Y33.8778
G01 X-0.2200 Y33.8843
G01 X-0.1927 Y33.8915
G01 X-0.1656 Y33.8994
G01 X-0.1387 Y33.9079
G01 X-0.1120 Y33.9171
G01 X-0.0856 Y33.9269
G01 X-0.0656 Y33.9349
G00 Z2.0000
G00 X-0.0656 Y34.0210
G01 F20.00
G01 Z-0.0601
G01 F40.00
G01 X-0.0897 Y34.0107
G01 X-0.1141 Y34.0009
G01 X-0.1388 Y33.9918
G01 X-0.1636 Y33.9832
G01 X-0.1887 Y33.9753
G01 X-0.2139 Y33.9680
G01 X-0.2393 Y33.9613
G01 X-0.2649 Y33.9552
G01 X-0.2906 Y33.9498
G01 X-0.3164 Y33.9449
G01 X-0.3424 Y33.9408
G01 X-0.3684 Y33.9372
G01 X-0.3945 Y33.9343
G01 X-0.4207 Y33.9321
G01 X-0.4470 Y33.9305
G01 X-0.4732 Y33.9295
G01 X-0.4995 Y33.9292
G01 X-0.5258 Y33.9295
G01 X-0.5520 Y33.9305
G01 X-0.5783 Y33.9321
G01 X-0.6045 Y33.9343
G01 X-0.6306 Y33.9372
G01 X-0.6566 Y33.9408
G01 X-0.6826 Y33.9449
G01 X-0.7084 Y33.9498
G01 X-0.7341 Y33.9552
G01 X-0.7597 Y33.9613
G01 X-0.7851 Y33.9680
G01 X-0.8103 Y33.9753
G01 X-0.8354 Y33.9832
G01 X-0.8602 Y33.9918
G01 X-0.8849 Y34.0009
G01 X-0.9093 Y34.0107
G01 X-0.9334 Y34.0210
G01 X-0.9334 Y34.1086
G01 X-0.9013 Y34.0936
G01 X-0.8789 Y34.0840
G01 X-0.8563 Y34.0749
G01 X-0.8335 Y34.0665
G01 X-0.8105 Y34.0585
G01 X-0.7873 Y34.0512
G01 X-0.7639 Y34.0444
G01 X-0.7404 Y34.0382
G01 X-0.7167 Y34.0326
G01 X-0.6929 Y34.0276
G01 X-0.6690 Y34.0231
G01 X-0.6450 Y34.0192
G01 X-0.6209 Y34.0160
G01 X-0.5967 Y34.0133
G01 X-0.5724 Y34.0112
G01 X-0.5482 Y34.0097
G01 X-0.5238 Y34.0088
G01 X-0.4995 Y34.0085
G01 X-0.4752 Y34.0088
G01 X-0.4508 Y34.0097
G01 X-0.4266 Y34.0112
G01 X-0.4023 Y34.0133
G01 X-0.3781 Y34.0160
G01 X-0.3540 Y34.0192
G01 X-0.3300 Y34.0231
G01 X-0.3061 Y34.0276
G01 X-0.2823 Y34.0326
G01 X-0.2586 Y34.0382
G01 X-0.2351 Y34.0444
G01 X-0.2117 Y34.0512
G01 X-0.1885 Y34.0585
G01 X-0.1655 Y34.0665
G01 X-0.1427 Y34.0749
G01 X-0.1201 Y34.0840
G01 X-0.0977 Y34.0936
G01 X-0.0656 Y34.1086
G00 Z2.0000
G00 X-0.0656 Y34.1977
G01 F20.00
G01 Z-0.0601
G01 F40.00
G01 X-0.0894 Y34.1852
G01 X-0.1095 Y34.1754
G01 X-0.1298 Y34.1661
G01 X-0.1504 Y34.1573
G01 X-0.1712 Y34.1489
G01 X-0.1922 Y34.1411
G01 X-0.2134 Y34.1339
G01 X-0.2347 Y34.1271
G01 X-0.2562 Y34.1209
G01 X-0.2779 Y34.1152
G01 X-0.2996 Y34.1100
G01 X-0.3215 Y34.1053
G01 X-0.3436 Y34.1012
G01 X-0.3657 Y34.0977
G01 X-0.3878 Y34.0947
G01 X-0.4101 Y34.0922
G01 X-0.4324 Y34.0903
G01 X-0.4547 Y34.0889
G01 X-0.4771 Y34.0881
G01 X-0.4995 Y34.0878
G01 X-0.5219 Y34.0881
G01 X-0.5443 Y34.0889
G01 X-0.5666 Y34.0903
G01 X-0.5889 Y34.0922
G01 X-0.6112 Y34.0947
G01 X-0.6333 Y34.0977
G01 X-0.6554 Y34.1012
G01 X-0.6775 Y34.1053
G01 X-0.6994 Y34.1100
G01 X-0.7211 Y34.1152
G01 X-0.7428 Y34.1209
G01 X-0.7643 Y34.1271
G01 X-0.7856 Y34.1339
G01 X-0.8068 Y34.1411
G01 X-0.8278 Y34.1489
G01 X-0.8486 Y34.1573
G01 X-0.8692 Y34.1661
G01 X-0.8895 Y34.1754
G01 X-0.9096 Y34.1852
G01 X-0.9334 Y34.1977
G01 X-0.9334 Y34.2892
G01 X-0.9100 Y34.2753
G01 X-0.8921 Y34.2655
G01 X-0.8740 Y34.2561
G01 X-0.8556 Y34.2471
G01 X-0.8370 Y34.2386
G01 X-0.8182 Y34.2305
G01 X-0.7992 Y34.2229
G01 X-0.7801 Y34.2158
G01 X-0.7608 Y34.2092
G01 X-0.7413 Y34.2030
G01 X-0.7216 Y34.1973
G01 X-0.7019 Y34.1921
G01 X-0.6820 Y34.1874
G01 X-0.6620 Y34.1831
G01 X-0.6419 Y34.1794
G01 X-0.6217 Y34.1762
G01 X-0.6015 Y34.1734
G01 X-0.5811 Y34.1712
G01 X-0.5608 Y34.1694
G01 X-0.5404 Y34.1681
G01 X-0.5199 Y34.1674
G01 X-0.4995 Y34.1671
G01 X-0.4791 Y34.1674
G01 X-0.4586 Y34.1681
G01 X-0.4382 Y34.1694
G01 X-0.4179 Y34.1712
G01 X-0.3975 Y34.1734
G01 X-0.3773 Y34.1762
G01 X-0.3571 Y34.1794
G01 X-0.3370 Y34.1831
G01 X-0.3170 Y34.1874
G01 X-0.2971 Y34.1921
G01 X-0.2774 Y34.1973
G01 X-0.2577 Y34.2030
G01 X-0.2382 Y34.2092
G01 X-0.2189 Y34.2158
G01 X-0.1998 Y34.2229
G01 X-0.1808 Y34.2305
G01 X-0.1620 Y34.2386
G01 X-0.1434 Y34.2471
G01 X-0.1250 Y34.2561
G01 X-0.1069 Y34.2655
G01 X-0.0890 Y34.2753
G01 X-0.0656 Y34.2892
G00 Z2.0000
G00 X-0.0656 Y34.3839
G01 F20.00
G01 Z-0.0601
G01 F40.00
G01 X-0.0809 Y34.3735
G01 X-0.1121 Y34.3537
G01 X-0.1281 Y34.3444
G01 X-0.1607 Y34.3269
G01 X-0.1773 Y34.3188
G01 X-0.2111 Y34.3038
G01 X-0.2283 Y34.2970
G01 X-0.2631 Y34.2845
G01 X-0.2808 Y34.2789
G01 X-0.3164 Y34.2690
G01 X-0.3525 Y34.2609
G01 X-0.3707 Y34.2576
G01 X-0.3889 Y34.2546
G01 X-0.4256 Y34.2501
G01 X-0.4625 Y34.2474
G01 X-0.4995 Y34.2465
G01 X-0.5365 Y34.2474
G01 X-0.5734 Y34.2501
G01 X-0.6101 Y34.2546
G01 X-0.6283 Y34.2576
G01 X-0.6465 Y34.2609
G01 X-0.6826 Y34.2690
G01 X-0.7182 Y34.2789
G01 X-0.7359 Y34.2845
G01 X-0.7707 Y34.2970
G01 X-0.7879 Y34.3038
G01 X-0.8049 Y34.3111
G01 X-0.8383 Y34.3269
G01 X-0.8547 Y34.3354
G01 X-0.8869 Y34.3537
G01 X-0.9181 Y34.3735
G01 X-0.9334 Y34.3839
G01 X-0.9334 Y34.4840
G01 X-0.9143 Y34.4685
G01 X-0.9011 Y34.4585
G01 X-0.8741 Y34.4394
G01 X-0.8461 Y34.4217
G01 X-0.8173 Y34.4054
G01 X-0.7878 Y34.3905
G01 X-0.7575 Y34.3771
G01 X-0.7266 Y34.3652
G01 X-0.6952 Y34.3548
G01 X-0.6633 Y34.3460
G01 X-0.6310 Y34.3387
G01 X-0.5984 Y34.3331
G01 X-0.5656 Y34.3290
G01 X-0.5491 Y34.3276
G01 X-0.5160 Y34.3260
G01 X-0.4830 Y34.3260
G01 X-0.4499 Y34.3276
G01 X-0.4170 Y34.3309
G01 X-0.3842 Y34.3357
G01 X-0.3680 Y34.3387
G01 X-0.3518 Y34.3422
G01 X-0.3197 Y34.3502
G01 X-0.2880 Y34.3598
G01 X-0.2724 Y34.3652
G01 X-0.2569 Y34.3710
G01 X-0.2263 Y34.3836
G01 X-0.2112 Y34.3905
G01 X-0.1817 Y34.4054
G01 X-0.1529 Y34.4217
G01 X-0.1388 Y34.4304
G01 X-0.1113 Y34.4488
G01 X-0.0979 Y34.4585
G01 X-0.0847 Y34.4685
G01 X-0.0656 Y34.4840
G00 Z2.0000
G00 X-0.0656 Y34.5931
G01 F20.00
G01 Z-0.0601
G01 F40.00
G01 X-0.0788 Y34.5793
G01 X-0.0893 Y34.5691
G01 X-0.1109 Y34.5495
G01 X-0.1335 Y34.5310
G01 X-0.1570 Y34.5136
G01 X-0.1812 Y34.4974
G01 X-0.2063 Y34.4824
G01 X-0.2320 Y34.4686
G01 X-0.2584 Y34.4561
G01 X-0.2854 Y34.4450
G01 X-0.3129 Y34.4351
G01 X-0.3408 Y34.4266
G01 X-0.3550 Y34.4229
G01 X-0.3834 Y34.4165
G01 X-0.4122 Y34.4115
G01 X-0.4412 Y34.4080
G01 X-0.4703 Y34.4058
G01 X-0.4995 Y34.4051
G01 X-0.5287 Y34.4058
G01 X-0.5578 Y34.4080
G01 X-0.5868 Y34.4115
G01 X-0.6156 Y34.4165
G01 X-0.6440 Y34.4229
G01 X-0.6582 Y34.4266
G01 X-0.6861 Y34.4351
G01 X-0.7136 Y34.4450
G01 X-0.7406 Y34.4561
G01 X-0.7670 Y34.4686
G01 X-0.7927 Y34.4824
G01 X-0.8178 Y34.4974
G01 X-0.8420 Y34.5136
G01 X-0.8655 Y34.5310
G01 X-0.8881 Y34.5495
G01 X-0.9097 Y34.5691
G01 X-0.9202 Y34.5793
G01 X-0.9334 Y34.5931
G01 X-0.9334 Y34.7216
G01 X-0.9210 Y34.7031
G01 X-0.9136 Y34.6929
G01 X-0.8980 Y34.6729
G01 X-0.8899 Y34.6632
G01 X-0.8815 Y34.6538
G01 X-0.8641 Y34.6354
G01 X-0.8457 Y34.6180
G01 X-0.8363 Y34.6096
G01 X-0.8266 Y34.6015
G01 X-0.8066 Y34.5859
G01 X-0.7859 Y34.5713
G01 X-0.7753 Y34.5644
G01 X-0.7646 Y34.5578
G01 X-0.7425 Y34.5453
G01 X-0.7199 Y34.5339
G01 X-0.7084 Y34.5287
G01 X-0.6851 Y34.5190
G01 X-0.6612 Y34.5104
G01 X-0.6492 Y34.5066
G01 X-0.6248 Y34.4999
G01 X-0.6125 Y34.4969
G01 X-0.5876 Y34.4920
G01 X-0.5752 Y34.4900
G01 X-0.5500 Y34.4869
G01 X-0.5374 Y34.4858
G01 X-0.5248 Y34.4850
G01 X-0.4995 Y34.4844
G01 X-0.4742 Y34.4850
G01 X-0.4616 Y34.4858
G01 X-0.4490 Y34.4869
G01 X-0.4238 Y34.4900
G01 X-0.3989 Y34.4943
G01 X-0.3742 Y34.4999
G01 X-0.3498 Y34.5066
G01 X-0.3258 Y34.5146
G01 X-0.3022 Y34.5237
G01 X-0.2791 Y34.5339
G01 X-0.2565 Y34.5453
G01 X-0.2454 Y34.5514
G01 X-0.2237 Y34.5644
G01 X-0.2026 Y34.5785
G01 X-0.1823 Y34.5935
G01 X-0.1627 Y34.6096
G01 X-0.1440 Y34.6266
G01 X-0.1349 Y34.6354
G01 X-0.1175 Y34.6538
G01 X-0.1010 Y34.6729
G01 X-0.0854 Y34.6929
G01 X-0.0780 Y34.7031
G01 X-0.0656 Y34.7216
G00 Z2.0000
G00 X-0.0656 Y34.9549
G01 F20.00
G01 Z-0.0601
G01 F40.00
G01 X-0.0680 Y34.9360
G01 X-0.0716 Y34.9149
G01 X-0.0763 Y34.8940
G01 X-0.0820 Y34.8734
G01 X-0.0887 Y34.8530
G01 X-0.0925 Y34.8430
G01 X-0.1007 Y34.8232
G01 X-0.1098 Y34.8039
G01 X-0.1199 Y34.7850
G01 X-0.1253 Y34.7757
G01 X-0.1368 Y34.7576
G01 X-0.1491 Y34.7401
G01 X-0.1623 Y34.7232
G01 X-0.1763 Y34.7070
G01 X-0.1910 Y34.6915
G01 X-0.2065 Y34.6768
G01 X-0.2227 Y34.6628
G01 X-0.2396 Y34.6496
G01 X-0.2571 Y34.6373
G01 X-0.2661 Y34.6314
G01 X-0.2845 Y34.6204
G01 X-0.3034 Y34.6103
G01 X-0.3227 Y34.6012
G01 X-0.3425 Y34.5930
G01 X-0.3627 Y34.5858
G01 X-0.3831 Y34.5795
G01 X-0.4039 Y34.5743
G01 X-0.4249 Y34.5702
G01 X-0.4461 Y34.5670
G01 X-0.4674 Y34.5649
G01 X-0.4888 Y34.5639
G01 X-0.4995 Y34.5637
G01 X-0.5102 Y34.5639
G01 X-0.5316 Y34.5649
G01 X-0.5529 Y34.5670
G01 X-0.5741 Y34.5702
G01 X-0.5951 Y34.5743
G01 X-0.6159 Y34.5795
G01 X-0.6363 Y34.5858
G01 X-0.6565 Y34.5930
G01 X-0.6763 Y34.6012
G01 X-0.6956 Y34.6103
G01 X-0.7145 Y34.6204
G01 X-0.7329 Y34.6314
G01 X-0.7419 Y34.6373
G01 X-0.7594 Y34.6496
G01 X-0.7763 Y34.6628
G01 X-0.7925 Y34.6768
G01 X-0.8080 Y34.6915
G01 X-0.8227 Y34.7070
G01 X-0.8367 Y34.7232
G01 X-0.8434 Y34.7316
G01 X-0.8562 Y34.7488
G01 X-0.8681 Y34.7666
G01 X-0.8791 Y34.7850
G01 X-0.8892 Y34.8039
G01 X-0.8983 Y34.8232
G01 X-0.9065 Y34.8430
G01 X-0.9137 Y34.8632
G01 X-0.9170 Y34.8734
G01 X-0.9227 Y34.8940
G01 X-0.9274 Y34.9149
G01 X-0.9310 Y34.9360
G01 X-0.9334 Y34.9549
G01 X-0.9334 Y35.0451
G01 X-0.9310 Y35.0640
G01 X-0.9274 Y35.0851
G01 X-0.9252 Y35.0956
G01 X-0.9200 Y35.1164
G01 X-0.9137 Y35.1368
G01 X-0.9103 Y35.1470
G01 X-0.9065 Y35.1570
G01 X-0.8983 Y35.1768
G01 X-0.8939 Y35.1865
G01 X-0.8842 Y35.2057
G01 X-0.8737 Y35.2243
G01 X-0.8622 Y35.2424
G01 X-0.8562 Y35.2512
G01 X-0.8499 Y35.2599
G01 X-0.8367 Y35.2768
G01 X-0.8227 Y35.2930
G01 X-0.8080 Y35.3085
G01 X-0.8003 Y35.3160
G01 X-0.7845 Y35.3303
G01 X-0.7763 Y35.3372
G01 X-0.7594 Y35.3504
G01 X-0.7419 Y35.3627
G01 X-0.7329 Y35.3686
G01 X-0.7145 Y35.3796
G01 X-0.6956 Y35.3897
G01 X-0.6763 Y35.3988
G01 X-0.6664 Y35.4031
G01 X-0.6465 Y35.4108
G01 X-0.6261 Y35.4175
G01 X-0.6159 Y35.4205
G01 X-0.6055 Y35.4232
G01 X-0.5846 Y35.4279
G01 X-0.5635 Y35.4315
G01 X-0.5529 Y35.4330
G01 X-0.5316 Y35.4351
G01 X-0.5209 Y35.4357
G01 X-0.5102 Y35.4361
G01 X-0.4888 Y35.4361
G01 X-0.4674 Y35.4351
G01 X-0.4461 Y35.4330
G01 X-0.4355 Y35.4315
G01 X-0.4249 Y35.4298
G01 X-0.4039 Y35.4257
G01 X-0.3831 Y35.4205
G01 X-0.3627 Y35.4142
G01 X-0.3525 Y35.4108
G01 X-0.3425 Y35.4070
G01 X-0.3227 Y35.3988
G01 X-0.3130 Y35.3944
G01 X-0.2938 Y35.3847
G01 X-0.2752 Y35.3742
G01 X-0.2571 Y35.3627
G01 X-0.2483 Y35.3567
G01 X-0.2311 Y35.3439
G01 X-0.2145 Y35.3303
G01 X-0.1987 Y35.3160
G01 X-0.1910 Y35.3085
G01 X-0.1763 Y35.2930
G01 X-0.1692 Y35.2850
G01 X-0.1623 Y35.2768
G01 X-0.1491 Y35.2599
G01 X-0.1428 Y35.2512
G01 X-0.1309 Y35.2334
G01 X-0.1253 Y35.2243
G01 X-0.1199 Y35.2150
G01 X-0.1098 Y35.1961
G01 X-0.1051 Y35.1865
G01 X-0.1007 Y35.1768
G01 X-0.0925 Y35.1570
G01 X-0.0853 Y35.1368
G01 X-0.0820 Y35.1266
G01 X-0.0763 Y35.1060
G01 X-0.0738 Y35.0956
G01 X-0.0697 Y35.0746
G01 X-0.0656 Y35.0451
G01 X-0.1426 Y35.0000
G01 X-0.1430 Y34.9825
G01 X-0.1452 Y34.9563
G01 X-0.1494 Y34.9304
G01 X-0.1555 Y34.9048
G01 X-0.1634 Y34.8798
G01 X-0.1732 Y34.8554
G01 X-0.1807 Y34.8395
G01 X-0.1933 Y34.8165
G01 X-0.2077 Y34.7945
G01 X-0.2236 Y34.7736
G01 X-0.2410 Y34.7539
G01 X-0.2534 Y34.7415
G01 X-0.2731 Y34.7241
G01 X-0.2940 Y34.7082
G01 X-0.3160 Y34.6938
G01 X-0.3312 Y34.6852
G01 X-0.3549 Y34.6737
G01 X-0.3793 Y34.6639
G01 X-0.4043 Y34.6560
G01 X-0.4299 Y34.6499
G01 X-0.4558 Y34.6457
G01 X-0.4820 Y34.6435
G01 X-0.5083 Y34.6432
G01 X-0.5345 Y34.6448
G01 X-0.5605 Y34.6483
G01 X-0.5777 Y34.6517
G01 X-0.5947 Y34.6560
G01 X-0.6197 Y34.6639
G01 X-0.6441 Y34.6737
G01 X-0.6678 Y34.6852
G01 X-0.6905 Y34.6984
G01 X-0.7121 Y34.7133
G01 X-0.7326 Y34.7297
G01 X-0.7456 Y34.7415
G01 X-0.7580 Y34.7539
G01 X-0.7754 Y34.7736
G01 X-0.7913 Y34.7945
G01 X-0.8057 Y34.8165
G01 X-0.8183 Y34.8395
G01 X-0.8293 Y34.8634
G01 X-0.8384 Y34.8880
G01 X-0.8457 Y34.9133
G01 X-0.8512 Y34.9390
G01 X-0.8547 Y34.9650
G01 X-0.8563 Y34.9912
G01 X-0.8560 Y35.0175
G01 X-0.8538 Y35.0437
G01 X-0.8496 Y35.0696
G01 X-0.8435 Y35.0952
G01 X-0.8356 Y35.1202
G01 X-0.8258 Y35.1446
G01 X-0.8143 Y35.1683
G01 X-0.8011 Y35.1910
G01 X-0.7913 Y35.2055
G01 X-0.7754 Y35.2264
G01 X-0.7640 Y35.2397
G01 X-0.7456 Y35.2585
G01 X-0.7326 Y35.2703
G01 X-0.7191 Y35.2814
G01 X-0.6978 Y35.2968
G01 X-0.6754 Y35.3106
G01 X-0.6600 Y35.3188
G01 X-0.6441 Y35.3263
G01 X-0.6197 Y35.3361
G01 X-0.6031 Y35.3416
G01 X-0.5777 Y35.3483
G01 X-0.5519 Y35.3531
G01 X-0.5345 Y35.3552
G01 X-0.5083 Y35.3568
G01 X-0.4907 Y35.3568
G01 X-0.4732 Y35.3560
G01 X-0.4471 Y35.3531
G01 X-0.4213 Y35.3483
G01 X-0.4043 Y35.3440
G01 X-0.3793 Y35.3361
G01 X-0.3629 Y35.3298
G01 X-0.3469 Y35.3227
G01 X-0.3236 Y35.3106
G01 X-0.3012 Y35.2968
G01 X-0.2869 Y35.2867
G01 X-0.2664 Y35.2703
G01 X-0.2534 Y35.2585
G01 X-0.2410 Y35.2461
G01 X-0.2292 Y35.2331
G01 X-0.2181 Y35.2196
G01 X-0.2077 Y35.2055
G01 X-0.1979 Y35.1910
G01 X-0.1933 Y35.1835
G01 X-0.1889 Y35.1759
G01 X-0.1807 Y35.1605
G01 X-0.1732 Y35.1446
G01 X-0.1665 Y35.1285
G01 X-0.1606 Y35.1120
G01 X-0.1555 Y35.0952
G01 X-0.1512 Y35.0782
G01 X-0.1478 Y35.0610
G01 X-0.1443 Y35.0350
G01 X-0.1430 Y35.0175
G01 X-0.1426 Y35.0000
G01 X-0.2219 Y35.0000
G01 X-0.2226 Y34.9796
G01 X-0.2240 Y34.9660
G01 X-0.2260 Y34.9525
G01 X-0.2302 Y34.9325
G01 X-0.2338 Y34.9194
G01 X-0.2381 Y34.9065
G01 X-0.2457 Y34.8875
G01 X-0.2515 Y34.8752
G01 X-0.2579 Y34.8632
G01 X-0.2687 Y34.8458
G01 X-0.2806 Y34.8292
G01 X-0.2938 Y34.8136
G01 X-0.3081 Y34.7989
G01 X-0.3234 Y34.7854
G01 X-0.3341 Y34.7770
G01 X-0.3453 Y34.7692
G01 X-0.3568 Y34.7619
G01 X-0.3686 Y34.7552
G01 X-0.3870 Y34.7462
G01 X-0.4060 Y34.7386
G01 X-0.4255 Y34.7324
G01 X-0.4453 Y34.7277
G01 X-0.4655 Y34.7245
G01 X-0.4859 Y34.7227
G01 X-0.5063 Y34.7225
G01 X-0.5267 Y34.7237
G01 X-0.5470 Y34.7265
G01 X-0.5670 Y34.7307
G01 X-0.5866 Y34.7364
G01 X-0.5994 Y34.7410
G01 X-0.6182 Y34.7490
G01 X-0.6363 Y34.7584
G01 X-0.6537 Y34.7692
G01 X-0.6703 Y34.7811
G01 X-0.6859 Y34.7943
G01 X-0.7006 Y34.8086
G01 X-0.7141 Y34.8239
G01 X-0.7265 Y34.8401
G01 X-0.7376 Y34.8573
G01 X-0.7475 Y34.8752
G01 X-0.7560 Y34.8938
G01 X-0.7631 Y34.9129
G01 X-0.7688 Y34.9325
G01 X-0.7730 Y34.9525
G01 X-0.7758 Y34.9728
G01 X-0.7770 Y34.9932
G01 X-0.7768 Y35.0136
G01 X-0.7750 Y35.0340
G01 X-0.7718 Y35.0542
G01 X-0.7671 Y35.0740
G01 X-0.7609 Y35.0935
G01 X-0.7533 Y35.1125
G01 X-0.7443 Y35.1309
G01 X-0.7376 Y35.1427
G01 X-0.7265 Y35.1599
G01 X-0.7184 Y35.1708
G01 X-0.7052 Y35.1864
G01 X-0.6958 Y35.1963
G01 X-0.6808 Y35.2102
G01 X-0.6703 Y35.2189
G01 X-0.6537 Y35.2308
G01 X-0.6363 Y35.2416
G01 X-0.6243 Y35.2480
G01 X-0.6120 Y35.2538
G01 X-0.5994 Y35.2590
G01 X-0.5866 Y35.2636
G01 X-0.5670 Y35.2693
G01 X-0.5537 Y35.2723
G01 X-0.5335 Y35.2755
G01 X-0.5199 Y35.2769
G01 X-0.4995 Y35.2776
G01 X-0.4791 Y35.2769
G01 X-0.4655 Y35.2755
G01 X-0.4520 Y35.2735
G01 X-0.4387 Y35.2709
G01 X-0.4255 Y35.2676
G01 X-0.4060 Y35.2614
G01 X-0.3870 Y35.2538
G01 X-0.3747 Y35.2480
G01 X-0.3627 Y35.2416
G01 X-0.3453 Y35.2308
G01 X-0.3341 Y35.2230
G01 X-0.3234 Y35.2146
G01 X-0.3081 Y35.2011
G01 X-0.2984 Y35.1914
G01 X-0.2893 Y35.1813
G01 X-0.2806 Y35.1708
G01 X-0.2725 Y35.1599
G01 X-0.2650 Y35.1485
G01 X-0.2614 Y35.1427
G01 X-0.2579 Y35.1368
G01 X-0.2515 Y35.1248
G01 X-0.2457 Y35.1125
G01 X-0.2405 Y35.0999
G01 X-0.2359 Y35.0871
G01 X-0.2319 Y35.0740
G01 X-0.2286 Y35.0608
G01 X-0.2260 Y35.0475
G01 X-0.2232 Y35.0272
G01 X-0.2222 Y35.0136
G01 X-0.2219 Y35.0000
G01 X-0.3012 Y35.0000
G01 X-0.3017 Y34.9854
G01 X-0.3033 Y34.9709
G01 X-0.3071 Y34.9518
G01 X-0.3112 Y34.9378
G01 X-0.3163 Y34.9241
G01 X-0.3224 Y34.9108
G01 X-0.3294 Y34.8981
G01 X-0.3402 Y34.8819
G01 X-0.3493 Y34.8705
G01 X-0.3593 Y34.8598
G01 X-0.3737 Y34.8467
G01 X-0.3853 Y34.8379
G01 X-0.3976 Y34.8299
G01 X-0.4147 Y34.8207
G01 X-0.4281 Y34.8150
G01 X-0.4419 Y34.8102
G01 X-0.4561 Y34.8065
G01 X-0.4704 Y34.8038
G01 X-0.4849 Y34.8022
G01 X-0.4995 Y34.8017
G01 X-0.5141 Y34.8022
G01 X-0.5334 Y34.8046
G01 X-0.5477 Y34.8076
G01 X-0.5617 Y34.8117
G01 X-0.5799 Y34.8187
G01 X-0.5930 Y34.8251
G01 X-0.6056 Y34.8325
G01 X-0.6176 Y34.8407
G01 X-0.6290 Y34.8498
G01 X-0.6397 Y34.8598
G01 X-0.6497 Y34.8705
G01 X-0.6588 Y34.8819
G01 X-0.6670 Y34.8939
G01 X-0.6744 Y34.9065
G01 X-0.6808 Y34.9196
G01 X-0.6862 Y34.9332
G01 X-0.6906 Y34.9471
G01 X-0.6940 Y34.9613
G01 X-0.6968 Y34.9806
G01 X-0.6977 Y34.9951
G01 X-0.6976 Y35.0097
G01 X-0.6963 Y35.0243
G01 X-0.6930 Y35.0434
G01 X-0.6893 Y35.0576
G01 X-0.6845 Y35.0714
G01 X-0.6788 Y35.0848
G01 X-0.6720 Y35.0977
G01 X-0.6644 Y35.1102
G01 X-0.6588 Y35.1181
G01 X-0.6497 Y35.1295
G01 X-0.6362 Y35.1436
G01 X-0.6215 Y35.1563
G01 X-0.6097 Y35.1649
G01 X-0.6014 Y35.1701
G01 X-0.5843 Y35.1793
G01 X-0.5709 Y35.1850
G01 X-0.5617 Y35.1883
G01 X-0.5524 Y35.1911
G01 X-0.5382 Y35.1945
G01 X-0.5286 Y35.1962
G01 X-0.5141 Y35.1978
G01 X-0.4946 Y35.1982
G01 X-0.4849 Y35.1978
G01 X-0.4704 Y35.1962
G01 X-0.4513 Y35.1924
G01 X-0.4419 Y35.1898
G01 X-0.4281 Y35.1850
G01 X-0.4191 Y35.1813
G01 X-0.4060 Y35.1749
G01 X-0.3893 Y35.1649
G01 X-0.3737 Y35.1533
G01 X-0.3628 Y35.1436
G01 X-0.3559 Y35.1367
G01 X-0.3462 Y35.1258
G01 X-0.3346 Y35.1102
G01 X-0.3294 Y35.1019
G01 X-0.3270 Y35.0977
G01 X-0.3246 Y35.0935
G01 X-0.3163 Y35.0759
G01 X-0.3097 Y35.0576
G01 X-0.3050 Y35.0387
G01 X-0.3022 Y35.0194
G01 X-0.3012 Y35.0000
G01 X-0.3805 Y35.0000
G01 X-0.3808 Y34.9912
G01 X-0.3823 Y34.9797
G01 X-0.3841 Y34.9711
G01 X-0.3865 Y34.9627
G01 X-0.3896 Y34.9545
G01 X-0.3932 Y34.9465
G01 X-0.3974 Y34.9388
G01 X-0.4022 Y34.9315
G01 X-0.4075 Y34.9245
G01 X-0.4133 Y34.9180
G01 X-0.4196 Y34.9118
G01 X-0.4263 Y34.9062
G01 X-0.4334 Y34.9011
G01 X-0.4409 Y34.8965
G01 X-0.4486 Y34.8924
G01 X-0.4567 Y34.8890
G01 X-0.4650 Y34.8861
G01 X-0.4763 Y34.8833
G01 X-0.4849 Y34.8819
G01 X-0.4937 Y34.8812
G01 X-0.5053 Y34.8812
G01 X-0.5141 Y34.8819
G01 X-0.5227 Y34.8833
G01 X-0.5340 Y34.8861
G01 X-0.5423 Y34.8890
G01 X-0.5504 Y34.8924
G01 X-0.5607 Y34.8979
G01 X-0.5680 Y34.9027
G01 X-0.5772 Y34.9099
G01 X-0.5836 Y34.9159
G01 X-0.5896 Y34.9223
G01 X-0.5951 Y34.9291
G01 X-0.6016 Y34.9388
G01 X-0.6058 Y34.9465
G01 X-0.6094 Y34.9545
G01 X-0.6125 Y34.9627
G01 X-0.6149 Y34.9711
G01 X-0.6172 Y34.9825
G01 X-0.6182 Y34.9912
G01 X-0.6184 Y35.0029
G01 X-0.6179 Y35.0117
G01 X-0.6167 Y35.0203
G01 X-0.6149 Y35.0289
G01 X-0.6115 Y35.0401
G01 X-0.6083 Y35.0482
G01 X-0.6030 Y35.0586
G01 X-0.5968 Y35.0685
G01 X-0.5915 Y35.0755
G01 X-0.5857 Y35.0820
G01 X-0.5794 Y35.0882
G01 X-0.5727 Y35.0938
G01 X-0.5656 Y35.0989
G01 X-0.5581 Y35.1035
G01 X-0.5504 Y35.1076
G01 X-0.5396 Y35.1120
G01 X-0.5312 Y35.1147
G01 X-0.5227 Y35.1167
G01 X-0.5141 Y35.1181
G01 X-0.5053 Y35.1188
G01 X-0.4937 Y35.1188
G01 X-0.4849 Y35.1181
G01 X-0.4763 Y35.1167
G01 X-0.4678 Y35.1147
G01 X-0.4594 Y35.1120
G01 X-0.4513 Y35.1088
G01 X-0.4434 Y35.1049
G01 X-0.4358 Y35.1005
G01 X-0.4286 Y35.0956
G01 X-0.4218 Y35.0901
G01 X-0.4154 Y35.0841
G01 X-0.4094 Y35.0777
G01 X-0.4022 Y35.0685
G01 X-0.3974 Y35.0612
G01 X-0.3932 Y35.0535
G01 X-0.3919 Y35.0509
G01 X-0.3907 Y35.0482
G01 X-0.3896 Y35.0455
G01 X-0.3865 Y35.0373
G01 X-0.3841 Y35.0289
G01 X-0.3823 Y35.0203
G01 X-0.3808 Y35.0088
G01 X-0.3805 Y35.0000
G01 X-0.4598 Y35.0000
G01 X-0.4606 Y34.9923
G01 X-0.4629 Y34.9848
G01 X-0.4665 Y34.9780
G01 X-0.4715 Y34.9720
G01 X-0.4775 Y34.9670
G01 X-0.4843 Y34.9634
G01 X-0.4918 Y34.9611
G01 X-0.4995 Y34.9603
G01 X-0.5072 Y34.9611
G01 X-0.5147 Y34.9634
G01 X-0.5215 Y34.9670
G01 X-0.5275 Y34.9720
G01 X-0.5325 Y34.9780
G01 X-0.5361 Y34.9848
G01 X-0.5384 Y34.9923
G01 X-0.5392 Y35.0000
G01 X-0.5384 Y35.0077
G01 X-0.5361 Y35.0152
G01 X-0.5325 Y35.0220
G01 X-0.5275 Y35.0280
G01 X-0.5215 Y35.0330
G01 X-0.5147 Y35.0366
G01 X-0.5072 Y35.0389
G01 X-0.4995 Y35.0397
G01 X-0.4918 Y35.0389
G01 X-0.4843 Y35.0366
G01 X-0.4775 Y35.0330
G01 X-0.4715 Y35.0280
G01 X-0.4665 Y35.0220
G01 X-0.4629 Y35.0152
G01 X-0.4606 Y35.0077
G01 X-0.4598 Y35.0000
G01 X-0.0656 Y35.2784
G01 X-0.0780 Y35.2969
G01 X-0.0854 Y35.3071
G01 X-0.1010 Y35.3271
G01 X-0.1175 Y35.3462
G01 X-0.1349 Y35.3646
G01 X-0.1533 Y35.3820
G01 X-0.1724 Y35.3985
G01 X-0.1924 Y35.4141
G01 X-0.2131 Y35.4287
G01 X-0.2344 Y35.4422
G01 X-0.2565 Y35.4547
G01 X-0.2791 Y35.4661
G01 X-0.3022 Y35.4763
G01 X-0.3258 Y35.4854
G01 X-0.3498 Y35.4934
G01 X-0.3742 Y35.5001
G01 X-0.3989 Y35.5057
G01 X-0.4238 Y35.5100
G01 X-0.4490 Y35.5131
G01 X-0.4616 Y35.5142
G01 X-0.4868 Y35.5154
G01 X-0.4995 Y35.5156
G01 X-0.5248 Y35.5150
G01 X-0.5500 Y35.5131
G01 X-0.5752 Y35.5100
G01 X-0.5876 Y35.5080
G01 X-0.6125 Y35.5031
G01 X-0.6370 Y35.4969
G01 X-0.6492 Y35.4934
G01 X-0.6732 Y35.4854
G01 X-0.6851 Y35.4810
G01 X-0.7084 Y35.4713
G01 X-0.7199 Y35.4661
G01 X-0.7425 Y35.4547
G01 X-0.7646 Y35.4422
G01 X-0.7753 Y35.4356
G01 X-0.7964 Y35.4215
G01 X-0.8066 Y35.4141
G01 X-0.8167 Y35.4065
G01 X-0.8363 Y35.3904
G01 X-0.8457 Y35.3820
G01 X-0.8641 Y35.3646
G01 X-0.8729 Y35.3555
G01 X-0.8899 Y35.3368
G01 X-0.8980 Y35.3271
G01 X-0.9136 Y35.3071
G01 X-0.9210 Y35.2969
G01 X-0.9334 Y35.2784
G01 X-0.9334 Y35.4069
G01 X-0.9202 Y35.4207
G01 X-0.9097 Y35.4309
G01 X-0.8881 Y35.4505
G01 X-0.8655 Y35.4690
G01 X-0.8420 Y35.4864
G01 X-0.8178 Y35.5026
G01 X-0.7927 Y35.5176
G01 X-0.7670 Y35.5314
G01 X-0.7406 Y35.5439
G01 X-0.7136 Y35.5550
G01 X-0.6999 Y35.5601
G01 X-0.6722 Y35.5693
G01 X-0.6440 Y35.5771
G01 X-0.6156 Y35.5835
G01 X-0.5868 Y35.5885
G01 X-0.5578 Y35.5920
G01 X-0.5287 Y35.5942
G01 X-0.4995 Y35.5949
G01 X-0.4703 Y35.5942
G01 X-0.4412 Y35.5920
G01 X-0.4267 Y35.5904
G01 X-0.3978 Y35.5861
G01 X-0.3692 Y35.5804
G01 X-0.3408 Y35.5734
G01 X-0.3129 Y35.5649
G01 X-0.2854 Y35.5550
G01 X-0.2584 Y35.5439
G01 X-0.2320 Y35.5314
G01 X-0.2063 Y35.5176
G01 X-0.1812 Y35.5026
G01 X-0.1570 Y35.4864
G01 X-0.1335 Y35.4690
G01 X-0.1109 Y35.4505
G01 X-0.0893 Y35.4309
G01 X-0.0788 Y35.4207
G01 X-0.0656 Y35.4069
G00 Z2.0000
G00 X-0.0656 Y35.5160
G01 F20.00
G01 Z-0.0601
G01 F40.00
G01 X-0.0847 Y35.5315
G01 X-0.1113 Y35.5512
G01 X-0.1388 Y35.5696
G01 X-0.1672 Y35.5866
G01 X-0.1964 Y35.6022
G01 X-0.2263 Y35.6164
G01 X-0.2415 Y35.6229
G01 X-0.2724 Y35.6348
G01 X-0.2880 Y35.6402
G01 X-0.3197 Y35.6498
G01 X-0.3518 Y35.6578
G01 X-0.3842 Y35.6643
G01 X-0.4006 Y35.6669
G01 X-0.4334 Y35.6710
G01 X-0.4664 Y35.6734
G01 X-0.4995 Y35.6742
G01 X-0.5326 Y35.6734
G01 X-0.5656 Y35.6710
G01 X-0.5820 Y35.6691
G01 X-0.6148 Y35.6643
G01 X-0.6472 Y35.6578
G01 X-0.6793 Y35.6498
G01 X-0.7110 Y35.6402
G01 X-0.7266 Y35.6348
G01 X-0.7421 Y35.6290
G01 X-0.7727 Y35.6164
G01 X-0.8026 Y35.6022
G01 X-0.8318 Y35.5866
G01 X-0.8602 Y35.5696
G01 X-0.8877 Y35.5512
G01 X-0.9143 Y35.5315
G01 X-0.9334 Y35.5160
G01 X-0.9334 Y35.6161
G01 X-0.9181 Y35.6265
G01 X-0.9026 Y35.6366
G01 X-0.8709 Y35.6556
G01 X-0.8383 Y35.6731
G01 X-0.8049 Y35.6889
G01 X-0.7879 Y35.6962
G01 X-0.7534 Y35.7095
G01 X-0.7359 Y35.7155
G01 X-0.7005 Y35.7262
G01 X-0.6646 Y35.7352
G01 X-0.6283 Y35.7424
G01 X-0.5917 Y35.7479
G01 X-0.5734 Y35.7499
G01 X-0.5365 Y35.7526
G01 X-0.4995 Y35.7535
G01 X-0.4625 Y35.7526
G01 X-0.4256 Y35.7499
G01 X-0.3889 Y35.7454
G01 X-0.3525 Y35.7391
G01 X-0.3164 Y35.7310
G01 X-0.2808 Y35.7211
G01 X-0.2456 Y35.7095
G01 X-0.2111 Y35.6962
G01 X-0.1773 Y35.6812
G01 X-0.1443 Y35.6646
G01 X-0.1121 Y35.6463
G01 X-0.0809 Y35.6265
G01 X-0.0656 Y35.6161
G00 Z2.0000
G00 X-0.0656 Y35.7108
G01 F20.00
G01 Z-0.0601
G01 F40.00
G01 X-0.0890 Y35.7247
G01 X-0.1069 Y35.7345
G01 X-0.1250 Y35.7439
G01 X-0.1434 Y35.7529
G01 X-0.1620 Y35.7614
G01 X-0.1808 Y35.7695
G01 X-0.1998 Y35.7771
G01 X-0.2189 Y35.7842
G01 X-0.2382 Y35.7908
G01 X-0.2577 Y35.7970
G01 X-0.2774 Y35.8027
G01 X-0.2971 Y35.8079
G01 X-0.3170 Y35.8126
G01 X-0.3370 Y35.8169
G01 X-0.3571 Y35.8206
G01 X-0.3773 Y35.8238
G01 X-0.3975 Y35.8266
G01 X-0.4179 Y35.8288
G01 X-0.4382 Y35.8306
G01 X-0.4586 Y35.8319
G01 X-0.4791 Y35.8326
G01 X-0.4995 Y35.8329
G01 X-0.5199 Y35.8326
G01 X-0.5404 Y35.8319
G01 X-0.5608 Y35.8306
G01 X-0.5811 Y35.8288
G01 X-0.6015 Y35.8266
G01 X-0.6217 Y35.8238
G01 X-0.6419 Y35.8206
G01 X-0.6620 Y35.8169
G01 X-0.6820 Y35.8126
G01 X-0.7019 Y35.8079
G01 X-0.7216 Y35.8027
G01 X-0.7413 Y35.7970
G01 X-0.7608 Y35.7908
G01 X-0.7801 Y35.7842
G01 X-0.7992 Y35.7771
G01 X-0.8182 Y35.7695
G01 X-0.8370 Y35.7614
G01 X-0.8556 Y35.7529
G01 X-0.8740 Y35.7439
G01 X-0.8921 Y35.7345
G01 X-0.9100 Y35.7247
G01 X-0.9334 Y35.7108
G01 X-0.9334 Y35.8023
G01 X-0.9096 Y35.8148
G01 X-0.8895 Y35.8246
G01 X-0.8692 Y35.8339
G01 X-0.8486 Y35.8427
G01 X-0.8278 Y35.8511
G01 X-0.8068 Y35.8589
G01 X-0.7856 Y35.8661
G01 X-0.7643 Y35.8729
G01 X-0.7428 Y35.8791
G01 X-0.7211 Y35.8848
G01 X-0.6994 Y35.8900
G01 X-0.6775 Y35.8947
G01 X-0.6554 Y35.8988
G01 X-0.6333 Y35.9023
G01 X-0.6112 Y35.9053
G01 X-0.5889 Y35.9078
G01 X-0.5666 Y35.9097
G01 X-0.5443 Y35.9111
G01 X-0.5219 Y35.9119
G01 X-0.4995 Y35.9122
G01 X-0.4771 Y35.9119
G01 X-0.4547 Y35.9111
G01 X-0.4324 Y35.9097
G01 X-0.4101 Y35.9078
G01 X-0.3878 Y35.9053
G01 X-0.3657 Y35.9023
G01 X-0.3436 Y35.8988
G01 X-0.3215 Y35.8947
G01 X-0.2996 Y35.8900
G01 X-0.2779 Y35.8848
G01 X-0.2562 Y35.8791
G01 X-0.2347 Y35.8729
G01 X-0.2134 Y35.8661
G01 X-0.1922 Y35.8589
G01 X-0.1712 Y35.8511
G01 X-0.1504 Y35.8427
G01 X-0.1298 Y35.8339
G01 X-0.1095 Y35.8246
G01 X-0.0894 Y35.8148
G01 X-0.0656 Y35.8023
G00 Z2.0000
G00 X-0.0656 Y35.8914
G01 F20.00
G01 Z-0.0601
G01 F40.00
G01 X-0.0977 Y35.9064
G01 X-0.1201 Y35.9160
G01 X-0.1427 Y35.9251
G01 X-0.1655 Y35.9335
G01 X-0.1885 Y35.9415
G01 X-0.2117 Y35.9488
G01 X-0.2351 Y35.9556
G01 X-0.2586 Y35.9618
G01 X-0.2823 Y35.9674
G01 X-0.3061 Y35.9724
G01 X-0.3300 Y35.9769
G01 X-0.3540 Y35.9808
G01 X-0.3781 Y35.9840
G01 X-0.4023 Y35.9867
G01 X-0.4266 Y35.9888
G01 X-0.4508 Y35.9903
G01 X-0.4752 Y35.9912
G01 X-0.4995 Y35.9915
G01 X-0.5238 Y35.9912
G01 X-0.5482 Y35.9903
G01 X-0.5724 Y35.9888
G01 X-0.5967 Y35.9867
G01 X-0.6209 Y35.9840
G01 X-0.6450 Y35.9808
G01 X-0.6690 Y35.9769
G01 X-0.6929 Y35.9724
G01 X-0.7167 Y35.9674
G01 X-0.7404 Y35.9618
G01 X-0.7639 Y35.9556
G01 X-0.7873 Y35.9488
G01 X-0.8105 Y35.9415
G01 X-0.8335 Y35.9335
G01 X-0.8563 Y35.9251
G01 X-0.8789 Y35.9160
G01 X-0.9013 Y35.9064
G01 X-0.9334 Y35.8914
G01 X-0.9334 Y35.9790
G01 X-0.9093 Y35.9893
G01 X-0.8849 Y35.9991
G01 X-0.8602 Y36.0082
G01 X-0.8354 Y36.0168
G01 X-0.8103 Y36.0247
G01 X-0.7851 Y36.0320
G01 X-0.7597 Y36.0387
G01 X-0.7341 Y36.0448
G01 X-0.7084 Y36.0502
G01 X-0.6826 Y36.0551
G01 X-0.6566 Y36.0592
G01 X-0.6306 Y36.0628
G01 X-0.6045 Y36.0657
G01 X-0.5783 Y36.0679
G01 X-0.5520 Y36.0695
G01 X-0.5258 Y36.0705
G01 X-0.4995 Y36.0708
G01 X-0.4732 Y36.0705
G01 X-0.4470 Y36.0695
G01 X-0.4207 Y36.0679
G01 X-0.3945 Y36.0657
G01 X-0.3684 Y36.0628
G01 X-0.3424 Y36.0592
G01 X-0.3164 Y36.0551
G01 X-0.2906 Y36.0502
G01 X-0.2649 Y36.0448
G01 X-0.2393 Y36.0387
G01 X-0.2139 Y36.0320
G01 X-0.1887 Y36.0247
G01 X-0.1636 Y36.0168
G01 X-0.1388 Y36.0082
G01 X-0.1141 Y35.9991
G01 X-0.0897 Y35.9893
G01 X-0.0656 Y35.9790
G00 Z2.0000
G00 X-0.0656 Y36.0651
G01 F20.00
G01 Z-0.0601
G01 F40.00
G01 X-0.0856 Y36.0731
G01 X-0.1120 Y36.0829
G01 X-0.1387 Y36.0921
G01 X-0.1656 Y36.1006
G01 X-0.1927 Y36.1085
G01 X-0.2200 Y36.1157
G01 X-0.2475 Y36.1222
G01 X-0.2751 Y36.1280
G01 X-0.3029 Y36.1332
G01 X-0.3307 Y36.1377
G01 X-0.3587 Y36.1415
G01 X-0.3868 Y36.1446
G01 X-0.4149 Y36.1470
G01 X-0.4431 Y36.1488
G01 X-0.4713 Y36.1498
G01 X-0.4995 Y36.1501
G01 X-0.5277 Y36.1498
G01 X-0.5559 Y36.1488
G01 X-0.5841 Y36.1470
G01 X-0.6122 Y36.1446
G01 X-0.6403 Y36.1415
G01 X-0.6683 Y36.1377
G01 X-0.6961 Y36.1332
G01 X-0.7239 Y36.1280
G01 X-0.7515 Y36.1222
G01 X-0.7790 Y36.1157
G01 X-0.8063 Y36.1085
G01 X-0.8334 Y36.1006
G01 X-0.8603 Y36.0921
G01 X-0.8870 Y36.0829
G01 X-0.9134 Y36.0731
G01 X-0.9334 Y36.0651
G01 X-0.9334 Y36.1503
G01 X-0.9137 Y36.1576
G01 X-0.8852 Y36.1674
G01 X-0.8564 Y36.1765
G01 X-0.8274 Y36.1849
G01 X-0.7982 Y36.1926
G01 X-0.7689 Y36.1996
G01 X-0.7394 Y36.2058
G01 X-0.7097 Y36.2114
G01 X-0.6799 Y36.2162
G01 X-0.6500 Y36.2202
G01 X-0.6200 Y36.2235
G01 X-0.5899 Y36.2261
G01 X-0.5598 Y36.2280
G01 X-0.5297 Y36.2291
G01 X-0.4995 Y36.2295
G01 X-0.4693 Y36.2291
G01 X-0.4392 Y36.2280
G01 X-0.4091 Y36.2261
G01 X-0.3790 Y36.2235
G01 X-0.3490 Y36.2202
G01 X-0.3191 Y36.2162
G01 X-0.2893 Y36.2114
G01 X-0.2596 Y36.2058
G01 X-0.2301 Y36.1996
G01 X-0.2008 Y36.1926
G01 X-0.1716 Y36.1849
G01 X-0.1426 Y36.1765
G01 X-0.1138 Y36.1674
G01 X-0.0853 Y36.1576
G01 X-0.0656 Y36.1503
G00 Z2.0000
G00 X-0.0656 Y36.2347
G01 F20.00
G01 Z-0.0601
G01 F40.00
G01 X-0.0890 Y36.2427
G01 X-0.1196 Y36.2524
G01 X-0.1504 Y36.2614
G01 X-0.1815 Y36.2696
G01 X-0.2127 Y36.2770
G01 X-0.2442 Y36.2836
G01 X-0.2757 Y36.2895
G01 X-0.3075 Y36.2946
G01 X-0.3393 Y36.2989
G01 X-0.3712 Y36.3025
G01 X-0.4032 Y36.3052
G01 X-0.4353 Y36.3072
G01 X-0.4674 Y36.3084
G01 X-0.4995 Y36.3088
G01 X-0.5316 Y36.3084
G01 X-0.5637 Y36.3072
G01 X-0.5958 Y36.3052
G01 X-0.6278 Y36.3025
G01 X-0.6597 Y36.2989
G01 X-0.6915 Y36.2946
G01 X-0.7233 Y36.2895
G01 X-0.7548 Y36.2836
G01 X-0.7863 Y36.2770
G01 X-0.8175 Y36.2696
G01 X-0.8486 Y36.2614
G01 X-0.8794 Y36.2524
G01 X-0.9100 Y36.2427
G01 X-0.9334 Y36.2347
G01 X-0.9334 Y36.3185
G01 X-0.9024 Y36.3283
G01 X-0.8697 Y36.3378
G01 X-0.8368 Y36.3465
G01 X-0.8036 Y36.3544
G01 X-0.7703 Y36.3614
G01 X-0.7368 Y36.3677
G01 X-0.7032 Y36.3731
G01 X-0.6694 Y36.3777
G01 X-0.6356 Y36.3814
G01 X-0.6016 Y36.3843
G01 X-0.5676 Y36.3864
G01 X-0.5336 Y36.3877
G01 X-0.4995 Y36.3881
G01 X-0.4654 Y36.3877
G01 X-0.4314 Y36.3864
G01 X-0.3974 Y36.3843
G01 X-0.3634 Y36.3814
G01 X-0.3296 Y36.3777
G01 X-0.2958 Y36.3731
G01 X-0.2622 Y36.3677
G01 X-0.2287 Y36.3614
G01 X-0.1954 Y36.3544
G01 X-0.1622 Y36.3465
G01 X-0.1293 Y36.3378
G01 X-0.0966 Y36.3283
G01 X-0.0656 Y36.3185
G00 Z2.0000
G00 X-0.0656 Y36.4017
G01 F20.00
G01 Z-0.0601
G01 F40.00
G01 X-0.1081 Y36.4143
G01 X-0.1429 Y36.4234
G01 X-0.1780 Y36.4318
G01 X-0.2132 Y36.4392
G01 X-0.2486 Y36.4458
G01 X-0.2842 Y36.4515
G01 X-0.3199 Y36.4564
G01 X-0.3557 Y36.4604
G01 X-0.3915 Y36.4634
G01 X-0.4275 Y36.4657
G01 X-0.4635 Y36.4670
G01 X-0.4995 Y36.4674
G01 X-0.5355 Y36.4670
G01 X-0.5715 Y36.4657
G01 X-0.6075 Y36.4634
G01 X-0.6433 Y36.4604
G01 X-0.6791 Y36.4564
G01 X-0.7148 Y36.4515
G01 X-0.7504 Y36.4458
G01 X-0.7858 Y36.4392
G01 X-0.8210 Y36.4318
G01 X-0.8561 Y36.4234
G01 X-0.8909 Y36.4143
G01 X-0.9334 Y36.4017
G01 X-0.9334 Y36.4845
G01 X-0.9120 Y36.4907
G01 X-0.8753 Y36.5004
G01 X-0.8384 Y36.5092
G01 X-0.8013 Y36.5170
G01 X-0.7639 Y36.5240
G01 X-0.7265 Y36.5300
G01 X-0.6888 Y36.5351
G01 X-0.6511 Y36.5393
G01 X-0.6133 Y36.5425
G01 X-0.5754 Y36.5449
G01 X-0.5375 Y36.5463
G01 X-0.4995 Y36.5467
G01 X-0.4615 Y36.5463
G01 X-0.4236 Y36.5449
G01 X-0.3857 Y36.5425
G01 X-0.3479 Y36.5393
G01 X-0.3102 Y36.5351
G01 X-0.2725 Y36.5300
G01 X-0.2351 Y36.5240
G01 X-0.1977 Y36.5170
G01 X-0.1606 Y36.5092
G01 X-0.1237 Y36.5004
G01 X-0.0870 Y36.4907
G01 X-0.0656 Y36.4845
G00 Z2.0000
G00 X-0.0656 Y36.5671
G01 F20.00
G01 Z-0.0601
G01 F40.00
G01 X-0.1044 Y36.5773
G01 X-0.1432 Y36.5866
G01 X-0.1823 Y36.5948
G01 X-0.2215 Y36.6021
G01 X-0.2609 Y36.6085
G01 X-0.3005 Y36.6138
G01 X-0.3401 Y36.6182
G01 X-0.3799 Y36.6217
G01 X-0.4197 Y36.6241
G01 X-0.4596 Y36.6256
G01 X-0.4995 Y36.6261
G01 X-0.5394 Y36.6256
G01 X-0.5793 Y36.6241
G01 X-0.6191 Y36.6217
G01 X-0.6589 Y36.6182
G01 X-0.6985 Y36.6138
G01 X-0.7381 Y36.6085
G01 X-0.7775 Y36.6021
G01 X-0.8167 Y36.5948
G01 X-0.8558 Y36.5866
G01 X-0.8946 Y36.5773
G01 X-0.9334 Y36.5671
G01 X-0.9334 Y36.6491
G01 X-0.9139 Y36.6543
G01 X-0.8732 Y36.6639
G01 X-0.8322 Y36.6726
G01 X-0.7911 Y36.6803
G01 X-0.7497 Y36.6869
G01 X-0.7083 Y36.6926
G01 X-0.6667 Y36.6972
G01 X-0.6250 Y36.7008
G01 X-0.5832 Y36.7033
G01 X-0.5414 Y36.7049
G01 X-0.4995 Y36.7054
G01 X-0.4576 Y36.7049
G01 X-0.4158 Y36.7033
G01 X-0.3740 Y36.7008
G01 X-0.3323 Y36.6972
G01 X-0.2907 Y36.6926
G01 X-0.2493 Y36.6869
G01 X-0.2079 Y36.6803
G01 X-0.1668 Y36.6726
G01 X-0.1258 Y36.6639
G01 X-0.0851 Y36.6543
G01 X-0.0656 Y36.6491
G00 Z2.0000
G00 X-0.0656 Y36.7311
G01 F20.00
G01 Z-0.0601
G01 F40.00
G01 X-0.1085 Y36.7413
G01 X-0.1513 Y36.7504
G01 X-0.1944 Y36.7584
G01 X-0.2376 Y36.7654
G01 X-0.2810 Y36.7713
G01 X-0.3246 Y36.7761
G01 X-0.3682 Y36.7799
G01 X-0.4119 Y36.7826
G01 X-0.4557 Y36.7842
G01 X-0.4995 Y36.7847
G01 X-0.5433 Y36.7842
G01 X-0.5871 Y36.7826
G01 X-0.6308 Y36.7799
G01 X-0.6744 Y36.7761
G01 X-0.7180 Y36.7713
G01 X-0.7614 Y36.7654
G01 X-0.8046 Y36.7584
G01 X-0.8477 Y36.7504
G01 X-0.8905 Y36.7413
G01 X-0.9334 Y36.7311
G01 X-0.9334 Y36.8127
G01 X-0.9079 Y36.8187
G01 X-0.8632 Y36.8282
G01 X-0.8182 Y36.8366
G01 X-0.7730 Y36.8438
G01 X-0.7277 Y36.8500
G01 X-0.6822 Y36.8550
G01 X-0.6366 Y36.8590
G01 X-0.5910 Y36.8618
G01 X-0.5452 Y36.8635
G01 X-0.4995 Y36.8640
G01 X-0.4538 Y36.8635
G01 X-0.4080 Y36.8618
G01 X-0.3624 Y36.8590
G01 X-0.3168 Y36.8550
G01 X-0.2713 Y36.8500
G01 X-0.2260 Y36.8438
G01 X-0.1808 Y36.8366
G01 X-0.1358 Y36.8282
G01 X-0.0911 Y36.8187
G01 X-0.0656 Y36.8127
G00 Z2.0000
G00 X-0.0656 Y36.8942
G01 F20.00
G01 Z-0.0601
G01 F40.00
G01 X-0.1204 Y36.9060
G01 X-0.1673 Y36.9147
G01 X-0.2144 Y36.9223
G01 X-0.2616 Y36.9287
G01 X-0.3090 Y36.9340
G01 X-0.3565 Y36.9381
G01 X-0.4041 Y36.9410
G01 X-0.4518 Y36.9428
G01 X-0.4995 Y36.9433
G01 X-0.5472 Y36.9428
G01 X-0.5949 Y36.9410
G01 X-0.6425 Y36.9381
G01 X-0.6900 Y36.9340
G01 X-0.7374 Y36.9287
G01 X-0.7846 Y36.9223
G01 X-0.8317 Y36.9147
G01 X-0.8786 Y36.9060
G01 X-0.9334 Y36.8942
G01 X-0.9334 Y36.9755
G01 X-0.8941 Y36.9838
G01 X-0.8453 Y36.9929
G01 X-0.7963 Y37.0008
G01 X-0.7471 Y37.0074
G01 X-0.6978 Y37.0129
G01 X-0.6483 Y37.0172
G01 X-0.5987 Y37.0202
G01 X-0.5491 Y37.0221
G01 X-0.4995 Y37.0227
G01 X-0.4499 Y37.0221
G01 X-0.4003 Y37.0202
G01 X-0.3507 Y37.0172
G01 X-0.3012 Y37.0129
G01 X-0.2519 Y37.0074
G01 X-0.2027 Y37.0008
G01 X-0.1537 Y36.9929
G01 X-0.1049 Y36.9838
G01 X-0.0656 Y36.9755
G00 Z2.0000
G00 X-0.0656 Y37.0565
G01 F20.00
G01 Z-0.0601
G01 F40.00
G01 X-0.0894 Y37.0616
G01 X-0.1401 Y37.0710
G01 X-0.1911 Y37.0792
G01 X-0.2422 Y37.0862
G01 X-0.2935 Y37.0919
G01 X-0.3449 Y37.0963
G01 X-0.3964 Y37.0994
G01 X-0.4479 Y37.1013
G01 X-0.4995 Y37.1020
G01 X-0.5511 Y37.1013
G01 X-0.6026 Y37.0994
G01 X-0.6541 Y37.0963
G01 X-0.7055 Y37.0919
G01 X-0.7568 Y37.0862
G01 X-0.8079 Y37.0792
G01 X-0.8589 Y37.0710
G01 X-0.9096 Y37.0616
G01 X-0.9334 Y37.0565
G01 X-0.9334 Y37.1376
G01 X-0.8724 Y37.1492
G01 X-0.8196 Y37.1577
G01 X-0.7665 Y37.1649
G01 X-0.7133 Y37.1708
G01 X-0.6600 Y37.1754
G01 X-0.6065 Y37.1787
G01 X-0.5530 Y37.1806
G01 X-0.4995 Y37.1813
G01 X-0.4460 Y37.1806
G01 X-0.3925 Y37.1787
G01 X-0.3390 Y37.1754
G01 X-0.2857 Y37.1708
G01 X-0.2325 Y37.1649
G01 X-0.1794 Y37.1577
G01 X-0.1266 Y37.1492
G01 X-0.0656 Y37.1376
G00 Z2.0000
G00 X-0.0656 Y37.2185
G01 F20.00
G01 Z-0.0601
G01 F40.00
G01 X-0.1130 Y37.2273
G01 X-0.1678 Y37.2362
G01 X-0.2228 Y37.2436
G01 X-0.2779 Y37.2497
G01 X-0.3332 Y37.2545
G01 X-0.3886 Y37.2579
G01 X-0.4440 Y37.2599
G01 X-0.4995 Y37.2606
G01 X-0.5550 Y37.2599
G01 X-0.6104 Y37.2579
G01 X-0.6658 Y37.2545
G01 X-0.7211 Y37.2497
G01 X-0.7762 Y37.2436
G01 X-0.8312 Y37.2362
G01 X-0.8860 Y37.2273
G01 X-0.9334 Y37.2185
G01 X-0.9334 Y37.2992
G01 X-0.8995 Y37.3055
G01 X-0.8428 Y37.3146
G01 X-0.7859 Y37.3223
G01 X-0.7289 Y37.3287
G01 X-0.6716 Y37.3336
G01 X-0.6143 Y37.3371
G01 X-0.5569 Y37.3392
G01 X-0.4995 Y37.3399
G01 X-0.4421 Y37.3392
G01 X-0.3847 Y37.3371
G01 X-0.3274 Y37.3336
G01 X-0.2701 Y37.3287
G01 X-0.2131 Y37.3223
G01 X-0.1562 Y37.3146
G01 X-0.0995 Y37.3055
G01 X-0.0656 Y37.2992
G00 Z2.0000
G00 X-0.0656 Y37.3799
G01 F20.00
G01 Z-0.0601
G01 F40.00
G01 X-0.0859 Y37.3836
G01 X-0.1445 Y37.3931
G01 X-0.2034 Y37.4011
G01 X-0.2624 Y37.4076
G01 X-0.3215 Y37.4127
G01 X-0.3808 Y37.4163
G01 X-0.4401 Y37.4185
G01 X-0.4995 Y37.4193
G01 X-0.5589 Y37.4185
G01 X-0.6182 Y37.4163
G01 X-0.6775 Y37.4127
G01 X-0.7366 Y37.4076
G01 X-0.7956 Y37.4011
G01 X-0.8545 Y37.3931
G01 X-0.9131 Y37.3836
G01 X-0.9334 Y37.3799
G01 X-0.9334 Y37.4605
G01 X-0.8661 Y37.4715
G01 X-0.8054 Y37.4798
G01 X-0.7444 Y37.4865
G01 X-0.6833 Y37.4918
G01 X-0.6221 Y37.4956
G01 X-0.5608 Y37.4978
G01 X-0.4995 Y37.4986
G01 X-0.4382 Y37.4978
G01 X-0.3769 Y37.4956
G01 X-0.3157 Y37.4918
G01 X-0.2546 Y37.4865
G01 X-0.1936 Y37.4798
G01 X-0.1329 Y37.4715
G01 X-0.0656 Y37.4605
G00 Z2.0000
G00 X-0.0656 Y37.5410
G01 F20.00
G01 Z-0.0601
G01 F40.00
G01 X-0.1212 Y37.5500
G01 X-0.1839 Y37.5585
G01 X-0.2468 Y37.5655
G01 X-0.3099 Y37.5709
G01 X-0.3730 Y37.5748
G01 X-0.4362 Y37.5771
G01 X-0.4995 Y37.5779
G01 X-0.5628 Y37.5771
G01 X-0.6260 Y37.5748
G01 X-0.6891 Y37.5709
G01 X-0.7522 Y37.5655
G01 X-0.8151 Y37.5585
G01 X-0.8778 Y37.5500
G01 X-0.9334 Y37.5410
G01 X-0.9334 Y37.6214
G01 X-0.8894 Y37.6285
G01 X-0.8248 Y37.6372
G01 X-0.7600 Y37.6444
G01 X-0.6950 Y37.6500
G01 X-0.6299 Y37.6540
G01 X-0.5647 Y37.6564
G01 X-0.4995 Y37.6572
G01 X-0.4343 Y37.6564
G01 X-0.3691 Y37.6540
G01 X-0.3040 Y37.6500
G01 X-0.2390 Y37.6444
G01 X-0.1742 Y37.6372
G01 X-0.1096 Y37.6285
G01 X-0.0656 Y37.6214
G00 Z2.0000
G00 X-0.0656 Y37.7017
G01 F20.00
G01 Z-0.0601
G01 F40.00
G01 X-0.0980 Y37.7069
G01 X-0.1645 Y37.7160
G01 X-0.2313 Y37.7234
G01 X-0.2982 Y37.7291
G01 X-0.3652 Y37.7332
G01 X-0.4323 Y37.7357
G01 X-0.4995 Y37.7365
G01 X-0.5667 Y37.7357
G01 X-0.6338 Y37.7332
G01 X-0.7008 Y37.7291
G01 X-0.7677 Y37.7234
G01 X-0.8345 Y37.7160
G01 X-0.9010 Y37.7069
G01 X-0.9334 Y37.7017
G01 X-0.9334 Y37.7820
G01 X-0.9127 Y37.7854
G01 X-0.8442 Y37.7947
G01 X-0.7755 Y37.8023
G01 X-0.7066 Y37.8082
G01 X-0.6377 Y37.8125
G01 X-0.5686 Y37.8150
G01 X-0.4995 Y37.8159
G01 X-0.4304 Y37.8150
G01 X-0.3613 Y37.8125
G01 X-0.2924 Y37.8082
G01 X-0.2235 Y37.8023
G01 X-0.1548 Y37.7947
G01 X-0.0863 Y37.7854
G01 X-0.0656 Y37.7820
G00 Z2.0000
G00 X-0.0656 Y37.8624
G01 F20.00
G01 Z-0.0601
G01 F40.00
G01 X-0.1451 Y37.8734
G01 X-0.2157 Y37.8812
G01 X-0.2865 Y37.8873
G01 X-0.3574 Y37.8917
G01 X-0.4284 Y37.8943
G01 X-0.4995 Y37.8952
G01 X-0.5706 Y37.8943
G01 X-0.6416 Y37.8917
G01 X-0.7125 Y37.8873
G01 X-0.7833 Y37.8812
G01 X-0.8539 Y37.8734
G01 X-0.9334 Y37.8624
G01 X-0.9334 Y37.9427
G01 X-0.8636 Y37.9521
G01 X-0.7911 Y37.9602
G01 X-0.7183 Y37.9664
G01 X-0.6455 Y37.9709
G01 X-0.5725 Y37.9736
G01 X-0.4995 Y37.9745
G01 X-0.4265 Y37.9736
G01 X-0.3535 Y37.9709
G01 X-0.2807 Y37.9664
G01 X-0.2079 Y37.9602
G01 X-0.1354 Y37.9521
G01 X-0.0656 Y37.9427
G00 Z2.0000
G00 X-0.0656 Y38.0227
G01 F20.00
G01 Z-0.0601
G01 F40.00
G01 X-0.1257 Y38.0309
G01 X-0.2002 Y38.0391
G01 X-0.2748 Y38.0455
G01 X-0.3497 Y38.0501
G01 X-0.4246 Y38.0529
G01 X-0.4995 Y38.0538
G01 X-0.5744 Y38.0529
G01 X-0.6493 Y38.0501
G01 X-0.7242 Y38.0455
G01 X-0.7988 Y38.0391
G01 X-0.8733 Y38.0309
G01 X-0.9334 Y38.0227
G01 X-0.9334 Y38.1027
G01 X-0.8830 Y38.1096
G01 X-0.8066 Y38.1181
G01 X-0.7300 Y38.1247
G01 X-0.6532 Y38.1294
G01 X-0.5764 Y38.1322
G01 X-0.4995 Y38.1331
G01 X-0.4226 Y38.1322
G01 X-0.3458 Y38.1294
G01 X-0.2690 Y38.1247
G01 X-0.1924 Y38.1181
G01 X-0.1160 Y38.1096
G01 X-0.0656 Y38.1027
G00 Z2.0000
G00 X-0.0656 Y38.1828
G01 F20.00
G01 Z-0.0601
G01 F40.00
G01 X-0.1063 Y38.1883
G01 X-0.1846 Y38.1970
G01 X-0.2632 Y38.2038
G01 X-0.3419 Y38.2086
G01 X-0.4207 Y38.2115
G01 X-0.4995 Y38.2125
G01 X-0.5783 Y38.2115
G01 X-0.6571 Y38.2086
G01 X-0.7358 Y38.2038
G01 X-0.8144 Y38.1970
G01 X-0.8927 Y38.1883
G01 X-0.9334 Y38.1828
G01 X-0.9334 Y38.2628
G01 X-0.9024 Y38.2670
G01 X-0.8222 Y38.2759
G01 X-0.7417 Y38.2829
G01 X-0.6610 Y38.2878
G01 X-0.5803 Y38.2908
G01 X-0.4995 Y38.2918
G01 X-0.4187 Y38.2908
G01 X-0.3380 Y38.2878
G01 X-0.2573 Y38.2829
G01 X-0.1768 Y38.2759
G01 X-0.0966 Y38.2670
G01 X-0.0656 Y38.2628
G00 Z2.0000
G00 X-0.0656 Y38.3429
G01 F20.00
G01 Z-0.0601
G01 F40.00
G01 X-0.0868 Y38.3457
G01 X-0.1691 Y38.3549
G01 X-0.2515 Y38.3620
G01 X-0.3341 Y38.3670
G01 X-0.4168 Y38.3701
G01 X-0.4995 Y38.3711
G01 X-0.5822 Y38.3701
