(G-CODE GENERATED BY FLATCAM v8.994 - www.flatcam.org - Version Date: 2020/11/7)

(Name: Sensorbox-B_Cu.gbr_iso_combined_2_cnc)
(Type: G-code from Geometry)
(Units: MM)

(Created on Tuesday, 06 February 2024 at 15:26)

(This preprocessor is the default preprocessor used by FlatCAM.)
(It is made to work with MACH3 compatible motion controllers.)

(TOOL DIAMETER: 0.25 mm)
(Feedrate_XY: 100.0 mm/min)
(Feedrate_Z: 60.0 mm/min)
(Feedrate rapids 2000.0 mm/min)

(Z_Cut: -0.05 mm)
(Z_Move: 2.0 mm)
(Z Start: None mm)
(Z End: 15.0 mm)
(X,Y End: None mm)
(Steps per circle: 64)
(Preprocessor Geometry: default)

(X range:   -0.1245 ...  110.1245  mm)
(Y range:   -0.1245 ...   70.1245  mm)

(Spindle Speed: 20000.0 RPM)
G21
G90
G94

G01 F100.00

M5
G00 Z15.0000
G00 X0.0000 Y0.0000
T2
M6    
(MSG, Change to Tool Dia = 0.2500)
M0
G00 Z15.0000

M03 S20000.0
G01 F100.00
G00 X3.1458 Y5.0678
G01 F60.00
G01 Z-0.0500
G01 F100.00
G01 X3.1754 Y5.3370
G01 X3.2088 Y5.4648
G01 X3.2439 Y5.5991
G01 X3.3499 Y5.8484
G01 X3.4910 Y6.0796
G01 X3.6643 Y6.2878
G01 X3.8660 Y6.4686
G01 X4.0919 Y6.6180
G01 X4.3372 Y6.7330
G01 X4.5966 Y6.8111
G01 X4.8646 Y6.8505
G01 X5.0676 Y6.8505
G01 X5.2702 Y6.8357
G01 X5.5346 Y6.7768
G01 X5.7876 Y6.6800
G01 X6.0238 Y6.5474
G01 X6.2382 Y6.3819
G01 X6.4262 Y6.1869
G01 X6.5838 Y5.9666
G01 X6.7077 Y5.7257
G01 X6.7951 Y5.4693
G01 X6.8443 Y5.2029
G01 X6.8542 Y4.9322
G01 X6.8246 Y4.6630
G01 X6.7561 Y4.4009
G01 X6.6501 Y4.1516
G01 X6.5090 Y3.9204
G01 X6.3357 Y3.7122
G01 X6.1340 Y3.5314
G01 X5.9081 Y3.3820
G01 X5.6628 Y3.2670
G01 X5.4034 Y3.1889
G01 X5.1354 Y3.1495
G01 X4.9324 Y3.1495
G01 X4.7298 Y3.1643
G01 X4.4655 Y3.2232
G01 X4.2124 Y3.3200
G01 X3.9762 Y3.4526
G01 X3.7618 Y3.6181
G01 X3.5738 Y3.8131
G01 X3.4162 Y4.0334
G01 X3.2923 Y4.2743
G01 X3.2049 Y4.5307
G01 X3.1557 Y4.7971
G01 X3.1458 Y5.0678
G00 Z2.0000
G00 X11.9299 Y2.0950
G01 F60.00
G01 Z-0.0500
G01 F100.00
G01 X11.9504 Y2.3427
G01 X12.0114 Y2.5837
G01 X12.1113 Y2.8114
G01 X12.2116 Y2.9649
G01 X12.5714 Y2.6051
G01 X12.5111 Y2.4777
G01 X12.4781 Y2.3853
G01 X12.4542 Y2.2901
G01 X12.4399 Y2.1938
G01 X12.4350 Y2.0950
G01 X12.4399 Y1.9962
G01 X12.4542 Y1.8999
G01 X12.4781 Y1.8047
G01 X12.5111 Y1.7123
G01 X12.5714 Y1.5849
G01 X12.2116 Y1.2251
G01 X12.1113 Y1.3786
G01 X12.0114 Y1.6063
G01 X11.9504 Y1.8473
G01 X11.9299 Y2.0950
G00 Z2.0000
G00 X12.5577 Y3.3258
G01 F60.00
G01 Z-0.0500
G01 F100.00
G01 X12.8304 Y3.4734
G01 X13.0655 Y3.5541
G01 X13.3107 Y3.5950
G01 X13.5593 Y3.5950
G01 X13.8045 Y3.5541
G01 X14.0396 Y3.4734
G01 X14.3123 Y3.3258
G01 X13.9451 Y2.9586
G01 X13.8177 Y3.0189
G01 X13.7253 Y3.0519
G01 X13.6301 Y3.0758
G01 X13.5338 Y3.0901
G01 X13.4350 Y3.0950
G01 X13.3362 Y3.0901
G01 X13.2399 Y3.0758
G01 X13.1447 Y3.0519
G01 X13.0523 Y3.0189
G01 X12.9249 Y2.9586
G01 X12.5577 Y3.3258
G00 Z2.0000
G00 X14.2986 Y2.6051
G01 F60.00
G01 Z-0.0500
G01 F100.00
G01 X14.6584 Y2.9649
G01 X14.7587 Y2.8114
G01 X14.8586 Y2.5837
G01 X14.9196 Y2.3427
G01 X14.9401 Y2.0950
G01 X14.9196 Y1.8473
G01 X14.8586 Y1.6063
G01 X14.7587 Y1.3786
G01 X14.6584 Y1.2251
G01 X14.2986 Y1.5849
G01 X14.3589 Y1.7123
G01 X14.3919 Y1.8047
G01 X14.4158 Y1.8999
G01 X14.4301 Y1.9962
G01 X14.4350 Y2.0950
G01 X14.4301 Y2.1938
G01 X14.4158 Y2.2901
G01 X14.3919 Y2.3853
G01 X14.3589 Y2.4777
G01 X14.2986 Y2.6051
G00 Z2.0000
G00 X16.5794 Y2.1534
G01 F60.00
G01 Z-0.0500
G01 F100.00
G01 X16.5999 Y2.4013
G01 X16.6610 Y2.6423
G01 X16.7608 Y2.8700
G01 X16.8969 Y3.0782
G01 X17.0653 Y3.2612
G01 X17.2615 Y3.4139
G01 X17.4802 Y3.5323
G01 X17.7154 Y3.6130
G01 X17.9607 Y3.6539
G01 X18.2094 Y3.6539
G01 X18.4546 Y3.6130
G01 X18.6898 Y3.5323
G01 X18.9085 Y3.4139
G01 X19.1048 Y3.2612
G01 X19.2732 Y3.0782
G01 X19.4092 Y2.8700
G01 X19.5091 Y2.6423
G01 X19.5701 Y2.4013
G01 X19.5907 Y2.1534
G01 X19.5701 Y1.9056
G01 X19.5091 Y1.6646
G01 X19.4092 Y1.4368
G01 X19.2732 Y1.2287
G01 X19.1048 Y1.0457
G01 X18.9085 Y0.8930
G01 X18.8693 Y0.8717
G01 X18.6898 Y0.7746
G01 X18.4546 Y0.6939
G01 X18.2094 Y0.6529
G01 X17.9607 Y0.6529
G01 X17.7154 Y0.6939
G01 X17.4802 Y0.7746
G01 X17.2615 Y0.8930
G01 X17.0653 Y1.0457
G01 X16.8969 Y1.2287
G01 X16.7608 Y1.4368
G01 X16.6886 Y1.6016
G01 X16.6610 Y1.6646
G01 X16.5999 Y1.9056
G01 X16.5794 Y2.1534
G00 Z2.0000
G00 X16.8424 Y2.2874
G01 F60.00
G01 Z-0.0500
G01 F100.00
G01 X16.8571 Y2.3860
G01 X16.8590 Y2.3973
G01 X16.8615 Y2.4085
G01 X16.8858 Y2.5052
G01 X16.8888 Y2.5163
G01 X16.8924 Y2.5272
G01 X16.9260 Y2.6211
G01 X16.9302 Y2.6318
G01 X16.9348 Y2.6423
G01 X16.9774 Y2.7324
G01 X16.9826 Y2.7427
G01 X16.9883 Y2.7527
G01 X17.0395 Y2.8382
G01 X17.0457 Y2.8479
G01 X17.0523 Y2.8573
G01 X17.1117 Y2.9374
G01 X17.1187 Y2.9464
G01 X17.1263 Y2.9552
G01 X17.1932 Y3.0290
G01 X17.2011 Y3.0373
G01 X17.2095 Y3.0453
G01 X17.2833 Y3.1122
G01 X17.2920 Y3.1197
G01 X17.3011 Y3.1268
G01 X17.3811 Y3.1862
G01 X17.3906 Y3.1928
G01 X17.4003 Y3.1989
G01 X17.4858 Y3.2502
G01 X17.4958 Y3.2559
G01 X17.5060 Y3.2610
G01 X17.5961 Y3.3036
G01 X17.6067 Y3.3083
G01 X17.6174 Y3.3124
G01 X17.7112 Y3.3460
G01 X17.7222 Y3.3496
G01 X17.7332 Y3.3527
G01 X17.8299 Y3.3769
G01 X17.8412 Y3.3794
G01 X17.8525 Y3.3814
G01 X17.9511 Y3.3960
G01 X17.9625 Y3.3974
G01 X17.9740 Y3.3983
G01 X18.0735 Y3.4032
G01 X18.0850 Y3.4035
G01 X18.0965 Y3.4032
G01 X18.1961 Y3.3983
G01 X18.2075 Y3.3974
G01 X18.2190 Y3.3960
G01 X18.3176 Y3.3814
G01 X18.3289 Y3.3794
G01 X18.3401 Y3.3769
G01 X18.4368 Y3.3527
G01 X18.4479 Y3.3496
G01 X18.4588 Y3.3460
G01 X18.5526 Y3.3124
G01 X18.5634 Y3.3083
G01 X18.5739 Y3.3036
G01 X18.6640 Y3.2610
G01 X18.6743 Y3.2559
G01 X18.6843 Y3.2502
G01 X18.7698 Y3.1989
G01 X18.7795 Y3.1928
G01 X18.7889 Y3.1862
G01 X18.8690 Y3.1268
G01 X18.8780 Y3.1197
G01 X18.8867 Y3.1122
G01 X18.9606 Y3.0453
G01 X18.9689 Y3.0373
G01 X18.9768 Y3.0290
G01 X19.0438 Y2.9552
G01 X19.0513 Y2.9464
G01 X19.0584 Y2.9374
G01 X19.1177 Y2.8573
G01 X19.1244 Y2.8479
G01 X19.1305 Y2.8382
G01 X19.1818 Y2.7527
G01 X19.1874 Y2.7427
G01 X19.1926 Y2.7324
G01 X19.2352 Y2.6423
G01 X19.2399 Y2.6318
G01 X19.2440 Y2.6211
G01 X19.2776 Y2.5272
G01 X19.2812 Y2.5163
G01 X19.2843 Y2.5052
G01 X19.3085 Y2.4085
G01 X19.3110 Y2.3973
G01 X19.3130 Y2.3860
G01 X19.3276 Y2.2874
G01 X19.3290 Y2.2760
G01 X19.3299 Y2.2645
G01 X19.3348 Y2.1649
G01 X19.3350 Y2.1534
G01 X19.3348 Y2.1419
G01 X19.3299 Y2.0424
G01 X19.3290 Y2.0309
G01 X19.3276 Y2.0195
G01 X19.3130 Y1.9209
G01 X19.3110 Y1.9096
G01 X19.3085 Y1.8983
G01 X19.2843 Y1.8017
G01 X19.2812 Y1.7906
G01 X19.2776 Y1.7797
G01 X19.2440 Y1.6858
G01 X19.2399 Y1.6751
G01 X19.2352 Y1.6646
G01 X19.1926 Y1.5745
G01 X19.1874 Y1.5642
G01 X19.1818 Y1.5542
G01 X19.1305 Y1.4687
G01 X19.1244 Y1.4590
G01 X19.1177 Y1.4496
G01 X19.0584 Y1.3695
G01 X19.0513 Y1.3604
G01 X19.0438 Y1.3517
G01 X18.9768 Y1.2779
G01 X18.9689 Y1.2696
G01 X18.9606 Y1.2616
G01 X18.8867 Y1.1947
G01 X18.8780 Y1.1872
G01 X18.8690 Y1.1801
G01 X18.7889 Y1.1207
G01 X18.7795 Y1.1141
G01 X18.7698 Y1.1079
G01 X18.6843 Y1.0567
G01 X18.6743 Y1.0510
G01 X18.6640 Y1.0459
G01 X18.5739 Y1.0032
G01 X18.5634 Y0.9986
G01 X18.5526 Y0.9944
G01 X18.4588 Y0.9609
G01 X18.4479 Y0.9573
G01 X18.4368 Y0.9542
G01 X18.3401 Y0.9300
G01 X18.3289 Y0.9275
G01 X18.3176 Y0.9255
G01 X18.2190 Y0.9108
G01 X18.2075 Y0.9095
G01 X18.1961 Y0.9086
G01 X18.0965 Y0.9037
G01 X18.0850 Y0.9034
G01 X18.0735 Y0.9037
G01 X17.9740 Y0.9086
G01 X17.9625 Y0.9095
G01 X17.9511 Y0.9108
G01 X17.8525 Y0.9255
G01 X17.8412 Y0.9275
G01 X17.8299 Y0.9300
G01 X17.7332 Y0.9542
G01 X17.7222 Y0.9573
G01 X17.7112 Y0.9609
G01 X17.6174 Y0.9944
G01 X17.6067 Y0.9986
G01 X17.5961 Y1.0032
G01 X17.5060 Y1.0459
G01 X17.4958 Y1.0510
G01 X17.4858 Y1.0567
G01 X17.4003 Y1.1079
G01 X17.3906 Y1.1141
G01 X17.3811 Y1.1207
G01 X17.3011 Y1.1801
G01 X17.2920 Y1.1872
G01 X17.2833 Y1.1947
G01 X17.2095 Y1.2616
G01 X17.2011 Y1.2696
G01 X17.1932 Y1.2779
G01 X17.1263 Y1.3517
G01 X17.1187 Y1.3604
G01 X17.1117 Y1.3695
G01 X17.0523 Y1.4496
G01 X17.0457 Y1.4590
G01 X17.0395 Y1.4687
G01 X16.9883 Y1.5542
G01 X16.9826 Y1.5642
G01 X16.9774 Y1.5745
G01 X16.9348 Y1.6646
G01 X16.9302 Y1.6751
G01 X16.9260 Y1.6858
G01 X16.8924 Y1.7797
G01 X16.8888 Y1.7906
G01 X16.8858 Y1.8017
G01 X16.8615 Y1.8983
G01 X16.8590 Y1.9096
G01 X16.8571 Y1.9209
G01 X16.8424 Y2.0195
G01 X16.8410 Y2.0309
G01 X16.8402 Y2.0424
G01 X16.8353 Y2.1419
G01 X16.8350 Y2.1534
G01 X16.8353 Y2.1649
G01 X16.8402 Y2.2645
G01 X16.8410 Y2.2760
G01 X16.8424 Y2.2874
G00 Z2.0000
G00 X12.5577 Y0.8642
G01 F60.00
G01 Z-0.0500
G01 F100.00
G01 X12.9249 Y1.2314
G01 X13.0523 Y1.1711
G01 X13.1447 Y1.1381
G01 X13.2399 Y1.1142
G01 X13.3362 Y1.0999
G01 X13.4350 Y1.0950
G01 X13.5338 Y1.0999
G01 X13.6301 Y1.1142
G01 X13.7253 Y1.1381
G01 X13.8177 Y1.1711
G01 X13.9451 Y1.2314
G01 X14.3123 Y0.8642
G01 X14.0396 Y0.7166
G01 X13.8045 Y0.6359
G01 X13.5593 Y0.5950
G01 X13.3107 Y0.5950
G01 X13.0655 Y0.6359
G01 X12.8304 Y0.7166
G01 X12.5577 Y0.8642
G00 Z2.0000
G00 X12.7032 Y14.2476
G01 F60.00
G01 Z-0.0500
G01 F100.00
G01 X13.0704 Y14.6147
G01 X13.1978 Y14.5545
G01 X13.2902 Y14.5214
G01 X13.3854 Y14.4976
G01 X13.4817 Y14.4833
G01 X13.5805 Y14.4784
G01 X13.6793 Y14.4833
G01 X13.7756 Y14.4976
G01 X13.8708 Y14.5214
G01 X13.9632 Y14.5545
G01 X14.0906 Y14.6147
G01 X14.4578 Y14.2476
G01 X14.1851 Y14.1000
G01 X13.9500 Y14.0193
G01 X13.7048 Y13.9784
G01 X13.4562 Y13.9784
G01 X13.2110 Y14.0193
G01 X12.9759 Y14.1000
G01 X12.7032 Y14.2476
G00 Z2.0000
G00 X12.0754 Y15.4784
G01 F60.00
G01 Z-0.0500
G01 F100.00
G01 X12.0959 Y15.7261
G01 X12.1569 Y15.9671
G01 X12.2568 Y16.1947
G01 X12.3571 Y16.3483
G01 X12.7169 Y15.9884
G01 X12.6566 Y15.8611
G01 X12.6236 Y15.7687
G01 X12.5997 Y15.6735
G01 X12.5854 Y15.5772
G01 X12.5805 Y15.4784
G01 X12.5854 Y15.3796
G01 X12.5997 Y15.2833
G01 X12.6236 Y15.1881
G01 X12.6566 Y15.0957
G01 X12.7169 Y14.9683
G01 X12.3571 Y14.6085
G01 X12.2568 Y14.7620
G01 X12.1569 Y14.9897
G01 X12.0959 Y15.2306
G01 X12.0754 Y15.4784
G00 Z2.0000
G00 X12.7032 Y16.7092
G01 F60.00
G01 Z-0.0500
G01 F100.00
G01 X12.9759 Y16.8567
G01 X13.2110 Y16.9375
G01 X13.4562 Y16.9784
G01 X13.7048 Y16.9784
G01 X13.9500 Y16.9375
G01 X14.1851 Y16.8567
G01 X14.4578 Y16.7092
G01 X14.0906 Y16.3420
G01 X13.9632 Y16.4022
G01 X13.8708 Y16.4353
G01 X13.7756 Y16.4592
G01 X13.6793 Y16.4734
G01 X13.5805 Y16.4784
G01 X13.4817 Y16.4734
G01 X13.3854 Y16.4592
G01 X13.2902 Y16.4353
G01 X13.1978 Y16.4022
G01 X13.0704 Y16.3420
G01 X12.7032 Y16.7092
G00 Z2.0000
G00 X14.4441 Y15.9884
G01 F60.00
G01 Z-0.0500
G01 F100.00
G01 X14.8039 Y16.3483
G01 X14.9042 Y16.1947
G01 X15.0041 Y15.9671
G01 X15.0651 Y15.7261
G01 X15.0856 Y15.4784
G01 X15.0651 Y15.2306
G01 X15.0041 Y14.9897
G01 X14.9042 Y14.7620
G01 X14.8039 Y14.6085
G01 X14.4441 Y14.9683
G01 X14.5044 Y15.0957
G01 X14.5374 Y15.1881
G01 X14.5613 Y15.2833
G01 X14.5756 Y15.3796
G01 X14.5805 Y15.4784
G01 X14.5756 Y15.5772
G01 X14.5613 Y15.6735
G01 X14.5374 Y15.7687
G01 X14.5044 Y15.8611
G01 X14.4441 Y15.9884
G00 Z2.0000
G00 X16.7249 Y15.5368
G01 F60.00
G01 Z-0.0500
G01 F100.00
G01 X16.7454 Y15.7846
G01 X16.8065 Y16.0257
G01 X16.9063 Y16.2534
G01 X17.0424 Y16.4616
G01 X17.2108 Y16.6446
G01 X17.4070 Y16.7973
G01 X17.6257 Y16.9156
G01 X17.8609 Y16.9964
G01 X18.1062 Y17.0373
G01 X18.3549 Y17.0373
G01 X18.6001 Y16.9964
G01 X18.8353 Y16.9156
G01 X19.0540 Y16.7973
G01 X19.2503 Y16.6446
G01 X19.4187 Y16.4616
G01 X19.5547 Y16.2534
G01 X19.6546 Y16.0257
G01 X19.7156 Y15.7846
G01 X19.7362 Y15.5368
G01 X19.7156 Y15.2890
G01 X19.6546 Y15.0479
G01 X19.6453 Y15.0267
G01 X19.5547 Y14.8202
G01 X19.4187 Y14.6120
G01 X19.2503 Y14.4291
G01 X19.0540 Y14.2763
G01 X18.8353 Y14.1580
G01 X18.6001 Y14.0772
G01 X18.3549 Y14.0363
G01 X18.1062 Y14.0363
G01 X17.8609 Y14.0772
G01 X17.6257 Y14.1580
G01 X17.4070 Y14.2763
G01 X17.2108 Y14.4291
G01 X17.0424 Y14.6120
G01 X16.9064 Y14.8202
G01 X16.8207 Y15.0155
G01 X16.8065 Y15.0479
G01 X16.7454 Y15.2890
G01 X16.7249 Y15.5368
G00 Z2.0000
G00 X16.9879 Y15.6708
G01 F60.00
G01 Z-0.0500
G01 F100.00
G01 X17.0026 Y15.7693
G01 X17.0045 Y15.7807
G01 X17.0070 Y15.7919
G01 X17.0313 Y15.8886
G01 X17.0343 Y15.8997
G01 X17.0379 Y15.9106
G01 X17.0715 Y16.0044
G01 X17.0757 Y16.0152
G01 X17.0803 Y16.0257
G01 X17.1229 Y16.1158
G01 X17.1281 Y16.1261
G01 X17.1338 Y16.1361
G01 X17.1850 Y16.2216
G01 X17.1912 Y16.2313
G01 X17.1978 Y16.2407
G01 X17.2572 Y16.3208
G01 X17.2643 Y16.3298
G01 X17.2718 Y16.3385
G01 X17.3387 Y16.4124
G01 X17.3466 Y16.4207
G01 X17.3550 Y16.4286
G01 X17.4288 Y16.4956
G01 X17.4375 Y16.5031
G01 X17.4466 Y16.5102
G01 X17.5266 Y16.5695
G01 X17.5361 Y16.5762
G01 X17.5458 Y16.5823
G01 X17.6313 Y16.6336
G01 X17.6413 Y16.6392
G01 X17.6515 Y16.6444
G01 X17.7416 Y16.6870
G01 X17.7522 Y16.6917
G01 X17.7629 Y16.6958
G01 X17.8567 Y16.7294
G01 X17.8677 Y16.7330
G01 X17.8788 Y16.7361
G01 X17.9754 Y16.7603
G01 X17.9867 Y16.7628
G01 X17.9980 Y16.7648
G01 X18.0966 Y16.7794
G01 X18.1080 Y16.7808
G01 X18.1195 Y16.7817
G01 X18.2190 Y16.7866
G01 X18.2305 Y16.7868
G01 X18.2420 Y16.7866
G01 X18.3416 Y16.7817
G01 X18.3530 Y16.7808
G01 X18.3645 Y16.7794
G01 X18.4631 Y16.7648
G01 X18.4744 Y16.7628
G01 X18.4856 Y16.7603
G01 X18.5823 Y16.7361
G01 X18.5934 Y16.7330
G01 X18.6043 Y16.7294
G01 X18.6982 Y16.6958
G01 X18.7089 Y16.6917
G01 X18.7194 Y16.6870
G01 X18.8095 Y16.6444
G01 X18.8198 Y16.6392
G01 X18.8298 Y16.6336
G01 X18.9153 Y16.5823
G01 X18.9250 Y16.5762
G01 X18.9344 Y16.5695
G01 X19.0145 Y16.5102
G01 X19.0235 Y16.5031
G01 X19.0322 Y16.4956
G01 X19.1061 Y16.4286
G01 X19.1144 Y16.4207
G01 X19.1224 Y16.4124
G01 X19.1893 Y16.3385
G01 X19.1968 Y16.3298
G01 X19.2039 Y16.3208
G01 X19.2633 Y16.2407
G01 X19.2699 Y16.2313
G01 X19.2760 Y16.2216
G01 X19.3273 Y16.1361
G01 X19.3329 Y16.1261
G01 X19.3381 Y16.1158
G01 X19.3807 Y16.0257
G01 X19.3854 Y16.0152
G01 X19.3895 Y16.0044
G01 X19.4231 Y15.9106
G01 X19.4267 Y15.8997
G01 X19.4298 Y15.8886
G01 X19.4540 Y15.7919
G01 X19.4565 Y15.7807
G01 X19.4585 Y15.7693
G01 X19.4731 Y15.6708
G01 X19.4745 Y15.6593
G01 X19.4754 Y15.6479
G01 X19.4803 Y15.5483
G01 X19.4805 Y15.5368
G01 X19.4803 Y15.5253
G01 X19.4754 Y15.4258
G01 X19.4745 Y15.4143
G01 X19.4731 Y15.4029
G01 X19.4585 Y15.3043
G01 X19.4565 Y15.2930
G01 X19.4540 Y15.2817
G01 X19.4298 Y15.1850
G01 X19.4267 Y15.1740
G01 X19.4231 Y15.1630
G01 X19.3895 Y15.0692
G01 X19.3854 Y15.0585
G01 X19.3807 Y15.0479
G01 X19.3381 Y14.9578
G01 X19.3329 Y14.9476
G01 X19.3273 Y14.9376
G01 X19.2760 Y14.8521
G01 X19.2699 Y14.8423
G01 X19.2633 Y14.8329
G01 X19.2039 Y14.7529
G01 X19.1968 Y14.7438
G01 X19.1893 Y14.7351
G01 X19.1224 Y14.6613
G01 X19.1144 Y14.6529
G01 X19.1061 Y14.6450
G01 X19.0322 Y14.5781
G01 X19.0235 Y14.5705
G01 X19.0145 Y14.5635
G01 X18.9344 Y14.5041
G01 X18.9250 Y14.4975
G01 X18.9153 Y14.4913
G01 X18.8298 Y14.4401
G01 X18.8198 Y14.4344
G01 X18.8095 Y14.4292
G01 X18.7194 Y14.3866
G01 X18.7089 Y14.3820
G01 X18.6982 Y14.3778
G01 X18.6043 Y14.3442
G01 X18.5934 Y14.3406
G01 X18.5823 Y14.3376
G01 X18.4856 Y14.3133
G01 X18.4744 Y14.3108
G01 X18.4631 Y14.3088
G01 X18.3645 Y14.2942
G01 X18.3530 Y14.2928
G01 X18.3416 Y14.2920
G01 X18.2420 Y14.2871
G01 X18.2305 Y14.2868
G01 X18.2190 Y14.2871
G01 X18.1195 Y14.2920
G01 X18.1080 Y14.2928
G01 X18.0966 Y14.2942
G01 X17.9980 Y14.3088
G01 X17.9867 Y14.3108
G01 X17.9754 Y14.3133
G01 X17.8788 Y14.3376
G01 X17.8677 Y14.3406
G01 X17.8567 Y14.3442
G01 X17.7629 Y14.3778
G01 X17.7522 Y14.3820
G01 X17.7416 Y14.3866
G01 X17.6515 Y14.4292
G01 X17.6413 Y14.4344
G01 X17.6313 Y14.4401
G01 X17.5458 Y14.4913
G01 X17.5361 Y14.4975
G01 X17.5266 Y14.5041
G01 X17.4466 Y14.5635
G01 X17.4375 Y14.5705
G01 X17.4288 Y14.5781
G01 X17.3550 Y14.6450
G01 X17.3466 Y14.6529
G01 X17.3387 Y14.6613
G01 X17.2718 Y14.7351
G01 X17.2643 Y14.7438
G01 X17.2572 Y14.7529
G01 X17.1978 Y14.8329
G01 X17.1912 Y14.8423
G01 X17.1850 Y14.8521
G01 X17.1338 Y14.9376
G01 X17.1281 Y14.9476
G01 X17.1229 Y14.9578
G01 X17.0803 Y15.0479
G01 X17.0757 Y15.0585
G01 X17.0715 Y15.0692
G01 X17.0379 Y15.1630
G01 X17.0343 Y15.1740
G01 X17.0313 Y15.1850
G01 X17.0070 Y15.2817
G01 X17.0045 Y15.2930
G01 X17.0026 Y15.3043
G01 X16.9879 Y15.4029
G01 X16.9865 Y15.4143
G01 X16.9857 Y15.4258
G01 X16.9808 Y15.5253
G01 X16.9805 Y15.5368
G01 X16.9808 Y15.5483
G01 X16.9857 Y15.6479
G01 X16.9865 Y15.6593
G01 X16.9879 Y15.6708
G00 Z2.0000
G00 X20.5985 Y17.9557
G01 F60.00
G01 Z-0.0500
G01 F100.00
G01 X20.5995 Y17.9720
G01 X20.5995 Y26.7440
G01 X20.5988 Y26.7577
G01 X20.5947 Y26.8000
G01 X20.5988 Y26.8423
G01 X20.5995 Y26.8560
G01 X20.5995 Y33.6853
G01 X20.5972 Y33.7764
G01 X20.6075 Y33.8338
G01 X20.6089 Y33.8432
G01 X20.6149 Y33.9024
G01 X20.6240 Y33.9315
G01 X20.6276 Y33.9461
G01 X20.6331 Y33.9766
G01 X20.6548 Y34.0309
G01 X20.6580 Y34.0397
G01 X20.6758 Y34.0966
G01 X20.6906 Y34.1232
G01 X20.6971 Y34.1368
G01 X20.7086 Y34.1656
G01 X20.7409 Y34.2145
G01 X20.7457 Y34.2224
G01 X20.7746 Y34.2745
G01 X20.7948 Y34.2981
G01 X20.8038 Y34.3101
G01 X20.8206 Y34.3355
G01 X20.8627 Y34.3776
G01 X20.8692 Y34.3847
G01 X20.9071 Y34.4289
G01 X20.9312 Y34.4475
G01 X20.9434 Y34.4584
G01 X22.0822 Y35.5971
G01 X22.1449 Y35.6631
G01 X22.1938 Y35.6971
G01 X22.2013 Y35.7028
G01 X22.2466 Y35.7397
G01 X22.2741 Y35.7541
G01 X22.2870 Y35.7619
G01 X22.3120 Y35.7793
G01 X22.3667 Y35.8028
G01 X22.3752 Y35.8069
G01 X22.4270 Y35.8339
G01 X22.4568 Y35.8425
G01 X22.4710 Y35.8475
G01 X22.4989 Y35.8595
G01 X22.5573 Y35.8715
G01 X22.5666 Y35.8739
G01 X22.6226 Y35.8899
G01 X22.6536 Y35.8923
G01 X22.6685 Y35.8944
G01 X22.6983 Y35.9005
G01 X22.7567 Y35.9005
G01 X22.7661 Y35.9008
G01 X22.8255 Y35.9053
G01 X22.8557 Y35.9015
G01 X22.8720 Y35.9005
G01 X43.9748 Y35.9005
G01 X44.0375 Y35.9171
G01 X44.0829 Y35.9625
G01 X44.0995 Y36.0252
G01 X44.0995 Y49.3853
G01 X44.0972 Y49.4764
G01 X44.1075 Y49.5338
G01 X44.1089 Y49.5432
G01 X44.1149 Y49.6024
G01 X44.1240 Y49.6315
G01 X44.1276 Y49.6461
G01 X44.1331 Y49.6766
G01 X44.1548 Y49.7309
G01 X44.1580 Y49.7397
G01 X44.1758 Y49.7966
G01 X44.1906 Y49.8232
G01 X44.1971 Y49.8368
G01 X44.2086 Y49.8656
G01 X44.2409 Y49.9145
G01 X44.2457 Y49.9224
G01 X44.2746 Y49.9745
G01 X44.2948 Y49.9981
G01 X44.3038 Y50.0101
G01 X44.3206 Y50.0355
G01 X44.3627 Y50.0776
G01 X44.3692 Y50.0847
G01 X44.4071 Y50.1289
G01 X44.4312 Y50.1475
G01 X44.4434 Y50.1584
G01 X45.7972 Y51.5121
G01 X45.8599 Y51.5781
G01 X45.9088 Y51.6121
G01 X45.9163 Y51.6178
G01 X45.9616 Y51.6547
G01 X45.9891 Y51.6691
G01 X46.0020 Y51.6769
G01 X46.0270 Y51.6943
G01 X46.0817 Y51.7178
G01 X46.0902 Y51.7219
G01 X46.1420 Y51.7489
G01 X46.1718 Y51.7575
G01 X46.1860 Y51.7625
G01 X46.2139 Y51.7745
G01 X46.2722 Y51.7865
G01 X46.2815 Y51.7889
G01 X46.3376 Y51.8049
G01 X46.3686 Y51.8073
G01 X46.3835 Y51.8094
G01 X46.4133 Y51.8155
G01 X46.4728 Y51.8155
G01 X46.4822 Y51.8159
G01 X46.5405 Y51.8203
G01 X46.5707 Y51.8165
G01 X46.5870 Y51.8155
G01 X48.0155 Y51.8155
G01 X48.0775 Y51.8321
G01 X48.1229 Y51.8775
G01 X48.1395 Y51.9402
G01 X48.1395 Y56.2981
G01 X48.1363 Y56.3269
G01 X48.1320 Y56.3454
G01 X48.1101 Y56.4226
G01 X48.1089 Y56.4386
G01 X48.1062 Y56.4565
G01 X48.1024 Y56.4729
G01 X48.1005 Y56.5470
G01 X48.0947 Y56.6255
G01 X48.0967 Y56.6415
G01 X48.0976 Y56.6595
G01 X48.0972 Y56.6764
G01 X48.1103 Y56.7492
G01 X48.1204 Y56.8273
G01 X48.1256 Y56.8426
G01 X48.1301 Y56.8600
G01 X48.1331 Y56.8766
G01 X48.1606 Y56.9454
G01 X48.1862 Y57.0199
G01 X48.1943 Y57.0338
G01 X48.2023 Y57.0499
G01 X48.2086 Y57.0656
G01 X48.2493 Y57.1274
G01 X48.2894 Y57.1952
G01 X48.3007 Y57.2078
G01 X48.3117 Y57.2221
G01 X48.3206 Y57.2355
G01 X48.3762 Y57.2913
G01 X48.4258 Y57.3462
G01 X48.4388 Y57.3558
G01 X48.4536 Y57.3686
G01 X49.9822 Y58.8971
G01 X50.0449 Y58.9631
G01 X50.0938 Y58.9971
G01 X50.1013 Y59.0028
G01 X50.1466 Y59.0397
G01 X50.1741 Y59.0541
G01 X50.1870 Y59.0619
G01 X50.2120 Y59.0793
G01 X50.2667 Y59.1028
G01 X50.2752 Y59.1069
G01 X50.3270 Y59.1339
G01 X50.3568 Y59.1425
G01 X50.3710 Y59.1475
G01 X50.3989 Y59.1595
G01 X50.4572 Y59.1715
G01 X50.4665 Y59.1739
G01 X50.5226 Y59.1899
G01 X50.5536 Y59.1923
G01 X50.5685 Y59.1944
G01 X50.5983 Y59.2005
G01 X50.6578 Y59.2005
G01 X50.6672 Y59.2009
G01 X50.7255 Y59.2053
G01 X50.7557 Y59.2015
G01 X50.7720 Y59.2005
G01 X82.8853 Y59.2005
G01 X82.9764 Y59.2028
G01 X83.0339 Y59.1924
G01 X83.0432 Y59.1911
G01 X83.1024 Y59.1851
G01 X83.1321 Y59.1758
G01 X83.1467 Y59.1722
G01 X83.1767 Y59.1669
G01 X83.2309 Y59.1452
G01 X83.2397 Y59.1420
G01 X83.2966 Y59.1242
G01 X83.3238 Y59.1091
G01 X83.3374 Y59.1027
G01 X83.3656 Y59.0914
G01 X83.4146 Y59.0591
G01 X83.4224 Y59.0544
G01 X83.4745 Y59.0254
G01 X83.4976 Y59.0056
G01 X83.5096 Y58.9965
G01 X83.5355 Y58.9794
G01 X83.5776 Y58.9373
G01 X83.5847 Y58.9308
G01 X83.6289 Y58.8929
G01 X83.6475 Y58.8688
G01 X83.6583 Y58.8566
G01 X85.3971 Y57.1178
G01 X85.4631 Y57.0551
G01 X85.4964 Y57.0071
G01 X85.5020 Y56.9996
G01 X85.5397 Y56.9534
G01 X85.5538 Y56.9264
G01 X85.5616 Y56.9136
G01 X85.5793 Y56.8880
G01 X85.6028 Y56.8333
G01 X85.6069 Y56.8248
G01 X85.6339 Y56.7730
G01 X85.6425 Y56.7432
G01 X85.6475 Y56.7290
G01 X85.6595 Y56.7011
G01 X85.6716 Y56.6427
G01 X85.6738 Y56.6335
G01 X85.6899 Y56.5774
G01 X85.6923 Y56.5464
G01 X85.6944 Y56.5315
G01 X85.7005 Y56.5017
G01 X85.7005 Y56.4433
G01 X85.7008 Y56.4339
G01 X85.7053 Y56.3745
G01 X85.7015 Y56.3443
G01 X85.7005 Y56.3280
G01 X85.7005 Y22.9666
G01 X85.7099 Y22.9183
G01 X85.7374 Y22.8776
G01 X86.5781 Y22.0368
G01 X86.6183 Y22.0099
G01 X86.6658 Y22.0005
G01 X102.2853 Y22.0005
G01 X102.3764 Y22.0028
G01 X102.4339 Y21.9924
G01 X102.4432 Y21.9911
G01 X102.5024 Y21.9851
G01 X102.5321 Y21.9758
G01 X102.5467 Y21.9722
G01 X102.5767 Y21.9669
G01 X102.6309 Y21.9452
G01 X102.6397 Y21.9420
G01 X102.6966 Y21.9242
G01 X102.7238 Y21.9091
G01 X102.7374 Y21.9027
G01 X102.7656 Y21.8914
G01 X102.8146 Y21.8591
G01 X102.8224 Y21.8544
G01 X102.8745 Y21.8254
G01 X102.8976 Y21.8056
G01 X102.9096 Y21.7965
G01 X102.9355 Y21.7794
G01 X102.9776 Y21.7373
G01 X102.9847 Y21.7308
G01 X103.0289 Y21.6929
G01 X103.0475 Y21.6688
G01 X103.0584 Y21.6566
G01 X107.1971 Y17.5178
G01 X107.2631 Y17.4551
G01 X107.2964 Y17.4071
G01 X107.3021 Y17.3996
G01 X107.3397 Y17.3534
G01 X107.3538 Y17.3264
G01 X107.3616 Y17.3136
G01 X107.3793 Y17.2880
G01 X107.4028 Y17.2333
G01 X107.4069 Y17.2248
G01 X107.4339 Y17.1731
G01 X107.4425 Y17.1432
G01 X107.4475 Y17.1290
G01 X107.4595 Y17.1011
G01 X107.4715 Y17.0427
G01 X107.4738 Y17.0335
G01 X107.4899 Y16.9774
G01 X107.4923 Y16.9464
G01 X107.4944 Y16.9315
G01 X107.5005 Y16.9017
G01 X107.5005 Y16.8422
G01 X107.5009 Y16.8328
G01 X107.5053 Y16.7745
G01 X107.5015 Y16.7443
G01 X107.5005 Y16.7280
G01 X107.5005 Y14.0570
G01 X107.5090 Y14.0120
G01 X107.5333 Y13.9731
G01 X107.6882 Y13.8048
G01 X107.8242 Y13.5966
G01 X107.9241 Y13.3689
G01 X107.9851 Y13.1278
G01 X108.0056 Y12.8800
G01 X107.9851 Y12.6322
G01 X107.9241 Y12.3911
G01 X107.8242 Y12.1634
G01 X107.6882 Y11.9552
G01 X107.5197 Y11.7723
G01 X107.3235 Y11.6195
G01 X107.1048 Y11.5012
G01 X106.8696 Y11.4204
G01 X106.6243 Y11.3795
G01 X106.3757 Y11.3795
G01 X106.1304 Y11.4204
G01 X105.8952 Y11.5012
G01 X105.6765 Y11.6195
G01 X105.4803 Y11.7723
G01 X105.3118 Y11.9552
G01 X105.3028 Y11.9690
G01 X105.2641 Y12.0067
G01 X105.2131 Y12.0244
G01 X105.1372 Y12.0163
G01 X104.7836 Y12.3699
G01 X104.8439 Y12.4973
G01 X104.8769 Y12.5897
G01 X104.9008 Y12.6849
G01 X104.9151 Y12.7812
G01 X104.9200 Y12.8800
G01 X104.9151 Y12.9788
G01 X104.9008 Y13.0751
G01 X104.8769 Y13.1703
G01 X104.8439 Y13.2627
G01 X104.7836 Y13.3901
G01 X105.1372 Y13.7437
G01 X105.2131 Y13.7356
G01 X105.2641 Y13.7533
G01 X105.3028 Y13.7910
G01 X105.3118 Y13.8048
G01 X105.4667 Y13.9731
G01 X105.4910 Y14.0120
G01 X105.4995 Y14.0570
G01 X105.4995 Y16.3334
G01 X105.4901 Y16.3817
G01 X105.4626 Y16.4224
G01 X101.9224 Y19.9626
G01 X101.8817 Y19.9901
G01 X101.8335 Y19.9995
G01 X86.2146 Y19.9995
G01 X86.1236 Y19.9972
G01 X86.0662 Y20.0075
G01 X86.0568 Y20.0089
G01 X85.9976 Y20.0149
G01 X85.9679 Y20.0242
G01 X85.9533 Y20.0278
G01 X85.9234 Y20.0331
G01 X85.8691 Y20.0548
G01 X85.8603 Y20.0580
G01 X85.8034 Y20.0758
G01 X85.7762 Y20.0909
G01 X85.7626 Y20.0973
G01 X85.7344 Y20.1086
G01 X85.6846 Y20.1414
G01 X85.6766 Y20.1463
G01 X85.6255 Y20.1746
G01 X85.6019 Y20.1948
G01 X85.5899 Y20.2038
G01 X85.5645 Y20.2206
G01 X85.5224 Y20.2627
G01 X85.5153 Y20.2692
G01 X85.4711 Y20.3071
G01 X85.4525 Y20.3312
G01 X85.4416 Y20.3434
G01 X84.0029 Y21.7822
G01 X83.9369 Y21.8449
G01 X83.9036 Y21.8929
G01 X83.8979 Y21.9004
G01 X83.8603 Y21.9466
G01 X83.8462 Y21.9736
G01 X83.8384 Y21.9864
G01 X83.8207 Y22.0119
G01 X83.7972 Y22.0667
G01 X83.7931 Y22.0752
G01 X83.7661 Y22.1270
G01 X83.7575 Y22.1568
G01 X83.7525 Y22.1710
G01 X83.7405 Y22.1989
G01 X83.7285 Y22.2572
G01 X83.7261 Y22.2665
G01 X83.7101 Y22.3226
G01 X83.7077 Y22.3536
G01 X83.7056 Y22.3685
G01 X83.6995 Y22.3983
G01 X83.6995 Y22.4566
G01 X83.6992 Y22.4661
G01 X83.6947 Y22.5255
G01 X83.6985 Y22.5557
G01 X83.6995 Y22.5720
G01 X83.6995 Y55.9342
G01 X83.6901 Y55.9817
G01 X83.6632 Y56.0219
G01 X82.5224 Y57.1626
G01 X82.4817 Y57.1901
G01 X82.4342 Y57.1995
G01 X51.1658 Y57.1995
G01 X51.1183 Y57.1901
G01 X51.0781 Y57.1632
G01 X50.1774 Y56.2624
G01 X50.1499 Y56.2217
G01 X50.1405 Y56.1742
G01 X50.1405 Y51.5317
G01 X50.1476 Y51.4899
G01 X50.1687 Y51.4523
G01 X50.2218 Y51.3875
G01 X50.3170 Y51.2093
G01 X50.3757 Y51.0160
G01 X50.3955 Y50.8150
G01 X50.3823 Y50.6817
G01 X50.3945 Y50.6147
G01 X50.4403 Y50.5642
G01 X50.5057 Y50.5455
G01 X57.1784 Y50.5455
G01 X57.2267 Y50.5549
G01 X57.2674 Y50.5824
G01 X58.9822 Y52.2971
G01 X59.0449 Y52.3631
G01 X59.0929 Y52.3964
G01 X59.1004 Y52.4021
G01 X59.1466 Y52.4397
G01 X59.1736 Y52.4538
G01 X59.1864 Y52.4616
G01 X59.2120 Y52.4793
G01 X59.2656 Y52.5023
G01 X59.2768 Y52.5077
G01 X59.3230 Y52.5497
G01 X59.3238 Y52.5509
G01 X59.3432 Y52.6102
G01 X59.3310 Y52.6713
G01 X59.3304 Y52.6726
G01 X59.2897 Y52.7199
G01 X59.2303 Y52.7412
G01 X59.1473 Y52.7484
G01 X58.9410 Y52.8037
G01 X58.7474 Y52.8940
G01 X58.5725 Y53.0165
G01 X58.4215 Y53.1675
G01 X58.2990 Y53.3424
G01 X58.2087 Y53.5360
G01 X58.1535 Y53.7423
G01 X58.1348 Y53.9550
G01 X58.1535 Y54.1677
G01 X58.2087 Y54.3740
G01 X58.2990 Y54.5676
G01 X58.4215 Y54.7425
G01 X58.5725 Y54.8935
G01 X58.7474 Y55.0160
G01 X58.9410 Y55.1063
G01 X59.1473 Y55.1615
G01 X59.3600 Y55.1802
G01 X59.5727 Y55.1615
G01 X59.7790 Y55.1063
G01 X59.9726 Y55.0160
G01 X60.1475 Y54.8935
G01 X60.2985 Y54.7425
G01 X60.4210 Y54.5676
G01 X60.5113 Y54.3740
G01 X60.5665 Y54.1677
G01 X60.5852 Y53.9550
G01 X60.5665 Y53.7423
G01 X60.5113 Y53.5360
G01 X60.4210 Y53.3424
G01 X60.2985 Y53.1675
G01 X60.1475 Y53.0165
G01 X59.9726 Y52.8940
G01 X59.8501 Y52.8369
G01 X59.7997 Y52.7938
G01 X59.7790 Y52.7317
G01 X59.7789 Y52.7302
G01 X59.7931 Y52.6663
G01 X59.8387 Y52.6182
G01 X59.9033 Y52.6005
G01 X63.8975 Y52.6005
G01 X63.9613 Y52.6182
G01 X64.0069 Y52.6663
G01 X64.0213 Y52.7310
G01 X64.0003 Y52.7938
G01 X63.9499 Y52.8369
G01 X63.8274 Y52.8940
G01 X63.6525 Y53.0165
G01 X63.5015 Y53.1675
G01 X63.3790 Y53.3424
G01 X63.2887 Y53.5360
G01 X63.2335 Y53.7423
G01 X63.2148 Y53.9550
G01 X63.2335 Y54.1677
G01 X63.2887 Y54.3740
G01 X63.3790 Y54.5676
G01 X63.5015 Y54.7425
G01 X63.6525 Y54.8935
G01 X63.8274 Y55.0160
G01 X64.0210 Y55.1063
G01 X64.2273 Y55.1615
G01 X64.4400 Y55.1802
G01 X64.6527 Y55.1615
G01 X64.8590 Y55.1063
G01 X65.0526 Y55.0160
G01 X65.2275 Y54.8935
G01 X65.3785 Y54.7425
G01 X65.5010 Y54.5676
G01 X65.5913 Y54.3740
G01 X65.6465 Y54.1677
G01 X65.6652 Y53.9550
G01 X65.6465 Y53.7423
G01 X65.5913 Y53.5360
G01 X65.5010 Y53.3424
G01 X65.3785 Y53.1675
G01 X65.2275 Y53.0165
G01 X65.0526 Y52.8940
G01 X64.9301 Y52.8369
G01 X64.8797 Y52.7938
G01 X64.8587 Y52.7310
G01 X64.8731 Y52.6663
G01 X64.9187 Y52.6182
G01 X64.9825 Y52.6005
G01 X67.5853 Y52.6005
G01 X67.6764 Y52.6028
G01 X67.7339 Y52.5924
G01 X67.7432 Y52.5911
G01 X67.8024 Y52.5851
G01 X67.8321 Y52.5758
G01 X67.8467 Y52.5722
G01 X67.8767 Y52.5669
G01 X67.9309 Y52.5452
G01 X67.9397 Y52.5420
G01 X67.9966 Y52.5242
G01 X68.0238 Y52.5091
G01 X68.0374 Y52.5027
G01 X68.0656 Y52.4914
G01 X68.1146 Y52.4591
G01 X68.1224 Y52.4544
G01 X68.1745 Y52.4254
G01 X68.1976 Y52.4056
G01 X68.2096 Y52.3965
G01 X68.2355 Y52.3794
G01 X68.2776 Y52.3373
G01 X68.2847 Y52.3308
G01 X68.3289 Y52.2929
G01 X68.3475 Y52.2688
G01 X68.3583 Y52.2566
G01 X70.1971 Y50.4178
G01 X70.2631 Y50.3551
G01 X70.2971 Y50.3062
G01 X70.3028 Y50.2987
G01 X70.3397 Y50.2534
G01 X70.3538 Y50.2264
G01 X70.3616 Y50.2136
G01 X70.3793 Y50.1880
G01 X70.4028 Y50.1333
G01 X70.4069 Y50.1248
G01 X70.4339 Y50.0730
G01 X70.4425 Y50.0432
G01 X70.4475 Y50.0290
G01 X70.4595 Y50.0011
G01 X70.4715 Y49.9427
G01 X70.4738 Y49.9335
G01 X70.4899 Y49.8774
G01 X70.4923 Y49.8464
G01 X70.4944 Y49.8315
G01 X70.5005 Y49.8017
G01 X70.5005 Y49.7422
G01 X70.5009 Y49.7328
G01 X70.5053 Y49.6745
G01 X70.5015 Y49.6443
G01 X70.5005 Y49.6280
G01 X70.5005 Y47.7666
G01 X70.5099 Y47.7183
G01 X70.5374 Y47.6776
G01 X71.3781 Y46.8368
G01 X71.4183 Y46.8099
G01 X71.4658 Y46.8005
G01 X74.4342 Y46.8005
G01 X74.4817 Y46.8099
G01 X74.5219 Y46.8368
G01 X75.1226 Y47.4376
G01 X75.1501 Y47.4783
G01 X75.1595 Y47.5265
G01 X75.1595 Y48.2222
G01 X75.1510 Y48.2680
G01 X75.1267 Y48.3069
G01 X74.9718 Y48.4752
G01 X74.9573 Y48.4975
G01 X74.9125 Y48.5387
G01 X74.8535 Y48.5537
G01 X74.7945 Y48.5387
G01 X74.7624 Y48.5093
G01 X74.7541 Y48.5035
G01 X74.7461 Y48.4930
G01 X74.5797 Y48.3123
G01 X74.3835 Y48.1595
G01 X74.1648 Y48.0412
G01 X73.9296 Y47.9604
G01 X73.6843 Y47.9195
G01 X73.4357 Y47.9195
G01 X73.1904 Y47.9604
G01 X72.9552 Y48.0412
G01 X72.7365 Y48.1595
G01 X72.5403 Y48.3123
G01 X72.3718 Y48.4952
G01 X72.2358 Y48.7034
G01 X72.1359 Y48.9311
G01 X72.0749 Y49.1722
G01 X72.0544 Y49.4200
G01 X72.0749 Y49.6678
G01 X72.1359 Y49.9089
G01 X72.2358 Y50.1366
G01 X72.3588 Y50.3248
G01 X72.3718 Y50.3448
G01 X72.5403 Y50.5277
G01 X72.7365 Y50.6805
G01 X72.9552 Y50.7988
G01 X73.1904 Y50.8796
G01 X73.4357 Y50.9205
G01 X73.6843 Y50.9205
G01 X73.9296 Y50.8796
G01 X74.1648 Y50.7988
G01 X74.3835 Y50.6805
G01 X74.5797 Y50.5277
G01 X74.7482 Y50.3448
G01 X74.7627 Y50.3225
G01 X74.8075 Y50.2813
G01 X74.8665 Y50.2663
G01 X74.9255 Y50.2813
G01 X74.9575 Y50.3107
G01 X74.9659 Y50.3165
G01 X74.9739 Y50.3270
G01 X75.1403 Y50.5077
G01 X75.3365 Y50.6605
G01 X75.5552 Y50.7788
G01 X75.7904 Y50.8596
G01 X76.0357 Y50.9005
G01 X76.2843 Y50.9005
G01 X76.5296 Y50.8596
G01 X76.7648 Y50.7788
G01 X76.9835 Y50.6605
G01 X77.1060 Y50.5652
G01 X77.1584 Y50.5413
G01 X77.2159 Y50.5437
G01 X77.2662 Y50.5719
G01 X77.2983 Y50.6197
G01 X77.3066 Y50.6421
G01 X77.3928 Y50.7572
G01 X77.5079 Y50.8434
G01 X77.6426 Y50.8936
G01 X77.7022 Y50.9000
G01 X78.5000 Y50.9000
G01 X78.5000 Y50.4000
G01 X77.7500 Y50.4000
G01 X77.7500 Y48.4008
G01 X77.7500 Y48.4000
G01 X77.7508 Y48.4000
G01 X78.5000 Y48.4000
G01 X78.5000 Y47.9000
G01 X77.7022 Y47.9000
G01 X77.6426 Y47.9064
G01 X77.5079 Y47.9566
G01 X77.3933 Y48.0424
G01 X77.3838 Y48.0549
G01 X77.3360 Y48.0934
G01 X77.2757 Y48.1043
G01 X77.2175 Y48.0849
G01 X77.1757 Y48.0400
G01 X77.1605 Y47.9806
G01 X77.1605 Y47.0693
G01 X77.1644 Y46.9891
G01 X77.1526 Y46.9112
G01 X77.1451 Y46.8376
G01 X77.1403 Y46.8222
G01 X77.1362 Y46.8046
G01 X77.1336 Y46.7879
G01 X77.1064 Y46.7141
G01 X77.0842 Y46.6434
G01 X77.0763 Y46.6293
G01 X77.0688 Y46.6129
G01 X77.0629 Y46.5971
G01 X77.0214 Y46.5302
G01 X76.9854 Y46.4655
G01 X76.9749 Y46.4533
G01 X76.9642 Y46.4387
G01 X76.9553 Y46.4244
G01 X76.9011 Y46.3673
G01 X76.8529 Y46.3111
G01 X76.8401 Y46.3012
G01 X76.8267 Y46.2892
G01 X76.8151 Y46.2769
G01 X76.7543 Y46.2346
G01 X76.7403 Y46.2239
G01 X76.7280 Y46.2131
G01 X75.6178 Y45.1029
G01 X75.5551 Y45.0369
G01 X75.5071 Y45.0036
G01 X75.4996 Y44.9979
G01 X75.4534 Y44.9603
G01 X75.4264 Y44.9462
G01 X75.4136 Y44.9384
G01 X75.3880 Y44.9207
G01 X75.3333 Y44.8972
G01 X75.3248 Y44.8931
G01 X75.2730 Y44.8661
G01 X75.2432 Y44.8575
G01 X75.2290 Y44.8525
G01 X75.2011 Y44.8405
G01 X75.1427 Y44.8285
G01 X75.1334 Y44.8261
G01 X75.0774 Y44.8101
G01 X75.0464 Y44.8077
G01 X75.0315 Y44.8056
G01 X75.0017 Y44.7995
G01 X74.9434 Y44.7995
G01 X74.9339 Y44.7992
G01 X74.8745 Y44.7947
G01 X74.8443 Y44.7985
G01 X74.8280 Y44.7995
G01 X71.0146 Y44.7995
G01 X70.9236 Y44.7972
G01 X70.8662 Y44.8075
G01 X70.8568 Y44.8089
G01 X70.7976 Y44.8149
G01 X70.7679 Y44.8242
G01 X70.7533 Y44.8278
G01 X70.7234 Y44.8331
G01 X70.6691 Y44.8548
G01 X70.6603 Y44.8580
G01 X70.6034 Y44.8758
G01 X70.5762 Y44.8909
G01 X70.5626 Y44.8973
G01 X70.5344 Y44.9086
G01 X70.4846 Y44.9414
G01 X70.4766 Y44.9463
G01 X70.4255 Y44.9746
G01 X70.4019 Y44.9948
G01 X70.3899 Y45.0038
G01 X70.3645 Y45.0206
G01 X70.3224 Y45.0627
G01 X70.3153 Y45.0692
G01 X70.2711 Y45.1071
G01 X70.2525 Y45.1312
G01 X70.2416 Y45.1434
G01 X68.8029 Y46.5822
G01 X68.7369 Y46.6449
G01 X68.7036 Y46.6929
G01 X68.6979 Y46.7004
G01 X68.6603 Y46.7466
G01 X68.6462 Y46.7736
G01 X68.6384 Y46.7864
G01 X68.6207 Y46.8119
G01 X68.5972 Y46.8667
G01 X68.5931 Y46.8752
G01 X68.5661 Y46.9270
G01 X68.5575 Y46.9568
G01 X68.5525 Y46.9710
G01 X68.5405 Y46.9989
G01 X68.5285 Y47.0572
G01 X68.5261 Y47.0665
G01 X68.5101 Y47.1226
G01 X68.5077 Y47.1536
G01 X68.5056 Y47.1685
G01 X68.4995 Y47.1983
G01 X68.4995 Y47.2566
G01 X68.4992 Y47.2661
G01 X68.4947 Y47.3255
G01 X68.4985 Y47.3557
G01 X68.4995 Y47.3720
G01 X68.4995 Y49.2335
G01 X68.4901 Y49.2817
G01 X68.4626 Y49.3224
G01 X67.2224 Y50.5626
G01 X67.1817 Y50.5901
G01 X67.1335 Y50.5995
G01 X60.1658 Y50.5995
G01 X60.1183 Y50.5901
G01 X60.0781 Y50.5632
G01 X59.0531 Y49.5382
G01 X59.0205 Y49.4821
G01 X59.0205 Y49.4179
G01 X59.0526 Y49.3623
G01 X60.2971 Y48.1178
G01 X60.3631 Y48.0551
G01 X60.3964 Y48.0071
G01 X60.4021 Y47.9996
G01 X60.4397 Y47.9534
G01 X60.4538 Y47.9264
G01 X60.4616 Y47.9136
G01 X60.4793 Y47.8880
G01 X60.5028 Y47.8333
G01 X60.5069 Y47.8248
G01 X60.5339 Y47.7730
G01 X60.5425 Y47.7432
G01 X60.5475 Y47.7290
G01 X60.5595 Y47.7011
G01 X60.5716 Y47.6427
G01 X60.5738 Y47.6335
G01 X60.5899 Y47.5774
G01 X60.5923 Y47.5464
G01 X60.5944 Y47.5315
G01 X60.6005 Y47.5017
G01 X60.6005 Y47.4433
G01 X60.6008 Y47.4339
G01 X60.6053 Y47.3745
G01 X60.6015 Y47.3443
G01 X60.6005 Y47.3280
G01 X60.6005 Y9.9912
G01 X60.6062 Y9.9531
G01 X60.6226 Y9.9200
G01 X60.6871 Y9.8276
G01 X60.7796 Y9.6293
G01 X60.8362 Y9.4180
G01 X60.8553 Y9.2000
G01 X60.8362 Y8.9820
G01 X60.7796 Y8.7707
G01 X60.6871 Y8.5724
G01 X60.6229 Y8.4807
G01 X60.6062 Y8.4469
G01 X60.6005 Y8.4096
G01 X60.6005 Y8.3658
G01 X60.6099 Y8.3183
G01 X60.6368 Y8.2781
G01 X60.7781 Y8.1368
G01 X60.8183 Y8.1099
G01 X60.8658 Y8.1005
G01 X62.0317 Y8.1005
G01 X62.0880 Y8.1140
G01 X62.1320 Y8.1516
G01 X62.1541 Y8.2051
G01 X62.1496 Y8.2628
G01 X62.1193 Y8.3122
G01 X62.0384 Y8.3931
G01 X61.9129 Y8.5724
G01 X61.8204 Y8.7707
G01 X61.7638 Y8.9820
G01 X61.7447 Y9.2000
G01 X61.7638 Y9.4180
G01 X61.8204 Y9.6293
G01 X61.9129 Y9.8276
G01 X62.0384 Y10.0069
G01 X62.1931 Y10.1616
G01 X62.3724 Y10.2871
G01 X62.5707 Y10.3796
G01 X62.7820 Y10.4362
G01 X63.0000 Y10.4553
G01 X63.2180 Y10.4362
G01 X63.4293 Y10.3796
G01 X63.6276 Y10.2871
G01 X63.8069 Y10.1616
G01 X63.9616 Y10.0069
G01 X64.0871 Y9.8276
G01 X64.1796 Y9.6293
G01 X64.2362 Y9.4180
G01 X64.2553 Y9.2000
G01 X64.2362 Y8.9820
G01 X64.1796 Y8.7707
G01 X64.0871 Y8.5724
G01 X63.9616 Y8.3931
G01 X63.8807 Y8.3122
G01 X63.8504 Y8.2628
G01 X63.8459 Y8.2051
G01 X63.8680 Y8.1516
G01 X63.9120 Y8.1140
G01 X63.9683 Y8.1005
G01 X92.1342 Y8.1005
G01 X92.1817 Y8.1099
G01 X92.2219 Y8.1368
G01 X92.7626 Y8.6776
G01 X92.7901 Y8.7183
G01 X92.7995 Y8.7666
G01 X92.7995 Y9.2440
G01 X92.7988 Y9.2577
G01 X92.7947 Y9.3000
G01 X92.8144 Y9.5009
G01 X92.8438 Y9.5946
G01 X92.8703 Y9.6817
G01 X92.8773 Y9.6992
G01 X92.9211 Y9.7782
G01 X92.9630 Y9.8564
G01 X92.9678 Y9.8630
G01 X92.9764 Y9.8766
G01 X93.0330 Y9.9426
G01 X93.0874 Y10.0088
G01 X93.0944 Y10.0153
G01 X93.1092 Y10.0305
G01 X93.1753 Y10.0817
G01 X93.2394 Y10.1342
G01 X93.2709 Y10.1549
G01 X93.3423 Y10.1899
G01 X93.4136 Y10.2279
G01 X93.4225 Y10.2310
G01 X93.4403 Y10.2380
G01 X93.4514 Y10.2432
G01 X93.5274 Y10.2629
G01 X93.6032 Y10.2858
G01 X93.6149 Y10.2871
G01 X93.6331 Y10.2903
G01 X93.6477 Y10.2941
G01 X93.7234 Y10.2979
G01 X93.8000 Y10.3053
G01 X93.8146 Y10.3039
G01 X93.8323 Y10.3035
G01 X93.8509 Y10.3044
G01 X93.9224 Y10.2934
G01 X93.9961 Y10.2860
G01 X94.0136 Y10.2807
G01 X94.0301 Y10.2770
G01 X94.0521 Y10.2736
G01 X94.1167 Y10.2497
G01 X94.1847 Y10.2288
G01 X94.2040 Y10.2185
G01 X94.2187 Y10.2119
G01 X94.2429 Y10.2029
G01 X94.2981 Y10.1685
G01 X94.3585 Y10.1359
G01 X94.3782 Y10.1198
G01 X94.3907 Y10.1108
G01 X94.4156 Y10.0953
G01 X94.4605 Y10.0526
G01 X94.5109 Y10.0109
G01 X94.5293 Y9.9885
G01 X94.5393 Y9.9777
G01 X94.5631 Y9.9551
G01 X94.5961 Y9.9076
G01 X94.6020 Y9.8998
G01 X94.6359 Y9.8585
G01 X94.6513 Y9.8298
G01 X94.6584 Y9.8182
G01 X94.6793 Y9.7880
G01 X94.7007 Y9.7381
G01 X94.7053 Y9.7286
G01 X94.7288 Y9.6847
G01 X94.7393 Y9.6501
G01 X94.7437 Y9.6381
G01 X94.7595 Y9.6011
G01 X94.7698 Y9.5513
G01 X94.7726 Y9.5403
G01 X94.7860 Y9.4961
G01 X94.7898 Y9.4574
G01 X94.7917 Y9.4446
G01 X94.8005 Y9.4017
G01 X94.8005 Y9.3545
G01 X94.8012 Y9.3423
G01 X94.8053 Y9.3000
G01 X94.8012 Y9.2577
G01 X94.8005 Y9.2440
G01 X94.8005 Y8.3146
G01 X94.8028 Y8.2236
G01 X94.7925 Y8.1662
G01 X94.7911 Y8.1568
G01 X94.7851 Y8.0976
G01 X94.7758 Y8.0679
G01 X94.7722 Y8.0533
G01 X94.7669 Y8.0233
G01 X94.7448 Y7.9680
G01 X94.7416 Y7.9591
G01 X94.7242 Y7.9034
G01 X94.7094 Y7.8768
G01 X94.7029 Y7.8632
G01 X94.6914 Y7.8344
G01 X94.6586 Y7.7846
G01 X94.6537 Y7.7766
G01 X94.6254 Y7.7255
G01 X94.6056 Y7.7024
G01 X94.5965 Y7.6904
G01 X94.5794 Y7.6645
G01 X94.5373 Y7.6224
G01 X94.5308 Y7.6153
G01 X94.4929 Y7.5711
G01 X94.4688 Y7.5525
G01 X94.4566 Y7.5416
G01 X93.3178 Y6.4029
G01 X93.2551 Y6.3369
G01 X93.2071 Y6.3036
G01 X93.1996 Y6.2979
G01 X93.1534 Y6.2603
G01 X93.1264 Y6.2462
G01 X93.1136 Y6.2384
G01 X93.0880 Y6.2207
G01 X93.0333 Y6.1972
G01 X93.0248 Y6.1931
G01 X92.9730 Y6.1661
G01 X92.9432 Y6.1575
G01 X92.9290 Y6.1525
G01 X92.9011 Y6.1405
G01 X92.8427 Y6.1285
G01 X92.8334 Y6.1261
G01 X92.7774 Y6.1101
G01 X92.7464 Y6.1077
G01 X92.7315 Y6.1056
G01 X92.7017 Y6.0995
G01 X92.6434 Y6.0995
G01 X92.6339 Y6.0992
G01 X92.5745 Y6.0947
G01 X92.5443 Y6.0985
G01 X92.5280 Y6.0995
G01 X60.4147 Y6.0995
G01 X60.3236 Y6.0972
G01 X60.2650 Y6.1077
G01 X60.2557 Y6.1090
G01 X60.1976 Y6.1149
G01 X60.1679 Y6.1242
G01 X60.1533 Y6.1278
G01 X60.1233 Y6.1331
G01 X60.0691 Y6.1548
G01 X60.0603 Y6.1580
G01 X60.0034 Y6.1758
G01 X59.9768 Y6.1906
G01 X59.9632 Y6.1970
G01 X59.9344 Y6.2086
G01 X59.8846 Y6.2414
G01 X59.8765 Y6.2463
G01 X59.8255 Y6.2746
G01 X59.8024 Y6.2944
G01 X59.7904 Y6.3035
G01 X59.7645 Y6.3206
G01 X59.7224 Y6.3627
G01 X59.7153 Y6.3692
G01 X59.6711 Y6.4071
G01 X59.6525 Y6.4312
G01 X59.6416 Y6.4434
G01 X58.9029 Y7.1822
G01 X58.8369 Y7.2449
G01 X58.8036 Y7.2929
G01 X58.7979 Y7.3004
G01 X58.7603 Y7.3466
G01 X58.7462 Y7.3736
G01 X58.7384 Y7.3864
G01 X58.7207 Y7.4119
G01 X58.6972 Y7.4667
G01 X58.6931 Y7.4752
G01 X58.6661 Y7.5270
G01 X58.6575 Y7.5568
G01 X58.6525 Y7.5710
G01 X58.6405 Y7.5989
G01 X58.6285 Y7.6572
G01 X58.6261 Y7.6665
G01 X58.6101 Y7.7226
G01 X58.6077 Y7.7536
G01 X58.6056 Y7.7685
G01 X58.5995 Y7.7983
G01 X58.5995 Y7.8566
G01 X58.5992 Y7.8661
G01 X58.5947 Y7.9255
G01 X58.5985 Y7.9557
G01 X58.5995 Y7.9720
G01 X58.5995 Y8.4088
G01 X58.5938 Y8.4469
G01 X58.5771 Y8.4807
G01 X58.5129 Y8.5724
G01 X58.4204 Y8.7707
G01 X58.3638 Y8.9820
G01 X58.3447 Y9.2000
G01 X58.3638 Y9.4180
G01 X58.4204 Y9.6293
G01 X58.5129 Y9.8276
G01 X58.5774 Y9.9200
G01 X58.5938 Y9.9531
G01 X58.5995 Y9.9912
G01 X58.5995 Y46.9334
G01 X58.5901 Y46.9817
G01 X58.5626 Y47.0224
G01 X57.0774 Y48.5076
G01 X57.0367 Y48.5351
G01 X56.9885 Y48.5445
G01 X50.4557 Y48.5445
G01 X50.4074 Y48.5351
G01 X50.3998 Y48.5320
G01 X50.3737 Y48.5250
G01 X49.8900 Y48.5250
G01 X49.8900 Y48.8000
G01 X49.3034 Y48.9841
G01 X49.3126 Y49.0444
G01 X57.2478 Y49.0447
G01 X59.0997 Y47.1928
G01 X59.0997 Y9.7635
G01 X59.0202 Y9.6758
G01 X58.9764 Y9.6167
G01 X58.9386 Y9.5535
G01 X58.9071 Y9.4870
G01 X58.8823 Y9.4177
G01 X58.8644 Y9.3463
G01 X58.8536 Y9.2735
G01 X58.8500 Y9.2000
G01 X58.8536 Y9.1265
G01 X58.8644 Y9.0537
G01 X58.8823 Y8.9823
G01 X58.9071 Y8.9130
G01 X58.9386 Y8.8465
G01 X58.9764 Y8.7833
G01 X59.0202 Y8.7242
G01 X59.0997 Y8.6365
G01 X59.0997 Y7.9008
G01 X59.1021 Y7.8517
G01 X59.1094 Y7.8024
G01 X59.1213 Y7.7548
G01 X59.1378 Y7.7086
G01 X59.1585 Y7.6649
G01 X59.1845 Y7.6215
G01 X59.2133 Y7.5827
G01 X59.2463 Y7.5463
G01 X60.0468 Y6.7458
G01 X60.0827 Y6.7133
G01 X60.1221 Y6.6841
G01 X60.1642 Y6.6588
G01 X60.2086 Y6.6378
G01 X60.2548 Y6.6213
G01 X60.3024 Y6.6094
G01 X60.3510 Y6.6022
G01 X60.4008 Y6.5997
G01 X92.6008 Y6.5998
G01 X92.6490 Y6.6022
G01 X92.6976 Y6.6094
G01 X92.7452 Y6.6213
G01 X92.7914 Y6.6378
G01 X92.8358 Y6.6588
G01 X92.8779 Y6.6841
G01 X92.9173 Y6.7133
G01 X92.9537 Y6.7463
G01 X94.1542 Y7.9468
G01 X94.1867 Y7.9827
G01 X94.2155 Y8.0215
G01 X94.2412 Y8.0642
G01 X94.2624 Y8.1093
G01 X94.2787 Y8.1548
G01 X94.2906 Y8.2024
G01 X94.2978 Y8.2510
G01 X94.3003 Y8.3008
G01 X94.3003 Y9.2992
G01 X94.2977 Y9.3498
G01 X94.2906 Y9.3976
G01 X94.2787 Y9.4452
G01 X94.2622 Y9.4914
G01 X94.2415 Y9.5351
G01 X94.2155 Y9.5785
G01 X94.1867 Y9.6173
G01 X94.1537 Y9.6537
G01 X94.1173 Y9.6867
G01 X94.0785 Y9.7155
G01 X94.0351 Y9.7415
G01 X93.9914 Y9.7622
G01 X93.9452 Y9.7787
G01 X93.8976 Y9.7906
G01 X93.8498 Y9.7977
G01 X93.8000 Y9.8002
G01 X93.7502 Y9.7977
G01 X93.7024 Y9.7906
G01 X93.6548 Y9.7787
G01 X93.6079 Y9.7618
G01 X93.5642 Y9.7412
G01 X93.5221 Y9.7159
G01 X93.4827 Y9.6867
G01 X93.4468 Y9.6542
G01 X93.4133 Y9.6173
G01 X93.3837 Y9.5773
G01 X93.3588 Y9.5358
G01 X93.3378 Y9.4914
G01 X93.3213 Y9.4452
G01 X93.3094 Y9.3976
G01 X93.3022 Y9.3490
G01 X93.2998 Y9.3008
G01 X93.2997 Y8.5072
G01 X92.3928 Y7.6003
G01 X60.6072 Y7.6003
G01 X60.1003 Y8.1072
G01 X60.1003 Y8.6365
G01 X60.1798 Y8.7242
G01 X60.2236 Y8.7833
G01 X60.2614 Y8.8465
G01 X60.2929 Y8.9130
G01 X60.3177 Y8.9823
G01 X60.3356 Y9.0537
G01 X60.3464 Y9.1265
G01 X60.3500 Y9.2000
G01 X60.3464 Y9.2735
G01 X60.3356 Y9.3463
G01 X60.3177 Y9.4177
G01 X60.2929 Y9.4870
G01 X60.2614 Y9.5535
G01 X60.2236 Y9.6167
G01 X60.1798 Y9.6758
G01 X60.1003 Y9.7635
G01 X60.1002 Y47.4008
G01 X60.0978 Y47.4490
G01 X60.0906 Y47.4976
G01 X60.0787 Y47.5452
G01 X60.0624 Y47.5907
G01 X60.0412 Y47.6358
G01 X60.0163 Y47.6773
G01 X59.9862 Y47.7179
G01 X59.9532 Y47.7543
G01 X58.2575 Y49.4500
G01 X59.9072 Y51.0997
G01 X67.3928 Y51.0997
G01 X68.9997 Y49.4928
G01 X68.9998 Y47.3000
G01 X69.0023 Y47.2502
G01 X69.0094 Y47.2024
G01 X69.0213 Y47.1548
G01 X69.0382 Y47.1079
G01 X69.0588 Y47.0642
G01 X69.0841 Y47.0221
G01 X69.1133 Y46.9827
G01 X69.1468 Y46.9457
G01 X70.6457 Y45.4468
G01 X70.6821 Y45.4138
G01 X70.7227 Y45.3837
G01 X70.7642 Y45.3588
G01 X70.8093 Y45.3376
G01 X70.8548 Y45.3213
G01 X70.9024 Y45.3094
G01 X70.9510 Y45.3022
G01 X71.0000 Y45.2998
G01 X74.9000 Y45.2998
G01 X74.9498 Y45.3023
G01 X74.9976 Y45.3094
G01 X75.0452 Y45.3213
G01 X75.0921 Y45.3382
G01 X75.1358 Y45.3588
G01 X75.1779 Y45.3841
G01 X75.2173 Y45.4133
G01 X75.2543 Y45.4468
G01 X76.4219 Y46.6145
G01 X76.4379 Y46.6241
G01 X76.4773 Y46.6533
G01 X76.5137 Y46.6863
G01 X76.5467 Y46.7227
G01 X76.5755 Y46.7615
G01 X76.6012 Y46.8042
G01 X76.6224 Y46.8493
G01 X76.6387 Y46.8948
G01 X76.6505 Y46.9417
G01 X76.6578 Y46.9910
G01 X76.6602 Y47.0400
G01 X76.6603 Y48.5306
G01 X76.7156 Y48.5685
G01 X76.7944 Y48.6270
G01 X76.8671 Y48.6929
G01 X76.9330 Y48.7656
G01 X76.9915 Y48.8444
G01 X77.0419 Y48.9286
G01 X77.0839 Y49.0173
G01 X77.1169 Y49.1097
G01 X77.1408 Y49.2049
G01 X77.1552 Y49.3027
G01 X77.1600 Y49.4000
G01 X77.1552 Y49.4980
G01 X77.1408 Y49.5951
G01 X77.1171 Y49.6895
G01 X77.0839 Y49.7827
G01 X77.0419 Y49.8714
G01 X76.9919 Y49.9549
G01 X76.9330 Y50.0344
G01 X76.8665 Y50.1076
G01 X76.7944 Y50.1730
G01 X76.7162 Y50.2310
G01 X76.6314 Y50.2819
G01 X76.5420 Y50.3241
G01 X76.4503 Y50.3569
G01 X76.3558 Y50.3806
G01 X76.2573 Y50.3952
G01 X76.1600 Y50.4000
G01 X76.0627 Y50.3952
G01 X75.9649 Y50.3808
G01 X75.8697 Y50.3569
G01 X75.7780 Y50.3241
G01 X75.6886 Y50.2819
G01 X75.6044 Y50.2315
G01 X75.5262 Y50.1735
G01 X75.4529 Y50.1071
G01 X75.3865 Y50.0338
G01 X75.3285 Y49.9556
G01 X75.2785 Y49.8721
G01 X75.2361 Y49.7827
G01 X75.2029 Y49.6895
G01 X75.1792 Y49.5951
G01 X75.1649 Y49.4988
G01 X75.1600 Y49.4000
G01 X75.1649 Y49.3012
G01 X75.1792 Y49.2049
G01 X75.2029 Y49.1105
G01 X75.2361 Y49.0173
G01 X75.2781 Y48.9286
G01 X75.3290 Y48.8438
G01 X75.3870 Y48.7656
G01 X75.4529 Y48.6929
G01 X75.5256 Y48.6270
G01 X75.6044 Y48.5685
G01 X75.6597 Y48.5306
G01 X75.6597 Y47.2672
G01 X74.6928 Y46.3003
G01 X71.2072 Y46.3003
G01 X70.0003 Y47.5072
G01 X70.0002 Y49.7000
G01 X69.9977 Y49.7498
G01 X69.9906 Y49.7976
G01 X69.9787 Y49.8452
G01 X69.9618 Y49.8921
G01 X69.9412 Y49.9358
G01 X69.9163 Y49.9773
G01 X69.8867 Y50.0173
G01 X69.8532 Y50.0543
G01 X67.9537 Y51.9537
G01 X67.9167 Y51.9872
G01 X67.8779 Y52.0159
G01 X67.8358 Y52.0412
G01 X67.7907 Y52.0624
G01 X67.7452 Y52.0787
G01 X67.6976 Y52.0906
G01 X67.6490 Y52.0978
G01 X67.5992 Y52.1003
G01 X59.7008 Y52.1003
G01 X59.6502 Y52.0977
G01 X59.6024 Y52.0906
G01 X59.5548 Y52.0787
G01 X59.5086 Y52.0622
G01 X59.4649 Y52.0415
G01 X59.4215 Y52.0155
G01 X59.3827 Y51.9867
G01 X59.3468 Y51.9542
G01 X57.4378 Y50.0453
G01 X49.5260 Y50.0453
G01 X49.1400 Y50.1419
G01 X48.7626 Y50.0474
G01 X48.7141 Y50.0300
G01 X48.6675 Y50.0080
G01 X48.6233 Y49.9815
G01 X48.5819 Y49.9508
G01 X48.5438 Y49.9162
G01 X48.5087 Y49.8774
G01 X48.4785 Y49.8367
G01 X48.4524 Y49.7931
G01 X48.4300 Y49.7459
G01 X48.4124 Y49.6967
G01 X48.4001 Y49.6474
G01 X48.3926 Y49.5972
G01 X48.3900 Y49.5450
G01 X48.3926 Y49.4928
G01 X48.4001 Y49.4426
G01 X48.4126 Y49.3926
G01 X48.4300 Y49.3441
G01 X48.4524 Y49.2969
G01 X48.4785 Y49.2533
G01 X48.5087 Y49.2126
G01 X48.5433 Y49.1743
G01 X48.5819 Y49.1392
G01 X48.6227 Y49.1089
G01 X48.6675 Y49.0820
G01 X48.7141 Y49.0600
G01 X49.3391 Y48.8360
G01 X49.3329 Y48.8003
G01 X48.3900 Y48.8000
G01 X48.3900 Y48.5250
G01 X47.8900 Y48.5250
G01 X47.8900 Y48.8478
G01 X47.8964 Y48.9074
G01 X47.9435 Y49.0338
G01 X47.9541 Y49.0530
G01 X47.9690 Y49.1058
G01 X47.9631 Y49.1407
G01 X47.9630 Y49.1507
G01 X47.9043 Y49.3440
G01 X47.8845 Y49.5450
G01 X47.8977 Y49.6783
G01 X47.8855 Y49.7453
G01 X47.8397 Y49.7958
G01 X47.7743 Y49.8145
G01 X46.9815 Y49.8145
G01 X46.9333 Y49.8051
G01 X46.8926 Y49.7776
G01 X46.1374 Y49.0224
G01 X46.1099 Y48.9817
G01 X46.1005 Y48.9335
G01 X46.1005 Y36.0252
G01 X46.1171 Y35.9625
G01 X46.1625 Y35.9171
G01 X46.2245 Y35.9005
G01 X50.4853 Y35.9005
G01 X50.5764 Y35.9028
G01 X50.6339 Y35.8924
G01 X50.6432 Y35.8911
G01 X50.7024 Y35.8851
G01 X50.7321 Y35.8758
G01 X50.7467 Y35.8722
G01 X50.7767 Y35.8669
G01 X50.8309 Y35.8452
G01 X50.8397 Y35.8420
G01 X50.8966 Y35.8242
G01 X50.9238 Y35.8091
G01 X50.9374 Y35.8027
G01 X50.9656 Y35.7914
G01 X51.0146 Y35.7591
G01 X51.0224 Y35.7544
G01 X51.0745 Y35.7254
G01 X51.0976 Y35.7056
G01 X51.1096 Y35.6965
G01 X51.1355 Y35.6794
G01 X51.1776 Y35.6373
G01 X51.1847 Y35.6308
G01 X51.2289 Y35.5929
G01 X51.2475 Y35.5688
G01 X51.2584 Y35.5566
G01 X53.8971 Y32.9178
G01 X53.9631 Y32.8551
G01 X53.9971 Y32.8062
G01 X54.0028 Y32.7987
G01 X54.0397 Y32.7534
G01 X54.0538 Y32.7264
G01 X54.0616 Y32.7136
G01 X54.0793 Y32.6880
G01 X54.1028 Y32.6333
G01 X54.1069 Y32.6248
G01 X54.1339 Y32.5730
G01 X54.1425 Y32.5432
G01 X54.1475 Y32.5290
G01 X54.1595 Y32.5011
G01 X54.1715 Y32.4427
G01 X54.1738 Y32.4335
G01 X54.1899 Y32.3774
G01 X54.1923 Y32.3464
G01 X54.1944 Y32.3315
G01 X54.2005 Y32.3017
G01 X54.2005 Y32.2422
G01 X54.2009 Y32.2328
G01 X54.2053 Y32.1745
G01 X54.2015 Y32.1443
G01 X54.2005 Y32.1280
G01 X54.2005 Y23.7560
G01 X54.2012 Y23.7423
G01 X54.2053 Y23.7000
G01 X54.1856 Y23.4991
G01 X54.1561 Y23.4053
G01 X54.1297 Y23.3183
G01 X54.1227 Y23.3008
G01 X54.0789 Y23.2218
G01 X54.0370 Y23.1436
G01 X54.0322 Y23.1370
G01 X54.0236 Y23.1234
G01 X53.9670 Y23.0575
G01 X53.9126 Y22.9912
G01 X53.9056 Y22.9847
G01 X53.8908 Y22.9695
G01 X53.8247 Y22.9183
G01 X53.7606 Y22.8658
G01 X53.7291 Y22.8451
G01 X53.6577 Y22.8101
G01 X53.5864 Y22.7721
G01 X53.5775 Y22.7690
G01 X53.5597 Y22.7620
G01 X53.5474 Y22.7565
G01 X53.4726 Y22.7371
G01 X53.3968 Y22.7142
G01 X53.3851 Y22.7129
G01 X53.3669 Y22.7097
G01 X53.3523 Y22.7059
G01 X53.2766 Y22.7021
G01 X53.2000 Y22.6947
G01 X53.1854 Y22.6961
G01 X53.1677 Y22.6965
G01 X53.1491 Y22.6956
G01 X53.0776 Y22.7066
G01 X53.0039 Y22.7140
G01 X52.9864 Y22.7193
G01 X52.9699 Y22.7230
G01 X52.9479 Y22.7264
G01 X52.8833 Y22.7503
G01 X52.8153 Y22.7712
G01 X52.7960 Y22.7815
G01 X52.7813 Y22.7881
G01 X52.7571 Y22.7971
G01 X52.7018 Y22.8315
G01 X52.6415 Y22.8641
G01 X52.6218 Y22.8802
G01 X52.6093 Y22.8892
G01 X52.5844 Y22.9047
G01 X52.5395 Y22.9474
G01 X52.4891 Y22.9891
G01 X52.4707 Y23.0115
G01 X52.4607 Y23.0223
G01 X52.4369 Y23.0449
G01 X52.4039 Y23.0924
G01 X52.3980 Y23.1002
G01 X52.3641 Y23.1415
G01 X52.3487 Y23.1702
G01 X52.3416 Y23.1818
G01 X52.3207 Y23.2119
G01 X52.2993 Y23.2618
G01 X52.2946 Y23.2714
G01 X52.2712 Y23.3153
G01 X52.2607 Y23.3499
G01 X52.2563 Y23.3619
G01 X52.2405 Y23.3989
G01 X52.2302 Y23.4487
G01 X52.2274 Y23.4597
G01 X52.2140 Y23.5039
G01 X52.2102 Y23.5426
G01 X52.2083 Y23.5554
G01 X52.1995 Y23.5983
G01 X52.1995 Y23.6455
G01 X52.1988 Y23.6577
G01 X52.1947 Y23.7000
G01 X52.1988 Y23.7423
G01 X52.1995 Y23.7560
G01 X52.1995 Y31.7335
G01 X52.1901 Y31.7817
G01 X52.1626 Y31.8224
G01 X50.1224 Y33.8626
G01 X50.0817 Y33.8901
G01 X50.0335 Y33.8995
G01 X45.1293 Y33.8995
G01 X45.0491 Y33.8956
G01 X45.0331 Y33.8981
G01 X45.0136 Y33.8995
G01 X23.2658 Y33.8995
G01 X23.2183 Y33.8901
G01 X23.1781 Y33.8632
G01 X22.6374 Y33.3224
G01 X22.6099 Y33.2817
G01 X22.6005 Y33.2342
G01 X22.6005 Y26.8560
G01 X22.6012 Y26.8423
G01 X22.6053 Y26.8000
G01 X22.6012 Y26.7577
G01 X22.6005 Y26.7440
G01 X22.6005 Y18.3658
G01 X22.6099 Y18.3183
G01 X22.6368 Y18.2781
G01 X23.3679 Y17.5471
G01 X23.3780 Y17.5379
G01 X23.4109 Y17.5109
G01 X23.5390 Y17.3548
G01 X23.5846 Y17.2674
G01 X23.6273 Y17.1875
G01 X23.6347 Y17.1702
G01 X23.6596 Y17.0833
G01 X23.6853 Y16.9984
G01 X23.6866 Y16.9904
G01 X23.6901 Y16.9746
G01 X23.6967 Y16.8880
G01 X23.7051 Y16.8027
G01 X23.7047 Y16.7932
G01 X23.7050 Y16.7719
G01 X23.6944 Y16.6889
G01 X23.6863 Y16.6066
G01 X23.6786 Y16.5696
G01 X23.6529 Y16.4943
G01 X23.6294 Y16.4171
G01 X23.6253 Y16.4086
G01 X23.6176 Y16.3911
G01 X23.6128 Y16.3785
G01 X23.5736 Y16.3118
G01 X23.5363 Y16.2421
G01 X23.5289 Y16.2329
G01 X23.5183 Y16.2178
G01 X23.5106 Y16.2048
G01 X23.4598 Y16.1485
G01 X23.4109 Y16.0891
G01 X23.3995 Y16.0798
G01 X23.3867 Y16.0676
G01 X23.3742 Y16.0538
G01 X23.3159 Y16.0110
G01 X23.2585 Y15.9641
G01 X23.2424 Y15.9555
G01 X23.2281 Y15.9465
G01 X23.2102 Y15.9334
G01 X23.1476 Y15.9046
G01 X23.0847 Y15.8712
G01 X23.0638 Y15.8648
G01 X23.0487 Y15.8591
G01 X23.0253 Y15.8484
G01 X22.9620 Y15.8337
G01 X22.8961 Y15.8140
G01 X22.8708 Y15.8115
G01 X22.8556 Y15.8090
G01 X22.8271 Y15.8024
G01 X22.7652 Y15.8008
G01 X22.7000 Y15.7947
G01 X22.6711 Y15.7975
G01 X22.6565 Y15.7980
G01 X22.6236 Y15.7972
G01 X22.5667 Y15.8074
G01 X22.5570 Y15.8087
G01 X22.5039 Y15.8140
G01 X22.4727 Y15.8234
G01 X22.4595 Y15.8266
G01 X22.4233 Y15.8331
G01 X22.3729 Y15.8533
G01 X22.3629 Y15.8567
G01 X22.3153 Y15.8712
G01 X22.2834 Y15.8882
G01 X22.2717 Y15.8937
G01 X22.2344 Y15.9086
G01 X22.1919 Y15.9366
G01 X22.1822 Y15.9423
G01 X22.1415 Y15.9641
G01 X22.1114 Y15.9888
G01 X22.1010 Y15.9965
G01 X22.0645 Y16.0206
G01 X22.0310 Y16.0540
G01 X22.0220 Y16.0621
G01 X21.9891 Y16.0891
G01 X21.9621 Y16.1220
G01 X21.9529 Y16.1321
G01 X20.9029 Y17.1822
G01 X20.8369 Y17.2449
G01 X20.8036 Y17.2929
G01 X20.7979 Y17.3004
G01 X20.7603 Y17.3466
G01 X20.7462 Y17.3736
G01 X20.7384 Y17.3864
G01 X20.7207 Y17.4119
G01 X20.6972 Y17.4667
G01 X20.6931 Y17.4752
G01 X20.6661 Y17.5270
G01 X20.6575 Y17.5568
G01 X20.6525 Y17.5710
G01 X20.6405 Y17.5989
G01 X20.6285 Y17.6572
G01 X20.6261 Y17.6665
G01 X20.6101 Y17.7226
G01 X20.6077 Y17.7536
G01 X20.6056 Y17.7685
G01 X20.5995 Y17.7983
G01 X20.5995 Y17.8566
G01 X20.5992 Y17.8661
G01 X20.5947 Y17.9255
G01 X20.5985 Y17.9557
G00 Z2.0000
G00 X15.9642 Y23.1034
G01 F60.00
G01 Z-0.0500
G01 F100.00
G01 X15.9788 Y23.2020
G01 X15.9808 Y23.2133
G01 X15.9833 Y23.2246
G01 X16.0076 Y23.3212
G01 X16.0106 Y23.3323
G01 X16.0142 Y23.3433
G01 X16.0478 Y23.4371
G01 X16.0520 Y23.4478
G01 X16.0566 Y23.4584
G01 X16.0992 Y23.5485
G01 X16.1074 Y23.5641
G01 X16.1613 Y23.6542
G01 X16.1675 Y23.6639
G01 X16.1741 Y23.6734
G01 X16.2335 Y23.7534
G01 X16.2445 Y23.7672
G01 X16.3150 Y23.8450
G01 X16.3273 Y23.8577
G01 X16.4091 Y23.9318
G01 X16.4229 Y23.9428
G01 X16.4566 Y23.9678
G01 X16.4566 Y45.2076
G01 X16.4593 Y45.2689
G01 X16.4602 Y45.2804
G01 X16.4616 Y45.2918
G01 X16.4710 Y45.3532
G01 X16.4858 Y45.4135
G01 X16.4889 Y45.4246
G01 X16.4925 Y45.4355
G01 X16.5137 Y45.4939
G01 X16.5400 Y45.5502
G01 X16.5451 Y45.5605
G01 X16.5768 Y45.6139
G01 X16.5830 Y45.6236
G01 X16.5896 Y45.6330
G01 X16.6269 Y45.6828
G01 X16.6344 Y45.6915
G01 X16.6758 Y45.7368
G01 X17.7700 Y46.8310
G01 X17.8153 Y46.8725
G01 X17.8240 Y46.8800
G01 X17.8738 Y46.9172
G01 X17.8832 Y46.9238
G01 X17.8929 Y46.9300
G01 X17.9463 Y46.9617
G01 X17.9566 Y46.9669
G01 X18.0129 Y46.9931
G01 X18.0713 Y47.0144
G01 X18.0822 Y47.0180
G01 X18.1424 Y47.0333
G01 X18.1597 Y47.0370
G01 X18.2150 Y47.0452
G01 X18.2265 Y47.0466
G01 X18.2379 Y47.0475
G01 X18.2992 Y47.0503
G01 X40.5892 Y47.0503
G01 X41.2897 Y47.7508
G01 X41.2897 Y48.3582
G01 X41.2771 Y48.3679
G01 X41.2684 Y48.3755
G01 X41.1980 Y48.4393
G01 X41.1897 Y48.4472
G01 X41.1818 Y48.4555
G01 X41.1180 Y48.5259
G01 X41.1104 Y48.5346
G01 X41.1034 Y48.5437
G01 X41.0468 Y48.6200
G01 X41.0401 Y48.6294
G01 X41.0340 Y48.6391
G01 X40.9851 Y48.7206
G01 X40.9795 Y48.7306
G01 X40.9743 Y48.7409
G01 X40.9337 Y48.8268
G01 X40.9290 Y48.8373
G01 X40.9249 Y48.8481
G01 X40.8929 Y48.9375
G01 X40.8893 Y48.9484
G01 X40.8862 Y48.9595
G01 X40.8631 Y49.0517
G01 X40.8606 Y49.0629
G01 X40.8586 Y49.0742
G01 X40.8447 Y49.1682
G01 X40.8433 Y49.1796
G01 X40.8424 Y49.1911
G01 X40.8376 Y49.2914
G01 X40.8378 Y49.4040
G01 X40.8424 Y49.4989
G01 X40.8433 Y49.5104
G01 X40.8447 Y49.5218
G01 X40.8586 Y49.6158
G01 X40.8619 Y49.6331
G01 X40.8862 Y49.7305
G01 X40.8893 Y49.7416
G01 X40.8929 Y49.7525
G01 X40.9249 Y49.8420
G01 X40.9290 Y49.8527
G01 X40.9337 Y49.8632
G01 X40.9743 Y49.9491
G01 X40.9795 Y49.9594
G01 X40.9851 Y49.9694
G01 X41.0340 Y50.0509
G01 X41.0436 Y50.0656
G01 X41.1034 Y50.1463
G01 X41.1104 Y50.1554
G01 X41.1180 Y50.1641
G01 X41.1818 Y50.2345
G01 X41.1897 Y50.2428
G01 X41.1980 Y50.2507
G01 X41.2684 Y50.3145
G01 X41.2771 Y50.3221
G01 X41.2862 Y50.3291
G01 X41.3625 Y50.3857
G01 X41.3719 Y50.3924
G01 X41.3816 Y50.3985
G01 X41.4631 Y50.4474
G01 X41.4731 Y50.4530
G01 X41.4834 Y50.4582
G01 X41.5693 Y50.4988
G01 X41.5798 Y50.5035
G01 X41.5905 Y50.5076
G01 X41.6800 Y50.5396
G01 X41.6909 Y50.5432
G01 X41.7020 Y50.5463
G01 X41.7942 Y50.5694
G01 X41.8054 Y50.5719
G01 X41.8167 Y50.5739
G01 X41.9107 Y50.5878
G01 X41.9221 Y50.5892
G01 X41.9336 Y50.5901
G01 X42.0285 Y50.5947
G01 X42.0400 Y50.5950
G01 X42.0515 Y50.5947
G01 X42.1464 Y50.5901
G01 X42.1579 Y50.5892
G01 X42.1693 Y50.5878
G01 X42.2633 Y50.5739
G01 X42.2746 Y50.5719
G01 X42.2858 Y50.5694
G01 X42.3780 Y50.5463
G01 X42.3891 Y50.5432
G01 X42.4000 Y50.5396
G01 X42.4894 Y50.5076
G01 X42.5002 Y50.5035
G01 X42.5107 Y50.4988
G01 X42.5966 Y50.4582
G01 X42.6069 Y50.4530
G01 X42.6169 Y50.4474
G01 X42.6984 Y50.3985
G01 X42.7081 Y50.3924
G01 X42.7175 Y50.3857
G01 X42.7938 Y50.3291
G01 X42.8029 Y50.3221
G01 X42.8116 Y50.3145
G01 X42.8820 Y50.2507
G01 X42.8903 Y50.2428
G01 X42.8982 Y50.2345
G01 X42.9620 Y50.1641
G01 X42.9696 Y50.1554
G01 X42.9766 Y50.1463
G01 X43.0332 Y50.0700
G01 X43.0398 Y50.0606
G01 X43.0460 Y50.0509
G01 X43.0949 Y49.9694
G01 X43.1005 Y49.9594
G01 X43.1057 Y49.9491
G01 X43.1463 Y49.8632
G01 X43.1510 Y49.8527
G01 X43.1551 Y49.8420
G01 X43.1889 Y49.7474
G01 X43.1938 Y49.7305
G01 X43.2169 Y49.6383
G01 X43.2194 Y49.6271
G01 X43.2214 Y49.6158
G01 X43.2353 Y49.5218
G01 X43.2367 Y49.5104
G01 X43.2376 Y49.4989
G01 X43.2425 Y49.3933
G01 X43.2424 Y49.2914
G01 X43.2376 Y49.1911
G01 X43.2367 Y49.1796
G01 X43.2353 Y49.1682
G01 X43.2214 Y49.0742
G01 X43.2194 Y49.0629
G01 X43.2169 Y49.0517
G01 X43.1938 Y48.9595
G01 X43.1907 Y48.9484
G01 X43.1871 Y48.9375
G01 X43.1551 Y48.8481
G01 X43.1510 Y48.8373
G01 X43.1463 Y48.8268
G01 X43.1057 Y48.7409
G01 X43.1005 Y48.7306
G01 X43.0949 Y48.7206
G01 X43.0460 Y48.6391
G01 X43.0398 Y48.6294
G01 X43.0332 Y48.6200
G01 X42.9766 Y48.5437
G01 X42.9696 Y48.5346
G01 X42.9620 Y48.5259
G01 X42.8982 Y48.4555
G01 X42.8903 Y48.4472
G01 X42.8820 Y48.4393
G01 X42.8116 Y48.3755
G01 X42.8029 Y48.3679
G01 X42.7903 Y48.3582
G01 X42.7903 Y47.4392
G01 X42.7900 Y47.4285
G01 X42.7866 Y47.3665
G01 X42.7852 Y47.3550
G01 X42.7758 Y47.2936
G01 X42.7610 Y47.2333
G01 X42.7580 Y47.2222
G01 X42.7544 Y47.2113
G01 X42.7354 Y47.1586
G01 X42.7285 Y47.1424
G01 X42.7017 Y47.0863
G01 X42.6700 Y47.0329
G01 X42.6638 Y47.0232
G01 X42.6572 Y47.0138
G01 X42.6200 Y46.9640
G01 X42.6125 Y46.9553
G01 X42.5748 Y46.9139
G01 X41.4261 Y45.7652
G01 X41.3847 Y45.7275
G01 X41.3760 Y45.7200
G01 X41.3262 Y45.6828
G01 X41.3168 Y45.6762
G01 X41.3071 Y45.6700
G01 X41.2537 Y45.6383
G01 X41.1976 Y45.6115
G01 X41.1871 Y45.6069
G01 X41.1764 Y45.6027
G01 X41.1178 Y45.5820
G01 X41.1067 Y45.5790
G01 X41.0524 Y45.5654
G01 X41.0350 Y45.5622
G01 X40.9735 Y45.5534
G01 X40.9621 Y45.5525
G01 X40.9008 Y45.5497
G01 X18.6108 Y45.5497
G01 X17.9571 Y44.8961
G01 X17.9571 Y23.9678
G01 X17.9908 Y23.9428
G01 X18.0045 Y23.9318
G01 X18.0863 Y23.8577
G01 X18.0986 Y23.8450
G01 X18.1656 Y23.7712
G01 X18.1769 Y23.7577
G01 X18.2395 Y23.6734
G01 X18.2462 Y23.6639
G01 X18.2523 Y23.6542
G01 X18.3036 Y23.5687
G01 X18.3092 Y23.5587
G01 X18.3144 Y23.5485
G01 X18.3593 Y23.4535
G01 X18.3658 Y23.4371
G01 X18.3994 Y23.3433
G01 X18.4030 Y23.3323
G01 X18.4061 Y23.3212
G01 X18.4303 Y23.2246
G01 X18.4328 Y23.2133
G01 X18.4348 Y23.2020
G01 X18.4494 Y23.1034
G01 X18.4508 Y23.0920
G01 X18.4517 Y23.0805
G01 X18.4566 Y22.9810
G01 X18.4568 Y22.9695
G01 X18.4566 Y22.9580
G01 X18.4517 Y22.8584
G01 X18.4508 Y22.8470
G01 X18.4494 Y22.8355
G01 X18.4348 Y22.7369
G01 X18.4328 Y22.7256
G01 X18.4303 Y22.7144
G01 X18.4061 Y22.6177
G01 X18.4030 Y22.6066
G01 X18.3994 Y22.5957
G01 X18.3658 Y22.5018
G01 X18.3617 Y22.4911
G01 X18.3570 Y22.4806
G01 X18.3144 Y22.3905
G01 X18.3092 Y22.3802
G01 X18.3036 Y22.3702
G01 X18.2523 Y22.2847
G01 X18.2462 Y22.2750
G01 X18.2395 Y22.2656
G01 X18.1802 Y22.1855
G01 X18.1731 Y22.1765
G01 X18.1656 Y22.1678
G01 X18.0986 Y22.0939
G01 X18.0907 Y22.0856
G01 X18.0824 Y22.0776
G01 X18.0085 Y22.0107
G01 X17.9998 Y22.0032
G01 X17.9908 Y21.9961
G01 X17.9107 Y21.9367
G01 X17.9013 Y21.9301
G01 X17.8916 Y21.9240
G01 X17.8061 Y21.8727
G01 X17.7961 Y21.8671
G01 X17.7858 Y21.8619
G01 X17.6957 Y21.8193
G01 X17.6852 Y21.8146
G01 X17.6744 Y21.8105
G01 X17.5806 Y21.7769
G01 X17.5697 Y21.7733
G01 X17.5586 Y21.7702
G01 X17.4619 Y21.7460
G01 X17.4507 Y21.7435
G01 X17.4393 Y21.7415
G01 X17.3408 Y21.7269
G01 X17.3293 Y21.7255
G01 X17.3179 Y21.7246
G01 X17.2183 Y21.7197
G01 X17.2068 Y21.7195
G01 X17.1953 Y21.7197
G01 X17.0958 Y21.7246
G01 X17.0843 Y21.7255
G01 X17.0729 Y21.7269
G01 X16.9743 Y21.7415
G01 X16.9630 Y21.7435
G01 X16.9517 Y21.7460
G01 X16.8550 Y21.7702
G01 X16.8440 Y21.7733
G01 X16.8330 Y21.7769
G01 X16.7392 Y21.8105
G01 X16.7285 Y21.8146
G01 X16.7179 Y21.8193
G01 X16.6278 Y21.8619
G01 X16.6176 Y21.8671
G01 X16.6076 Y21.8727
G01 X16.5221 Y21.9240
G01 X16.5123 Y21.9301
G01 X16.5029 Y21.9367
G01 X16.4229 Y21.9961
G01 X16.4138 Y22.0032
G01 X16.4051 Y22.0107
G01 X16.3313 Y22.0776
G01 X16.3229 Y22.0856
G01 X16.3150 Y22.0939
G01 X16.2481 Y22.1678
G01 X16.2405 Y22.1765
G01 X16.2335 Y22.1855
G01 X16.1741 Y22.2656
G01 X16.1675 Y22.2750
G01 X16.1613 Y22.2847
G01 X16.1101 Y22.3702
G01 X16.1044 Y22.3802
G01 X16.0992 Y22.3905
G01 X16.0566 Y22.4806
G01 X16.0520 Y22.4911
G01 X16.0478 Y22.5018
G01 X16.0142 Y22.5957
G01 X16.0106 Y22.6066
G01 X16.0076 Y22.6177
G01 X15.9833 Y22.7144
G01 X15.9808 Y22.7256
G01 X15.9788 Y22.7369
G01 X15.9642 Y22.8355
G01 X15.9628 Y22.8470
G01 X15.9620 Y22.8584
G01 X15.9571 Y22.9580
G01 X15.9568 Y22.9695
G01 X15.9571 Y22.9810
G01 X15.9620 Y23.0805
G01 X15.9628 Y23.0920
G01 X15.9642 Y23.1034
G00 Z2.0000
G00 X13.3642 Y23.1234
G01 F60.00
G01 Z-0.0500
G01 F100.00
G01 X13.3788 Y23.2220
G01 X13.3808 Y23.2333
G01 X13.3833 Y23.2446
G01 X13.4076 Y23.3412
G01 X13.4106 Y23.3523
G01 X13.4142 Y23.3633
G01 X13.4478 Y23.4571
G01 X13.4520 Y23.4678
G01 X13.4566 Y23.4784
G01 X13.4992 Y23.5685
G01 X13.5044 Y23.5787
G01 X13.5101 Y23.5887
G01 X13.5613 Y23.6742
G01 X13.5675 Y23.6839
G01 X13.5741 Y23.6934
G01 X13.6335 Y23.7734
G01 X13.6405 Y23.7825
G01 X13.6481 Y23.7912
G01 X13.7150 Y23.8650
G01 X13.7229 Y23.8734
G01 X13.7313 Y23.8813
G01 X13.8051 Y23.9482
G01 X13.8138 Y23.9557
G01 X13.8229 Y23.9628
G01 X13.9029 Y24.0222
G01 X13.9123 Y24.0288
G01 X13.9221 Y24.0350
G01 X14.0076 Y24.0862
G01 X14.0176 Y24.0919
G01 X14.0278 Y24.0971
G01 X14.1179 Y24.1397
G01 X14.1285 Y24.1443
G01 X14.1392 Y24.1485
G01 X14.2330 Y24.1821
G01 X14.2440 Y24.1857
G01 X14.2550 Y24.1887
G01 X14.3517 Y24.2130
G01 X14.3630 Y24.2155
G01 X14.3743 Y24.2174
G01 X14.4729 Y24.2321
G01 X14.4843 Y24.2335
G01 X14.4958 Y24.2343
G01 X14.5953 Y24.2392
G01 X14.6068 Y24.2395
G01 X14.6183 Y24.2392
G01 X14.7179 Y24.2343
G01 X14.7293 Y24.2335
G01 X14.7408 Y24.2321
G01 X14.8393 Y24.2174
G01 X14.8507 Y24.2155
G01 X14.8619 Y24.2130
G01 X14.9586 Y24.1887
G01 X14.9697 Y24.1857
G01 X14.9806 Y24.1821
G01 X15.0744 Y24.1485
G01 X15.0852 Y24.1443
G01 X15.0957 Y24.1397
G01 X15.1858 Y24.0971
G01 X15.1961 Y24.0919
G01 X15.2061 Y24.0862
G01 X15.2916 Y24.0350
G01 X15.3013 Y24.0288
G01 X15.3107 Y24.0222
G01 X15.3908 Y23.9628
G01 X15.3998 Y23.9557
G01 X15.4085 Y23.9482
G01 X15.4824 Y23.8813
G01 X15.4907 Y23.8734
G01 X15.4986 Y23.8650
G01 X15.5656 Y23.7912
G01 X15.5731 Y23.7825
G01 X15.5802 Y23.7734
G01 X15.6395 Y23.6934
G01 X15.6462 Y23.6839
G01 X15.6523 Y23.6742
G01 X15.7036 Y23.5887
G01 X15.7092 Y23.5787
G01 X15.7144 Y23.5685
G01 X15.7570 Y23.4784
G01 X15.7617 Y23.4678
G01 X15.7658 Y23.4571
G01 X15.7994 Y23.3633
G01 X15.8030 Y23.3523
G01 X15.8061 Y23.3412
G01 X15.8303 Y23.2446
G01 X15.8328 Y23.2333
G01 X15.8348 Y23.2220
G01 X15.8494 Y23.1234
G01 X15.8508 Y23.1120
G01 X15.8517 Y23.1005
G01 X15.8566 Y23.0010
G01 X15.8568 Y22.9895
G01 X15.8566 Y22.9780
G01 X15.8517 Y22.8784
G01 X15.8508 Y22.8670
G01 X15.8494 Y22.8555
G01 X15.8348 Y22.7569
G01 X15.8328 Y22.7456
G01 X15.8303 Y22.7344
G01 X15.8061 Y22.6377
G01 X15.8030 Y22.6266
G01 X15.7994 Y22.6157
G01 X15.7658 Y22.5218
G01 X15.7617 Y22.5111
G01 X15.7570 Y22.5006
G01 X15.7144 Y22.4105
G01 X15.7092 Y22.4002
G01 X15.7036 Y22.3902
G01 X15.6523 Y22.3047
G01 X15.6462 Y22.2950
G01 X15.6395 Y22.2856
G01 X15.5802 Y22.2055
G01 X15.5731 Y22.1965
G01 X15.5656 Y22.1878
G01 X15.4986 Y22.1139
G01 X15.4907 Y22.1056
G01 X15.4824 Y22.0976
G01 X15.4085 Y22.0307
G01 X15.3998 Y22.0232
G01 X15.3908 Y22.0161
G01 X15.3107 Y21.9567
G01 X15.3013 Y21.9501
G01 X15.2916 Y21.9440
G01 X15.2061 Y21.8927
G01 X15.1961 Y21.8871
G01 X15.1858 Y21.8819
G01 X15.0957 Y21.8393
G01 X15.0852 Y21.8346
G01 X15.0744 Y21.8305
G01 X14.9806 Y21.7969
G01 X14.9697 Y21.7933
G01 X14.9586 Y21.7902
G01 X14.8619 Y21.7660
G01 X14.8507 Y21.7635
G01 X14.8393 Y21.7615
G01 X14.7408 Y21.7469
G01 X14.7293 Y21.7455
G01 X14.7179 Y21.7446
G01 X14.6183 Y21.7397
G01 X14.6068 Y21.7395
G01 X14.5953 Y21.7397
G01 X14.4958 Y21.7446
G01 X14.4843 Y21.7455
G01 X14.4729 Y21.7469
G01 X14.3743 Y21.7615
G01 X14.3630 Y21.7635
G01 X14.3517 Y21.7660
G01 X14.2550 Y21.7902
G01 X14.2440 Y21.7933
G01 X14.2330 Y21.7969
G01 X14.1392 Y21.8305
G01 X14.1285 Y21.8346
G01 X14.1179 Y21.8393
G01 X14.0278 Y21.8819
G01 X14.0176 Y21.8871
G01 X14.0076 Y21.8927
G01 X13.9221 Y21.9440
G01 X13.9123 Y21.9501
G01 X13.9029 Y21.9567
G01 X13.8229 Y22.0161
G01 X13.8138 Y22.0232
G01 X13.8051 Y22.0307
G01 X13.7313 Y22.0976
G01 X13.7229 Y22.1056
G01 X13.7150 Y22.1139
G01 X13.6481 Y22.1878
G01 X13.6405 Y22.1965
G01 X13.6335 Y22.2055
G01 X13.5741 Y22.2856
G01 X13.5675 Y22.2950
G01 X13.5613 Y22.3047
G01 X13.5101 Y22.3902
G01 X13.5044 Y22.4002
G01 X13.4992 Y22.4105
G01 X13.4566 Y22.5006
G01 X13.4520 Y22.5111
G01 X13.4478 Y22.5218
G01 X13.4142 Y22.6157
G01 X13.4106 Y22.6266
G01 X13.4076 Y22.6377
G01 X13.3833 Y22.7344
G01 X13.3808 Y22.7456
G01 X13.3788 Y22.7569
G01 X13.3642 Y22.8555
G01 X13.3628 Y22.8670
G01 X13.3620 Y22.8784
G01 X13.3571 Y22.9780
G01 X13.3568 Y22.9895
G01 X13.3571 Y23.0010
G01 X13.3620 Y23.1005
G01 X13.3628 Y23.1120
G01 X13.3642 Y23.1234
G00 Z2.0000
G00 X12.2668 Y21.4895
G01 F60.00
G01 Z-0.0500
G01 F100.00
G01 X12.2668 Y21.9895
G01 X13.0168 Y21.9895
G01 X13.0168 Y23.9887
G01 X13.0168 Y23.9895
G01 X13.0160 Y23.9895
G01 X12.2668 Y23.9895
G01 X12.2668 Y24.4895
G01 X13.0646 Y24.4895
G01 X13.1242 Y24.4831
G01 X13.2589 Y24.4328
G01 X13.3740 Y24.3467
G01 X13.4602 Y24.2316
G01 X13.4685 Y24.2092
G01 X13.5006 Y24.1614
G01 X13.5509 Y24.1332
G01 X13.6084 Y24.1308
G01 X13.6609 Y24.1547
G01 X13.7833 Y24.2500
G01 X14.0020 Y24.3683
G01 X14.2372 Y24.4490
G01 X14.4825 Y24.4900
G01 X14.7312 Y24.4900
G01 X14.9764 Y24.4490
G01 X15.2116 Y24.3683
G01 X15.4303 Y24.2500
G01 X15.6266 Y24.0972
G01 X15.7950 Y23.9143
G01 X15.8095 Y23.8920
G01 X15.8543 Y23.8507
G01 X15.9134 Y23.8358
G01 X15.9724 Y23.8508
G01 X16.0044 Y23.8802
G01 X16.0127 Y23.8859
G01 X16.0207 Y23.8965
G01 X16.1735 Y24.0625
G01 X16.1978 Y24.1014
G01 X16.2063 Y24.1472
G01 X16.2063 Y45.1921
G01 X16.2041 Y45.2832
G01 X16.2144 Y45.3407
G01 X16.2157 Y45.3500
G01 X16.2217 Y45.4093
G01 X16.2308 Y45.4383
G01 X16.2344 Y45.4529
G01 X16.2400 Y45.4835
G01 X16.2616 Y45.5377
G01 X16.2648 Y45.5466
G01 X16.2827 Y45.6034
G01 X16.2974 Y45.6300
G01 X16.3039 Y45.6436
G01 X16.3154 Y45.6724
G01 X16.3477 Y45.7214
G01 X16.3525 Y45.7292
G01 X16.3814 Y45.7813
G01 X16.4016 Y45.8049
G01 X16.4107 Y45.8169
G01 X16.4274 Y45.8423
G01 X16.4695 Y45.8844
G01 X16.4760 Y45.8915
G01 X16.5139 Y45.9357
G01 X16.5380 Y45.9543
G01 X16.5503 Y45.9652
G01 X17.5822 Y46.9971
G01 X17.6449 Y47.0631
G01 X17.6938 Y47.0971
G01 X17.7013 Y47.1028
G01 X17.7466 Y47.1397
G01 X17.7741 Y47.1541
G01 X17.7870 Y47.1619
G01 X17.8120 Y47.1793
G01 X17.8667 Y47.2028
G01 X17.8752 Y47.2069
G01 X17.9270 Y47.2339
G01 X17.9568 Y47.2425
G01 X17.9710 Y47.2475
G01 X17.9989 Y47.2595
G01 X18.0572 Y47.2715
G01 X18.0665 Y47.2739
G01 X18.1226 Y47.2899
G01 X18.1536 Y47.2923
G01 X18.1685 Y47.2944
G01 X18.1983 Y47.3005
G01 X18.2578 Y47.3005
G01 X18.2672 Y47.3009
G01 X18.3255 Y47.3053
G01 X18.3557 Y47.3015
G01 X18.3720 Y47.3005
G01 X40.4342 Y47.3005
G01 X40.4817 Y47.3099
G01 X40.5219 Y47.3368
G01 X41.0032 Y47.8181
G01 X41.0301 Y47.8583
G01 X41.0395 Y47.9066
G01 X41.0395 Y48.1906
G01 X41.0312 Y48.2349
G01 X41.0306 Y48.2363
G01 X41.0067 Y48.2746
G01 X40.8894 Y48.4020
G01 X40.8735 Y48.4264
G01 X40.8287 Y48.4676
G01 X40.7697 Y48.4826
G01 X40.7107 Y48.4676
G01 X40.6659 Y48.4264
G01 X40.6502 Y48.4023
G01 X40.4871 Y48.2252
G01 X40.2972 Y48.0773
G01 X40.0855 Y47.9628
G01 X39.7500 Y47.8476
G01 X39.7500 Y48.3765
G01 X39.8652 Y48.4178
G01 X39.9490 Y48.4575
G01 X40.0298 Y48.5060
G01 X40.1043 Y48.5612
G01 X40.1735 Y48.6240
G01 X40.2363 Y48.6932
G01 X40.2920 Y48.7683
G01 X40.3400 Y48.8485
G01 X40.3797 Y48.9323
G01 X40.4117 Y49.0217
G01 X40.4342 Y49.1117
G01 X40.4479 Y49.2041
G01 X40.4525 Y49.2975
G01 X40.4525 Y49.3917
G01 X40.4479 Y49.4859
G01 X40.4343 Y49.5776
G01 X40.4112 Y49.6697
G01 X40.3800 Y49.7570
G01 X40.3400 Y49.8415
G01 X40.2920 Y49.9217
G01 X40.2363 Y49.9968
G01 X40.1729 Y50.0665
G01 X40.1043 Y50.1288
G01 X40.0292 Y50.1845
G01 X39.9490 Y50.2325
G01 X39.8652 Y50.2722
G01 X39.7500 Y50.3135
G01 X39.7500 Y50.8424
G01 X40.0855 Y50.7272
G01 X40.2972 Y50.6127
G01 X40.4871 Y50.4648
G01 X40.6502 Y50.2877
G01 X40.6659 Y50.2636
G01 X40.7107 Y50.2224
G01 X40.7697 Y50.2074
G01 X40.8287 Y50.2224
G01 X40.8735 Y50.2636
G01 X40.8894 Y50.2880
G01 X41.0525 Y50.4652
G01 X41.2426 Y50.6131
G01 X41.4543 Y50.7277
G01 X41.6821 Y50.8059
G01 X41.9196 Y50.8455
G01 X42.1604 Y50.8455
G01 X42.3979 Y50.8059
G01 X42.6257 Y50.7277
G01 X42.8374 Y50.6131
G01 X43.0275 Y50.4652
G01 X43.1906 Y50.2880
G01 X43.3223 Y50.0864
G01 X43.4190 Y49.8659
G01 X43.4781 Y49.6325
G01 X43.4930 Y49.4526
G01 X43.4930 Y49.2374
G01 X43.4781 Y49.0575
G01 X43.4190 Y48.8241
G01 X43.3223 Y48.6036
G01 X43.1906 Y48.4020
G01 X43.0733 Y48.2746
G01 X43.0490 Y48.2357
G01 X43.0405 Y48.1899
G01 X43.0405 Y47.4546
G01 X43.0428 Y47.3636
G01 X43.0323 Y47.3050
G01 X43.0310 Y47.2957
G01 X43.0251 Y47.2376
G01 X43.0158 Y47.2079
G01 X43.0122 Y47.1933
G01 X43.0069 Y47.1633
G01 X42.9848 Y47.1080
G01 X42.9816 Y47.0991
G01 X42.9642 Y47.0434
G01 X42.9494 Y47.0168
G01 X42.9429 Y47.0032
G01 X42.9314 Y46.9744
G01 X42.8986 Y46.9246
G01 X42.8937 Y46.9166
G01 X42.8654 Y46.8655
G01 X42.8456 Y46.8424
G01 X42.8365 Y46.8304
G01 X42.8194 Y46.8045
G01 X42.7773 Y46.7624
G01 X42.7708 Y46.7553
G01 X42.7329 Y46.7111
G01 X42.7088 Y46.6925
G01 X42.6966 Y46.6816
G01 X41.6178 Y45.6029
G01 X41.5551 Y45.5369
G01 X41.5071 Y45.5036
G01 X41.4996 Y45.4979
G01 X41.4534 Y45.4603
G01 X41.4264 Y45.4462
G01 X41.4136 Y45.4384
G01 X41.3880 Y45.4207
G01 X41.3333 Y45.3972
G01 X41.3248 Y45.3931
G01 X41.2730 Y45.3661
G01 X41.2432 Y45.3575
G01 X41.2290 Y45.3525
G01 X41.2011 Y45.3405
G01 X41.1427 Y45.3285
G01 X41.1334 Y45.3261
G01 X41.0774 Y45.3101
G01 X41.0464 Y45.3077
G01 X41.0315 Y45.3056
G01 X41.0017 Y45.2995
G01 X40.9434 Y45.2995
G01 X40.9339 Y45.2992
G01 X40.8745 Y45.2947
G01 X40.8443 Y45.2985
G01 X40.8280 Y45.2995
G01 X18.7665 Y45.2995
G01 X18.7183 Y45.2901
G01 X18.6781 Y45.2632
G01 X18.2436 Y44.8287
G01 X18.2168 Y44.7885
G01 X18.2073 Y44.7403
G01 X18.2073 Y24.1465
G01 X18.2158 Y24.1014
G01 X18.2401 Y24.0625
G01 X18.3950 Y23.8943
G01 X18.5310 Y23.6861
G01 X18.6309 Y23.4584
G01 X18.6919 Y23.2173
G01 X18.7125 Y22.9695
G01 X18.6919 Y22.7217
G01 X18.6309 Y22.4806
G01 X18.5310 Y22.2529
G01 X18.3950 Y22.0447
G01 X18.2266 Y21.8617
G01 X18.0303 Y21.7090
G01 X17.8116 Y21.5906
G01 X17.5764 Y21.5099
G01 X17.3312 Y21.4690
G01 X17.0825 Y21.4690
G01 X16.8372 Y21.5099
G01 X16.6020 Y21.5906
G01 X16.3833 Y21.7090
G01 X16.1871 Y21.8617
G01 X16.0187 Y22.0447
G01 X16.0041 Y22.0670
G01 X15.9593 Y22.1082
G01 X15.9003 Y22.1231
G01 X15.8413 Y22.1082
G01 X15.8092 Y22.0787
G01 X15.8009 Y22.0730
G01 X15.7929 Y22.0624
G01 X15.6266 Y21.8817
G01 X15.4303 Y21.7290
G01 X15.2116 Y21.6106
G01 X14.9764 Y21.5299
G01 X14.7312 Y21.4890
G01 X14.4825 Y21.4890
G01 X14.2372 Y21.5299
G01 X14.0020 Y21.6106
G01 X13.7833 Y21.7290
G01 X13.6609 Y21.8243
G01 X13.6084 Y21.8481
G01 X13.5509 Y21.8457
G01 X13.5006 Y21.8176
G01 X13.4685 Y21.7698
G01 X13.4602 Y21.7474
G01 X13.3740 Y21.6323
G01 X13.2589 Y21.5461
G01 X13.1242 Y21.4959
G01 X13.0646 Y21.4895
G01 X12.2668 Y21.4895
G00 Z2.0000
G00 X10.5168 Y22.7395
G01 F60.00
G01 Z-0.0500
G01 F100.00
G01 X11.0168 Y22.7395
G01 X11.0168 Y21.9895
G01 X11.7668 Y21.9895
G01 X11.7668 Y21.4895
G01 X10.9690 Y21.4895
G01 X10.9094 Y21.4959
G01 X10.7747 Y21.5461
G01 X10.6596 Y21.6323
G01 X10.5735 Y21.7474
G01 X10.5232 Y21.8821
G01 X10.5168 Y21.9416
G01 X10.5168 Y22.7395
G00 Z2.0000
G00 X10.5168 Y23.2395
G01 F60.00
G01 Z-0.0500
G01 F100.00
G01 X10.5168 Y24.0373
G01 X10.5232 Y24.0969
G01 X10.5735 Y24.2316
G01 X10.6596 Y24.3467
G01 X10.7747 Y24.4328
G01 X10.9094 Y24.4831
G01 X10.9690 Y24.4895
G01 X11.7668 Y24.4895
G01 X11.7668 Y23.9895
G01 X11.0168 Y23.9895
G01 X11.0168 Y23.2395
G01 X10.5168 Y23.2395
G00 Z2.0000
G00 X35.5070 Y48.2971
G01 F60.00
G01 Z-0.0500
G01 F100.00
G01 X35.5070 Y50.3929
G01 X35.5134 Y50.4525
G01 X35.5637 Y50.5873
G01 X35.6500 Y50.7025
G01 X35.7652 Y50.7888
G01 X35.9000 Y50.8391
G01 X35.9596 Y50.8455
G01 X37.9604 Y50.8455
G01 X38.0200 Y50.8391
G01 X38.1548 Y50.7888
G01 X38.2700 Y50.7025
G01 X38.3563 Y50.5873
G01 X38.3679 Y50.5562
G01 X38.4000 Y50.5084
G01 X38.4503 Y50.4802
G01 X38.5078 Y50.4778
G01 X38.5602 Y50.5017
G01 X38.7028 Y50.6127
G01 X38.9145 Y50.7272
G01 X39.2500 Y50.8424
G01 X39.2500 Y50.3135
G01 X39.1348 Y50.2722
G01 X39.0510 Y50.2325
G01 X38.9702 Y50.1840
G01 X38.8957 Y50.1288
G01 X38.8265 Y50.0660
G01 X38.7637 Y49.9968
G01 X38.7080 Y49.9217
G01 X38.6600 Y49.8415
G01 X38.6203 Y49.7577
G01 X38.5883 Y49.6683
G01 X38.5658 Y49.5783
G01 X38.5521 Y49.4859
G01 X38.5475 Y49.3925
G01 X38.5475 Y49.2983
G01 X38.5521 Y49.2041
G01 X38.5657 Y49.1124
G01 X38.5888 Y49.0203
G01 X38.6200 Y48.9330
G01 X38.6600 Y48.8485
G01 X38.7080 Y48.7683
G01 X38.7637 Y48.6932
G01 X38.8265 Y48.6240
G01 X38.8952 Y48.5617
G01 X38.9708 Y48.5055
G01 X39.0510 Y48.4575
G01 X39.1348 Y48.4178
G01 X39.2500 Y48.3765
G01 X39.2500 Y47.8476
G01 X38.9145 Y47.9628
G01 X38.7028 Y48.0773
G01 X38.5602 Y48.1883
G01 X38.5078 Y48.2122
G01 X38.4503 Y48.2098
G01 X38.4000 Y48.1816
G01 X38.3679 Y48.1338
G01 X38.3563 Y48.1027
G01 X38.2700 Y47.9875
G01 X38.1548 Y47.9012
G01 X38.0200 Y47.8509
G01 X37.9604 Y47.8445
G01 X35.9596 Y47.8445
G01 X35.9000 Y47.8509
G01 X35.7652 Y47.9012
G01 X35.6500 Y47.9875
G01 X35.5637 Y48.1027
G01 X35.5134 Y48.2375
G01 X35.5070 Y48.2971
G00 Z2.0000
G00 X36.0067 Y50.5950
G01 F60.00
G01 Z-0.0500
G01 F100.00
G01 X37.9133 Y50.5950
G01 X37.9248 Y50.5947
G01 X37.9370 Y50.5938
G01 X37.9492 Y50.5923
G01 X37.9613 Y50.5902
G01 X37.9732 Y50.5875
G01 X37.9909 Y50.5824
G01 X38.0025 Y50.5783
G01 X38.0138 Y50.5736
G01 X38.0249 Y50.5683
G01 X38.0357 Y50.5625
G01 X38.0463 Y50.5562
G01 X38.0565 Y50.5494
G01 X38.0663 Y50.5421
G01 X38.0758 Y50.5343
G01 X38.0849 Y50.5261
G01 X38.0936 Y50.5174
G01 X38.1018 Y50.5083
G01 X38.1133 Y50.4939
G01 X38.1204 Y50.4839
G01 X38.1269 Y50.4735
G01 X38.1358 Y50.4574
G01 X38.1411 Y50.4463
G01 X38.1458 Y50.4350
G01 X38.1517 Y50.4176
G01 X38.1550 Y50.4057
G01 X38.1577 Y50.3938
G01 X38.1598 Y50.3817
G01 X38.1613 Y50.3695
G01 X38.1624 Y50.3511
G01 X38.1625 Y48.3442
G01 X38.1618 Y48.3266
G01 X38.1606 Y48.3144
G01 X38.1588 Y48.3023
G01 X38.1564 Y48.2902
G01 X38.1535 Y48.2783
G01 X38.1479 Y48.2608
G01 X38.1435 Y48.2493
G01 X38.1385 Y48.2381
G01 X38.1330 Y48.2271
G01 X38.1269 Y48.2165
G01 X38.1204 Y48.2061
G01 X38.1133 Y48.1961
G01 X38.1018 Y48.1817
G01 X38.0936 Y48.1726
G01 X38.0849 Y48.1639
G01 X38.0758 Y48.1557
G01 X38.0663 Y48.1479
G01 X38.0565 Y48.1406
G01 X38.0410 Y48.1306
G01 X38.0304 Y48.1245
G01 X38.0194 Y48.1190
G01 X38.0025 Y48.1117
G01 X37.9851 Y48.1058
G01 X37.9732 Y48.1025
G01 X37.9613 Y48.0998
G01 X37.9492 Y48.0977
G01 X37.9370 Y48.0962
G01 X37.9186 Y48.0951
G01 X36.0067 Y48.0950
G01 X35.9891 Y48.0957
G01 X35.9769 Y48.0969
G01 X35.9648 Y48.0987
G01 X35.9527 Y48.1011
G01 X35.9408 Y48.1040
G01 X35.9291 Y48.1076
G01 X35.9118 Y48.1140
G01 X35.9006 Y48.1190
G01 X35.8896 Y48.1245
G01 X35.8790 Y48.1306
G01 X35.8686 Y48.1371
G01 X35.8586 Y48.1442
G01 X35.8489 Y48.1517
G01 X35.8396 Y48.1598
G01 X35.8264 Y48.1726
G01 X35.8182 Y48.1817
G01 X35.8067 Y48.1961
G01 X35.7996 Y48.2061
G01 X35.7931 Y48.2165
G01 X35.7870 Y48.2271
G01 X35.7815 Y48.2381
G01 X35.7742 Y48.2550
G01 X35.7701 Y48.2666
G01 X35.7665 Y48.2783
G01 X35.7623 Y48.2962
G01 X35.7602 Y48.3083
G01 X35.7587 Y48.3205
G01 X35.7576 Y48.3389
G01 X35.7575 Y50.3458
G01 X35.7582 Y50.3634
G01 X35.7602 Y50.3817
G01 X35.7623 Y50.3938
G01 X35.7650 Y50.4057
G01 X35.7683 Y50.4176
G01 X35.7721 Y50.4292
G01 X35.7765 Y50.4407
G01 X35.7815 Y50.4519
G01 X35.7870 Y50.4629
G01 X35.7931 Y50.4735
G01 X35.7996 Y50.4839
G01 X35.8067 Y50.4939
G01 X35.8142 Y50.5036
G01 X35.8223 Y50.5129
G01 X35.8351 Y50.5261
G01 X35.8442 Y50.5343
G01 X35.8537 Y50.5421
G01 X35.8635 Y50.5494
G01 X35.8737 Y50.5562
G01 X35.8843 Y50.5625
G01 X35.8951 Y50.5683
G01 X35.9118 Y50.5760
G01 X35.9233 Y50.5804
G01 X35.9349 Y50.5842
G01 X35.9468 Y50.5875
G01 X35.9587 Y50.5902
G01 X35.9708 Y50.5923
G01 X35.9830 Y50.5938
G01 X35.9952 Y50.5947
G01 X36.0067 Y50.5950
G00 Z2.0000
G00 X34.0000 Y54.8492
G01 F60.00
G01 Z-0.0500
G01 F100.00
G01 X34.0000 Y56.8508
G01 X34.0007 Y56.8684
G01 X34.0027 Y56.8867
G01 X34.0061 Y56.9048
G01 X34.0108 Y56.9226
G01 X34.0167 Y56.9400
G01 X34.0240 Y56.9569
G01 X34.0295 Y56.9679
G01 X34.0388 Y56.9838
G01 X34.0492 Y56.9989
G01 X34.0607 Y57.0133
G01 X34.0732 Y57.0268
G01 X34.0821 Y57.0352
G01 X34.0962 Y57.0471
G01 X34.1111 Y57.0579
G01 X34.1215 Y57.0644
G01 X34.1376 Y57.0733
G01 X34.1543 Y57.0810
G01 X34.1658 Y57.0854
G01 X34.1774 Y57.0892
G01 X34.1893 Y57.0925
G01 X34.2012 Y57.0952
G01 X34.2133 Y57.0973
G01 X34.2255 Y57.0988
G01 X34.2377 Y57.0997
G01 X34.2492 Y57.1000
G01 X38.8561 Y57.0999
G01 X38.8745 Y57.0988
G01 X38.8927 Y57.0963
G01 X38.9107 Y57.0925
G01 X38.9284 Y57.0874
G01 X38.9457 Y57.0810
G01 X38.9624 Y57.0733
G01 X38.9732 Y57.0675
G01 X38.9889 Y57.0579
G01 X39.0038 Y57.0471
G01 X39.0179 Y57.0352
G01 X39.0311 Y57.0224
G01 X39.0433 Y57.0086
G01 X39.0544 Y56.9940
G01 X39.0644 Y56.9785
G01 X39.0733 Y56.9624
G01 X39.0810 Y56.9457
G01 X39.0854 Y56.9342
G01 X39.0892 Y56.9226
G01 X39.0925 Y56.9107
G01 X39.0952 Y56.8988
G01 X39.0973 Y56.8867
G01 X39.0988 Y56.8745
G01 X39.0997 Y56.8623
G01 X39.1000 Y56.8508
G01 X39.1000 Y54.8492
G01 X39.0997 Y54.8377
G01 X39.0981 Y54.8194
G01 X39.0952 Y54.8012
G01 X39.0910 Y54.7833
G01 X39.0854 Y54.7658
G01 X39.0786 Y54.7487
G01 X39.0705 Y54.7321
G01 X39.0612 Y54.7162
G01 X39.0544 Y54.7060
G01 X39.0433 Y54.6914
G01 X39.0311 Y54.6776
G01 X39.0224 Y54.6689
G01 X39.0086 Y54.6567
G01 X38.9940 Y54.6456
G01 X38.9785 Y54.6356
G01 X38.9624 Y54.6267
G01 X38.9457 Y54.6190
G01 X38.9342 Y54.6146
G01 X38.9226 Y54.6108
G01 X38.9107 Y54.6075
G01 X38.8988 Y54.6048
G01 X38.8867 Y54.6027
G01 X38.8745 Y54.6012
G01 X38.8623 Y54.6003
G01 X38.8508 Y54.6000
G01 X34.2492 Y54.6000
G01 X34.2377 Y54.6003
G01 X34.2194 Y54.6019
G01 X34.2073 Y54.6037
G01 X34.1952 Y54.6061
G01 X34.1833 Y54.6090
G01 X34.1716 Y54.6126
G01 X34.1600 Y54.6167
G01 X34.1487 Y54.6214
G01 X34.1376 Y54.6267
G01 X34.1268 Y54.6325
G01 X34.1162 Y54.6388
G01 X34.1060 Y54.6456
G01 X34.0962 Y54.6529
G01 X34.0867 Y54.6607
G01 X34.0776 Y54.6689
G01 X34.0689 Y54.6776
G01 X34.0607 Y54.6867
G01 X34.0529 Y54.6962
G01 X34.0456 Y54.7060
G01 X34.0388 Y54.7162
G01 X34.0295 Y54.7321
G01 X34.0240 Y54.7431
G01 X34.0190 Y54.7543
G01 X34.0146 Y54.7658
G01 X34.0108 Y54.7774
G01 X34.0075 Y54.7893
G01 X34.0048 Y54.8012
G01 X34.0027 Y54.8133
G01 X34.0012 Y54.8255
G01 X34.0003 Y54.8377
G01 X34.0000 Y54.8492
G00 Z2.0000
G00 X33.7495 Y54.8021
G01 F60.00
G01 Z-0.0500
G01 F100.00
G01 X33.7495 Y56.8979
G01 X33.7559 Y56.9575
G01 X33.8062 Y57.0923
G01 X33.8925 Y57.2075
G01 X34.0077 Y57.2938
G01 X34.1425 Y57.3441
G01 X34.2021 Y57.3505
G01 X38.8979 Y57.3505
G01 X38.9575 Y57.3441
G01 X39.0923 Y57.2938
G01 X39.2075 Y57.2075
G01 X39.2938 Y57.0923
G01 X39.3441 Y56.9575
G01 X39.3505 Y56.8979
G01 X39.3505 Y54.8021
G01 X39.3441 Y54.7425
G01 X39.2938 Y54.6077
G01 X39.2075 Y54.4925
G01 X39.0923 Y54.4062
G01 X38.9575 Y54.3559
G01 X38.8979 Y54.3495
G01 X34.2021 Y54.3495
G01 X34.1425 Y54.3559
G01 X34.0077 Y54.4062
G01 X33.8925 Y54.4925
G01 X33.8062 Y54.6077
G01 X33.7559 Y54.7425
G01 X33.7495 Y54.8021
G00 Z2.0000
G00 X36.8000 Y60.6500
G01 F60.00
G01 Z-0.0500
G01 F100.00
G01 X36.8000 Y61.1500
G01 X37.6508 Y61.1500
G01 X37.7480 Y61.1548
G01 X37.8443 Y61.1691
G01 X37.9403 Y61.1931
G01 X38.0327 Y61.2261
G01 X38.1221 Y61.2685
G01 X38.2056 Y61.3185
G01 X38.2838 Y61.3765
G01 X38.3571 Y61.4429
G01 X38.4235 Y61.5162
G01 X38.4815 Y61.5944
G01 X38.5319 Y61.6786
G01 X38.5739 Y61.7673
G01 X38.6214 Y61.9000
G01 X39.1501 Y61.9000
G01 X39.0284 Y61.5454
G01 X38.9101 Y61.3268
G01 X38.7574 Y61.1306
G01 X38.5745 Y60.9622
G01 X38.3664 Y60.8263
G01 X38.1387 Y60.7264
G01 X37.8977 Y60.6654
G01 X37.7121 Y60.6500
G01 X36.8000 Y60.6500
G00 Z2.0000
G00 X36.8000 Y63.6500
G01 F60.00
G01 Z-0.0500
G01 F100.00
G01 X37.7120 Y63.6500
G01 X37.8977 Y63.6346
G01 X38.1387 Y63.5736
G01 X38.3664 Y63.4737
G01 X38.5745 Y63.3378
G01 X38.7574 Y63.1694
G01 X38.9101 Y62.9732
G01 X39.0284 Y62.7546
G01 X39.1501 Y62.4000
G01 X38.6214 Y62.4000
G01 X38.5739 Y62.5327
G01 X38.5319 Y62.6214
G01 X38.4815 Y62.7056
G01 X38.4235 Y62.7838
G01 X38.3571 Y62.8571
G01 X38.2838 Y62.9235
G01 X38.2056 Y62.9815
G01 X38.1221 Y63.0315
G01 X38.0327 Y63.0739
G01 X37.9403 Y63.1069
G01 X37.8443 Y63.1309
G01 X37.7480 Y63.1452
G01 X37.6508 Y63.1500
G01 X36.8000 Y63.1500
G01 X36.8000 Y63.6500
G00 Z2.0000
G00 X33.9499 Y62.4000
G01 F60.00
G01 Z-0.0500
G01 F100.00
G01 X34.0716 Y62.7546
G01 X34.1899 Y62.9732
G01 X34.3426 Y63.1694
G01 X34.5255 Y63.3378
G01 X34.7336 Y63.4737
G01 X34.9613 Y63.5736
G01 X35.2023 Y63.6346
G01 X35.3880 Y63.6500
G01 X36.3000 Y63.6500
G01 X36.3000 Y63.1500
G01 X35.4492 Y63.1500
G01 X35.3520 Y63.1452
G01 X35.2557 Y63.1309
G01 X35.1597 Y63.1069
G01 X35.0673 Y63.0739
G01 X34.9779 Y63.0315
G01 X34.8944 Y62.9815
G01 X34.8162 Y62.9235
G01 X34.7429 Y62.8571
G01 X34.6765 Y62.7838
G01 X34.6185 Y62.7056
G01 X34.5681 Y62.6214
G01 X34.5261 Y62.5327
G01 X34.4786 Y62.4000
G01 X33.9499 Y62.4000
G00 Z2.0000
G00 X33.9499 Y61.9000
G01 F60.00
G01 Z-0.0500
G01 F100.00
G01 X34.4786 Y61.9000
G01 X34.5261 Y61.7673
G01 X34.5681 Y61.6786
G01 X34.6185 Y61.5944
G01 X34.6765 Y61.5162
G01 X34.7429 Y61.4429
G01 X34.8162 Y61.3765
G01 X34.8944 Y61.3185
G01 X34.9779 Y61.2685
G01 X35.0673 Y61.2261
G01 X35.1597 Y61.1931
G01 X35.2557 Y61.1691
G01 X35.3520 Y61.1548
G01 X35.4492 Y61.1500
G01 X36.3000 Y61.1500
G01 X36.3000 Y60.6500
G01 X35.3879 Y60.6500
G01 X35.2023 Y60.6654
G01 X34.9613 Y60.7264
G01 X34.7336 Y60.8263
G01 X34.5255 Y60.9622
G01 X34.3426 Y61.1306
G01 X34.1899 Y61.3268
G01 X34.0716 Y61.5454
G01 X33.9499 Y61.9000
G00 Z2.0000
G00 X39.8500 Y59.0000
G01 F60.00
G01 Z-0.0500
G01 F100.00
G01 X39.8500 Y59.9121
G01 X39.8654 Y60.0977
G01 X39.9264 Y60.3387
G01 X40.0263 Y60.5664
G01 X40.1622 Y60.7745
G01 X40.3306 Y60.9574
G01 X40.5268 Y61.1101
G01 X40.7454 Y61.2284
G01 X41.1000 Y61.3501
G01 X41.1000 Y60.8214
G01 X40.9673 Y60.7739
G01 X40.8786 Y60.7319
G01 X40.7944 Y60.6815
G01 X40.7162 Y60.6235
G01 X40.6429 Y60.5571
G01 X40.5765 Y60.4838
G01 X40.5185 Y60.4056
G01 X40.4685 Y60.3221
G01 X40.4261 Y60.2327
G01 X40.3931 Y60.1403
G01 X40.3691 Y60.0443
G01 X40.3548 Y59.9480
G01 X40.3500 Y59.8508
G01 X40.3500 Y59.0000
G01 X39.8500 Y59.0000
G00 Z2.0000
G00 X39.8500 Y58.5000
G01 F60.00
G01 Z-0.0500
G01 F100.00
G01 X40.3500 Y58.5000
G01 X40.3500 Y57.6492
G01 X40.3548 Y57.5520
G01 X40.3691 Y57.4557
G01 X40.3931 Y57.3597
G01 X40.4261 Y57.2673
G01 X40.4685 Y57.1779
G01 X40.5185 Y57.0944
G01 X40.5765 Y57.0162
G01 X40.6429 Y56.9429
G01 X40.7162 Y56.8765
G01 X40.7944 Y56.8185
G01 X40.8786 Y56.7681
G01 X40.9673 Y56.7261
G01 X41.1000 Y56.6786
G01 X41.1000 Y56.1499
G01 X40.7454 Y56.2716
G01 X40.5268 Y56.3899
G01 X40.3306 Y56.5426
G01 X40.1622 Y56.7255
G01 X40.0263 Y56.9336
G01 X39.9264 Y57.1613
G01 X39.8654 Y57.4023
G01 X39.8500 Y57.5879
G01 X39.8500 Y58.5000
G00 Z2.0000
G00 X41.6000 Y56.1499
G01 F60.00
G01 Z-0.0500
G01 F100.00
G01 X41.6000 Y56.6786
G01 X41.7327 Y56.7261
G01 X41.8214 Y56.7681
G01 X41.9056 Y56.8185
G01 X41.9838 Y56.8765
G01 X42.0571 Y56.9429
G01 X42.1235 Y57.0162
G01 X42.1815 Y57.0944
G01 X42.2315 Y57.1779
G01 X42.2739 Y57.2673
G01 X42.3069 Y57.3597
G01 X42.3309 Y57.4557
G01 X42.3452 Y57.5520
G01 X42.3500 Y57.6492
G01 X42.3500 Y58.5000
G01 X42.8500 Y58.5000
G01 X42.8500 Y57.5880
G01 X42.8346 Y57.4023
G01 X42.7736 Y57.1613
G01 X42.6737 Y56.9336
G01 X42.5378 Y56.7255
G01 X42.3694 Y56.5426
G01 X42.1732 Y56.3899
G01 X41.9546 Y56.2716
G01 X41.6000 Y56.1499
G00 Z2.0000
G00 X41.6000 Y61.3501
G01 F60.00
G01 Z-0.0500
G01 F100.00
G01 X41.9546 Y61.2284
G01 X42.1732 Y61.1101
G01 X42.3694 Y60.9574
G01 X42.5378 Y60.7745
G01 X42.6737 Y60.5664
G01 X42.7736 Y60.3387
G01 X42.8346 Y60.0977
G01 X42.8500 Y59.9120
G01 X42.8500 Y59.0000
G01 X42.3500 Y59.0000
G01 X42.3500 Y59.8508
G01 X42.3452 Y59.9480
G01 X42.3309 Y60.0443
G01 X42.3069 Y60.1403
G01 X42.2739 Y60.2327
G01 X42.2315 Y60.3221
G01 X42.1815 Y60.4056
G01 X42.1235 Y60.4838
G01 X42.0571 Y60.5571
G01 X41.9838 Y60.6235
G01 X41.9056 Y60.6815
G01 X41.8214 Y60.7319
G01 X41.7327 Y60.7739
G01 X41.6000 Y60.8214
G01 X41.6000 Y61.3501
G00 Z2.0000
G00 X49.1400 Y50.2181
G01 F60.00
G01 Z-0.0500
G01 F100.00
G01 X49.5174 Y50.3126
G01 X49.5659 Y50.3300
G01 X49.6118 Y50.3517
G01 X49.6573 Y50.3789
G01 X49.6980 Y50.4092
G01 X49.7367 Y50.4443
G01 X49.7713 Y50.4826
G01 X49.8015 Y50.5233
G01 X49.8276 Y50.5669
G01 X49.8500 Y50.6141
G01 X49.8674 Y50.6626
G01 X49.8799 Y50.7126
G01 X49.8875 Y50.7635
G01 X49.8900 Y50.8150
G01 X49.8875 Y50.8657
G01 X49.8799 Y50.9174
G01 X49.8674 Y50.9674
G01 X49.8503 Y51.0152
G01 X49.8280 Y51.0625
G01 X49.8015 Y51.1067
G01 X49.7713 Y51.1474
G01 X49.7362 Y51.1862
G01 X49.6980 Y51.2208
G01 X49.6403 Y51.2637
G01 X49.6403 Y56.4328
G01 X50.9072 Y57.6997
G01 X82.6928 Y57.6997
G01 X84.1997 Y56.1928
G01 X84.1997 Y22.5008
G01 X84.2022 Y22.4510
G01 X84.2095 Y22.4017
G01 X84.2213 Y22.3548
G01 X84.2376 Y22.3093
G01 X84.2588 Y22.2642
G01 X84.2841 Y22.2221
G01 X84.3128 Y22.1833
G01 X84.3468 Y22.1457
G01 X85.8463 Y20.6463
G01 X85.8827 Y20.6133
G01 X85.9215 Y20.5845
G01 X85.9649 Y20.5585
G01 X86.0086 Y20.5378
G01 X86.0548 Y20.5213
G01 X86.1024 Y20.5094
G01 X86.1510 Y20.5022
G01 X86.2008 Y20.4997
G01 X102.0928 Y20.4997
G01 X105.9997 Y16.5928
G01 X105.9997 Y13.7494
G01 X105.9444 Y13.7115
G01 X105.8656 Y13.6530
G01 X105.7929 Y13.5871
G01 X105.7270 Y13.5144
G01 X105.6685 Y13.4356
G01 X105.6181 Y13.3514
G01 X105.5761 Y13.2627
G01 X105.5431 Y13.1703
G01 X105.5192 Y13.0751
G01 X105.5048 Y12.9780
G01 X105.5000 Y12.8800
G01 X105.5048 Y12.7820
G01 X105.5192 Y12.6849
G01 X105.5431 Y12.5897
G01 X105.5761 Y12.4973
G01 X105.6181 Y12.4086
G01 X105.6685 Y12.3244
G01 X105.7270 Y12.2456
G01 X105.7935 Y12.1724
G01 X105.8656 Y12.1070
G01 X105.9438 Y12.0490
G01 X106.0286 Y11.9981
G01 X106.1173 Y11.9561
G01 X106.2105 Y11.9229
G01 X106.3049 Y11.8992
G01 X106.4012 Y11.8849
G01 X106.5000 Y11.8800
G01 X106.5988 Y11.8849
G01 X106.6951 Y11.8992
G01 X106.7895 Y11.9229
G01 X106.8827 Y11.9561
G01 X106.9714 Y11.9981
G01 X107.0562 Y12.0490
G01 X107.1344 Y12.1070
G01 X107.2065 Y12.1724
G01 X107.2730 Y12.2456
G01 X107.3315 Y12.3244
G01 X107.3819 Y12.4086
G01 X107.4236 Y12.4966
G01 X107.4571 Y12.5905
G01 X107.4808 Y12.6849
G01 X107.4952 Y12.7820
G01 X107.5000 Y12.8800
G01 X107.4952 Y12.9780
G01 X107.4806 Y13.0758
G01 X107.4569 Y13.1703
G01 X107.4241 Y13.2620
G01 X107.3819 Y13.3514
G01 X107.3315 Y13.4356
G01 X107.2730 Y13.5144
G01 X107.2071 Y13.5871
G01 X107.1344 Y13.6530
G01 X107.0556 Y13.7115
G01 X107.0003 Y13.7494
G01 X107.0002 Y16.8000
G01 X106.9978 Y16.8490
G01 X106.9905 Y16.8983
G01 X106.9787 Y16.9452
G01 X106.9624 Y16.9907
G01 X106.9412 Y17.0358
G01 X106.9159 Y17.0779
G01 X106.8872 Y17.1167
G01 X106.8532 Y17.1543
G01 X102.6543 Y21.3532
G01 X102.6173 Y21.3867
G01 X102.5779 Y21.4159
G01 X102.5358 Y21.4412
G01 X102.4921 Y21.4618
G01 X102.4452 Y21.4787
G01 X102.3976 Y21.4906
G01 X102.3490 Y21.4978
G01 X102.2992 Y21.5003
G01 X86.4072 Y21.5003
G01 X85.2003 Y22.7072
G01 X85.2003 Y56.3992
G01 X85.1978 Y56.4490
G01 X85.1906 Y56.4976
G01 X85.1789 Y56.5445
G01 X85.1618 Y56.5921
G01 X85.1412 Y56.6358
G01 X85.1159 Y56.6779
G01 X85.0867 Y56.7173
G01 X85.0542 Y56.7532
G01 X83.2543 Y58.5532
G01 X83.2173 Y58.5867
G01 X83.1779 Y58.6159
G01 X83.1358 Y58.6412
G01 X83.0914 Y58.6622
G01 X83.0452 Y58.6787
G01 X82.9976 Y58.6906
G01 X82.9490 Y58.6978
G01 X82.9008 Y58.7002
G01 X50.7008 Y58.7003
G01 X50.6502 Y58.6977
G01 X50.6024 Y58.6906
G01 X50.5548 Y58.6787
G01 X50.5079 Y58.6618
G01 X50.4642 Y58.6412
G01 X50.4221 Y58.6159
G01 X50.3827 Y58.5867
G01 X50.3457 Y58.5532
G01 X48.7463 Y56.9537
G01 X48.7128 Y56.9167
G01 X48.6841 Y56.8779
G01 X48.6588 Y56.8358
G01 X48.6376 Y56.7907
G01 X48.6213 Y56.7452
G01 X48.6095 Y56.6983
G01 X48.6021 Y56.6483
G01 X48.5998 Y56.6000
G01 X48.6022 Y56.5510
G01 X48.6094 Y56.5024
G01 X48.6211 Y56.4555
G01 X48.6397 Y56.4032
G01 X48.6397 Y51.3153
G01 X46.5150 Y51.3152
G01 X46.4660 Y51.3128
G01 X46.4174 Y51.3056
G01 X46.3698 Y51.2937
G01 X46.3236 Y51.2772
G01 X46.2792 Y51.2562
G01 X46.2371 Y51.2309
G01 X46.1977 Y51.2017
G01 X46.1613 Y51.1687
G01 X44.7468 Y49.7543
G01 X44.7128 Y49.7167
G01 X44.6841 Y49.6779
G01 X44.6592 Y49.6365
G01 X44.6378 Y49.5914
G01 X44.6211 Y49.5445
G01 X44.6094 Y49.4976
G01 X44.6023 Y49.4498
G01 X44.5997 Y49.3992
G01 X44.5997 Y35.4003
G01 X22.8008 Y35.4003
G01 X22.7517 Y35.3979
G01 X22.7017 Y35.3905
G01 X22.6548 Y35.3787
G01 X22.6086 Y35.3622
G01 X22.5642 Y35.3412
G01 X22.5227 Y35.3163
G01 X22.4821 Y35.2862
G01 X22.4457 Y35.2532
G01 X21.2468 Y34.0543
G01 X21.2133 Y34.0173
G01 X21.1841 Y33.9779
G01 X21.1588 Y33.9358
G01 X21.1382 Y33.8921
G01 X21.1213 Y33.8452
G01 X21.1094 Y33.7976
G01 X21.1023 Y33.7498
G01 X21.0997 Y33.6992
G01 X21.0997 Y17.9008
G01 X21.1022 Y17.8510
G01 X21.1094 Y17.8024
G01 X21.1211 Y17.7555
G01 X21.1378 Y17.7086
G01 X21.1588 Y17.6642
G01 X21.1837 Y17.6227
G01 X21.2138 Y17.5821
G01 X21.2468 Y17.5457
G01 X22.3457 Y16.4468
G01 X22.3827 Y16.4133
G01 X22.4227 Y16.3837
G01 X22.4642 Y16.3588
G01 X22.5086 Y16.3378
G01 X22.5555 Y16.3211
G01 X22.6024 Y16.3094
G01 X22.6510 Y16.3022
G01 X22.7000 Y16.2998
G01 X22.7483 Y16.3021
G01 X22.7976 Y16.3094
G01 X22.8459 Y16.3215
G01 X22.8914 Y16.3378
G01 X22.9351 Y16.3585
G01 X22.9785 Y16.3845
G01 X23.0173 Y16.4133
G01 X23.0532 Y16.4458
G01 X23.0867 Y16.4827
G01 X23.1163 Y16.5227
G01 X23.1412 Y16.5642
G01 X23.1618 Y16.6079
G01 X23.1787 Y16.6548
G01 X23.1906 Y16.7024
G01 X23.1977 Y16.7502
G01 X23.2002 Y16.8000
G01 X23.1978 Y16.8490
G01 X23.1908 Y16.8968
G01 X23.1785 Y16.9459
G01 X23.1622 Y16.9914
G01 X23.1412 Y17.0358
G01 X23.1159 Y17.0779
G01 X23.0867 Y17.1173
G01 X23.0532 Y17.1543
G01 X22.1003 Y18.1072
G01 X22.1003 Y33.4928
G01 X23.0072 Y34.3997
G01 X50.2928 Y34.3997
G01 X52.6997 Y31.9928
G01 X52.6997 Y23.7008
G01 X52.7022 Y23.6510
G01 X52.7094 Y23.6024
G01 X52.7211 Y23.5555
G01 X52.7378 Y23.5086
G01 X52.7588 Y23.4642
G01 X52.7837 Y23.4227
G01 X52.8133 Y23.3827
G01 X52.8468 Y23.3458
G01 X52.8827 Y23.3133
G01 X52.9221 Y23.2841
G01 X52.9642 Y23.2588
G01 X53.0079 Y23.2382
G01 X53.0548 Y23.2213
G01 X53.1024 Y23.2094
G01 X53.1502 Y23.2023
G01 X53.2000 Y23.1998
G01 X53.2498 Y23.2023
G01 X53.2976 Y23.2094
G01 X53.3452 Y23.2213
G01 X53.3921 Y23.2382
G01 X53.4358 Y23.2588
G01 X53.4779 Y23.2841
G01 X53.5173 Y23.3133
G01 X53.5532 Y23.3458
G01 X53.5867 Y23.3827
G01 X53.6159 Y23.4221
G01 X53.6412 Y23.4642
G01 X53.6622 Y23.5086
G01 X53.6785 Y23.5541
G01 X53.6908 Y23.6032
G01 X53.6978 Y23.6510
G01 X53.7003 Y23.7008
G01 X53.7003 Y32.1992
G01 X53.6977 Y32.2498
G01 X53.6906 Y32.2976
G01 X53.6787 Y32.3452
G01 X53.6618 Y32.3921
G01 X53.6412 Y32.4358
G01 X53.6159 Y32.4779
G01 X53.5867 Y32.5173
G01 X53.5532 Y32.5543
G01 X50.8543 Y35.2532
G01 X50.8173 Y35.2867
G01 X50.7779 Y35.3159
G01 X50.7358 Y35.3412
G01 X50.6907 Y35.3624
G01 X50.6452 Y35.3787
G01 X50.5976 Y35.3906
G01 X50.5490 Y35.3978
G01 X50.4992 Y35.4003
G01 X45.6003 Y35.4003
G01 X45.6003 Y49.1928
G01 X46.7222 Y50.3147
G01 X48.7540 Y50.3147
G01 X49.1400 Y50.2181
G00 Z2.0000
G00 X47.8900 Y48.0250
G01 F60.00
G01 Z-0.0500
G01 F100.00
G01 X48.3900 Y48.0250
G01 X48.3900 Y47.7500
G01 X48.8900 Y47.7500
G01 X48.8900 Y47.2500
G01 X48.3422 Y47.2500
G01 X48.2826 Y47.2564
G01 X48.1479 Y47.3066
G01 X48.0328 Y47.3928
G01 X47.9466 Y47.5079
G01 X47.8964 Y47.6426
G01 X47.8900 Y47.7022
G01 X47.8900 Y48.0250
G00 Z2.0000
G00 X49.3900 Y47.2500
G01 F60.00
G01 Z-0.0500
G01 F100.00
G01 X49.3900 Y47.7500
G01 X49.8900 Y47.7500
G01 X49.8900 Y48.0250
G01 X50.3900 Y48.0250
G01 X50.3900 Y47.7022
G01 X50.3836 Y47.6426
G01 X50.3334 Y47.5079
G01 X50.2472 Y47.3928
G01 X50.1321 Y47.3066
G01 X49.9974 Y47.2564
G01 X49.9378 Y47.2500
G01 X49.3900 Y47.2500
G00 Z2.0000
G00 X47.7229 Y44.1865
G01 F60.00
G01 Z-0.0500
G01 F100.00
G01 X47.7421 Y44.3695
G01 X47.7864 Y44.5057
G01 X47.7990 Y44.5445
G01 X47.8910 Y44.7038
G01 X48.0141 Y44.8405
G01 X48.1629 Y44.9487
G01 X48.3310 Y45.0235
G01 X48.5110 Y45.0618
G01 X48.6950 Y45.0618
G01 X48.8749 Y45.0235
G01 X49.0430 Y44.9487
G01 X49.1918 Y44.8405
G01 X49.3150 Y44.7038
G01 X49.4070 Y44.5445
G01 X49.4638 Y44.3695
G01 X49.4830 Y44.1865
G01 X49.4638 Y44.0035
G01 X49.4070 Y43.8286
G01 X49.3150 Y43.6692
G01 X49.1918 Y43.5325
G01 X49.0430 Y43.4243
G01 X48.8749 Y43.3495
G01 X48.6950 Y43.3113
G01 X48.5110 Y43.3113
G01 X48.3310 Y43.3495
G01 X48.1629 Y43.4243
G01 X48.0141 Y43.5325
G01 X47.8910 Y43.6692
G01 X47.7990 Y43.8286
G01 X47.7421 Y44.0035
G01 X47.7229 Y44.1865
G00 Z2.0000
G00 X60.6748 Y48.8750
G01 F60.00
G01 Z-0.0500
G01 F100.00
G01 X60.6935 Y49.0877
G01 X60.7487 Y49.2940
G01 X60.8390 Y49.4876
G01 X60.9615 Y49.6625
G01 X61.1125 Y49.8135
G01 X61.2874 Y49.9360
G01 X61.4810 Y50.0263
G01 X61.6873 Y50.0815
G01 X61.9000 Y50.1002
G01 X62.1127 Y50.0815
G01 X62.3190 Y50.0263
G01 X62.5126 Y49.9360
G01 X62.6875 Y49.8135
G01 X62.8385 Y49.6625
G01 X62.9610 Y49.4876
G01 X63.0513 Y49.2940
G01 X63.1065 Y49.0877
G01 X63.1252 Y48.8750
G01 X63.1065 Y48.6623
G01 X63.0513 Y48.4560
G01 X62.9610 Y48.2624
G01 X62.8385 Y48.0875
G01 X62.6875 Y47.9365
G01 X62.5126 Y47.8140
G01 X62.3190 Y47.7237
G01 X62.1127 Y47.6685
G01 X61.9000 Y47.6498
G01 X61.6873 Y47.6685
G01 X61.4810 Y47.7237
G01 X61.2874 Y47.8140
G01 X61.1125 Y47.9365
G01 X60.9615 Y48.0875
G01 X60.8390 Y48.2624
G01 X60.7487 Y48.4560
G01 X60.6935 Y48.6623
G01 X60.6748 Y48.8750
G00 Z2.0000
G00 X60.9361 Y48.9815
G01 F60.00
G01 Z-0.0500
G01 F100.00
G01 X60.9467 Y49.0529
G01 X60.9486 Y49.0642
G01 X60.9511 Y49.0755
G01 X60.9687 Y49.1455
G01 X60.9718 Y49.1566
G01 X60.9754 Y49.1675
G01 X60.9997 Y49.2355
G01 X61.0038 Y49.2462
G01 X61.0085 Y49.2567
G01 X61.0393 Y49.3220
G01 X61.0445 Y49.3323
G01 X61.0502 Y49.3423
G01 X61.0873 Y49.4042
G01 X61.0935 Y49.4139
G01 X61.1001 Y49.4233
G01 X61.1431 Y49.4813
G01 X61.1502 Y49.4904
G01 X61.1577 Y49.4991
G01 X61.2062 Y49.5526
G01 X61.2141 Y49.5609
G01 X61.2224 Y49.5688
G01 X61.2759 Y49.6173
G01 X61.2846 Y49.6248
G01 X61.2937 Y49.6319
G01 X61.3517 Y49.6749
G01 X61.3611 Y49.6815
G01 X61.3708 Y49.6877
G01 X61.4327 Y49.7248
G01 X61.4427 Y49.7305
G01 X61.4530 Y49.7357
G01 X61.5183 Y49.7665
G01 X61.5288 Y49.7712
G01 X61.5395 Y49.7753
G01 X61.6075 Y49.7996
G01 X61.6184 Y49.8032
G01 X61.6295 Y49.8063
G01 X61.6995 Y49.8239
G01 X61.7108 Y49.8264
G01 X61.7221 Y49.8283
G01 X61.7935 Y49.8389
G01 X61.8049 Y49.8403
G01 X61.8164 Y49.8412
G01 X61.8885 Y49.8447
G01 X61.9000 Y49.8450
G01 X61.9115 Y49.8447
G01 X61.9836 Y49.8412
G01 X61.9951 Y49.8403
G01 X62.0065 Y49.8389
G01 X62.0779 Y49.8283
G01 X62.0892 Y49.8264
G01 X62.1005 Y49.8239
G01 X62.1705 Y49.8063
G01 X62.1816 Y49.8032
G01 X62.1925 Y49.7996
G01 X62.2605 Y49.7753
G01 X62.2712 Y49.7712
G01 X62.2817 Y49.7665
G01 X62.3470 Y49.7357
G01 X62.3573 Y49.7305
G01 X62.3673 Y49.7248
G01 X62.4292 Y49.6877
G01 X62.4389 Y49.6815
G01 X62.4483 Y49.6749
G01 X62.5063 Y49.6319
G01 X62.5154 Y49.6248
G01 X62.5241 Y49.6173
G01 X62.5776 Y49.5688
G01 X62.5859 Y49.5609
G01 X62.5938 Y49.5526
G01 X62.6423 Y49.4991
G01 X62.6498 Y49.4904
G01 X62.6569 Y49.4813
G01 X62.6999 Y49.4233
G01 X62.7065 Y49.4139
G01 X62.7127 Y49.4042
G01 X62.7498 Y49.3423
G01 X62.7555 Y49.3323
G01 X62.7607 Y49.3220
G01 X62.7915 Y49.2567
G01 X62.7962 Y49.2462
G01 X62.8003 Y49.2355
G01 X62.8246 Y49.1675
G01 X62.8282 Y49.1566
G01 X62.8313 Y49.1455
G01 X62.8489 Y49.0755
G01 X62.8514 Y49.0642
G01 X62.8533 Y49.0529
G01 X62.8639 Y48.9815
G01 X62.8653 Y48.9701
G01 X62.8662 Y48.9586
G01 X62.8697 Y48.8865
G01 X62.8700 Y48.8750
G01 X62.8697 Y48.8635
G01 X62.8662 Y48.7914
G01 X62.8653 Y48.7799
G01 X62.8639 Y48.7685
G01 X62.8533 Y48.6971
G01 X62.8514 Y48.6858
G01 X62.8489 Y48.6745
G01 X62.8313 Y48.6045
G01 X62.8282 Y48.5934
G01 X62.8246 Y48.5825
G01 X62.8003 Y48.5145
G01 X62.7962 Y48.5038
G01 X62.7915 Y48.4933
G01 X62.7607 Y48.4280
G01 X62.7555 Y48.4177
G01 X62.7498 Y48.4077
G01 X62.7127 Y48.3458
G01 X62.7065 Y48.3361
G01 X62.6999 Y48.3267
G01 X62.6569 Y48.2687
G01 X62.6498 Y48.2596
G01 X62.6423 Y48.2509
G01 X62.5938 Y48.1974
G01 X62.5859 Y48.1891
G01 X62.5776 Y48.1812
G01 X62.5241 Y48.1327
G01 X62.5154 Y48.1252
G01 X62.5063 Y48.1181
G01 X62.4483 Y48.0751
G01 X62.4389 Y48.0685
G01 X62.4292 Y48.0623
G01 X62.3673 Y48.0252
G01 X62.3573 Y48.0195
G01 X62.3470 Y48.0143
G01 X62.2817 Y47.9835
G01 X62.2712 Y47.9788
G01 X62.2605 Y47.9747
G01 X62.1925 Y47.9504
G01 X62.1816 Y47.9468
G01 X62.1705 Y47.9437
G01 X62.1005 Y47.9261
G01 X62.0892 Y47.9236
G01 X62.0779 Y47.9217
G01 X62.0065 Y47.9111
G01 X61.9951 Y47.9097
G01 X61.9836 Y47.9088
G01 X61.9115 Y47.9053
G01 X61.9000 Y47.9050
G01 X61.8885 Y47.9053
G01 X61.8164 Y47.9088
G01 X61.8049 Y47.9097
G01 X61.7935 Y47.9111
G01 X61.7221 Y47.9217
G01 X61.7108 Y47.9236
G01 X61.6995 Y47.9261
G01 X61.6295 Y47.9437
G01 X61.6184 Y47.9468
G01 X61.6075 Y47.9504
G01 X61.5395 Y47.9747
G01 X61.5288 Y47.9788
G01 X61.5183 Y47.9835
G01 X61.4530 Y48.0143
G01 X61.4427 Y48.0195
G01 X61.4327 Y48.0252
G01 X61.3708 Y48.0623
G01 X61.3611 Y48.0685
G01 X61.3517 Y48.0751
G01 X61.2937 Y48.1181
G01 X61.2846 Y48.1252
G01 X61.2759 Y48.1327
G01 X61.2224 Y48.1812
G01 X61.2141 Y48.1891
G01 X61.2062 Y48.1974
G01 X61.1577 Y48.2509
G01 X61.1502 Y48.2596
G01 X61.1431 Y48.2687
G01 X61.1001 Y48.3267
G01 X61.0935 Y48.3361
G01 X61.0873 Y48.3458
G01 X61.0502 Y48.4077
G01 X61.0445 Y48.4177
G01 X61.0393 Y48.4280
G01 X61.0085 Y48.4933
G01 X61.0038 Y48.5038
G01 X60.9997 Y48.5145
G01 X60.9754 Y48.5825
G01 X60.9718 Y48.5934
G01 X60.9687 Y48.6045
G01 X60.9511 Y48.6745
G01 X60.9486 Y48.6858
G01 X60.9467 Y48.6971
G01 X60.9361 Y48.7685
G01 X60.9347 Y48.7799
G01 X60.9338 Y48.7914
G01 X60.9303 Y48.8635
G01 X60.9300 Y48.8750
G01 X60.9303 Y48.8865
G01 X60.9338 Y48.9586
G01 X60.9347 Y48.9701
G01 X60.9361 Y48.9815
G00 Z2.0000
G00 X58.3961 Y54.0615
G01 F60.00
G01 Z-0.0500
G01 F100.00
G01 X58.4067 Y54.1329
G01 X58.4086 Y54.1442
G01 X58.4111 Y54.1555
G01 X58.4287 Y54.2255
G01 X58.4318 Y54.2366
G01 X58.4354 Y54.2475
G01 X58.4597 Y54.3155
G01 X58.4638 Y54.3262
G01 X58.4685 Y54.3367
G01 X58.4993 Y54.4020
G01 X58.5045 Y54.4123
G01 X58.5102 Y54.4223
G01 X58.5473 Y54.4842
G01 X58.5535 Y54.4939
G01 X58.5601 Y54.5033
G01 X58.6031 Y54.5613
G01 X58.6102 Y54.5704
G01 X58.6177 Y54.5791
G01 X58.6662 Y54.6326
G01 X58.6741 Y54.6409
G01 X58.6824 Y54.6488
G01 X58.7359 Y54.6973
G01 X58.7446 Y54.7048
G01 X58.7537 Y54.7119
G01 X58.8117 Y54.7549
G01 X58.8211 Y54.7615
G01 X58.8308 Y54.7677
G01 X58.8927 Y54.8048
G01 X58.9027 Y54.8105
G01 X58.9130 Y54.8157
G01 X58.9783 Y54.8465
G01 X58.9888 Y54.8512
G01 X58.9995 Y54.8553
G01 X59.0675 Y54.8796
G01 X59.0784 Y54.8832
G01 X59.0895 Y54.8863
G01 X59.1595 Y54.9039
G01 X59.1708 Y54.9064
G01 X59.1821 Y54.9083
G01 X59.2535 Y54.9189
G01 X59.2649 Y54.9203
G01 X59.2764 Y54.9212
G01 X59.3485 Y54.9247
G01 X59.3600 Y54.9250
G01 X59.3715 Y54.9247
G01 X59.4436 Y54.9212
G01 X59.4551 Y54.9203
G01 X59.4665 Y54.9189
G01 X59.5379 Y54.9083
G01 X59.5492 Y54.9064
G01 X59.5605 Y54.9039
G01 X59.6305 Y54.8863
G01 X59.6416 Y54.8832
G01 X59.6525 Y54.8796
G01 X59.7205 Y54.8553
G01 X59.7312 Y54.8512
G01 X59.7417 Y54.8465
G01 X59.8070 Y54.8157
G01 X59.8173 Y54.8105
G01 X59.8273 Y54.8048
G01 X59.8892 Y54.7677
G01 X59.8989 Y54.7615
G01 X59.9083 Y54.7549
G01 X59.9663 Y54.7119
G01 X59.9754 Y54.7048
G01 X59.9841 Y54.6973
G01 X60.0376 Y54.6488
G01 X60.0459 Y54.6409
G01 X60.0538 Y54.6326
G01 X60.1023 Y54.5791
G01 X60.1098 Y54.5704
G01 X60.1169 Y54.5613
G01 X60.1599 Y54.5033
G01 X60.1665 Y54.4939
G01 X60.1727 Y54.4842
G01 X60.2098 Y54.4223
G01 X60.2155 Y54.4123
G01 X60.2207 Y54.4020
G01 X60.2515 Y54.3367
G01 X60.2562 Y54.3262
G01 X60.2603 Y54.3155
G01 X60.2846 Y54.2475
G01 X60.2882 Y54.2366
G01 X60.2913 Y54.2255
G01 X60.3089 Y54.1555
G01 X60.3114 Y54.1442
G01 X60.3133 Y54.1329
G01 X60.3239 Y54.0615
G01 X60.3253 Y54.0501
G01 X60.3262 Y54.0386
G01 X60.3297 Y53.9665
G01 X60.3300 Y53.9550
G01 X60.3297 Y53.9435
G01 X60.3262 Y53.8714
G01 X60.3253 Y53.8599
G01 X60.3239 Y53.8485
G01 X60.3133 Y53.7771
G01 X60.3114 Y53.7658
G01 X60.3089 Y53.7545
G01 X60.2913 Y53.6845
G01 X60.2882 Y53.6734
G01 X60.2846 Y53.6625
G01 X60.2603 Y53.5945
G01 X60.2562 Y53.5838
G01 X60.2515 Y53.5733
G01 X60.2207 Y53.5080
G01 X60.2155 Y53.4977
G01 X60.2098 Y53.4877
G01 X60.1727 Y53.4258
G01 X60.1665 Y53.4161
G01 X60.1599 Y53.4067
G01 X60.1169 Y53.3487
G01 X60.1098 Y53.3396
G01 X60.1023 Y53.3309
G01 X60.0538 Y53.2774
G01 X60.0459 Y53.2691
G01 X60.0376 Y53.2612
G01 X59.9841 Y53.2127
G01 X59.9754 Y53.2052
G01 X59.9663 Y53.1981
G01 X59.9083 Y53.1551
G01 X59.8989 Y53.1485
G01 X59.8892 Y53.1423
G01 X59.8273 Y53.1052
G01 X59.8173 Y53.0995
G01 X59.8070 Y53.0943
G01 X59.7417 Y53.0635
G01 X59.7312 Y53.0588
G01 X59.7205 Y53.0547
G01 X59.6525 Y53.0304
G01 X59.6416 Y53.0268
G01 X59.6305 Y53.0237
G01 X59.5605 Y53.0061
G01 X59.5492 Y53.0036
G01 X59.5379 Y53.0017
G01 X59.4665 Y52.9911
G01 X59.4551 Y52.9897
G01 X59.4436 Y52.9888
G01 X59.3715 Y52.9853
G01 X59.3600 Y52.9850
G01 X59.3485 Y52.9853
G01 X59.2764 Y52.9888
G01 X59.2649 Y52.9897
G01 X59.2535 Y52.9911
G01 X59.1821 Y53.0017
G01 X59.1708 Y53.0036
G01 X59.1595 Y53.0061
G01 X59.0895 Y53.0237
G01 X59.0784 Y53.0268
G01 X59.0675 Y53.0304
G01 X58.9995 Y53.0547
G01 X58.9888 Y53.0588
G01 X58.9783 Y53.0635
G01 X58.9130 Y53.0943
G01 X58.9027 Y53.0995
G01 X58.8927 Y53.1052
G01 X58.8308 Y53.1423
G01 X58.8211 Y53.1485
G01 X58.8117 Y53.1551
G01 X58.7537 Y53.1981
G01 X58.7446 Y53.2052
G01 X58.7359 Y53.2127
G01 X58.6824 Y53.2612
G01 X58.6741 Y53.2691
