(G-CODE GENERATED BY FLATCAM v8.994 - www.flatcam.org - Version Date: 2020/11/7)

(Name: Sensorbox-B_Cu.gbr_ncc_1_cnc)
(Type: G-code from Geometry)
(Units: MM)

(Created on Wednesday, 21 February 2024 at 15:19)

(This preprocessor is the default preprocessor used by FlatCAM.)
(It is made to work with MACH3 compatible motion controllers.)

(TOOL DIAMETER: 0.5 mm)
(Feedrate_XY: 120.0 mm/min)
(Feedrate_Z: 60.0 mm/min)
(Feedrate rapids 1500.0 mm/min)

(Z_Cut: -0.06 mm)
(Z_Move: 2.0 mm)
(Z Start: None mm)
(Z End: 15.0 mm)
(X,Y End: None mm)
(Steps per circle: 64)
(Preprocessor Geometry: default)

(X range:   -0.9334 ...  110.9334  mm)
(Y range:   -0.9334 ...   70.9334  mm)

(Spindle Speed: 20000.0 RPM)
G21
G90
G94

G01 F120.00

M5
G00 Z20.0000
G00 X0.0000 Y0.0000
T1
M6    
(MSG, Change to Tool Dia = 0.5000)
M0
G00 Z20.0000

M03 S20000.0
G01 F120.00
G00 X-0.2059 Y-0.0505
G01 F60.00
G01 Z-0.0600
G01 F120.00
G01 X-0.7291 Y-0.0505
G00 Z2.0000
G00 X-0.2495 Y0.2495
G01 F60.00
G01 Z-0.0600
G01 F120.00
G01 X-0.7495 Y0.2495
G01 X-0.7495 Y0.5495
G01 X-0.2495 Y0.5495
G01 X-0.2495 Y0.8495
G01 X-0.7495 Y0.8495
G01 X-0.7495 Y1.1495
G01 X-0.2495 Y1.1495
G01 X-0.2495 Y1.4495
G01 X-0.7495 Y1.4495
G01 X-0.7495 Y1.7495
G01 X-0.2495 Y1.7495
G01 X-0.2495 Y2.0495
G01 X-0.7495 Y2.0495
G01 X-0.7495 Y2.3495
G01 X-0.2495 Y2.3495
G01 X-0.2495 Y2.6495
G01 X-0.7495 Y2.6495
G01 X-0.7495 Y2.9495
G01 X-0.2495 Y2.9495
G01 X-0.2495 Y3.2495
G01 X-0.7495 Y3.2495
G01 X-0.7495 Y3.5495
G01 X-0.2495 Y3.5495
G01 X-0.2495 Y3.8495
G01 X-0.7495 Y3.8495
G01 X-0.7495 Y4.1495
G01 X-0.2495 Y4.1495
G01 X-0.2495 Y4.4495
G01 X-0.7495 Y4.4495
G01 X-0.7495 Y4.7495
G01 X-0.2495 Y4.7495
G01 X-0.2495 Y5.0495
G01 X-0.7495 Y5.0495
G01 X-0.7495 Y5.3495
G01 X-0.2495 Y5.3495
G01 X-0.2495 Y5.6495
G01 X-0.7495 Y5.6495
G01 X-0.7495 Y5.9495
G01 X-0.2495 Y5.9495
G01 X-0.2495 Y6.2495
G01 X-0.7495 Y6.2495
G01 X-0.7495 Y6.5495
G01 X-0.2495 Y6.5495
G01 X-0.2495 Y6.8495
G01 X-0.7495 Y6.8495
G01 X-0.7495 Y7.1495
G01 X-0.2495 Y7.1495
G01 X-0.2495 Y7.4495
G01 X-0.7495 Y7.4495
G01 X-0.7495 Y7.7495
G01 X-0.2495 Y7.7495
G01 X-0.2495 Y8.0495
G01 X-0.7495 Y8.0495
G01 X-0.7495 Y8.3495
G01 X-0.2495 Y8.3495
G01 X-0.2495 Y8.6495
G01 X-0.7495 Y8.6495
G01 X-0.7495 Y8.9495
G01 X-0.2495 Y8.9495
G01 X-0.2495 Y9.2495
G01 X-0.7495 Y9.2495
G01 X-0.7495 Y9.5495
G01 X-0.2495 Y9.5495
G01 X-0.2495 Y9.8495
G01 X-0.7495 Y9.8495
G01 X-0.7495 Y10.1495
G01 X-0.2495 Y10.1495
G01 X-0.2495 Y10.4495
G01 X-0.7495 Y10.4495
G01 X-0.7495 Y10.7495
G01 X-0.2495 Y10.7495
G01 X-0.2495 Y11.0495
G01 X-0.7495 Y11.0495
G01 X-0.7495 Y11.3495
G01 X-0.2495 Y11.3495
G01 X-0.2495 Y11.6495
G01 X-0.7495 Y11.6495
G01 X-0.7495 Y11.9495
G01 X-0.2495 Y11.9495
G01 X-0.2495 Y12.2495
G01 X-0.7495 Y12.2495
G01 X-0.7495 Y12.5495
G01 X-0.2495 Y12.5495
G01 X-0.2495 Y12.8495
G01 X-0.7495 Y12.8495
G01 X-0.7495 Y13.1495
G01 X-0.2495 Y13.1495
G01 X-0.2495 Y13.4495
G01 X-0.7495 Y13.4495
G01 X-0.7495 Y13.7495
G01 X-0.2495 Y13.7495
G01 X-0.2495 Y14.0495
G01 X-0.7495 Y14.0495
G01 X-0.7495 Y14.3495
G01 X-0.2495 Y14.3495
G01 X-0.2495 Y14.6495
G01 X-0.7495 Y14.6495
G01 X-0.7495 Y14.9495
G01 X-0.2495 Y14.9495
G01 X-0.2495 Y15.2495
G01 X-0.7495 Y15.2495
G01 X-0.7495 Y15.5495
G01 X-0.2495 Y15.5495
G01 X-0.2495 Y15.8495
G01 X-0.7495 Y15.8495
G01 X-0.7495 Y16.1495
G01 X-0.2495 Y16.1495
G01 X-0.2495 Y16.4495
G01 X-0.7495 Y16.4495
G01 X-0.7495 Y16.7495
G01 X-0.2495 Y16.7495
G01 X-0.2495 Y17.0495
G01 X-0.7495 Y17.0495
G01 X-0.7495 Y17.3495
G01 X-0.2495 Y17.3495
G01 X-0.2495 Y17.6495
G01 X-0.7495 Y17.6495
G01 X-0.7495 Y17.9495
G01 X-0.2495 Y17.9495
G01 X-0.2495 Y18.2495
G01 X-0.7495 Y18.2495
G01 X-0.7495 Y18.5495
G01 X-0.2495 Y18.5495
G01 X-0.2495 Y18.8495
G01 X-0.7495 Y18.8495
G01 X-0.7495 Y19.1495
G01 X-0.2495 Y19.1495
G01 X-0.2495 Y19.4495
G01 X-0.7495 Y19.4495
G01 X-0.7495 Y19.7495
G01 X-0.2495 Y19.7495
G01 X-0.2495 Y20.0495
G01 X-0.7495 Y20.0495
G01 X-0.7495 Y20.3495
G01 X-0.2495 Y20.3495
G01 X-0.2495 Y20.6495
G01 X-0.7495 Y20.6495
G01 X-0.7495 Y20.9495
G01 X-0.2495 Y20.9495
G01 X-0.2495 Y21.2495
G01 X-0.7495 Y21.2495
G01 X-0.7495 Y21.5495
G01 X-0.2495 Y21.5495
G01 X-0.2495 Y21.8495
G01 X-0.7495 Y21.8495
G01 X-0.7495 Y22.1495
G01 X-0.2495 Y22.1495
G01 X-0.2495 Y22.4495
G01 X-0.7495 Y22.4495
G01 X-0.7495 Y22.7495
G01 X-0.2495 Y22.7495
G01 X-0.2495 Y23.0495
G01 X-0.7495 Y23.0495
G01 X-0.7495 Y23.3495
G01 X-0.2495 Y23.3495
G01 X-0.2495 Y23.6495
G01 X-0.7495 Y23.6495
G01 X-0.7495 Y23.9495
G01 X-0.2495 Y23.9495
G01 X-0.2495 Y24.2495
G01 X-0.7495 Y24.2495
G01 X-0.7495 Y24.5495
G01 X-0.2495 Y24.5495
G01 X-0.2495 Y24.8495
G01 X-0.7495 Y24.8495
G01 X-0.7495 Y25.1495
G01 X-0.2495 Y25.1495
G01 X-0.2495 Y25.4495
G01 X-0.7495 Y25.4495
G01 X-0.7495 Y25.7495
G01 X-0.2495 Y25.7495
G01 X-0.2495 Y26.0495
G01 X-0.7495 Y26.0495
G01 X-0.7495 Y26.3495
G01 X-0.2495 Y26.3495
G01 X-0.2495 Y26.6495
G01 X-0.7495 Y26.6495
G01 X-0.7495 Y26.9495
G01 X-0.2495 Y26.9495
G01 X-0.2495 Y27.2495
G01 X-0.7495 Y27.2495
G01 X-0.7495 Y27.5495
G01 X-0.2495 Y27.5495
G01 X-0.2495 Y27.8495
G01 X-0.7495 Y27.8495
G01 X-0.7495 Y28.1495
G01 X-0.2495 Y28.1495
G01 X-0.2495 Y28.4495
G01 X-0.7495 Y28.4495
G01 X-0.7495 Y28.7495
G01 X-0.2495 Y28.7495
G01 X-0.2495 Y29.0495
G01 X-0.7495 Y29.0495
G01 X-0.7495 Y29.3495
G01 X-0.2495 Y29.3495
G01 X-0.2495 Y29.6495
G01 X-0.7495 Y29.6495
G01 X-0.7495 Y29.9495
G01 X-0.2495 Y29.9495
G01 X-0.2495 Y30.2495
G01 X-0.7495 Y30.2495
G01 X-0.7495 Y30.5495
G01 X-0.2495 Y30.5495
G01 X-0.2495 Y30.8495
G01 X-0.7495 Y30.8495
G01 X-0.7495 Y31.1495
G01 X-0.2495 Y31.1495
G01 X-0.2495 Y31.4495
G01 X-0.7495 Y31.4495
G01 X-0.7495 Y31.7495
G01 X-0.2495 Y31.7495
G01 X-0.2495 Y32.0495
G01 X-0.7495 Y32.0495
G01 X-0.7495 Y32.3495
G01 X-0.2495 Y32.3495
G01 X-0.2495 Y32.6495
G01 X-0.7495 Y32.6495
G01 X-0.7495 Y32.9495
G01 X-0.2495 Y32.9495
G01 X-0.2495 Y33.2495
G01 X-0.7495 Y33.2495
G01 X-0.7495 Y33.5495
G01 X-0.2495 Y33.5495
G01 X-0.2495 Y33.8495
G01 X-0.7495 Y33.8495
G01 X-0.7495 Y34.1495
G01 X-0.2495 Y34.1495
G01 X-0.2495 Y34.4495
G01 X-0.7495 Y34.4495
G01 X-0.7495 Y34.7495
G01 X-0.2495 Y34.7495
G01 X-0.2495 Y35.0495
G01 X-0.7495 Y35.0495
G01 X-0.7495 Y35.3495
G01 X-0.2495 Y35.3495
G01 X-0.2495 Y35.6495
G01 X-0.7495 Y35.6495
G01 X-0.7495 Y35.9495
G01 X-0.2495 Y35.9495
G01 X-0.2495 Y36.2495
G01 X-0.7495 Y36.2495
G01 X-0.7495 Y36.5495
G01 X-0.2495 Y36.5495
G01 X-0.2495 Y36.8495
G01 X-0.7495 Y36.8495
G01 X-0.7495 Y37.1495
G01 X-0.2495 Y37.1495
G01 X-0.2495 Y37.4495
G01 X-0.7495 Y37.4495
G01 X-0.7495 Y37.7495
G01 X-0.2495 Y37.7495
G01 X-0.2495 Y38.0495
G01 X-0.7495 Y38.0495
G01 X-0.7495 Y38.3495
G01 X-0.2495 Y38.3495
G01 X-0.2495 Y38.6495
G01 X-0.7495 Y38.6495
G01 X-0.7495 Y38.9495
G01 X-0.2495 Y38.9495
G01 X-0.2495 Y39.2495
G01 X-0.7495 Y39.2495
G01 X-0.7495 Y39.5495
G01 X-0.2495 Y39.5495
G01 X-0.2495 Y39.8495
G01 X-0.7495 Y39.8495
G01 X-0.7495 Y40.1495
G01 X-0.2495 Y40.1495
G01 X-0.2495 Y40.4495
G01 X-0.7495 Y40.4495
G01 X-0.7495 Y40.7495
G01 X-0.2495 Y40.7495
G01 X-0.2495 Y41.0495
G01 X-0.7495 Y41.0495
G01 X-0.7495 Y41.3495
G01 X-0.2495 Y41.3495
G01 X-0.2495 Y41.6495
G01 X-0.7495 Y41.6495
G01 X-0.7495 Y41.9495
G01 X-0.2495 Y41.9495
G01 X-0.2495 Y42.2495
G01 X-0.7495 Y42.2495
G01 X-0.7495 Y42.5495
G01 X-0.2495 Y42.5495
G01 X-0.2495 Y42.8495
G01 X-0.7495 Y42.8495
G01 X-0.7495 Y43.1495
G01 X-0.2495 Y43.1495
G01 X-0.2495 Y43.4495
G01 X-0.7495 Y43.4495
G01 X-0.7495 Y43.7495
G01 X-0.2495 Y43.7495
G01 X-0.2495 Y44.0495
G01 X-0.7495 Y44.0495
G01 X-0.7495 Y44.3495
G01 X-0.2495 Y44.3495
G01 X-0.2495 Y44.6495
G01 X-0.7495 Y44.6495
G01 X-0.7495 Y44.9495
G01 X-0.2495 Y44.9495
G01 X-0.2495 Y45.2495
G01 X-0.7495 Y45.2495
G01 X-0.7495 Y45.5495
G01 X-0.2495 Y45.5495
G01 X-0.2495 Y45.8495
G01 X-0.7495 Y45.8495
G01 X-0.7495 Y46.1495
G01 X-0.2495 Y46.1495
G01 X-0.2495 Y46.4495
G01 X-0.7495 Y46.4495
G01 X-0.7495 Y46.7495
G01 X-0.2495 Y46.7495
G01 X-0.2495 Y47.0495
G01 X-0.7495 Y47.0495
G01 X-0.7495 Y47.3495
G01 X-0.2495 Y47.3495
G01 X-0.2495 Y47.6495
G01 X-0.7495 Y47.6495
G01 X-0.7495 Y47.9495
G01 X-0.2495 Y47.9495
G01 X-0.2495 Y48.2495
G01 X-0.7495 Y48.2495
G01 X-0.7495 Y48.5495
G01 X-0.2495 Y48.5495
G01 X-0.2495 Y48.8495
G01 X-0.7495 Y48.8495
G01 X-0.7495 Y49.1495
G01 X-0.2495 Y49.1495
G01 X-0.2495 Y49.4495
G01 X-0.7495 Y49.4495
G01 X-0.7495 Y49.7495
G01 X-0.2495 Y49.7495
G01 X-0.2495 Y50.0495
G01 X-0.7495 Y50.0495
G01 X-0.7495 Y50.3495
G01 X-0.2495 Y50.3495
G01 X-0.2495 Y50.6495
G01 X-0.7495 Y50.6495
G01 X-0.7495 Y50.9495
G01 X-0.2495 Y50.9495
G01 X-0.2495 Y51.2495
G01 X-0.7495 Y51.2495
G01 X-0.7495 Y51.5495
G01 X-0.2495 Y51.5495
G01 X-0.2495 Y51.8495
G01 X-0.7495 Y51.8495
G01 X-0.7495 Y52.1495
G01 X-0.2495 Y52.1495
G01 X-0.2495 Y52.4495
G01 X-0.7495 Y52.4495
G01 X-0.7495 Y52.7495
G01 X-0.2495 Y52.7495
G01 X-0.2495 Y53.0495
G01 X-0.7495 Y53.0495
G01 X-0.7495 Y53.3495
G01 X-0.2495 Y53.3495
G01 X-0.2495 Y53.6495
G01 X-0.7495 Y53.6495
G01 X-0.7495 Y53.9495
G01 X-0.2495 Y53.9495
G01 X-0.2495 Y54.2495
G01 X-0.7495 Y54.2495
G01 X-0.7495 Y54.5495
G01 X-0.2495 Y54.5495
G01 X-0.2495 Y54.8495
G01 X-0.7495 Y54.8495
G01 X-0.7495 Y55.1495
G01 X-0.2495 Y55.1495
G01 X-0.2495 Y55.4495
G01 X-0.7495 Y55.4495
G01 X-0.7495 Y55.7495
G01 X-0.2495 Y55.7495
G01 X-0.2495 Y56.0495
G01 X-0.7495 Y56.0495
G01 X-0.7495 Y56.3495
G01 X-0.2495 Y56.3495
G01 X-0.2495 Y56.6495
G01 X-0.7495 Y56.6495
G01 X-0.7495 Y56.9495
G01 X-0.2495 Y56.9495
G01 X-0.2495 Y57.2495
G01 X-0.7495 Y57.2495
G01 X-0.7495 Y57.5495
G01 X-0.2495 Y57.5495
G01 X-0.2495 Y57.8495
G01 X-0.7495 Y57.8495
G01 X-0.7495 Y58.1495
G01 X-0.2495 Y58.1495
G01 X-0.2495 Y58.4495
G01 X-0.7495 Y58.4495
G01 X-0.7495 Y58.7495
G01 X-0.2495 Y58.7495
G01 X-0.2495 Y59.0495
G01 X-0.7495 Y59.0495
G01 X-0.7495 Y59.3495
G01 X-0.2495 Y59.3495
G01 X-0.2495 Y59.6495
G01 X-0.7495 Y59.6495
G01 X-0.7495 Y59.9495
G01 X-0.2495 Y59.9495
G01 X-0.2495 Y60.2495
G01 X-0.7495 Y60.2495
G01 X-0.7495 Y60.5495
G01 X-0.2495 Y60.5495
G01 X-0.2495 Y60.8495
G01 X-0.7495 Y60.8495
G01 X-0.7495 Y61.1495
G01 X-0.2495 Y61.1495
G01 X-0.2495 Y61.4495
G01 X-0.7495 Y61.4495
G01 X-0.7495 Y61.7495
G01 X-0.2495 Y61.7495
G01 X-0.2495 Y62.0495
G01 X-0.7495 Y62.0495
G01 X-0.7495 Y62.3495
G01 X-0.2495 Y62.3495
G01 X-0.2495 Y62.6495
G01 X-0.7495 Y62.6495
G01 X-0.7495 Y62.9495
G01 X-0.2495 Y62.9495
G01 X-0.2495 Y63.2495
G01 X-0.7495 Y63.2495
G01 X-0.7495 Y63.5495
G01 X-0.2495 Y63.5495
G01 X-0.2495 Y63.8495
G01 X-0.7495 Y63.8495
G01 X-0.7495 Y64.1495
G01 X-0.2495 Y64.1495
G01 X-0.2495 Y64.4495
G01 X-0.7495 Y64.4495
G01 X-0.7495 Y64.7495
G01 X-0.2495 Y64.7495
G01 X-0.2495 Y65.0495
G01 X-0.7495 Y65.0495
G01 X-0.7495 Y65.3495
G01 X-0.2495 Y65.3495
G01 X-0.2495 Y65.6495
G01 X-0.7495 Y65.6495
G01 X-0.7495 Y65.9495
G01 X-0.2495 Y65.9495
G01 X-0.2495 Y66.2495
G01 X-0.7495 Y66.2495
G01 X-0.7495 Y66.5495
G01 X-0.2495 Y66.5495
G01 X-0.2495 Y66.8495
G01 X-0.7495 Y66.8495
G01 X-0.7495 Y67.1495
G01 X-0.2495 Y67.1495
G01 X-0.2495 Y67.4495
G01 X-0.7495 Y67.4495
G01 X-0.7495 Y67.7495
G01 X-0.2495 Y67.7495
G01 X-0.2495 Y68.0495
G01 X-0.7495 Y68.0495
G01 X-0.7495 Y68.3495
G01 X-0.2495 Y68.3495
G01 X-0.2495 Y68.6495
G01 X-0.7495 Y68.6495
G01 X-0.7495 Y68.9495
G01 X-0.2495 Y68.9495
G01 X-0.2495 Y69.2495
G01 X-0.7495 Y69.2495
G01 X-0.7495 Y69.5495
G01 X-0.2495 Y69.5495
G01 X-0.2495 Y69.8495
G01 X-0.7495 Y69.8495
G01 X-0.7025 Y70.1495
G01 X-0.1244 Y70.1495
G00 Z2.0000
G00 X-0.2410 Y69.9402
G01 F60.00
G01 Z-0.0600
G01 F120.00
G01 X-0.2450 Y69.9228
G01 X-0.2477 Y69.9052
G01 X-0.2492 Y69.8874
G01 X-0.2495 Y69.8755
G01 X-0.2495 Y0.1245
G01 X-0.2492 Y0.1126
G01 X-0.2477 Y0.0948
G01 X-0.2450 Y0.0772
G01 X-0.2410 Y0.0598
G01 X-0.2244 Y-0.0022
G01 X-0.2208 Y-0.0142
G01 X-0.2167 Y-0.0259
G01 X-0.2120 Y-0.0375
G01 X-0.2068 Y-0.0488
G01 X-0.2009 Y-0.0598
G01 X-0.1946 Y-0.0705
G01 X-0.1840 Y-0.0860
G01 X-0.1764 Y-0.0958
G01 X-0.1640 Y-0.1098
G01 X-0.1143 Y-0.1597
G01 X-0.1052 Y-0.1683
G01 X-0.0958 Y-0.1764
G01 X-0.0860 Y-0.1840
G01 X-0.0705 Y-0.1946
G01 X-0.0543 Y-0.2039
G01 X-0.0432 Y-0.2095
G01 X-0.0259 Y-0.2167
G01 X-0.0082 Y-0.2227
G01 X0.0598 Y-0.2410
G01 X0.0772 Y-0.2450
G01 X0.0889 Y-0.2470
G01 X0.1007 Y-0.2484
G01 X0.1126 Y-0.2492
G01 X0.1245 Y-0.2495
G01 X109.8755 Y-0.2495
G01 X109.8933 Y-0.2489
G01 X109.9052 Y-0.2477
G01 X109.9228 Y-0.2450
G01 X109.9344 Y-0.2425
G01 X110.0082 Y-0.2227
G01 X110.0259 Y-0.2167
G01 X110.0432 Y-0.2095
G01 X110.0598 Y-0.2009
G01 X110.0705 Y-0.1946
G01 X110.0809 Y-0.1877
G01 X110.0958 Y-0.1764
G01 X110.1098 Y-0.1640
G01 X110.1597 Y-0.1143
G01 X110.1683 Y-0.1052
G01 X110.1764 Y-0.0958
G01 X110.1840 Y-0.0860
G01 X110.1912 Y-0.0757
G01 X110.1978 Y-0.0652
G01 X110.2039 Y-0.0543
G01 X110.2095 Y-0.0432
G01 X110.2167 Y-0.0259
G01 X110.2208 Y-0.0142
G01 X110.2244 Y-0.0022
G01 X110.2438 Y0.0714
G01 X110.2460 Y0.0830
G01 X110.2477 Y0.0948
G01 X110.2489 Y0.1067
G01 X110.2495 Y0.1245
G01 X110.2495 Y69.8755
G01 X110.2492 Y69.8874
G01 X110.2477 Y69.9052
G01 X110.2450 Y69.9228
G01 X110.2410 Y69.9402
G01 X110.2244 Y70.0022
G01 X110.2208 Y70.0142
G01 X110.2167 Y70.0259
G01 X110.2120 Y70.0375
G01 X110.2068 Y70.0488
G01 X110.2009 Y70.0598
G01 X110.1912 Y70.0757
G01 X110.1840 Y70.0860
G01 X110.1764 Y70.0958
G01 X110.1640 Y70.1098
G01 X110.1143 Y70.1597
G01 X110.1052 Y70.1683
G01 X110.0958 Y70.1764
G01 X110.0860 Y70.1840
G01 X110.0705 Y70.1946
G01 X110.0543 Y70.2039
G01 X110.0375 Y70.2120
G01 X110.0259 Y70.2167
G01 X110.0082 Y70.2227
G01 X109.9402 Y70.2410
G01 X109.9228 Y70.2450
G01 X109.9111 Y70.2470
G01 X109.8993 Y70.2484
G01 X109.8874 Y70.2492
G01 X109.8755 Y70.2495
G01 X0.1245 Y70.2495
G01 X0.1126 Y70.2492
G01 X0.1007 Y70.2484
G01 X0.0889 Y70.2470
G01 X0.0714 Y70.2438
G01 X-0.0022 Y70.2244
G01 X-0.0201 Y70.2189
G01 X-0.0317 Y70.2144
G01 X-0.0432 Y70.2095
G01 X-0.0543 Y70.2039
G01 X-0.0652 Y70.1978
G01 X-0.0809 Y70.1877
G01 X-0.0909 Y70.1803
G01 X-0.1006 Y70.1724
G01 X-0.1143 Y70.1597
G01 X-0.1597 Y70.1143
G01 X-0.1683 Y70.1052
G01 X-0.1764 Y70.0958
G01 X-0.1840 Y70.0860
G01 X-0.1912 Y70.0757
G01 X-0.1978 Y70.0652
G01 X-0.2039 Y70.0543
G01 X-0.2095 Y70.0432
G01 X-0.2144 Y70.0317
G01 X-0.2189 Y70.0201
G01 X-0.2244 Y70.0022
G01 X-0.2410 Y69.9402
G01 X-0.5315 Y70.4495
G01 X110.5315 Y70.4495
G01 X110.7025 Y70.1495
G01 X110.1244 Y70.1495
G00 Z2.0000
G00 X110.2495 Y69.8495
G01 F60.00
G01 Z-0.0600
G01 F120.00
G01 X110.7495 Y69.8495
G01 X110.7495 Y69.5495
G01 X110.2495 Y69.5495
G01 X110.2495 Y69.2495
G01 X110.7495 Y69.2495
G01 X110.7495 Y68.9495
G01 X110.2495 Y68.9495
G01 X110.2495 Y68.6495
G01 X110.7495 Y68.6495
G01 X110.7495 Y68.3495
G01 X110.2495 Y68.3495
G01 X110.2495 Y68.0495
G01 X110.7495 Y68.0495
G01 X110.7495 Y67.7495
G01 X110.2495 Y67.7495
G01 X110.2495 Y67.4495
G01 X110.7495 Y67.4495
G01 X110.7495 Y67.1495
G01 X110.2495 Y67.1495
G01 X110.2495 Y66.8495
G01 X110.7495 Y66.8495
G01 X110.7495 Y66.5495
G01 X110.2495 Y66.5495
G01 X110.2495 Y66.2495
G01 X110.7495 Y66.2495
G01 X110.7495 Y65.9495
G01 X110.2495 Y65.9495
G01 X110.2495 Y65.6495
G01 X110.7495 Y65.6495
G01 X110.7495 Y65.3495
G01 X110.2495 Y65.3495
G01 X110.2495 Y65.0495
G01 X110.7495 Y65.0495
G01 X110.7495 Y64.7495
G01 X110.2495 Y64.7495
G01 X110.2495 Y64.4495
G01 X110.7495 Y64.4495
G01 X110.7495 Y64.1495
G01 X110.2495 Y64.1495
G01 X110.2495 Y63.8495
G01 X110.7495 Y63.8495
G01 X110.7495 Y63.5495
G01 X110.2495 Y63.5495
G01 X110.2495 Y63.2495
G01 X110.7495 Y63.2495
G01 X110.7495 Y62.9495
G01 X110.2495 Y62.9495
G01 X110.2495 Y62.6495
G01 X110.7495 Y62.6495
G01 X110.7495 Y62.3495
G01 X110.2495 Y62.3495
G01 X110.2495 Y62.0495
G01 X110.7495 Y62.0495
G01 X110.7495 Y61.7495
G01 X110.2495 Y61.7495
G01 X110.2495 Y61.4495
G01 X110.7495 Y61.4495
G01 X110.7495 Y61.1495
G01 X110.2495 Y61.1495
G01 X110.2495 Y60.8495
G01 X110.7495 Y60.8495
G01 X110.7495 Y60.5495
G01 X110.2495 Y60.5495
G01 X110.2495 Y60.2495
G01 X110.7495 Y60.2495
G01 X110.7495 Y59.9495
G01 X110.2495 Y59.9495
G01 X110.2495 Y59.6495
G01 X110.7495 Y59.6495
G01 X110.7495 Y59.3495
G01 X110.2495 Y59.3495
G01 X110.2495 Y59.0495
G01 X110.7495 Y59.0495
G01 X110.7495 Y58.7495
G01 X110.2495 Y58.7495
G01 X110.2495 Y58.4495
G01 X110.7495 Y58.4495
G01 X110.7495 Y58.1495
G01 X110.2495 Y58.1495
G01 X110.2495 Y57.8495
G01 X110.7495 Y57.8495
G01 X110.7495 Y57.5495
G01 X110.2495 Y57.5495
G01 X110.2495 Y57.2495
G01 X110.7495 Y57.2495
G01 X110.7495 Y56.9495
G01 X110.2495 Y56.9495
G01 X110.2495 Y56.6495
G01 X110.7495 Y56.6495
G01 X110.7495 Y56.3495
G01 X110.2495 Y56.3495
G01 X110.2495 Y56.0495
G01 X110.7495 Y56.0495
G01 X110.7495 Y55.7495
G01 X110.2495 Y55.7495
G01 X110.2495 Y55.4495
G01 X110.7495 Y55.4495
G01 X110.7495 Y55.1495
G01 X110.2495 Y55.1495
G01 X110.2495 Y54.8495
G01 X110.7495 Y54.8495
G01 X110.7495 Y54.5495
G01 X110.2495 Y54.5495
G01 X110.2495 Y54.2495
G01 X110.7495 Y54.2495
G01 X110.7495 Y53.9495
G01 X110.2495 Y53.9495
G01 X110.2495 Y53.6495
G01 X110.7495 Y53.6495
G01 X110.7495 Y53.3495
G01 X110.2495 Y53.3495
G01 X110.2495 Y53.0495
G01 X110.7495 Y53.0495
G01 X110.7495 Y52.7495
G01 X110.2495 Y52.7495
G01 X110.2495 Y52.4495
G01 X110.7495 Y52.4495
G01 X110.7495 Y52.1495
G01 X110.2495 Y52.1495
G01 X110.2495 Y51.8495
G01 X110.7495 Y51.8495
G01 X110.7495 Y51.5495
G01 X110.2495 Y51.5495
G01 X110.2495 Y51.2495
G01 X110.7495 Y51.2495
G01 X110.7495 Y50.9495
G01 X110.2495 Y50.9495
G01 X110.2495 Y50.6495
G01 X110.7495 Y50.6495
G01 X110.7495 Y50.3495
G01 X110.2495 Y50.3495
G01 X110.2495 Y50.0495
G01 X110.7495 Y50.0495
G01 X110.7495 Y49.7495
G01 X110.2495 Y49.7495
G01 X110.2495 Y49.4495
G01 X110.7495 Y49.4495
G01 X110.7495 Y49.1495
G01 X110.2495 Y49.1495
G01 X110.2495 Y48.8495
G01 X110.7495 Y48.8495
G01 X110.7495 Y48.5495
G01 X110.2495 Y48.5495
G01 X110.2495 Y48.2495
G01 X110.7495 Y48.2495
G01 X110.7495 Y47.9495
G01 X110.2495 Y47.9495
G01 X110.2495 Y47.6495
G01 X110.7495 Y47.6495
G01 X110.7495 Y47.3495
G01 X110.2495 Y47.3495
G01 X110.2495 Y47.0495
G01 X110.7495 Y47.0495
G01 X110.7495 Y46.7495
G01 X110.2495 Y46.7495
G01 X110.2495 Y46.4495
G01 X110.7495 Y46.4495
G01 X110.7495 Y46.1495
G01 X110.2495 Y46.1495
G01 X110.2495 Y45.8495
G01 X110.7495 Y45.8495
G01 X110.7495 Y45.5495
G01 X110.2495 Y45.5495
G01 X110.2495 Y45.2495
G01 X110.7495 Y45.2495
G01 X110.7495 Y44.9495
G01 X110.2495 Y44.9495
G01 X110.2495 Y44.6495
G01 X110.7495 Y44.6495
G01 X110.7495 Y44.3495
G01 X110.2495 Y44.3495
G01 X110.2495 Y44.0495
G01 X110.7495 Y44.0495
G01 X110.7495 Y43.7495
G01 X110.2495 Y43.7495
G01 X110.2495 Y43.4495
G01 X110.7495 Y43.4495
G01 X110.7495 Y43.1495
G01 X110.2495 Y43.1495
G01 X110.2495 Y42.8495
G01 X110.7495 Y42.8495
G01 X110.7495 Y42.5495
G01 X110.2495 Y42.5495
G01 X110.2495 Y42.2495
G01 X110.7495 Y42.2495
G01 X110.7495 Y41.9495
G01 X110.2495 Y41.9495
G01 X110.2495 Y41.6495
G01 X110.7495 Y41.6495
G01 X110.7495 Y41.3495
G01 X110.2495 Y41.3495
G01 X110.2495 Y41.0495
G01 X110.7495 Y41.0495
G01 X110.7495 Y40.7495
G01 X110.2495 Y40.7495
G01 X110.2495 Y40.4495
G01 X110.7495 Y40.4495
G01 X110.7495 Y40.1495
G01 X110.2495 Y40.1495
G01 X110.2495 Y39.8495
G01 X110.7495 Y39.8495
G01 X110.7495 Y39.5495
G01 X110.2495 Y39.5495
G01 X110.2495 Y39.2495
G01 X110.7495 Y39.2495
G01 X110.7495 Y38.9495
G01 X110.2495 Y38.9495
G01 X110.2495 Y38.6495
G01 X110.7495 Y38.6495
G01 X110.7495 Y38.3495
G01 X110.2495 Y38.3495
G01 X110.2495 Y38.0495
G01 X110.7495 Y38.0495
G01 X110.7495 Y37.7495
G01 X110.2495 Y37.7495
G01 X110.2495 Y37.4495
G01 X110.7495 Y37.4495
G01 X110.7495 Y37.1495
G01 X110.2495 Y37.1495
G01 X110.2495 Y36.8495
G01 X110.7495 Y36.8495
G01 X110.7495 Y36.5495
G01 X110.2495 Y36.5495
G01 X110.2495 Y36.2495
G01 X110.7495 Y36.2495
G01 X110.7495 Y35.9495
G01 X110.2495 Y35.9495
G01 X110.2495 Y35.6495
G01 X110.7495 Y35.6495
G01 X110.7495 Y35.3495
G01 X110.2495 Y35.3495
G01 X110.2495 Y35.0495
G01 X110.7495 Y35.0495
G01 X110.7495 Y34.7495
G01 X110.2495 Y34.7495
G01 X110.2495 Y34.4495
G01 X110.7495 Y34.4495
G01 X110.7495 Y34.1495
G01 X110.2495 Y34.1495
G01 X110.2495 Y33.8495
G01 X110.7495 Y33.8495
G01 X110.7495 Y33.5495
G01 X110.2495 Y33.5495
G01 X110.2495 Y33.2495
G01 X110.7495 Y33.2495
G01 X110.7495 Y32.9495
G01 X110.2495 Y32.9495
G01 X110.2495 Y32.6495
G01 X110.7495 Y32.6495
G01 X110.7495 Y32.3495
G01 X110.2495 Y32.3495
G01 X110.2495 Y32.0495
G01 X110.7495 Y32.0495
G01 X110.7495 Y31.7495
G01 X110.2495 Y31.7495
G01 X110.2495 Y31.4495
G01 X110.7495 Y31.4495
G01 X110.7495 Y31.1495
G01 X110.2495 Y31.1495
G01 X110.2495 Y30.8495
G01 X110.7495 Y30.8495
G01 X110.7495 Y30.5495
G01 X110.2495 Y30.5495
G01 X110.2495 Y30.2495
G01 X110.7495 Y30.2495
G01 X110.7495 Y29.9495
G01 X110.2495 Y29.9495
G01 X110.2495 Y29.6495
G01 X110.7495 Y29.6495
G01 X110.7495 Y29.3495
G01 X110.2495 Y29.3495
G01 X110.2495 Y29.0495
G01 X110.7495 Y29.0495
G01 X110.7495 Y28.7495
G01 X110.2495 Y28.7495
G01 X110.2495 Y28.4495
G01 X110.7495 Y28.4495
G01 X110.7495 Y28.1495
G01 X110.2495 Y28.1495
G01 X110.2495 Y27.8495
G01 X110.7495 Y27.8495
G01 X110.7495 Y27.5495
G01 X110.2495 Y27.5495
G01 X110.2495 Y27.2495
G01 X110.7495 Y27.2495
G01 X110.7495 Y26.9495
G01 X110.2495 Y26.9495
G01 X110.2495 Y26.6495
G01 X110.7495 Y26.6495
G01 X110.7495 Y26.3495
G01 X110.2495 Y26.3495
G01 X110.2495 Y26.0495
G01 X110.7495 Y26.0495
G01 X110.7495 Y25.7495
G01 X110.2495 Y25.7495
G01 X110.2495 Y25.4495
G01 X110.7495 Y25.4495
G01 X110.7495 Y25.1495
G01 X110.2495 Y25.1495
G01 X110.2495 Y24.8495
G01 X110.7495 Y24.8495
G01 X110.7495 Y24.5495
G01 X110.2495 Y24.5495
G01 X110.2495 Y24.2495
G01 X110.7495 Y24.2495
G01 X110.7495 Y23.9495
G01 X110.2495 Y23.9495
G01 X110.2495 Y23.6495
G01 X110.7495 Y23.6495
G01 X110.7495 Y23.3495
G01 X110.2495 Y23.3495
G01 X110.2495 Y23.0495
G01 X110.7495 Y23.0495
G01 X110.7495 Y22.7495
G01 X110.2495 Y22.7495
G01 X110.2495 Y22.4495
G01 X110.7495 Y22.4495
G01 X110.7495 Y22.1495
G01 X110.2495 Y22.1495
G01 X110.2495 Y21.8495
G01 X110.7495 Y21.8495
G01 X110.7495 Y21.5495
G01 X110.2495 Y21.5495
G01 X110.2495 Y21.2495
G01 X110.7495 Y21.2495
G01 X110.7495 Y20.9495
G01 X110.2495 Y20.9495
G01 X110.2495 Y20.6495
G01 X110.7495 Y20.6495
G01 X110.7495 Y20.3495
G01 X110.2495 Y20.3495
G01 X110.2495 Y20.0495
G01 X110.7495 Y20.0495
G01 X110.7495 Y19.7495
G01 X110.2495 Y19.7495
G01 X110.2495 Y19.4495
G01 X110.7495 Y19.4495
G01 X110.7495 Y19.1495
G01 X110.2495 Y19.1495
G01 X110.2495 Y18.8495
G01 X110.7495 Y18.8495
G01 X110.7495 Y18.5495
G01 X110.2495 Y18.5495
G01 X110.2495 Y18.2495
G01 X110.7495 Y18.2495
G01 X110.7495 Y17.9495
G01 X110.2495 Y17.9495
G01 X110.2495 Y17.6495
G01 X110.7495 Y17.6495
G01 X110.7495 Y17.3495
G01 X110.2495 Y17.3495
G01 X110.2495 Y17.0495
G01 X110.7495 Y17.0495
G01 X110.7495 Y16.7495
G01 X110.2495 Y16.7495
G01 X110.2495 Y16.4495
G01 X110.7495 Y16.4495
G01 X110.7495 Y16.1495
G01 X110.2495 Y16.1495
G01 X110.2495 Y15.8495
G01 X110.7495 Y15.8495
G01 X110.7495 Y15.5495
G01 X110.2495 Y15.5495
G01 X110.2495 Y15.2495
G01 X110.7495 Y15.2495
G01 X110.7495 Y14.9495
G01 X110.2495 Y14.9495
G01 X110.2495 Y14.6495
G01 X110.7495 Y14.6495
G01 X110.7495 Y14.3495
G01 X110.2495 Y14.3495
G01 X110.2495 Y14.0495
G01 X110.7495 Y14.0495
G01 X110.7495 Y13.7495
G01 X110.2495 Y13.7495
G01 X110.2495 Y13.4495
G01 X110.7495 Y13.4495
G01 X110.7495 Y13.1495
G01 X110.2495 Y13.1495
G01 X110.2495 Y12.8495
G01 X110.7495 Y12.8495
G01 X110.7495 Y12.5495
G01 X110.2495 Y12.5495
G01 X110.2495 Y12.2495
G01 X110.7495 Y12.2495
G01 X110.7495 Y11.9495
G01 X110.2495 Y11.9495
G01 X110.2495 Y11.6495
G01 X110.7495 Y11.6495
G01 X110.7495 Y11.3495
G01 X110.2495 Y11.3495
G01 X110.2495 Y11.0495
G01 X110.7495 Y11.0495
G01 X110.7495 Y10.7495
G01 X110.2495 Y10.7495
G01 X110.2495 Y10.4495
G01 X110.7495 Y10.4495
G01 X110.7495 Y10.1495
G01 X110.2495 Y10.1495
G01 X110.2495 Y9.8495
G01 X110.7495 Y9.8495
G01 X110.7495 Y9.5495
G01 X110.2495 Y9.5495
G01 X110.2495 Y9.2495
G01 X110.7495 Y9.2495
G01 X110.7495 Y8.9495
G01 X110.2495 Y8.9495
G01 X110.2495 Y8.6495
G01 X110.7495 Y8.6495
G01 X110.7495 Y8.3495
G01 X110.2495 Y8.3495
G01 X110.2495 Y8.0495
G01 X110.7495 Y8.0495
G01 X110.7495 Y7.7495
G01 X110.2495 Y7.7495
G01 X110.2495 Y7.4495
G01 X110.7495 Y7.4495
G01 X110.7495 Y7.1495
G01 X110.2495 Y7.1495
G01 X110.2495 Y6.8495
G01 X110.7495 Y6.8495
G01 X110.7495 Y6.5495
G01 X110.2495 Y6.5495
G01 X110.2495 Y6.2495
G01 X110.7495 Y6.2495
G01 X110.7495 Y5.9495
G01 X110.2495 Y5.9495
G01 X110.2495 Y5.6495
G01 X110.7495 Y5.6495
G01 X110.7495 Y5.3495
G01 X110.2495 Y5.3495
G01 X110.2495 Y5.0495
G01 X110.7495 Y5.0495
G01 X110.7495 Y4.7495
G01 X110.2495 Y4.7495
G01 X110.2495 Y4.4495
G01 X110.7495 Y4.4495
G01 X110.7495 Y4.1495
G01 X110.2495 Y4.1495
G01 X110.2495 Y3.8495
G01 X110.7495 Y3.8495
G01 X110.7495 Y3.5495
G01 X110.2495 Y3.5495
G01 X110.2495 Y3.2495
G01 X110.7495 Y3.2495
G01 X110.7495 Y2.9495
G01 X110.2495 Y2.9495
G01 X110.2495 Y2.6495
G01 X110.7495 Y2.6495
G01 X110.7495 Y2.3495
G01 X110.2495 Y2.3495
G01 X110.2495 Y2.0495
G01 X110.7495 Y2.0495
G01 X110.7495 Y1.7495
G01 X110.2495 Y1.7495
G01 X110.2495 Y1.4495
G01 X110.7495 Y1.4495
G01 X110.7495 Y1.1495
G01 X110.2495 Y1.1495
G01 X110.2495 Y0.8495
G01 X110.7495 Y0.8495
G01 X110.7495 Y0.5495
G01 X110.2495 Y0.5495
G01 X110.2495 Y0.2495
G01 X110.7495 Y0.2495
G01 X110.7291 Y-0.0505
G01 X110.2059 Y-0.0505
G00 Z2.0000
G00 X110.6305 Y-0.3505
G01 F60.00
G01 Z-0.0600
G01 F120.00
G01 X-0.6305 Y-0.3505
G01 X-0.3305 Y-0.6505
G01 X110.3305 Y-0.6505
G00 Z2.0000
G00 X103.3963 Y5.0586
G01 F60.00
G01 Z-0.0600
G01 F120.00
G01 X103.4219 Y5.2915
G01 X103.4507 Y5.4016
G01 X103.4812 Y5.5182
G01 X103.5728 Y5.7338
G01 X103.6948 Y5.9338
G01 X103.8447 Y6.1138
G01 X104.0192 Y6.2702
G01 X104.2146 Y6.3994
G01 X104.4267 Y6.4989
G01 X104.6511 Y6.5664
G01 X104.8829 Y6.6005
G01 X105.0585 Y6.6005
G01 X105.2337 Y6.5877
G01 X105.4623 Y6.5367
G01 X105.6812 Y6.4530
G01 X105.8855 Y6.3384
G01 X106.0709 Y6.1952
G01 X106.2335 Y6.0265
G01 X106.3698 Y5.8360
G01 X106.4770 Y5.6276
G01 X106.5526 Y5.4059
G01 X106.5952 Y5.1755
G01 X106.6037 Y4.9414
G01 X106.5781 Y4.7085
G01 X106.5188 Y4.4818
G01 X106.4272 Y4.2662
G01 X106.3052 Y4.0662
G01 X106.1553 Y3.8862
G01 X105.9808 Y3.7298
G01 X105.7854 Y3.6005
G01 X105.5733 Y3.5011
G01 X105.3489 Y3.4336
G01 X105.1171 Y3.3995
G01 X104.9415 Y3.3995
G01 X104.7663 Y3.4123
G01 X104.5377 Y3.4633
G01 X104.3188 Y3.5470
G01 X104.1145 Y3.6616
G01 X103.9291 Y3.8048
G01 X103.7665 Y3.9735
G01 X103.6302 Y4.1640
G01 X103.5230 Y4.3724
G01 X103.4474 Y4.5941
G01 X103.4048 Y4.8245
G01 X103.3963 Y5.0586
G01 X103.4009 Y5.1005
G01 X106.5979 Y5.1005
G01 X106.5882 Y4.8005
G01 X103.4093 Y4.8005
G01 X103.4793 Y4.5005
G01 X106.5237 Y4.5005
G01 X106.3871 Y4.2005
G01 X103.6114 Y4.2005
G01 X103.8368 Y3.9005
G01 X106.1672 Y3.9005
G01 X105.7853 Y3.6005
G01 X104.2234 Y3.6005
G01 X103.4504 Y5.4005
G01 X106.5536 Y5.4005
G01 X106.4395 Y5.7005
G01 X103.5587 Y5.7005
G01 X103.7504 Y6.0005
G01 X106.2521 Y6.0005
G01 X105.9345 Y6.3005
G01 X104.0650 Y6.3005
G00 Z2.0000
G00 X103.4625 Y11.7154
G01 F60.00
G01 Z-0.0600
G01 F120.00
G01 X103.4640 Y11.7168
G01 X103.5455 Y11.6877
G01 X103.5630 Y11.6821
G01 X103.6642 Y11.6567
G01 X103.6761 Y11.6540
G01 X103.6882 Y11.6519
G01 X103.7853 Y11.6375
G01 X103.7975 Y11.6360
G01 X103.8097 Y11.6351
G01 X103.9077 Y11.6303
G01 X103.9200 Y11.6300
G01 X103.9323 Y11.6303
G01 X104.0303 Y11.6351
G01 X104.0425 Y11.6360
G01 X104.0547 Y11.6375
G01 X104.1518 Y11.6519
G01 X104.1639 Y11.6540
G01 X104.1758 Y11.6567
G01 X104.2770 Y11.6821
G01 X104.2945 Y11.6877
G01 X104.3760 Y11.7168
G01 X104.3775 Y11.7154
G01 X104.2279 Y11.6641
G01 X104.0236 Y11.6300
G01 X103.8164 Y11.6300
G01 X103.6121 Y11.6641
G01 X103.4625 Y11.7154
G00 Z2.0000
G00 X102.7456 Y12.4553
G01 F60.00
G01 Z-0.0600
G01 F120.00
G01 X102.4872 Y12.4553
G00 Z2.0000
G00 X102.6763 Y12.7553
G01 F60.00
G01 Z-0.0600
G01 F120.00
G01 X102.5610 Y12.7553
G00 Z2.0000
G00 X102.5594 Y13.0553
G01 F60.00
G01 Z-0.0600
G01 F120.00
G01 X102.6835 Y13.0553
G00 Z2.0000
G00 X102.7376 Y13.3553
G01 F60.00
G01 Z-0.0600
G01 F120.00
G01 X102.4834 Y13.3553
G00 Z2.0000
G00 X102.3202 Y13.6553
G01 F60.00
G01 Z-0.0600
G01 F120.00
G01 X102.3146 Y13.6553
G00 Z2.0000
G00 X101.9973 Y13.9553
G01 F60.00
G01 Z-0.0600
G01 F120.00
G01 X101.9883 Y13.9553
G00 Z2.0000
G00 X100.6517 Y13.9553
G01 F60.00
G01 Z-0.0600
G01 F120.00
G01 X100.6427 Y13.9553
G00 Z2.0000
G00 X100.3254 Y13.6553
G01 F60.00
G01 Z-0.0600
G01 F120.00
G01 X100.3170 Y13.6553
G00 Z2.0000
G00 X100.1566 Y13.3553
G01 F60.00
G01 Z-0.0600
G01 F120.00
G01 X99.8934 Y13.3553
G00 Z2.0000
G00 X99.9694 Y13.0553
G01 F60.00
G01 Z-0.0600
G01 F120.00
G01 X100.0806 Y13.0553
G01 X100.0775 Y13.0347
G01 X100.0919 Y13.1318
G01 X100.0940 Y13.1439
G01 X100.0967 Y13.1558
G01 X100.1206 Y13.2510
G01 X100.1238 Y13.2629
G01 X100.1277 Y13.2745
G01 X100.1607 Y13.3669
G01 X100.1652 Y13.3784
G01 X100.1701 Y13.3896
G01 X100.2121 Y13.4783
G01 X100.2176 Y13.4892
G01 X100.2236 Y13.4999
G01 X100.2741 Y13.5841
G01 X100.2807 Y13.5945
G01 X100.2877 Y13.6045
G01 X100.3462 Y13.6833
G01 X100.3537 Y13.6930
G01 X100.3618 Y13.7023
G01 X100.4277 Y13.7750
G01 X100.4361 Y13.7839
G01 X100.4450 Y13.7923
G01 X100.5177 Y13.8582
G01 X100.5270 Y13.8663
G01 X100.5367 Y13.8738
G01 X100.6155 Y13.9323
G01 X100.6255 Y13.9393
G01 X100.6359 Y13.9459
G01 X100.7201 Y13.9964
G01 X100.7308 Y14.0024
G01 X100.7417 Y14.0079
G01 X100.8304 Y14.0499
G01 X100.8416 Y14.0548
G01 X100.8531 Y14.0593
G01 X100.9455 Y14.0923
G01 X100.9571 Y14.0962
G01 X100.9690 Y14.0994
G01 X101.0642 Y14.1233
G01 X101.0761 Y14.1260
G01 X101.0882 Y14.1281
G01 X101.1853 Y14.1425
G01 X101.1975 Y14.1440
G01 X101.2097 Y14.1449
G01 X101.3077 Y14.1497
G01 X101.3261 Y14.1499
G01 X101.4303 Y14.1449
G01 X101.4425 Y14.1440
G01 X101.4547 Y14.1425
G01 X101.5518 Y14.1281
G01 X101.5639 Y14.1260
G01 X101.5758 Y14.1233
G01 X101.6710 Y14.0994
G01 X101.6829 Y14.0962
G01 X101.6945 Y14.0923
G01 X101.7869 Y14.0593
G01 X101.7984 Y14.0548
G01 X101.8096 Y14.0499
G01 X101.8983 Y14.0079
G01 X101.9092 Y14.0024
G01 X101.9199 Y13.9964
G01 X102.0041 Y13.9459
G01 X102.0145 Y13.9393
G01 X102.0245 Y13.9323
G01 X102.1033 Y13.8738
G01 X102.1130 Y13.8663
G01 X102.1223 Y13.8582
G01 X102.1950 Y13.7923
G01 X102.2039 Y13.7839
G01 X102.2123 Y13.7750
G01 X102.2782 Y13.7023
G01 X102.2863 Y13.6930
G01 X102.2938 Y13.6833
G01 X102.3523 Y13.6045
G01 X102.3593 Y13.5945
G01 X102.3659 Y13.5841
G01 X102.4164 Y13.4999
G01 X102.4224 Y13.4892
G01 X102.4279 Y13.4783
G01 X102.4699 Y13.3896
G01 X102.4748 Y13.3784
G01 X102.4793 Y13.3669
G01 X102.5123 Y13.2745
G01 X102.5162 Y13.2629
G01 X102.5194 Y13.2510
G01 X102.5433 Y13.1558
G01 X102.5460 Y13.1439
G01 X102.5481 Y13.1318
G01 X102.5625 Y13.0347
G01 X102.5640 Y13.0225
G01 X102.5649 Y13.0103
G01 X102.5697 Y12.9123
G01 X102.5700 Y12.9000
G01 X102.5697 Y12.8877
G01 X102.5649 Y12.7897
G01 X102.5640 Y12.7775
G01 X102.5625 Y12.7653
G01 X102.5481 Y12.6682
G01 X102.5460 Y12.6561
G01 X102.5433 Y12.6442
G01 X102.5194 Y12.5490
G01 X102.5162 Y12.5371
G01 X102.5123 Y12.5255
G01 X102.4793 Y12.4331
G01 X102.4748 Y12.4216
G01 X102.4699 Y12.4104
G01 X102.4279 Y12.3217
G01 X102.4224 Y12.3108
G01 X102.4164 Y12.3001
G01 X102.3659 Y12.2159
G01 X102.3593 Y12.2055
G01 X102.3523 Y12.1955
G01 X102.2938 Y12.1167
G01 X102.2863 Y12.1070
G01 X102.2782 Y12.0977
G01 X102.2123 Y12.0250
G01 X102.2039 Y12.0161
G01 X102.1950 Y12.0077
G01 X102.1223 Y11.9418
G01 X102.1130 Y11.9337
G01 X102.1033 Y11.9262
G01 X102.0245 Y11.8677
G01 X102.0145 Y11.8607
G01 X102.0041 Y11.8541
G01 X101.9199 Y11.8036
G01 X101.9092 Y11.7976
G01 X101.8983 Y11.7921
G01 X101.8096 Y11.7501
G01 X101.7984 Y11.7452
G01 X101.7869 Y11.7407
G01 X101.6945 Y11.7077
G01 X101.6829 Y11.7038
G01 X101.6710 Y11.7006
G01 X101.5758 Y11.6767
G01 X101.5639 Y11.6740
G01 X101.5518 Y11.6719
G01 X101.4547 Y11.6575
G01 X101.4425 Y11.6560
G01 X101.4303 Y11.6551
G01 X101.3323 Y11.6503
G01 X101.3200 Y11.6500
G01 X101.3077 Y11.6503
G01 X101.2097 Y11.6551
G01 X101.1975 Y11.6560
G01 X101.1853 Y11.6575
G01 X101.0882 Y11.6719
G01 X101.0761 Y11.6740
G01 X101.0642 Y11.6767
G01 X100.9690 Y11.7006
G01 X100.9571 Y11.7038
G01 X100.9455 Y11.7077
G01 X100.8531 Y11.7407
G01 X100.8416 Y11.7452
G01 X100.8304 Y11.7501
G01 X100.7417 Y11.7921
G01 X100.7308 Y11.7976
G01 X100.7201 Y11.8036
G01 X100.6359 Y11.8541
G01 X100.6255 Y11.8607
G01 X100.6155 Y11.8677
G01 X100.5367 Y11.9262
G01 X100.5270 Y11.9337
G01 X100.5177 Y11.9418
G01 X100.4450 Y12.0077
G01 X100.4361 Y12.0161
G01 X100.4277 Y12.0250
G01 X100.3618 Y12.0977
G01 X100.3537 Y12.1070
G01 X100.3462 Y12.1167
G01 X100.2877 Y12.1955
G01 X100.2807 Y12.2055
G01 X100.2741 Y12.2159
G01 X100.2236 Y12.3001
G01 X100.2176 Y12.3108
G01 X100.2121 Y12.3217
G01 X100.1701 Y12.4104
G01 X100.1652 Y12.4216
G01 X100.1607 Y12.4331
G01 X100.1277 Y12.5255
G01 X100.1238 Y12.5371
G01 X100.1206 Y12.5490
G01 X100.0967 Y12.6442
G01 X100.0940 Y12.6561
G01 X100.0919 Y12.6682
G01 X100.0775 Y12.7653
G01 X100.0760 Y12.7775
G01 X100.0751 Y12.7897
G01 X100.0703 Y12.8877
G01 X100.0700 Y12.9000
G01 X100.0703 Y12.9123
G01 X100.0751 Y13.0103
G01 X100.0760 Y13.0225
G01 X100.0775 Y13.0347
G01 X99.9710 Y12.7553
G01 X100.0790 Y12.7553
G00 Z2.0000
G00 X99.8972 Y12.4553
G01 F60.00
G01 Z-0.0600
G01 F120.00
G01 X100.1528 Y12.4553
G00 Z2.0000
G00 X100.3075 Y12.1553
G01 F60.00
G01 Z-0.0600
G01 F120.00
G01 X100.3175 Y12.1553
G00 Z2.0000
G00 X100.6262 Y11.8553
G01 F60.00
G01 Z-0.0600
G01 F120.00
G01 X100.6339 Y11.8553
G00 Z2.0000
G00 X99.7425 Y12.1553
G01 F60.00
G01 Z-0.0600
G01 F120.00
G01 X99.7325 Y12.1553
G00 Z2.0000
G00 X99.4238 Y11.8553
G01 F60.00
G01 Z-0.0600
G01 F120.00
G01 X99.4161 Y11.8553
G00 Z2.0000
G00 X98.0439 Y11.8553
G01 F60.00
G01 Z-0.0600
G01 F120.00
G01 X98.0362 Y11.8553
G00 Z2.0000
G00 X97.7275 Y12.1553
G01 F60.00
G01 Z-0.0600
G01 F120.00
G01 X97.7228 Y12.1553
G00 Z2.0000
G00 X97.5628 Y12.4553
G01 F60.00
G01 Z-0.0600
G01 F120.00
G01 X97.5595 Y12.4553
G00 Z2.0000
G00 X97.4890 Y12.7553
G01 F60.00
G01 Z-0.0600
G01 F120.00
G01 X97.4872 Y12.7553
G00 Z2.0000
G00 X97.4881 Y13.0553
G01 F60.00
G01 Z-0.0600
G01 F120.00
G01 X97.4906 Y13.0553
G00 Z2.0000
G00 X97.5642 Y13.3553
G01 F60.00
G01 Z-0.0600
G01 F120.00
G01 X97.5666 Y13.3553
G00 Z2.0000
G00 X97.6161 Y13.6553
G01 F60.00
G01 Z-0.0600
G01 F120.00
G01 X97.7354 Y13.6553
G00 Z2.0000
G00 X99.3035 Y14.2553
G01 F60.00
G01 Z-0.0600
G01 F120.00
G01 X99.3433 Y14.2553
G00 Z2.0000
G00 X99.3983 Y13.9553
G01 F60.00
G01 Z-0.0600
G01 F120.00
G01 X99.4277 Y13.9553
G00 Z2.0000
G00 X99.7246 Y13.6553
G01 F60.00
G01 Z-0.0600
G01 F120.00
G01 X99.7330 Y13.6553
G00 Z2.0000
G00 X99.4399 Y14.5553
G01 F60.00
G01 Z-0.0600
G01 F120.00
G01 X99.4362 Y14.5553
G00 Z2.0000
G00 X99.4371 Y14.8553
G01 F60.00
G01 Z-0.0600
G01 F120.00
G01 X99.4339 Y14.8553
G00 Z2.0000
G00 X99.2972 Y15.1553
G01 F60.00
G01 Z-0.0600
G01 F120.00
G01 X99.2956 Y15.1553
G00 Z2.0000
G00 X102.3225 Y12.1553
G01 F60.00
G01 Z-0.0600
G01 F120.00
G01 X102.3315 Y12.1553
G00 Z2.0000
G00 X102.0138 Y11.8553
G01 F60.00
G01 Z-0.0600
G01 F120.00
G01 X102.0061 Y11.8553
G00 Z2.0000
G00 X103.4625 Y14.0446
G01 F60.00
G01 Z-0.0600
G01 F120.00
G01 X103.6121 Y14.0959
G01 X103.8164 Y14.1300
G01 X104.0236 Y14.1300
G01 X104.2279 Y14.0959
G01 X104.3775 Y14.0446
G01 X104.3760 Y14.0432
G01 X104.2945 Y14.0723
G01 X104.2770 Y14.0779
G01 X104.1758 Y14.1033
G01 X104.1639 Y14.1060
G01 X104.1518 Y14.1081
G01 X104.0547 Y14.1225
G01 X104.0425 Y14.1240
G01 X104.0303 Y14.1249
G01 X103.9323 Y14.1297
G01 X103.9200 Y14.1300
G01 X103.9077 Y14.1297
G01 X103.8097 Y14.1249
G01 X103.7975 Y14.1240
G01 X103.7853 Y14.1225
G01 X103.6882 Y14.1081
G01 X103.6761 Y14.1060
G01 X103.6642 Y14.1033
G01 X103.5630 Y14.0779
G01 X103.5455 Y14.0723
G01 X103.4640 Y14.0432
G01 X103.4625 Y14.0446
G00 Z2.0000
G00 X105.1024 Y13.3553
G01 F60.00
G01 Z-0.0600
G01 F120.00
G01 X105.3439 Y13.3553
G00 Z2.0000
G00 X105.1565 Y13.0553
G01 F60.00
G01 Z-0.0600
G01 F120.00
G01 X105.2635 Y13.0553
G00 Z2.0000
G00 X105.2563 Y12.7553
G01 F60.00
G01 Z-0.0600
G01 F120.00
G01 X105.1637 Y12.7553
G00 Z2.0000
G00 X105.0944 Y12.4553
G01 F60.00
G01 Z-0.0600
G01 F120.00
G01 X105.3256 Y12.4553
G00 Z2.0000
G00 X105.4698 Y12.1553
G01 F60.00
G01 Z-0.0600
G01 F120.00
G01 X105.4827 Y12.1553
G00 Z2.0000
G00 X105.7805 Y11.8553
G01 F60.00
G01 Z-0.0600
G01 F120.00
G01 X105.7852 Y11.8553
G00 Z2.0000
G00 X107.2148 Y11.8553
G01 F60.00
G01 Z-0.0600
G01 F120.00
G01 X107.2195 Y11.8553
G00 Z2.0000
G00 X107.5173 Y12.1553
G01 F60.00
G01 Z-0.0600
G01 F120.00
G01 X107.5203 Y12.1553
G00 Z2.0000
G00 X107.6744 Y12.4553
G01 F60.00
G01 Z-0.0600
G01 F120.00
G01 X107.6792 Y12.4553
G00 Z2.0000
G00 X107.7437 Y12.7553
G01 F60.00
G01 Z-0.0600
G01 F120.00
G01 X107.7445 Y12.7553
G00 Z2.0000
G00 X107.7403 Y13.0553
G01 F60.00
G01 Z-0.0600
G01 F120.00
G01 X107.7365 Y13.0553
G00 Z2.0000
G00 X107.6570 Y13.3553
G01 F60.00
G01 Z-0.0600
G01 F120.00
G01 X107.6561 Y13.3553
G00 Z2.0000
G00 X107.4859 Y13.6553
G01 F60.00
G01 Z-0.0600
G01 F120.00
G01 X107.4797 Y13.6553
G00 Z2.0000
G00 X107.2655 Y13.9553
G01 F60.00
G01 Z-0.0600
G01 F120.00
G01 X107.2503 Y13.9553
G01 X107.2505 Y16.6553
G01 X107.2503 Y16.6553
G00 Z2.0000
G00 X105.7345 Y13.9553
G01 F60.00
G01 Z-0.0600
G01 F120.00
G01 X105.7497 Y13.9553
G01 X105.7497 Y14.2553
G01 X105.7495 Y14.2553
G01 X105.7497 Y16.3553
G01 X105.7486 Y16.3553
G00 Z2.0000
G00 X105.5836 Y16.6553
G01 F60.00
G01 Z-0.0600
G01 F120.00
G01 X105.5833 Y16.6553
G01 X105.2836 Y16.9553
G01 X105.2833 Y16.9553
G01 X104.9836 Y17.2553
G01 X104.9833 Y17.2553
G01 X104.6836 Y17.5553
G01 X104.6833 Y17.5553
G01 X104.3836 Y17.8553
G01 X104.3833 Y17.8553
G01 X102.2833 Y19.9553
G00 Z2.0000
G00 X103.2057 Y21.1553
G01 F60.00
G01 Z-0.0600
G01 F120.00
G01 X106.8060 Y17.5553
G00 Z2.0000
G00 X107.0956 Y17.2553
G01 F60.00
G01 Z-0.0600
G01 F120.00
G01 X107.0977 Y17.2553
G00 Z2.0000
G00 X107.2339 Y16.9553
G01 F60.00
G01 Z-0.0600
G01 F120.00
G01 X107.2362 Y16.9553
G00 Z2.0000
G00 X105.5203 Y13.6553
G01 F60.00
G01 Z-0.0600
G01 F120.00
G01 X105.5141 Y13.6553
G00 Z2.0000
G00 X104.6444 Y21.0726
G01 F60.00
G01 Z-0.0600
G01 F120.00
G01 X106.1011 Y21.0726
G01 X106.4200 Y21.3726
G01 X104.3255 Y21.3726
G01 X104.1592 Y21.6726
G01 X106.5863 Y21.6726
G01 X106.2008 Y23.1726
G01 X104.5447 Y23.1726
G01 X104.2757 Y22.8726
G01 X106.4699 Y22.8726
G01 X106.6174 Y22.5726
G01 X104.1282 Y22.5726
G01 X104.0610 Y22.1600
G01 X104.0616 Y22.1526
G01 X104.0771 Y21.9548
G01 X104.1252 Y21.7546
G01 X104.2039 Y21.5645
G01 X104.3115 Y21.3890
G01 X104.4452 Y21.2324
G01 X104.6017 Y21.0987
G01 X104.7772 Y20.9912
G01 X104.9674 Y20.9124
G01 X105.1675 Y20.8644
G01 X105.3728 Y20.8482
G01 X105.5780 Y20.8644
G01 X105.7781 Y20.9124
G01 X105.9683 Y20.9912
G01 X106.1438 Y21.0987
G01 X106.3003 Y21.2324
G01 X106.4340 Y21.3890
G01 X106.5416 Y21.5645
G01 X106.6203 Y21.7546
G01 X106.6684 Y21.9548
G01 X106.6845 Y22.1600
G01 X106.6684 Y22.3652
G01 X106.6203 Y22.5654
G01 X106.5416 Y22.7555
G01 X106.4340 Y22.9310
G01 X106.3003 Y23.0876
G01 X106.1438 Y23.2213
G01 X105.9683 Y23.3288
G01 X105.7781 Y23.4076
G01 X105.5780 Y23.4556
G01 X105.3728 Y23.4718
G01 X105.1676 Y23.4556
G01 X104.9674 Y23.4076
G01 X104.7772 Y23.3288
G01 X104.6017 Y23.2213
G01 X104.4452 Y23.0876
G01 X104.3115 Y22.9310
G01 X104.2039 Y22.7555
G01 X104.1252 Y22.5654
G01 X104.0771 Y22.3652
G01 X104.0670 Y22.2371
G01 X104.0610 Y22.1600
G01 X104.0698 Y22.2726
G01 X106.6757 Y22.2726
G01 X106.6698 Y21.9726
G01 X104.0757 Y21.9726
G00 Z2.0000
G00 X102.9060 Y21.4553
G01 F60.00
G01 Z-0.0600
G01 F120.00
G01 X102.9057 Y21.4553
G00 Z2.0000
G00 X103.6298 Y28.6946
G01 F60.00
G01 Z-0.0600
G01 F120.00
G01 X102.4702 Y28.6946
G01 X102.0381 Y28.9946
G01 X104.0619 Y28.9946
G01 X104.2830 Y29.2946
G01 X101.8170 Y29.2946
G01 X102.1848 Y31.0946
G01 X103.9152 Y31.0946
G01 X104.2039 Y30.7946
G01 X101.8961 Y30.7946
G01 X101.7376 Y30.4946
G01 X104.3624 Y30.4946
G01 X104.4469 Y30.1946
G01 X101.6531 Y30.1946
G01 X101.6362 Y29.9800
G01 X101.6437 Y29.8841
G01 X101.6536 Y29.7588
G01 X101.7054 Y29.5431
G01 X101.7903 Y29.3381
G01 X101.9062 Y29.1490
G01 X102.0503 Y28.9803
G01 X102.2190 Y28.8362
G01 X102.4081 Y28.7203
G01 X102.6131 Y28.6354
G01 X102.8288 Y28.5836
G01 X103.0500 Y28.5662
G01 X103.2712 Y28.5836
G01 X103.4869 Y28.6354
G01 X103.6919 Y28.7203
G01 X103.8810 Y28.8362
G01 X104.0497 Y28.9803
G01 X104.1938 Y29.1490
G01 X104.3097 Y29.3381
G01 X104.3946 Y29.5431
G01 X104.4464 Y29.7588
G01 X104.4638 Y29.9800
G01 X104.4464 Y30.2012
G01 X104.3946 Y30.4169
G01 X104.3097 Y30.6219
G01 X104.1938 Y30.8110
G01 X104.0497 Y30.9797
G01 X103.8810 Y31.1238
G01 X103.6919 Y31.2397
G01 X103.4869 Y31.3246
G01 X103.2712 Y31.3764
G01 X103.0500 Y31.3938
G01 X102.8288 Y31.3764
G01 X102.6131 Y31.3246
G01 X102.4081 Y31.2397
G01 X102.2190 Y31.1238
G01 X102.0503 Y30.9797
G01 X101.9062 Y30.8110
G01 X101.8580 Y30.7323
G01 X101.7903 Y30.6219
G01 X101.7054 Y30.4169
G01 X101.6536 Y30.2012
G01 X101.6362 Y29.9800
G01 X101.6429 Y29.8946
G01 X104.4571 Y29.8946
G01 X104.4070 Y29.5946
G01 X101.6930 Y29.5946
G00 Z2.0000
G00 X100.8068 Y29.3505
G01 F60.00
G01 Z-0.0600
G01 F120.00
G01 X100.8048 Y29.3505
G00 Z2.0000
G00 X100.8278 Y29.6505
G01 F60.00
G01 Z-0.0600
G01 F120.00
G01 X100.8306 Y29.6505
G00 Z2.0000
G00 X100.7812 Y29.9505
G01 F60.00
G01 Z-0.0600
G01 F120.00
G01 X100.7796 Y29.9505
G00 Z2.0000
G00 X100.6487 Y30.2505
G01 F60.00
G01 Z-0.0600
G01 F120.00
G01 X100.6460 Y30.2505
G00 Z2.0000
G00 X100.3947 Y30.5505
G01 F60.00
G01 Z-0.0600
G01 F120.00
G01 X100.3908 Y30.5505
G00 Z2.0000
G00 X100.7015 Y29.0505
G01 F60.00
G01 Z-0.0600
G01 F120.00
G01 X100.7045 Y29.0505
G00 Z2.0000
G00 X100.4977 Y28.7505
G01 F60.00
G01 Z-0.0600
G01 F120.00
G01 X100.4955 Y28.7505
G00 Z2.0000
G00 X100.0829 Y28.4505
G01 F60.00
G01 Z-0.0600
G01 F120.00
G01 X100.0704 Y28.4505
G00 Z2.0000
G00 X99.0896 Y28.4505
G01 F60.00
G01 Z-0.0600
G01 F120.00
G01 X99.0771 Y28.4505
G00 Z2.0000
G00 X98.6645 Y28.7505
G01 F60.00
G01 Z-0.0600
G01 F120.00
G01 X98.6623 Y28.7505
G00 Z2.0000
G00 X98.4585 Y29.0505
G01 F60.00
G01 Z-0.0600
G01 F120.00
G01 X98.2566 Y29.0505
G00 Z2.0000
G00 X98.3552 Y29.3505
G01 F60.00
G01 Z-0.0600
G01 F120.00
G01 X98.2248 Y29.3505
G00 Z2.0000
G00 X98.2478 Y29.6505
G01 F60.00
G01 Z-0.0600
G01 F120.00
G01 X98.3322 Y29.6505
G00 Z2.0000
G00 X98.3375 Y29.7347
G01 F60.00
G01 Z-0.0600
G01 F120.00
G01 X98.3360 Y29.7225
G01 X98.3351 Y29.7103
G01 X98.3303 Y29.6123
G01 X98.3300 Y29.6000
G01 X98.3303 Y29.5877
G01 X98.3351 Y29.4897
G01 X98.3360 Y29.4775
G01 X98.3375 Y29.4653
G01 X98.3519 Y29.3682
G01 X98.3540 Y29.3561
G01 X98.3567 Y29.3442
G01 X98.3806 Y29.2490
G01 X98.3838 Y29.2371
G01 X98.3877 Y29.2255
G01 X98.4207 Y29.1331
G01 X98.4252 Y29.1216
G01 X98.4301 Y29.1104
G01 X98.4721 Y29.0217
G01 X98.4776 Y29.0108
G01 X98.4836 Y29.0001
G01 X98.5341 Y28.9159
G01 X98.5407 Y28.9055
G01 X98.5477 Y28.8955
G01 X98.6062 Y28.8167
G01 X98.6137 Y28.8070
G01 X98.6218 Y28.7977
G01 X98.6877 Y28.7250
G01 X98.6961 Y28.7161
G01 X98.7050 Y28.7077
G01 X98.7777 Y28.6418
G01 X98.7870 Y28.6337
G01 X98.7967 Y28.6262
G01 X98.8755 Y28.5677
G01 X98.8855 Y28.5607
G01 X98.8959 Y28.5541
G01 X98.9801 Y28.5036
G01 X98.9908 Y28.4976
G01 X99.0017 Y28.4921
G01 X99.0904 Y28.4501
G01 X99.1016 Y28.4452
G01 X99.1131 Y28.4407
G01 X99.2055 Y28.4077
G01 X99.2171 Y28.4038
G01 X99.2290 Y28.4006
G01 X99.3242 Y28.3767
G01 X99.3361 Y28.3740
G01 X99.3482 Y28.3719
G01 X99.4453 Y28.3575
G01 X99.4575 Y28.3560
G01 X99.4697 Y28.3551
G01 X99.5677 Y28.3503
G01 X99.5800 Y28.3500
G01 X99.5923 Y28.3503
G01 X99.6903 Y28.3551
G01 X99.7025 Y28.3560
G01 X99.7147 Y28.3575
G01 X99.8118 Y28.3719
G01 X99.8239 Y28.3740
G01 X99.8358 Y28.3767
G01 X99.9310 Y28.4006
G01 X99.9429 Y28.4038
G01 X99.9545 Y28.4077
G01 X100.0469 Y28.4407
G01 X100.0584 Y28.4452
G01 X100.0696 Y28.4501
G01 X100.1583 Y28.4921
G01 X100.1692 Y28.4976
G01 X100.1799 Y28.5036
G01 X100.2641 Y28.5541
G01 X100.2745 Y28.5607
G01 X100.2845 Y28.5677
G01 X100.3633 Y28.6262
G01 X100.3730 Y28.6337
G01 X100.3823 Y28.6418
G01 X100.4550 Y28.7077
G01 X100.4639 Y28.7161
G01 X100.4723 Y28.7250
G01 X100.5382 Y28.7977
G01 X100.5463 Y28.8070
G01 X100.5538 Y28.8167
G01 X100.6123 Y28.8955
G01 X100.6193 Y28.9055
G01 X100.6259 Y28.9159
G01 X100.6764 Y29.0001
G01 X100.6824 Y29.0108
G01 X100.6879 Y29.0217
G01 X100.7299 Y29.1104
G01 X100.7348 Y29.1216
G01 X100.7393 Y29.1331
G01 X100.7723 Y29.2255
G01 X100.7762 Y29.2371
G01 X100.7794 Y29.2490
G01 X100.8033 Y29.3442
G01 X100.8060 Y29.3561
G01 X100.8081 Y29.3682
G01 X100.8225 Y29.4653
G01 X100.8240 Y29.4775
G01 X100.8249 Y29.4897
G01 X100.8297 Y29.5877
G01 X100.8300 Y29.6000
G01 X100.8297 Y29.6123
G01 X100.8249 Y29.7103
G01 X100.8240 Y29.7225
G01 X100.8225 Y29.7347
G01 X100.8081 Y29.8318
G01 X100.8060 Y29.8439
G01 X100.8033 Y29.8558
G01 X100.7794 Y29.9510
G01 X100.7762 Y29.9629
G01 X100.7723 Y29.9745
G01 X100.7393 Y30.0669
G01 X100.7348 Y30.0784
G01 X100.7299 Y30.0896
G01 X100.6879 Y30.1783
G01 X100.6824 Y30.1892
G01 X100.6764 Y30.1999
G01 X100.6259 Y30.2841
G01 X100.6193 Y30.2945
G01 X100.6123 Y30.3045
G01 X100.5538 Y30.3833
G01 X100.5463 Y30.3930
G01 X100.5382 Y30.4023
G01 X100.4723 Y30.4750
G01 X100.4639 Y30.4839
G01 X100.4550 Y30.4923
G01 X100.3823 Y30.5582
G01 X100.3730 Y30.5663
G01 X100.3633 Y30.5738
G01 X100.2845 Y30.6323
G01 X100.2745 Y30.6393
G01 X100.2641 Y30.6459
G01 X100.1799 Y30.6964
G01 X100.1692 Y30.7024
G01 X100.1583 Y30.7079
G01 X100.0696 Y30.7499
G01 X100.0584 Y30.7548
G01 X100.0469 Y30.7593
G01 X99.9545 Y30.7923
G01 X99.9429 Y30.7962
G01 X99.9310 Y30.7994
G01 X99.8358 Y30.8233
G01 X99.8239 Y30.8260
G01 X99.8118 Y30.8281
G01 X99.7147 Y30.8425
G01 X99.7025 Y30.8440
G01 X99.6903 Y30.8449
G01 X99.5923 Y30.8497
G01 X99.5800 Y30.8500
G01 X99.5677 Y30.8497
G01 X99.4697 Y30.8449
G01 X99.4575 Y30.8440
G01 X99.4453 Y30.8425
G01 X99.3482 Y30.8281
G01 X99.3361 Y30.8260
G01 X99.3242 Y30.8233
G01 X99.2290 Y30.7994
G01 X99.2171 Y30.7962
G01 X99.2055 Y30.7923
G01 X99.1131 Y30.7593
G01 X99.1016 Y30.7548
G01 X99.0904 Y30.7499
G01 X99.0017 Y30.7079
G01 X98.9908 Y30.7024
G01 X98.9801 Y30.6964
G01 X98.8959 Y30.6459
G01 X98.8855 Y30.6393
G01 X98.8755 Y30.6323
G01 X98.7967 Y30.5738
G01 X98.7870 Y30.5663
G01 X98.7777 Y30.5582
G01 X98.7050 Y30.4923
G01 X98.6961 Y30.4839
G01 X98.6877 Y30.4750
G01 X98.6218 Y30.4023
G01 X98.6137 Y30.3930
G01 X98.6062 Y30.3833
G01 X98.5477 Y30.3045
G01 X98.5407 Y30.2945
G01 X98.5341 Y30.2841
G01 X98.4836 Y30.1999
G01 X98.4776 Y30.1892
G01 X98.4721 Y30.1783
G01 X98.4301 Y30.0896
G01 X98.4252 Y30.0784
G01 X98.4207 Y30.0669
G01 X98.3877 Y29.9745
G01 X98.3838 Y29.9629
G01 X98.3806 Y29.9510
G01 X98.3567 Y29.8558
G01 X98.3540 Y29.8439
G01 X98.3519 Y29.8318
G01 X98.3375 Y29.7347
G00 Z2.0000
G00 X98.3804 Y29.9505
G01 F60.00
G01 Z-0.0600
G01 F120.00
G01 X98.1996 Y29.9505
G00 Z2.0000
G00 X98.1632 Y30.0560
G01 F60.00
G01 Z-0.0600
G01 F120.00
G01 X98.3135 Y30.2064
G01 X98.3335 Y30.2089
G01 X98.3455 Y30.2111
G01 X98.3573 Y30.2140
G01 X98.3748 Y30.2193
G01 X98.4316 Y30.2391
G01 X98.4430 Y30.2436
G01 X98.4540 Y30.2487
G01 X98.4702 Y30.2574
G01 X98.4856 Y30.2672
G01 X98.5003 Y30.2781
G01 X98.5096 Y30.2859
G01 X98.5186 Y30.2942
G01 X98.5658 Y30.3406
G01 X98.5778 Y30.3545
G01 X98.5896 Y30.3705
G01 X98.7302 Y30.5232
G01 X98.8937 Y30.6505
G01 X99.0760 Y30.7491
G01 X99.2720 Y30.8164
G01 X99.4764 Y30.8505
G01 X99.6836 Y30.8505
G01 X99.8880 Y30.8164
G01 X100.0840 Y30.7491
G01 X100.2663 Y30.6505
G01 X100.4298 Y30.5232
G01 X100.5702 Y30.3707
G01 X100.6836 Y30.1972
G01 X100.7668 Y30.0074
G01 X100.8177 Y29.8065
G01 X100.8348 Y29.6000
G01 X100.8177 Y29.3935
G01 X100.7668 Y29.1926
G01 X100.6836 Y29.0028
G01 X100.5702 Y28.8293
G01 X100.4298 Y28.6768
G01 X100.2663 Y28.5495
G01 X100.0840 Y28.4509
G01 X99.8880 Y28.3836
G01 X99.6836 Y28.3495
G01 X99.4764 Y28.3495
G01 X99.2720 Y28.3836
G01 X99.0760 Y28.4509
G01 X98.8937 Y28.5495
G01 X98.7302 Y28.6768
G01 X98.5896 Y28.8295
G01 X98.5778 Y28.8455
G01 X98.5658 Y28.8594
G01 X98.5186 Y28.9058
G01 X98.5096 Y28.9141
G01 X98.5003 Y28.9219
G01 X98.4856 Y28.9328
G01 X98.4702 Y28.9426
G01 X98.4540 Y28.9513
G01 X98.4430 Y28.9564
G01 X98.4316 Y28.9609
G01 X98.3748 Y28.9807
G01 X98.3573 Y28.9860
G01 X98.3455 Y28.9889
G01 X98.3335 Y28.9911
G01 X98.3135 Y28.9936
G01 X98.1632 Y29.1440
G01 X98.1923 Y29.2255
G01 X98.1962 Y29.2371
G01 X98.1994 Y29.2490
G01 X98.2233 Y29.3442
G01 X98.2260 Y29.3561
G01 X98.2281 Y29.3682
G01 X98.2425 Y29.4653
G01 X98.2440 Y29.4775
G01 X98.2449 Y29.4897
G01 X98.2497 Y29.5877
G01 X98.2500 Y29.6000
G01 X98.2497 Y29.6123
G01 X98.2449 Y29.7103
G01 X98.2440 Y29.7225
G01 X98.2425 Y29.7347
G01 X98.2281 Y29.8318
G01 X98.2260 Y29.8439
G01 X98.2233 Y29.8558
G01 X98.1994 Y29.9510
G01 X98.1962 Y29.9629
G01 X98.1923 Y29.9745
G01 X98.1632 Y30.0560
G01 X98.4576 Y30.2505
G01 X98.5140 Y30.2505
G00 Z2.0000
G00 X98.7653 Y30.5505
G01 F60.00
G01 Z-0.0600
G01 F120.00
G01 X98.7692 Y30.5505
G00 Z2.0000
G00 X97.9301 Y32.4705
G01 F60.00
G01 Z-0.0600
G01 F120.00
G01 X105.0005 Y32.4705
G01 X105.0004 Y32.7705
G01 X97.9300 Y32.7705
G01 X97.9300 Y33.0705
G01 X105.0004 Y33.0705
G01 X105.0004 Y33.3705
G01 X97.9300 Y33.3705
G01 X97.9300 Y33.6705
G01 X105.0004 Y33.6705
G01 X105.0003 Y33.9705
G01 X97.9299 Y33.9705
G01 X97.9299 Y34.2705
G01 X105.0003 Y34.2705
G01 X105.0003 Y34.5705
G01 X97.9299 Y34.5705
G01 X97.9299 Y34.8705
G01 X105.0003 Y34.8705
G01 X105.0003 Y35.1705
G01 X97.9299 Y35.1705
G01 X97.9298 Y35.4705
G01 X105.0002 Y35.4705
G01 X105.0002 Y35.7705
G01 X97.9298 Y35.7705
G01 X97.9298 Y36.0705
G01 X105.0002 Y36.0705
G01 X105.0002 Y36.3705
G01 X97.9298 Y36.3705
G01 X97.9297 Y36.6705
G01 X105.0001 Y36.6705
G01 X105.0001 Y36.9705
G01 X97.9297 Y36.9705
G01 X97.9297 Y37.2705
G01 X105.0001 Y37.2705
G01 X105.0001 Y37.5705
G01 X97.9297 Y37.5705
G01 X97.9296 Y37.8705
G01 X105.0000 Y37.8705
G01 X105.0000 Y38.1705
G01 X97.9296 Y38.1705
G01 X97.9296 Y38.4705
G01 X105.0000 Y38.4705
G01 X105.0000 Y38.7705
G01 X97.9296 Y38.7705
G01 X97.9295 Y39.0705
G01 X104.9999 Y39.0705
G00 Z2.0000
G00 X97.9295 Y39.3700
G01 F60.00
G01 Z-0.0600
G01 F120.00
G01 X104.9999 Y39.3705
G01 X105.0005 Y32.3101
G01 X97.9301 Y32.3095
G01 X97.9295 Y39.3700
G00 Z2.0000
G00 X93.7432 Y41.8563
G01 F60.00
G01 Z-0.0600
G01 F120.00
G01 X97.3968 Y41.8563
G01 X98.1402 Y42.1563
G01 X92.9998 Y42.1563
G01 X92.4649 Y42.4563
G01 X98.6751 Y42.4563
G01 X99.1089 Y42.7563
G01 X92.0311 Y42.7563
G01 X91.6679 Y43.0563
G01 X99.4721 Y43.0563
G01 X99.7828 Y43.3563
G01 X91.3572 Y43.3563
G01 X91.0873 Y43.6563
G01 X100.0527 Y43.6563
G01 X100.2899 Y43.9563
G01 X90.8501 Y43.9563
G01 X90.6430 Y44.2563
G01 X100.4970 Y44.2563
G01 X100.6730 Y44.5563
G01 X90.4668 Y44.5563
G00 Z2.0000
G00 X90.3106 Y44.8563
G01 F60.00
G01 Z-0.0600
G01 F120.00
G01 X100.8294 Y44.8563
G01 X100.9679 Y45.1563
G01 X90.1720 Y45.1563
G01 X90.0583 Y45.4563
G01 X101.0816 Y45.4563
G01 X101.1777 Y45.7563
G01 X89.9623 Y45.7563
G01 X89.8794 Y46.0563
G01 X101.2606 Y46.0563
G01 X101.3218 Y46.3563
G01 X89.8182 Y46.3563
G01 X89.7722 Y46.6563
G01 X101.3678 Y46.6563
G01 X101.4028 Y46.9563
G01 X89.7372 Y46.9563
G01 X89.7251 Y47.2563
G01 X101.4149 Y47.2563
G01 X101.4152 Y47.5563
G01 X89.7248 Y47.5563
G01 X89.7189 Y47.4100
G01 X89.7376 Y47.8737
G01 X89.7379 Y47.8808
G01 X89.7842 Y48.2621
G01 X89.7947 Y48.3486
G01 X89.8871 Y48.8011
G01 X89.8889 Y48.8103
G01 X90.0200 Y49.2628
G01 X90.1871 Y49.7034
G01 X90.3891 Y50.1291
G01 X90.6247 Y50.5372
G01 X90.8924 Y50.9250
G01 X91.1904 Y51.2900
G01 X91.5168 Y51.6298
G01 X91.5339 Y51.6450
G01 X91.8695 Y51.9423
G01 X92.2462 Y52.2253
G01 X92.6445 Y52.4772
G01 X93.0617 Y52.6962
G01 X93.4952 Y52.8809
G01 X93.9421 Y53.0301
G01 X94.3996 Y53.1428
G01 X94.8647 Y53.2184
G01 X95.3344 Y53.2563
G01 X95.8056 Y53.2563
G01 X96.2753 Y53.2184
G01 X96.7404 Y53.1428
G01 X97.1979 Y53.0301
G01 X97.6448 Y52.8809
G01 X98.0783 Y52.6962
G01 X98.4955 Y52.4772
G01 X98.8938 Y52.2253
G01 X99.2705 Y51.9423
G01 X99.6232 Y51.6298
G01 X99.9496 Y51.2900
G01 X100.2476 Y50.9250
G01 X100.5153 Y50.5372
G01 X100.7509 Y50.1291
G01 X100.9529 Y49.7034
G01 X101.1200 Y49.2628
G01 X101.2511 Y48.8103
G01 X101.3453 Y48.3486
G01 X101.4021 Y47.8808
G01 X101.4211 Y47.4100
G01 X101.4021 Y46.9392
G01 X101.3453 Y46.4714
G01 X101.2511 Y46.0097
G01 X101.2117 Y45.8740
G01 X101.1206 Y45.5595
G01 X100.9529 Y45.1165
G01 X100.7519 Y44.6931
G01 X100.5152 Y44.2828
G01 X100.2476 Y43.8950
G01 X99.9496 Y43.5300
G01 X99.6232 Y43.1902
G01 X99.2705 Y42.8777
G01 X98.8938 Y42.5947
G01 X98.4976 Y42.3441
G01 X98.1989 Y42.1871
G01 X98.0783 Y42.1238
G01 X97.6470 Y41.9401
G01 X97.1987 Y41.7902
G01 X97.1933 Y41.7888
G01 X96.7404 Y41.6772
G01 X96.2753 Y41.6016
G01 X95.8080 Y41.5639
G01 X95.3344 Y41.5637
G01 X94.8647 Y41.6016
G01 X94.3996 Y41.6772
G01 X93.9421 Y41.7899
G01 X93.4952 Y41.9391
G01 X93.0617 Y42.1238
G01 X92.6445 Y42.3428
G01 X92.2462 Y42.5947
G01 X91.8695 Y42.8777
G01 X91.5168 Y43.1902
G01 X91.1904 Y43.5300
G01 X90.8924 Y43.8950
G01 X90.6247 Y44.2828
G01 X90.3891 Y44.6909
G01 X90.1871 Y45.1166
G01 X90.0200 Y45.5572
G01 X89.8889 Y46.0097
G01 X89.7947 Y46.4714
G01 X89.7379 Y46.9392
G01 X89.7231 Y47.3063
G01 X89.7189 Y47.4100
G01 X89.7369 Y47.8563
G01 X101.4031 Y47.8563
G01 X101.3687 Y48.1563
G01 X89.7713 Y48.1563
G01 X89.8167 Y48.4563
G01 X101.3233 Y48.4563
G01 X101.2621 Y48.7563
G01 X89.8779 Y48.7563
G01 X89.9602 Y49.0563
G01 X101.1798 Y49.0563
G01 X101.0845 Y49.3563
G01 X90.0555 Y49.3563
G01 X90.1693 Y49.6563
G01 X100.9707 Y49.6563
G01 X100.8329 Y49.9563
G01 X90.3071 Y49.9563
G01 X90.4626 Y50.2563
G01 X100.6774 Y50.2563
G01 X100.5021 Y50.5563
G01 X90.6379 Y50.5563
G01 X90.8450 Y50.8563
G01 X100.2950 Y50.8563
G01 X100.0587 Y51.1563
G01 X91.0813 Y51.1563
G01 X91.3502 Y51.4563
G01 X99.7898 Y51.4563
G01 X99.4804 Y51.7563
G01 X91.6596 Y51.7563
G01 X92.0213 Y52.0563
G01 X99.1187 Y52.0563
G01 X98.6866 Y52.3563
G01 X92.4534 Y52.3563
G01 X92.9858 Y52.6563
G01 X98.1542 Y52.6563
G01 X97.4187 Y52.9563
G01 X93.7213 Y52.9563
G00 Z2.0000
G00 X88.7798 Y56.6146
G01 F60.00
G01 Z-0.0600
G01 F120.00
G01 X87.6202 Y56.6146
G01 X87.1881 Y56.9146
G01 X89.2119 Y56.9146
G01 X89.0652 Y59.0146
G01 X87.3348 Y59.0146
G01 X87.0461 Y58.7146
G01 X89.3539 Y58.7146
G01 X89.5124 Y58.4146
G01 X86.8876 Y58.4146
G01 X86.7862 Y57.9000
G01 X86.8036 Y57.6788
G01 X86.8554 Y57.4631
G01 X86.9403 Y57.2581
G01 X87.0562 Y57.0690
G01 X87.2003 Y56.9003
G01 X87.3690 Y56.7562
G01 X87.5581 Y56.6403
G01 X87.7631 Y56.5554
G01 X87.9788 Y56.5036
G01 X88.2000 Y56.4862
G01 X88.4212 Y56.5036
G01 X88.6369 Y56.5554
G01 X88.8419 Y56.6403
G01 X89.0310 Y56.7562
G01 X89.1997 Y56.9003
G01 X89.3438 Y57.0690
G01 X89.4597 Y57.2581
G01 X89.5446 Y57.4631
G01 X89.5964 Y57.6788
G01 X89.6138 Y57.9000
G01 X89.6122 Y57.9204
G01 X89.5964 Y58.1212
G01 X89.5446 Y58.3369
G01 X89.4597 Y58.5419
G01 X89.3438 Y58.7310
G01 X89.1997 Y58.8997
G01 X89.0310 Y59.0438
G01 X88.8419 Y59.1597
G01 X88.6369 Y59.2446
G01 X88.4212 Y59.2964
G01 X88.2000 Y59.3138
G01 X87.9788 Y59.2964
G01 X87.7631 Y59.2446
G01 X87.5581 Y59.1597
G01 X87.3690 Y59.0438
G01 X87.2003 Y58.8997
G01 X87.0562 Y58.7310
G01 X87.0534 Y58.7264
G01 X86.9403 Y58.5419
G01 X86.8554 Y58.3369
G01 X86.8036 Y58.1212
G01 X86.7862 Y57.9000
G01 X86.8031 Y58.1146
G01 X89.5969 Y58.1146
G01 X89.6071 Y57.8146
G01 X86.7929 Y57.8146
G01 X86.8430 Y57.5146
G01 X89.5570 Y57.5146
G01 X89.4330 Y57.2146
G01 X86.9670 Y57.2146
G00 Z2.0000
G00 X85.4362 Y56.5553
G01 F60.00
G01 Z-0.0600
G01 F120.00
G01 X85.4339 Y56.5553
G00 Z2.0000
G00 X85.4505 Y56.2553
G01 F60.00
G01 Z-0.0600
G01 F120.00
G01 X85.4503 Y56.2553
G01 X85.4503 Y55.9553
G01 X85.4505 Y55.9553
G01 X85.4503 Y22.9553
G01 X85.4507 Y22.9553
G00 Z2.0000
G00 X85.2977 Y56.8553
G01 F60.00
G01 Z-0.0600
G01 F120.00
G01 X85.2956 Y56.8553
G00 Z2.0000
G00 X85.0060 Y57.1553
G01 F60.00
G01 Z-0.0600
G01 F120.00
G01 X83.5057 Y58.6553
G00 Z2.0000
G00 X82.8836 Y57.1553
G01 F60.00
G01 Z-0.0600
G01 F120.00
G01 X82.8833 Y57.1553
G01 X83.4833 Y56.5553
G01 X83.4836 Y56.5553
G01 X83.7833 Y56.2553
G01 X83.7836 Y56.2553
G00 Z2.0000
G00 X83.9486 Y55.9553
G01 F60.00
G01 Z-0.0600
G01 F120.00
G01 X83.9497 Y55.9553
G01 X83.9495 Y48.7553
G01 X83.9497 Y48.7553
G01 X83.9497 Y48.4553
G01 X83.9495 Y48.4553
G00 Z2.0000
G00 X83.9495 Y48.1553
G01 F60.00
G01 Z-0.0600
G01 F120.00
G01 X83.9497 Y48.1553
G01 X83.9495 Y22.9553
G01 X83.9497 Y22.9553
G01 X83.9497 Y22.6553
G01 X83.9495 Y22.6553
G00 Z2.0000
G00 X83.9608 Y22.3553
G01 F60.00
G01 Z-0.0600
G01 F120.00
G01 X83.9638 Y22.3553
G00 Z2.0000
G00 X84.0942 Y22.0553
G01 F60.00
G01 Z-0.0600
G01 F120.00
G01 X84.0965 Y22.0553
G00 Z2.0000
G00 X84.3833 Y21.7553
G01 F60.00
G01 Z-0.0600
G01 F120.00
G01 X84.3836 Y21.7553
G01 X84.6833 Y21.4553
G01 X84.6836 Y21.4553
G01 X84.9833 Y21.1553
G01 X84.9836 Y21.1553
G01 X85.2833 Y20.8553
G01 X85.2836 Y20.8553
G01 X85.5833 Y20.5553
G01 X85.5836 Y20.5553
G00 Z2.0000
G00 X86.0995 Y20.2553
G01 F60.00
G01 Z-0.0600
G01 F120.00
G01 X86.1111 Y20.2553
G00 Z2.0000
G00 X86.5057 Y21.7553
G01 F60.00
G01 Z-0.0600
G01 F120.00
G01 X86.6168 Y21.7553
G00 Z2.0000
G00 X86.2060 Y22.0553
G01 F60.00
G01 Z-0.0600
G01 F120.00
G01 X86.2057 Y22.0553
G01 X85.9060 Y22.3553
G01 X85.9057 Y22.3553
G01 X85.6060 Y22.6553
G01 X85.6057 Y22.6553
G00 Z2.0000
G00 X92.0142 Y24.3642
G01 F60.00
G01 Z-0.0600
G01 F120.00
G01 X94.5658 Y24.3642
G01 X94.6320 Y24.6642
G01 X91.9480 Y24.6642
G01 X91.9365 Y24.8100
G01 X91.9532 Y25.0217
G01 X92.0028 Y25.2282
G01 X92.0841 Y25.4245
G01 X92.1950 Y25.6055
G01 X92.3330 Y25.7670
G01 X92.4945 Y25.9050
G01 X92.6755 Y26.0159
G01 X92.8718 Y26.0972
G01 X93.0783 Y26.1468
G01 X93.2900 Y26.1635
G01 X93.5017 Y26.1468
G01 X93.7082 Y26.0972
G01 X93.9045 Y26.0159
G01 X94.0855 Y25.9050
G01 X94.2470 Y25.7670
G01 X94.3850 Y25.6055
G01 X94.4959 Y25.4245
G01 X94.5772 Y25.2282
G01 X94.6268 Y25.0217
G01 X94.6435 Y24.8100
G01 X94.6268 Y24.5983
G01 X94.5772 Y24.3918
G01 X94.4959 Y24.1955
G01 X94.3850 Y24.0145
G01 X94.2470 Y23.8530
G01 X94.0855 Y23.7150
G01 X93.9045 Y23.6041
G01 X93.7082 Y23.5228
G01 X93.5017 Y23.4732
G01 X93.2900 Y23.4565
G01 X93.0783 Y23.4732
G01 X92.8718 Y23.5228
G01 X92.6755 Y23.6041
G01 X92.4945 Y23.7150
G01 X92.3330 Y23.8530
G01 X92.1950 Y24.0145
G01 X92.0841 Y24.1955
G01 X92.0028 Y24.3918
G01 X91.9532 Y24.5983
G01 X91.9365 Y24.8100
G01 X91.9487 Y24.9642
G01 X94.6313 Y24.9642
G01 X94.5623 Y25.2642
G01 X92.0177 Y25.2642
G01 X92.1697 Y25.5642
G01 X94.4103 Y25.5642
G01 X94.1332 Y25.8642
G01 X92.4468 Y25.8642
G01 X92.1645 Y24.0642
G01 X94.4155 Y24.0642
G01 X94.1431 Y23.7642
G01 X92.4369 Y23.7642
G01 X93.1924 Y23.4642
G01 X93.3876 Y23.4642
G00 Z2.0000
G00 X93.8971 Y28.4305
G01 F60.00
G01 Z-0.0600
G01 F120.00
G01 X93.9096 Y28.4305
G00 Z2.0000
G00 X93.4845 Y28.7305
G01 F60.00
G01 Z-0.0600
G01 F120.00
G01 X93.4823 Y28.7305
G00 Z2.0000
G00 X93.2785 Y29.0305
G01 F60.00
G01 Z-0.0600
G01 F120.00
G01 X92.9315 Y29.0305
G00 Z2.0000
G00 X93.1752 Y29.3305
G01 F60.00
G01 Z-0.0600
G01 F120.00
G01 X93.0348 Y29.3305
G00 Z2.0000
G00 X93.0578 Y29.6305
G01 F60.00
G01 Z-0.0600
G01 F120.00
G01 X93.1522 Y29.6305
G00 Z2.0000
G00 X93.1575 Y29.7147
G01 F60.00
G01 Z-0.0600
G01 F120.00
G01 X93.1560 Y29.7025
G01 X93.1551 Y29.6903
G01 X93.1503 Y29.5923
G01 X93.1500 Y29.5800
G01 X93.1503 Y29.5677
G01 X93.1551 Y29.4697
G01 X93.1560 Y29.4575
G01 X93.1575 Y29.4453
G01 X93.1719 Y29.3482
G01 X93.1740 Y29.3361
G01 X93.1767 Y29.3242
G01 X93.2006 Y29.2290
G01 X93.2038 Y29.2171
G01 X93.2077 Y29.2055
G01 X93.2407 Y29.1131
G01 X93.2452 Y29.1016
G01 X93.2501 Y29.0904
G01 X93.2921 Y29.0017
G01 X93.2976 Y28.9908
G01 X93.3036 Y28.9801
G01 X93.3541 Y28.8959
G01 X93.3607 Y28.8855
G01 X93.3677 Y28.8755
G01 X93.4262 Y28.7967
G01 X93.4337 Y28.7870
G01 X93.4418 Y28.7777
G01 X93.5077 Y28.7050
G01 X93.5161 Y28.6961
G01 X93.5250 Y28.6877
G01 X93.5977 Y28.6218
G01 X93.6070 Y28.6137
G01 X93.6167 Y28.6062
G01 X93.6955 Y28.5477
G01 X93.7055 Y28.5407
G01 X93.7159 Y28.5341
G01 X93.8001 Y28.4836
G01 X93.8108 Y28.4776
G01 X93.8217 Y28.4721
G01 X93.9104 Y28.4301
G01 X93.9216 Y28.4252
G01 X93.9331 Y28.4207
G01 X94.0255 Y28.3877
G01 X94.0371 Y28.3838
G01 X94.0490 Y28.3806
G01 X94.1442 Y28.3567
G01 X94.1561 Y28.3540
G01 X94.1682 Y28.3519
G01 X94.2653 Y28.3375
G01 X94.2775 Y28.3360
G01 X94.2897 Y28.3351
G01 X94.3877 Y28.3303
G01 X94.4000 Y28.3300
G01 X94.4123 Y28.3303
G01 X94.5103 Y28.3351
G01 X94.5225 Y28.3360
G01 X94.5347 Y28.3375
G01 X94.6318 Y28.3519
G01 X94.6439 Y28.3540
G01 X94.6558 Y28.3567
G01 X94.7510 Y28.3806
G01 X94.7629 Y28.3838
G01 X94.7745 Y28.3877
G01 X94.8669 Y28.4207
G01 X94.8784 Y28.4252
G01 X94.8896 Y28.4301
G01 X94.9783 Y28.4721
G01 X94.9892 Y28.4776
G01 X94.9999 Y28.4836
G01 X95.0841 Y28.5341
G01 X95.0945 Y28.5407
G01 X95.1045 Y28.5477
G01 X95.1833 Y28.6062
G01 X95.1930 Y28.6137
G01 X95.2023 Y28.6218
G01 X95.2750 Y28.6877
G01 X95.2839 Y28.6961
G01 X95.2923 Y28.7050
G01 X95.3582 Y28.7777
G01 X95.3663 Y28.7870
G01 X95.3738 Y28.7967
G01 X95.4323 Y28.8755
G01 X95.4393 Y28.8855
G01 X95.4459 Y28.8959
G01 X95.4964 Y28.9801
G01 X95.5024 Y28.9908
G01 X95.5079 Y29.0017
G01 X95.5499 Y29.0904
G01 X95.5548 Y29.1016
G01 X95.5593 Y29.1131
G01 X95.5923 Y29.2055
G01 X95.5962 Y29.2171
G01 X95.5994 Y29.2290
G01 X95.6233 Y29.3242
G01 X95.6260 Y29.3361
G01 X95.6281 Y29.3482
G01 X95.6425 Y29.4453
G01 X95.6440 Y29.4575
G01 X95.6449 Y29.4697
G01 X95.6497 Y29.5677
G01 X95.6500 Y29.5800
G01 X95.6497 Y29.5923
G01 X95.6449 Y29.6903
G01 X95.6440 Y29.7025
G01 X95.6425 Y29.7147
G01 X95.6281 Y29.8118
G01 X95.6260 Y29.8239
G01 X95.6233 Y29.8358
G01 X95.5994 Y29.9310
G01 X95.5962 Y29.9429
G01 X95.5923 Y29.9545
G01 X95.5593 Y30.0469
G01 X95.5548 Y30.0584
G01 X95.5499 Y30.0696
G01 X95.5079 Y30.1583
G01 X95.5024 Y30.1692
G01 X95.4964 Y30.1799
G01 X95.4459 Y30.2641
G01 X95.4393 Y30.2745
G01 X95.4323 Y30.2845
G01 X95.3738 Y30.3633
G01 X95.3663 Y30.3730
G01 X95.3582 Y30.3823
G01 X95.2923 Y30.4550
G01 X95.2839 Y30.4639
G01 X95.2750 Y30.4723
G01 X95.2023 Y30.5382
G01 X95.1930 Y30.5463
G01 X95.1833 Y30.5538
G01 X95.1045 Y30.6123
G01 X95.0945 Y30.6193
G01 X95.0841 Y30.6259
G01 X94.9999 Y30.6764
G01 X94.9892 Y30.6824
G01 X94.9783 Y30.6879
G01 X94.8896 Y30.7299
G01 X94.8784 Y30.7348
G01 X94.8669 Y30.7393
G01 X94.7745 Y30.7723
G01 X94.7629 Y30.7762
G01 X94.7510 Y30.7794
G01 X94.6558 Y30.8033
G01 X94.6439 Y30.8060
G01 X94.6318 Y30.8081
G01 X94.5347 Y30.8225
G01 X94.5225 Y30.8240
G01 X94.5103 Y30.8249
G01 X94.4123 Y30.8297
G01 X94.4000 Y30.8300
G01 X94.3877 Y30.8297
G01 X94.2897 Y30.8249
G01 X94.2775 Y30.8240
G01 X94.2653 Y30.8225
G01 X94.1682 Y30.8081
G01 X94.1561 Y30.8060
G01 X94.1442 Y30.8033
G01 X94.0490 Y30.7794
G01 X94.0371 Y30.7762
G01 X94.0255 Y30.7723
G01 X93.9331 Y30.7393
G01 X93.9216 Y30.7348
G01 X93.9104 Y30.7299
G01 X93.8217 Y30.6879
G01 X93.8108 Y30.6824
G01 X93.8001 Y30.6764
G01 X93.7159 Y30.6259
G01 X93.7055 Y30.6193
G01 X93.6955 Y30.6123
G01 X93.6167 Y30.5538
G01 X93.6070 Y30.5463
G01 X93.5977 Y30.5382
G01 X93.5250 Y30.4723
G01 X93.5161 Y30.4639
G01 X93.5077 Y30.4550
G01 X93.4418 Y30.3823
G01 X93.4337 Y30.3730
G01 X93.4262 Y30.3633
G01 X93.3677 Y30.2845
G01 X93.3607 Y30.2745
G01 X93.3541 Y30.2641
G01 X93.3036 Y30.1799
G01 X93.2976 Y30.1692
G01 X93.2921 Y30.1583
G01 X93.2501 Y30.0696
G01 X93.2452 Y30.0584
G01 X93.2407 Y30.0469
G01 X93.2077 Y29.9545
G01 X93.2038 Y29.9429
G01 X93.2006 Y29.9310
G01 X93.1767 Y29.8358
G01 X93.1740 Y29.8239
G01 X93.1719 Y29.8118
G01 X93.1575 Y29.7147
G00 Z2.0000
G00 X93.2004 Y29.9305
G01 F60.00
G01 Z-0.0600
G01 F120.00
G01 X93.0096 Y29.9305
G01 X92.9444 Y30.2305
G01 X92.8760 Y30.2305
G00 Z2.0000
G00 X93.2656 Y30.2305
G01 F60.00
G01 Z-0.0600
G01 F120.00
G01 X93.3340 Y30.2305
G00 Z2.0000
G00 X93.5853 Y30.5305
G01 F60.00
G01 Z-0.0600
G01 F120.00
G01 X93.5892 Y30.5305
G00 Z2.0000
G00 X92.6247 Y30.5305
G01 F60.00
G01 Z-0.0600
G01 F120.00
G01 X92.6208 Y30.5305
G00 Z2.0000
G00 X90.9992 Y30.5305
G01 F60.00
G01 Z-0.0600
G01 F120.00
G01 X90.9953 Y30.5305
G00 Z2.0000
G00 X90.7440 Y30.2305
G01 F60.00
G01 Z-0.0600
G01 F120.00
G01 X90.7413 Y30.2305
G00 Z2.0000
G00 X90.6104 Y29.9305
G01 F60.00
G01 Z-0.0600
G01 F120.00
G01 X90.6088 Y29.9305
G00 Z2.0000
G00 X90.5675 Y29.7147
G01 F60.00
G01 Z-0.0600
G01 F120.00
G01 X90.5660 Y29.7025
G01 X90.5651 Y29.6903
G01 X90.5603 Y29.5923
G01 X90.5600 Y29.5800
G01 X90.5603 Y29.5677
G01 X90.5651 Y29.4697
G01 X90.5660 Y29.4575
G01 X90.5675 Y29.4453
G01 X90.5819 Y29.3482
G01 X90.5840 Y29.3361
G01 X90.5867 Y29.3242
G01 X90.6106 Y29.2290
G01 X90.6138 Y29.2171
G01 X90.6177 Y29.2055
G01 X90.6507 Y29.1131
G01 X90.6552 Y29.1016
G01 X90.6601 Y29.0904
G01 X90.7021 Y29.0017
G01 X90.7076 Y28.9908
G01 X90.7136 Y28.9801
G01 X90.7641 Y28.8959
G01 X90.7707 Y28.8855
G01 X90.7777 Y28.8755
G01 X90.8362 Y28.7967
G01 X90.8437 Y28.7870
G01 X90.8518 Y28.7777
G01 X90.9177 Y28.7050
G01 X90.9261 Y28.6961
G01 X90.9350 Y28.6877
G01 X91.0077 Y28.6218
G01 X91.0170 Y28.6137
G01 X91.0267 Y28.6062
G01 X91.1055 Y28.5477
G01 X91.1155 Y28.5407
G01 X91.1259 Y28.5341
G01 X91.2101 Y28.4836
G01 X91.2208 Y28.4776
G01 X91.2317 Y28.4721
G01 X91.3204 Y28.4301
G01 X91.3316 Y28.4252
G01 X91.3431 Y28.4207
G01 X91.4355 Y28.3877
G01 X91.4471 Y28.3838
G01 X91.4590 Y28.3806
G01 X91.5542 Y28.3567
G01 X91.5661 Y28.3540
G01 X91.5782 Y28.3519
G01 X91.6753 Y28.3375
G01 X91.6875 Y28.3360
G01 X91.6997 Y28.3351
G01 X91.7977 Y28.3303
G01 X91.8100 Y28.3300
G01 X91.8223 Y28.3303
G01 X91.9203 Y28.3351
G01 X91.9325 Y28.3360
G01 X91.9447 Y28.3375
G01 X92.0418 Y28.3519
G01 X92.0539 Y28.3540
G01 X92.0658 Y28.3567
G01 X92.1610 Y28.3806
G01 X92.1729 Y28.3838
G01 X92.1845 Y28.3877
G01 X92.2769 Y28.4207
G01 X92.2884 Y28.4252
G01 X92.2996 Y28.4301
G01 X92.3883 Y28.4721
G01 X92.3992 Y28.4776
G01 X92.4099 Y28.4836
G01 X92.4941 Y28.5341
G01 X92.5045 Y28.5407
G01 X92.5145 Y28.5477
G01 X92.5933 Y28.6062
G01 X92.6030 Y28.6137
G01 X92.6123 Y28.6218
G01 X92.6850 Y28.6877
G01 X92.6939 Y28.6961
G01 X92.7023 Y28.7050
G01 X92.7682 Y28.7777
G01 X92.7763 Y28.7870
G01 X92.7838 Y28.7967
G01 X92.8423 Y28.8755
G01 X92.8493 Y28.8855
G01 X92.8559 Y28.8959
G01 X92.9064 Y28.9801
G01 X92.9124 Y28.9908
G01 X92.9179 Y29.0017
G01 X92.9599 Y29.0904
G01 X92.9648 Y29.1016
G01 X92.9693 Y29.1131
G01 X93.0023 Y29.2055
G01 X93.0062 Y29.2171
G01 X93.0094 Y29.2290
G01 X93.0333 Y29.3242
G01 X93.0360 Y29.3361
G01 X93.0381 Y29.3482
G01 X93.0525 Y29.4453
G01 X93.0540 Y29.4575
G01 X93.0549 Y29.4697
G01 X93.0597 Y29.5677
G01 X93.0600 Y29.5800
G01 X93.0597 Y29.5923
G01 X93.0549 Y29.6903
G01 X93.0540 Y29.7025
G01 X93.0525 Y29.7147
G01 X93.0381 Y29.8118
G01 X93.0360 Y29.8239
G01 X93.0333 Y29.8358
G01 X93.0094 Y29.9310
G01 X93.0062 Y29.9429
G01 X93.0023 Y29.9545
G01 X92.9693 Y30.0469
G01 X92.9648 Y30.0584
G01 X92.9599 Y30.0696
G01 X92.9179 Y30.1583
G01 X92.9124 Y30.1692
G01 X92.9064 Y30.1799
G01 X92.8559 Y30.2641
G01 X92.8493 Y30.2745
G01 X92.8423 Y30.2845
G01 X92.7838 Y30.3633
G01 X92.7763 Y30.3730
G01 X92.7682 Y30.3823
G01 X92.7023 Y30.4550
G01 X92.6939 Y30.4639
G01 X92.6850 Y30.4723
G01 X92.6123 Y30.5382
G01 X92.6030 Y30.5463
G01 X92.5933 Y30.5538
G01 X92.5145 Y30.6123
G01 X92.5045 Y30.6193
G01 X92.4941 Y30.6259
G01 X92.4099 Y30.6764
G01 X92.3992 Y30.6824
G01 X92.3883 Y30.6879
G01 X92.2996 Y30.7299
G01 X92.2884 Y30.7348
G01 X92.2769 Y30.7393
G01 X92.1845 Y30.7723
G01 X92.1729 Y30.7762
G01 X92.1610 Y30.7794
G01 X92.0658 Y30.8033
G01 X92.0539 Y30.8060
G01 X92.0418 Y30.8081
G01 X91.9447 Y30.8225
G01 X91.9325 Y30.8240
G01 X91.9203 Y30.8249
G01 X91.8223 Y30.8297
G01 X91.8100 Y30.8300
G01 X91.7977 Y30.8297
G01 X91.6997 Y30.8249
G01 X91.6875 Y30.8240
G01 X91.6753 Y30.8225
G01 X91.5782 Y30.8081
G01 X91.5661 Y30.8060
G01 X91.5542 Y30.8033
G01 X91.4590 Y30.7794
G01 X91.4471 Y30.7762
G01 X91.4355 Y30.7723
G01 X91.3431 Y30.7393
G01 X91.3316 Y30.7348
G01 X91.3204 Y30.7299
G01 X91.2317 Y30.6879
G01 X91.2208 Y30.6824
G01 X91.2101 Y30.6764
G01 X91.1259 Y30.6259
G01 X91.1155 Y30.6193
G01 X91.1055 Y30.6123
G01 X91.0267 Y30.5538
G01 X91.0170 Y30.5463
G01 X91.0077 Y30.5382
G01 X90.9350 Y30.4723
G01 X90.9261 Y30.4639
G01 X90.9177 Y30.4550
G01 X90.8518 Y30.3823
G01 X90.8437 Y30.3730
G01 X90.8362 Y30.3633
G01 X90.7777 Y30.2845
G01 X90.7707 Y30.2745
G01 X90.7641 Y30.2641
G01 X90.7136 Y30.1799
G01 X90.7076 Y30.1692
G01 X90.7021 Y30.1583
G01 X90.6601 Y30.0696
G01 X90.6552 Y30.0584
G01 X90.6507 Y30.0469
G01 X90.6177 Y29.9545
G01 X90.6138 Y29.9429
G01 X90.6106 Y29.9310
G01 X90.5867 Y29.8358
G01 X90.5840 Y29.8239
G01 X90.5819 Y29.8118
G01 X90.5675 Y29.7147
G00 Z2.0000
G00 X90.5622 Y29.6305
G01 F60.00
G01 Z-0.0600
G01 F120.00
G01 X90.5594 Y29.6305
G01 X90.5552 Y29.5800
G01 X90.5723 Y29.3735
G01 X90.6232 Y29.1726
G01 X90.7065 Y28.9828
G01 X90.8198 Y28.8093
G01 X90.9602 Y28.6568
G01 X91.1237 Y28.5295
G01 X91.3060 Y28.4309
G01 X91.5020 Y28.3636
G01 X91.7064 Y28.3295
G01 X91.9136 Y28.3295
G01 X92.1180 Y28.3636
G01 X92.3140 Y28.4309
G01 X92.4963 Y28.5295
G01 X92.6598 Y28.6568
G01 X92.8036 Y28.8130
G01 X92.8146 Y28.8266
G01 X92.8271 Y28.8401
G01 X92.8360 Y28.8486
G01 X92.8494 Y28.8599
G01 X92.8813 Y28.8892
G01 X92.8908 Y28.8971
G01 X92.9058 Y28.9081
G01 X92.9216 Y28.9179
G01 X92.9380 Y28.9266
G01 X92.9551 Y28.9340
G01 X92.9668 Y28.9382
G01 X92.9786 Y28.9418
G01 X93.0436 Y28.9584
G01 X93.0557 Y28.9611
G01 X93.0679 Y28.9633
G01 X93.0802 Y28.9648
G01 X93.0926 Y28.9657
G01 X93.1050 Y28.9660
G01 X93.1174 Y28.9657
G01 X93.1298 Y28.9648
G01 X93.1421 Y28.9633
G01 X93.1543 Y28.9611
G01 X93.1664 Y28.9584
G01 X93.2312 Y28.9419
G01 X93.2485 Y28.9364
G01 X93.2653 Y28.9297
G01 X93.2762 Y28.9245
G01 X93.2868 Y28.9188
G01 X93.3023 Y28.9094
G01 X93.3122 Y28.9025
G01 X93.3263 Y28.8912
G01 X93.3728 Y28.8497
G01 X93.3860 Y28.8370
G01 X93.3943 Y28.8279
G01 X93.4064 Y28.8130
G01 X93.5502 Y28.6568
G01 X93.7137 Y28.5295
G01 X93.8960 Y28.4309
G01 X94.0920 Y28.3636
G01 X94.2964 Y28.3295
G01 X94.5036 Y28.3295
G01 X94.7080 Y28.3636
G01 X94.9040 Y28.4309
G01 X95.0863 Y28.5295
G01 X95.2498 Y28.6568
G01 X95.3902 Y28.8093
G01 X95.4091 Y28.8377
G01 X95.4204 Y28.8521
G01 X95.4285 Y28.8613
G01 X95.4757 Y28.9077
G01 X95.4847 Y28.9160
G01 X95.4940 Y28.9239
G01 X95.5037 Y28.9312
G01 X95.5138 Y28.9381
G01 X95.5294 Y28.9476
G01 X95.5458 Y28.9558
G01 X95.5627 Y28.9628
G01 X95.6195 Y28.9826
G01 X95.6370 Y28.9879
G01 X95.6488 Y28.9908
G01 X95.6608 Y28.9930
G01 X95.6729 Y28.9947
G01 X95.6889 Y28.9960
G01 X95.8368 Y29.1440
G01 X95.8077 Y29.2255
G01 X95.8038 Y29.2371
G01 X95.8006 Y29.2490
G01 X95.7767 Y29.3442
G01 X95.7740 Y29.3561
G01 X95.7719 Y29.3682
G01 X95.7575 Y29.4653
G01 X95.7560 Y29.4775
G01 X95.7551 Y29.4897
G01 X95.7503 Y29.5877
G01 X95.7500 Y29.6000
G01 X95.7503 Y29.6123
G01 X95.7551 Y29.7103
G01 X95.7560 Y29.7225
G01 X95.7575 Y29.7347
G01 X95.7719 Y29.8318
G01 X95.7740 Y29.8439
G01 X95.7767 Y29.8558
G01 X95.8006 Y29.9510
G01 X95.8038 Y29.9629
G01 X95.8077 Y29.9745
G01 X95.8368 Y30.0560
G01 X95.7028 Y30.1901
G01 X95.6814 Y30.1894
G01 X95.6692 Y30.1899
G01 X95.6570 Y30.1910
G01 X95.6449 Y30.1926
G01 X95.6329 Y30.1948
G01 X95.6210 Y30.1977
G01 X95.6092 Y30.2011
G01 X95.5464 Y30.2227
G01 X95.5294 Y30.2297
G01 X95.5131 Y30.2380
G01 X95.5025 Y30.2441
G01 X95.4922 Y30.2508
G01 X95.4823 Y30.2579
G01 X95.4727 Y30.2656
G01 X95.4636 Y30.2737
G01 X95.4203 Y30.3157
G01 X95.4117 Y30.3244
G01 X95.3997 Y30.3383
G01 X95.3911 Y30.3497
G01 X95.2498 Y30.5032
G01 X95.0863 Y30.6305
G01 X94.9040 Y30.7291
G01 X94.7080 Y30.7964
G01 X94.5036 Y30.8305
G01 X94.2964 Y30.8305
G01 X94.0920 Y30.7964
G01 X93.8960 Y30.7291
G01 X93.7137 Y30.6305
G01 X93.5502 Y30.5032
G01 X93.4064 Y30.3470
G01 X93.3954 Y30.3334
G01 X93.3829 Y30.3199
G01 X93.3740 Y30.3114
G01 X93.3606 Y30.3001
G01 X93.3287 Y30.2709
G01 X93.3143 Y30.2591
G01 X93.3042 Y30.2519
G01 X93.2884 Y30.2421
G01 X93.2775 Y30.2362
G01 X93.2663 Y30.2308
G01 X93.2491 Y30.2238
G01 X93.2314 Y30.2182
G01 X93.1664 Y30.2016
G01 X93.1543 Y30.1989
G01 X93.1421 Y30.1967
G01 X93.1298 Y30.1952
G01 X93.1174 Y30.1943
G01 X93.1050 Y30.1940
G01 X93.0926 Y30.1943
G01 X93.0802 Y30.1952
G01 X93.0679 Y30.1967
G01 X93.0557 Y30.1989
G01 X93.0436 Y30.2016
G01 X92.9788 Y30.2181
G01 X92.9615 Y30.2236
G01 X92.9447 Y30.2303
G01 X92.9284 Y30.2383
G01 X92.9179 Y30.2442
G01 X92.9077 Y30.2506
G01 X92.8978 Y30.2575
G01 X92.8836 Y30.2688
G01 X92.8372 Y30.3103
G01 X92.8240 Y30.3231
G01 X92.8157 Y30.3321
G01 X92.8036 Y30.3470
G01 X92.6598 Y30.5032
G01 X92.4963 Y30.6305
G01 X92.3140 Y30.7291
G01 X92.1180 Y30.7964
G01 X91.9136 Y30.8305
G01 X91.7064 Y30.8305
G01 X91.5020 Y30.7964
G01 X91.3060 Y30.7291
G01 X91.1237 Y30.6305
G01 X90.9602 Y30.5032
G01 X90.8198 Y30.3507
G01 X90.7064 Y30.1772
G01 X90.6232 Y29.9874
G01 X90.5723 Y29.7865
G01 X90.5552 Y29.5800
G00 Z2.0000
G00 X90.5832 Y29.3305
G01 F60.00
G01 Z-0.0600
G01 F120.00
G01 X90.5852 Y29.3305
G00 Z2.0000
G00 X90.6855 Y29.0305
G01 F60.00
G01 Z-0.0600
G01 F120.00
G01 X90.6885 Y29.0305
G00 Z2.0000
G00 X90.8923 Y28.7305
G01 F60.00
G01 Z-0.0600
G01 F120.00
G01 X90.8945 Y28.7305
G00 Z2.0000
G00 X91.3071 Y28.4305
G01 F60.00
G01 Z-0.0600
G01 F120.00
G01 X91.3196 Y28.4305
G00 Z2.0000
G00 X92.3004 Y28.4305
G01 F60.00
G01 Z-0.0600
G01 F120.00
G01 X92.3129 Y28.4305
G00 Z2.0000
G00 X92.7255 Y28.7305
G01 F60.00
G01 Z-0.0600
G01 F120.00
G01 X92.7277 Y28.7305
G00 Z2.0000
G00 X94.8904 Y28.4305
G01 F60.00
G01 Z-0.0600
G01 F120.00
G01 X94.9029 Y28.4305
G00 Z2.0000
G00 X95.3155 Y28.7305
G01 F60.00
G01 Z-0.0600
G01 F120.00
G01 X95.3177 Y28.7305
G00 Z2.0000
G00 X95.5215 Y29.0305
G01 F60.00
G01 Z-0.0600
G01 F120.00
G01 X95.7234 Y29.0305
G01 X95.7801 Y29.3305
G01 X95.6248 Y29.3305
G00 Z2.0000
G00 X95.6478 Y29.6305
G01 F60.00
G01 Z-0.0600
G01 F120.00
G01 X95.7512 Y29.6305
G00 Z2.0000
G00 X95.7954 Y29.9305
G01 F60.00
G01 Z-0.0600
G01 F120.00
G01 X95.5996 Y29.9305
G01 X95.5278 Y30.2305
G01 X95.4660 Y30.2305
G00 Z2.0000
G00 X95.2147 Y30.5305
G01 F60.00
G01 Z-0.0600
G01 F120.00
G01 X95.2108 Y30.5305
G00 Z2.0000
G00 X96.5425 Y30.7646
G01 F60.00
G01 Z-0.0600
G01 F120.00
G01 X96.6921 Y30.8159
G01 X96.8964 Y30.8500
G01 X97.1036 Y30.8500
G01 X97.3079 Y30.8159
G01 X97.4575 Y30.7646
G01 X97.4560 Y30.7632
G01 X97.3745 Y30.7923
G01 X97.3570 Y30.7979
G01 X97.2558 Y30.8233
G01 X97.2439 Y30.8260
G01 X97.2318 Y30.8281
G01 X97.1347 Y30.8425
G01 X97.1225 Y30.8440
G01 X97.1103 Y30.8449
G01 X97.0123 Y30.8497
G01 X97.0000 Y30.8500
G01 X96.9877 Y30.8497
G01 X96.8897 Y30.8449
G01 X96.8775 Y30.8440
G01 X96.8653 Y30.8425
G01 X96.7682 Y30.8281
G01 X96.7561 Y30.8260
G01 X96.7442 Y30.8233
G01 X96.6430 Y30.7979
G01 X96.6255 Y30.7923
G01 X96.5440 Y30.7632
G01 X96.5425 Y30.7646
G00 Z2.0000
G00 X96.5425 Y28.4354
G01 F60.00
G01 Z-0.0600
G01 F120.00
G01 X96.5440 Y28.4368
G01 X96.6255 Y28.4077
G01 X96.6430 Y28.4021
G01 X96.7442 Y28.3767
G01 X96.7561 Y28.3740
G01 X96.7682 Y28.3719
G01 X96.8653 Y28.3575
G01 X96.8775 Y28.3560
G01 X96.8897 Y28.3551
G01 X96.9877 Y28.3503
G01 X97.0000 Y28.3500
G01 X97.0123 Y28.3503
G01 X97.1103 Y28.3551
G01 X97.1225 Y28.3560
G01 X97.1347 Y28.3575
G01 X97.2318 Y28.3719
G01 X97.2439 Y28.3740
G01 X97.2558 Y28.3767
G01 X97.3570 Y28.4021
G01 X97.3745 Y28.4077
G01 X97.4560 Y28.4368
G01 X97.4575 Y28.4354
G01 X97.3079 Y28.3841
G01 X97.1036 Y28.3500
G01 X96.8964 Y28.3500
G01 X96.6921 Y28.3841
G01 X96.5425 Y28.4354
G00 Z2.0000
G00 X88.6698 Y28.8246
G01 F60.00
G01 Z-0.0600
G01 F120.00
G01 X87.5102 Y28.8246
G01 X87.0781 Y29.1246
G01 X89.1019 Y29.1246
G01 X89.3230 Y29.4246
G01 X86.8570 Y29.4246
G01 X87.2248 Y31.2246
G01 X88.9552 Y31.2246
G01 X89.2439 Y30.9246
G01 X86.9361 Y30.9246
G01 X86.7776 Y30.6246
G01 X89.4024 Y30.6246
G01 X89.4869 Y30.3246
G01 X86.6931 Y30.3246
G01 X86.6762 Y30.1100
G01 X86.6799 Y30.0634
G01 X86.6936 Y29.8888
G01 X86.7454 Y29.6731
G01 X86.8303 Y29.4681
G01 X86.9462 Y29.2790
G01 X87.0903 Y29.1103
G01 X87.2590 Y28.9662
G01 X87.4481 Y28.8503
G01 X87.6531 Y28.7654
G01 X87.8688 Y28.7136
G01 X88.0900 Y28.6962
G01 X88.3112 Y28.7136
G01 X88.5269 Y28.7654
G01 X88.7319 Y28.8503
G01 X88.9210 Y28.9662
G01 X89.0897 Y29.1103
G01 X89.2338 Y29.2790
G01 X89.3497 Y29.4681
G01 X89.4346 Y29.6731
G01 X89.4864 Y29.8888
G01 X89.5038 Y30.1100
G01 X89.4864 Y30.3312
G01 X89.4346 Y30.5469
G01 X89.3497 Y30.7519
G01 X89.2338 Y30.9410
G01 X89.0897 Y31.1097
G01 X88.9210 Y31.2538
G01 X88.7319 Y31.3697
G01 X88.5269 Y31.4546
G01 X88.3112 Y31.5064
G01 X88.0900 Y31.5238
G01 X87.8688 Y31.5064
G01 X87.6531 Y31.4546
G01 X87.4481 Y31.3697
G01 X87.2590 Y31.2538
G01 X87.0903 Y31.1097
G01 X86.9462 Y30.9410
G01 X86.9388 Y30.9289
G01 X86.8303 Y30.7519
G01 X86.7454 Y30.5469
G01 X86.6936 Y30.3312
G01 X86.6928 Y30.3213
G01 X86.6762 Y30.1100
G01 X86.6829 Y30.0246
G01 X89.4971 Y30.0246
G01 X89.4470 Y29.7246
G01 X86.7330 Y29.7246
G00 Z2.0000
G00 X81.4566 Y28.9918
G01 F60.00
G01 Z-0.0600
G01 F120.00
G01 X81.9493 Y28.9918
G01 X82.2372 Y29.8918
G01 X81.1688 Y29.8918
G01 X81.0743 Y29.5665
G01 X81.0880 Y29.4358
G01 X81.1286 Y29.3108
G01 X81.1943 Y29.1970
G01 X81.2823 Y29.0993
G01 X81.3886 Y29.0220
G01 X81.5087 Y28.9686
G01 X81.6372 Y28.9413
G01 X81.7687 Y28.9413
G01 X81.8972 Y28.9686
G01 X82.0173 Y29.0220
G01 X82.1236 Y29.0993
G01 X82.2116 Y29.1970
G01 X82.2773 Y29.3108
G01 X82.3179 Y29.4358
G01 X82.3317 Y29.5665
G01 X82.3179 Y29.6972
G01 X82.2773 Y29.8222
G01 X82.2116 Y29.9361
G01 X82.1236 Y30.0337
G01 X82.0173 Y30.1110
G01 X81.8972 Y30.1644
G01 X81.7687 Y30.1918
G01 X81.6372 Y30.1918
G01 X81.5087 Y30.1644
G01 X81.3886 Y30.1110
G01 X81.3716 Y30.0986
G01 X81.2823 Y30.0337
G01 X81.1943 Y29.9361
G01 X81.1286 Y29.8222
G01 X81.1134 Y29.7755
G01 X81.0880 Y29.6972
G01 X81.0743 Y29.5665
G01 X81.0769 Y29.5918
G01 X82.3290 Y29.5918
G01 X82.2663 Y29.2918
G01 X81.1396 Y29.2918
G00 Z2.0000
G00 X73.9337 Y32.0132
G01 F60.00
G01 Z-0.0600
G01 F120.00
G01 X73.9337 Y41.9702
G01 X74.2337 Y41.8309
G01 X74.2337 Y32.1524
G01 X74.5337 Y32.3123
G01 X74.5337 Y41.6711
G01 X74.8337 Y41.4876
G01 X74.8337 Y32.4957
G01 X75.1337 Y32.7099
G01 X75.1337 Y41.2734
G01 X75.4337 Y41.0225
G01 X75.4337 Y32.9608
G01 X75.7337 Y33.2509
G01 X75.7337 Y40.7324
G01 X76.0337 Y40.3928
G01 X76.0337 Y33.5906
G01 X76.3337 Y33.9956
G01 X76.3337 Y39.9878
G01 X76.6337 Y39.4767
G01 X76.6337 Y34.5067
G01 X76.9337 Y35.1961
G01 X76.9337 Y38.7873
G01 X77.2337 Y37.2032
G01 X77.2337 Y36.7802
G00 Z2.0000
G00 X73.6337 Y31.8961
G01 F60.00
G01 Z-0.0600
G01 F120.00
G01 X73.6337 Y42.0872
G01 X73.3337 Y42.1803
G01 X73.3337 Y31.8031
G01 X73.0337 Y31.7253
G01 X73.0337 Y42.2581
G01 X72.7337 Y42.3210
G01 X72.7337 Y31.6624
G01 X72.4337 Y31.6245
G01 X72.4337 Y42.3589
G01 X72.1337 Y42.3837
G01 X72.1337 Y31.5996
G01 X71.8337 Y31.5876
G01 X71.8337 Y42.3958
G01 X71.5337 Y42.3834
G01 X71.5337 Y31.6000
G01 X71.2337 Y31.6256
G01 X71.2337 Y42.3578
G01 X70.9337 Y42.3191
G01 X70.9337 Y31.6643
G01 X70.6337 Y31.7272
G01 X70.6337 Y42.2562
G01 X70.3337 Y42.1776
G01 X70.3337 Y31.8057
G01 X70.0337 Y31.8996
G01 X70.0337 Y42.0837
G01 X69.7337 Y41.9667
G01 X69.7337 Y32.0167
G01 X69.4337 Y32.1568
G01 X69.4337 Y41.8266
G01 X69.1337 Y41.6657
G01 X69.1337 Y32.3176
G01 X68.8337 Y32.5021
G01 X68.8337 Y41.4812
G01 X68.5337 Y41.2670
G01 X68.5337 Y32.7163
G01 X68.2337 Y32.9684
G01 X68.2337 Y41.0149
G01 X67.9337 Y40.7235
G01 X67.9337 Y33.2599
G01 X67.6337 Y33.6012
G01 X67.6337 Y40.3822
G01 X67.3337 Y39.9753
G01 X67.3337 Y34.0081
G01 X67.0337 Y34.5250
G01 X67.0337 Y39.4583
G00 Z2.0000
G00 X66.7337 Y35.2191
G01 F60.00
G01 Z-0.0600
G01 F120.00
G01 X66.7337 Y38.7643
G01 X66.4339 Y36.9917
G01 X66.4524 Y37.4380
G01 X66.5076 Y37.8812
G01 X66.5993 Y38.3184
G01 X66.7267 Y38.7464
G01 X66.8891 Y39.1626
G01 X67.0853 Y39.5638
G01 X67.3139 Y39.9475
G01 X67.5735 Y40.3111
G01 X67.8621 Y40.6519
G01 X68.1780 Y40.9677
G01 X68.5188 Y41.2564
G01 X68.8823 Y41.5160
G01 X69.2660 Y41.7446
G01 X69.6673 Y41.9408
G01 X70.0834 Y42.1031
G01 X70.5115 Y42.2306
G01 X70.9487 Y42.3222
G01 X71.3919 Y42.3775
G01 X71.8382 Y42.3960
G01 X72.2845 Y42.3775
G01 X72.7277 Y42.3222
G01 X73.1649 Y42.2306
G01 X73.5929 Y42.1031
G01 X74.0091 Y41.9408
G01 X74.4103 Y41.7446
G01 X74.7940 Y41.5160
G01 X75.1576 Y41.2564
G01 X75.4984 Y40.9677
G01 X75.8142 Y40.6519
G01 X76.1029 Y40.3111
G01 X76.3625 Y39.9475
G01 X76.5911 Y39.5638
G01 X76.7873 Y39.1626
G01 X76.9496 Y38.7464
G01 X77.0771 Y38.3184
G01 X77.1687 Y37.8812
G01 X77.2240 Y37.4380
G01 X77.2424 Y36.9917
G01 X77.2240 Y36.5454
G01 X77.1687 Y36.1022
G01 X77.0771 Y35.6650
G01 X76.9496 Y35.2369
G01 X76.7873 Y34.8208
G01 X76.5911 Y34.4195
G01 X76.3625 Y34.0358
G01 X76.1029 Y33.6723
G01 X75.8142 Y33.3315
G01 X75.4984 Y33.0156
G01 X75.1576 Y32.7270
G01 X74.7940 Y32.4674
G01 X74.4103 Y32.2388
G01 X74.0091 Y32.0426
G01 X73.5929 Y31.8802
G01 X73.1649 Y31.7528
G01 X72.7277 Y31.6611
G01 X72.2845 Y31.6059
G01 X71.8382 Y31.5874
G01 X71.3919 Y31.6059
G01 X70.9487 Y31.6611
G01 X70.5115 Y31.7528
G01 X70.0834 Y31.8802
G01 X69.6673 Y32.0426
G01 X69.2660 Y32.2388
G01 X68.8823 Y32.4674
G01 X68.5188 Y32.7270
G01 X68.1780 Y33.0156
G01 X67.8621 Y33.3315
G01 X67.5735 Y33.6723
G01 X67.3139 Y34.0358
G01 X67.0853 Y34.4195
G01 X66.8891 Y34.8208
G01 X66.7267 Y35.2369
G01 X66.5993 Y35.6650
G01 X66.5076 Y36.1022
G01 X66.4524 Y36.5454
G01 X66.4339 Y36.9917
G00 Z2.0000
G00 X66.4666 Y43.7218
G01 F60.00
G01 Z-0.0600
G01 F120.00
G01 X66.9593 Y43.7218
G01 X67.2472 Y44.6218
G01 X66.1788 Y44.6218
G01 X66.0843 Y44.2965
G01 X66.0980 Y44.1658
G01 X66.1386 Y44.0408
G01 X66.2043 Y43.9270
G01 X66.2923 Y43.8293
G01 X66.3986 Y43.7520
G01 X66.5187 Y43.6986
G01 X66.6472 Y43.6713
G01 X66.7787 Y43.6713
G01 X66.9072 Y43.6986
G01 X67.0273 Y43.7520
G01 X67.1336 Y43.8293
G01 X67.2216 Y43.9270
G01 X67.2873 Y44.0408
G01 X67.3279 Y44.1658
G01 X67.3417 Y44.2965
G01 X67.3279 Y44.4272
G01 X67.2873 Y44.5522
G01 X67.2216 Y44.6661
G01 X67.1336 Y44.7637
G01 X67.0273 Y44.8410
G01 X66.9072 Y44.8944
G01 X66.7787 Y44.9218
G01 X66.6472 Y44.9218
G01 X66.5187 Y44.8944
G01 X66.3986 Y44.8410
G01 X66.3444 Y44.8016
G01 X66.2923 Y44.7637
G01 X66.2043 Y44.6661
G01 X66.1386 Y44.5522
G01 X66.0980 Y44.4272
G01 X66.0843 Y44.2965
G01 X66.0869 Y44.3218
G01 X67.3390 Y44.3218
G01 X67.2763 Y44.0218
G01 X66.1496 Y44.0218
G00 Z2.0000
G00 X69.3833 Y46.3553
G01 F60.00
G01 Z-0.0600
G01 F120.00
G01 X69.3836 Y46.3553
G01 X69.6833 Y46.0553
G01 X69.6836 Y46.0553
G01 X69.9833 Y45.7553
G01 X69.9836 Y45.7553
G01 X70.2833 Y45.4553
G01 X70.2836 Y45.4553
G00 Z2.0000
G00 X70.6140 Y45.1553
G01 F60.00
G01 Z-0.0600
G01 F120.00
G01 X70.6174 Y45.1553
G00 Z2.0000
G00 X71.2057 Y46.6553
G01 F60.00
G01 Z-0.0600
G01 F120.00
G01 X71.2062 Y46.6553
G00 Z2.0000
G00 X70.9060 Y46.9553
G01 F60.00
G01 Z-0.0600
G01 F120.00
G01 X70.9057 Y46.9553
G01 X70.6060 Y47.2553
G01 X70.6057 Y47.2553
G00 Z2.0000
G00 X70.3182 Y47.5553
G01 F60.00
G01 Z-0.0600
G01 F120.00
G01 X70.3057 Y47.5553
G00 Z2.0000
G00 X70.2505 Y47.8553
G01 F60.00
G01 Z-0.0600
G01 F120.00
G01 X70.2503 Y47.8553
G01 X70.2505 Y49.0553
G01 X70.2503 Y49.0553
G01 X70.2503 Y49.3553
G01 X70.2505 Y49.3553
G01 X70.2503 Y49.6553
G01 X70.2517 Y49.6553
G00 Z2.0000
G00 X70.2084 Y49.9553
G01 F60.00
G01 Z-0.0600
G01 F120.00
G01 X70.2048 Y49.9553
G00 Z2.0000
G00 X70.0060 Y50.2553
G01 F60.00
G01 Z-0.0600
G01 F120.00
G01 X68.2057 Y52.0553
G00 Z2.0000
G00 X67.5836 Y50.5553
G01 F60.00
G01 Z-0.0600
G01 F120.00
G01 X67.5833 Y50.5553
G01 X68.4836 Y49.6553
G00 Z2.0000
G00 X68.7289 Y49.3553
G01 F60.00
G01 Z-0.0600
G01 F120.00
G01 X68.7497 Y49.3553
G01 X68.7495 Y47.2553
G01 X68.7516 Y47.2553
G00 Z2.0000
G00 X68.8312 Y46.9553
G01 F60.00
G01 Z-0.0600
G01 F120.00
G01 X68.8338 Y46.9553
G00 Z2.0000
G00 X69.0833 Y46.6553
G01 F60.00
G01 Z-0.0600
G01 F120.00
G01 X69.0836 Y46.6553
G00 Z2.0000
G00 X72.5005 Y48.7553
G01 F60.00
G01 Z-0.0600
G01 F120.00
G01 X72.5025 Y48.7553
G00 Z2.0000
G00 X72.3644 Y49.0553
G01 F60.00
G01 Z-0.0600
G01 F120.00
G01 X72.3624 Y49.0553
G00 Z2.0000
G00 X72.3129 Y49.3553
G01 F60.00
G01 Z-0.0600
G01 F120.00
G01 X72.3106 Y49.3553
G00 Z2.0000
G00 X72.3175 Y49.5547
G01 F60.00
G01 Z-0.0600
G01 F120.00
G01 X72.3160 Y49.5425
G01 X72.3151 Y49.5303
G01 X72.3103 Y49.4323
G01 X72.3100 Y49.4200
G01 X72.3103 Y49.4077
G01 X72.3151 Y49.3097
G01 X72.3160 Y49.2975
G01 X72.3175 Y49.2853
G01 X72.3319 Y49.1882
G01 X72.3340 Y49.1761
G01 X72.3367 Y49.1642
G01 X72.3606 Y49.0690
G01 X72.3638 Y49.0571
G01 X72.3677 Y49.0455
G01 X72.4007 Y48.9531
G01 X72.4052 Y48.9416
G01 X72.4101 Y48.9304
G01 X72.4521 Y48.8417
G01 X72.4576 Y48.8308
G01 X72.4636 Y48.8201
G01 X72.5141 Y48.7359
G01 X72.5207 Y48.7255
G01 X72.5277 Y48.7155
G01 X72.5862 Y48.6367
G01 X72.5937 Y48.6270
G01 X72.6018 Y48.6177
G01 X72.6677 Y48.5450
G01 X72.6761 Y48.5361
G01 X72.6850 Y48.5277
G01 X72.7577 Y48.4618
G01 X72.7670 Y48.4537
G01 X72.7767 Y48.4462
G01 X72.8555 Y48.3877
G01 X72.8655 Y48.3807
G01 X72.8759 Y48.3741
G01 X72.9601 Y48.3236
G01 X72.9708 Y48.3176
G01 X72.9817 Y48.3121
G01 X73.0704 Y48.2701
G01 X73.0816 Y48.2652
G01 X73.0931 Y48.2607
G01 X73.1855 Y48.2277
G01 X73.1971 Y48.2238
G01 X73.2090 Y48.2206
G01 X73.3042 Y48.1967
G01 X73.3161 Y48.1940
G01 X73.3282 Y48.1919
G01 X73.4253 Y48.1775
G01 X73.4375 Y48.1760
G01 X73.4497 Y48.1751
G01 X73.5477 Y48.1703
G01 X73.5600 Y48.1700
G01 X73.5723 Y48.1703
G01 X73.6703 Y48.1751
G01 X73.6825 Y48.1760
G01 X73.6947 Y48.1775
G01 X73.7918 Y48.1919
G01 X73.8039 Y48.1940
G01 X73.8158 Y48.1967
G01 X73.9110 Y48.2206
G01 X73.9229 Y48.2238
G01 X73.9345 Y48.2277
G01 X74.0269 Y48.2607
G01 X74.0384 Y48.2652
G01 X74.0496 Y48.2701
G01 X74.1383 Y48.3121
G01 X74.1492 Y48.3176
G01 X74.1599 Y48.3236
G01 X74.2441 Y48.3741
G01 X74.2545 Y48.3807
G01 X74.2645 Y48.3877
G01 X74.3433 Y48.4462
G01 X74.3530 Y48.4537
G01 X74.3623 Y48.4618
G01 X74.4350 Y48.5277
G01 X74.4439 Y48.5361
G01 X74.4523 Y48.5450
G01 X74.5182 Y48.6177
G01 X74.5263 Y48.6270
G01 X74.5338 Y48.6367
G01 X74.5923 Y48.7155
G01 X74.5993 Y48.7255
G01 X74.6059 Y48.7359
G01 X74.6564 Y48.8201
G01 X74.6624 Y48.8308
G01 X74.6679 Y48.8417
G01 X74.7099 Y48.9304
G01 X74.7148 Y48.9416
G01 X74.7193 Y48.9531
G01 X74.7523 Y49.0455
G01 X74.7562 Y49.0571
G01 X74.7594 Y49.0690
G01 X74.7833 Y49.1642
G01 X74.7860 Y49.1761
G01 X74.7881 Y49.1882
G01 X74.8025 Y49.2853
G01 X74.8040 Y49.2975
G01 X74.8049 Y49.3097
G01 X74.8097 Y49.4077
G01 X74.8100 Y49.4200
G01 X74.8097 Y49.4323
G01 X74.8049 Y49.5303
G01 X74.8040 Y49.5425
G01 X74.8025 Y49.5547
G01 X74.7881 Y49.6518
G01 X74.7860 Y49.6639
G01 X74.7833 Y49.6758
G01 X74.7594 Y49.7710
G01 X74.7562 Y49.7829
G01 X74.7523 Y49.7945
G01 X74.7193 Y49.8869
G01 X74.7148 Y49.8984
G01 X74.7099 Y49.9096
G01 X74.6679 Y49.9983
G01 X74.6624 Y50.0092
G01 X74.6564 Y50.0199
G01 X74.6059 Y50.1041
G01 X74.5993 Y50.1145
G01 X74.5923 Y50.1245
G01 X74.5338 Y50.2033
G01 X74.5263 Y50.2130
G01 X74.5182 Y50.2223
G01 X74.4523 Y50.2950
G01 X74.4439 Y50.3039
G01 X74.4350 Y50.3123
G01 X74.3623 Y50.3782
G01 X74.3530 Y50.3863
G01 X74.3433 Y50.3938
G01 X74.2645 Y50.4523
G01 X74.2545 Y50.4593
G01 X74.2441 Y50.4659
G01 X74.1599 Y50.5164
G01 X74.1492 Y50.5224
G01 X74.1383 Y50.5279
G01 X74.0496 Y50.5699
G01 X74.0384 Y50.5748
G01 X74.0269 Y50.5793
G01 X73.9345 Y50.6123
G01 X73.9229 Y50.6162
G01 X73.9110 Y50.6194
G01 X73.8158 Y50.6433
G01 X73.8039 Y50.6460
G01 X73.7918 Y50.6481
G01 X73.6947 Y50.6625
G01 X73.6825 Y50.6640
G01 X73.6703 Y50.6649
G01 X73.5723 Y50.6697
G01 X73.5600 Y50.6700
G01 X73.5477 Y50.6697
G01 X73.4497 Y50.6649
G01 X73.4375 Y50.6640
G01 X73.4253 Y50.6625
G01 X73.3282 Y50.6481
G01 X73.3161 Y50.6460
G01 X73.3042 Y50.6433
G01 X73.2090 Y50.6194
G01 X73.1971 Y50.6162
G01 X73.1855 Y50.6123
G01 X73.0931 Y50.5793
G01 X73.0816 Y50.5748
G01 X73.0704 Y50.5699
G01 X72.9817 Y50.5279
G01 X72.9708 Y50.5224
G01 X72.9601 Y50.5164
G01 X72.8759 Y50.4659
G01 X72.8655 Y50.4593
G01 X72.8555 Y50.4523
G01 X72.7767 Y50.3938
G01 X72.7670 Y50.3863
G01 X72.7577 Y50.3782
G01 X72.6850 Y50.3123
G01 X72.6761 Y50.3039
G01 X72.6677 Y50.2950
G01 X72.6018 Y50.2223
G01 X72.5937 Y50.2130
G01 X72.5862 Y50.2033
G01 X72.5277 Y50.1245
G01 X72.5207 Y50.1145
G01 X72.5141 Y50.1041
G01 X72.4636 Y50.0199
G01 X72.4576 Y50.0092
G01 X72.4521 Y49.9983
G01 X72.4101 Y49.9096
G01 X72.4052 Y49.8984
G01 X72.4007 Y49.8869
G01 X72.3677 Y49.7945
G01 X72.3638 Y49.7829
G01 X72.3606 Y49.7710
G01 X72.3367 Y49.6758
G01 X72.3340 Y49.6639
G01 X72.3319 Y49.6518
G01 X72.3175 Y49.5547
G01 X72.3296 Y49.6553
G01 X72.3325 Y49.6553
G00 Z2.0000
G00 X72.4293 Y49.9553
G01 F60.00
G01 Z-0.0600
G01 F120.00
G01 X72.4318 Y49.9553
G00 Z2.0000
G00 X72.6293 Y50.2553
G01 F60.00
G01 Z-0.0600
G01 F120.00
G01 X72.6317 Y50.2553
G00 Z2.0000
G00 X73.0305 Y50.5553
G01 F60.00
G01 Z-0.0600
G01 F120.00
G01 X73.0397 Y50.5553
G00 Z2.0000
G00 X74.0803 Y50.5553
G01 F60.00
G01 Z-0.0600
G01 F120.00
G01 X74.0895 Y50.5553
G00 Z2.0000
G00 X74.4883 Y50.2553
G01 F60.00
G01 Z-0.0600
G01 F120.00
G01 X74.4907 Y50.2553
G00 Z2.0000
G00 X74.6882 Y49.9553
G01 F60.00
G01 Z-0.0600
G01 F120.00
G01 X75.0412 Y49.9553
G00 Z2.0000
G00 X74.9366 Y49.6553
G01 F60.00
G01 Z-0.0600
G01 F120.00
G01 X74.7875 Y49.6553
G00 Z2.0000
G00 X74.8071 Y49.3553
G01 F60.00
G01 Z-0.0600
G01 F120.00
G01 X74.9119 Y49.3553
G00 Z2.0000
G00 X74.9590 Y49.0553
G01 F60.00
G01 Z-0.0600
G01 F120.00
G01 X74.7556 Y49.0553
G00 Z2.0000
G00 X74.6696 Y48.7553
G01 F60.00
G01 Z-0.0600
G01 F120.00
G01 X74.6175 Y48.7553
G00 Z2.0000
G00 X74.3565 Y48.4553
G01 F60.00
G01 Z-0.0600
G01 F120.00
G01 X74.3549 Y48.4553
G00 Z2.0000
G00 X75.0373 Y48.7553
G01 F60.00
G01 Z-0.0600
G01 F120.00
G01 X75.0905 Y48.7553
G00 Z2.0000
G00 X75.3279 Y48.4553
G01 F60.00
G01 Z-0.0600
G01 F120.00
G01 X75.3427 Y48.4553
G00 Z2.0000
G00 X75.4095 Y48.1553
G01 F60.00
G01 Z-0.0600
G01 F120.00
G01 X75.4097 Y48.1553
G01 X75.4097 Y47.8553
G01 X75.4095 Y47.8553
G01 X75.4095 Y47.5553
G01 X75.4097 Y47.5553
G00 Z2.0000
G00 X75.2943 Y47.2553
G01 F60.00
G01 Z-0.0600
G01 F120.00
G01 X74.6943 Y46.6553
G01 X74.6938 Y46.6553
G00 Z2.0000
G00 X75.6164 Y45.4553
G01 F60.00
G01 Z-0.0600
G01 F120.00
G01 X76.5167 Y46.3553
G00 Z2.0000
G00 X76.8034 Y46.6553
G01 F60.00
G01 Z-0.0600
G01 F120.00
G01 X76.8049 Y46.6553
G00 Z2.0000
G00 X76.9053 Y46.9553
G01 F60.00
G01 Z-0.0600
G01 F120.00
G01 X76.9063 Y46.9553
G00 Z2.0000
G00 X76.9103 Y47.2553
G01 F60.00
G01 Z-0.0600
G01 F120.00
G01 X76.9105 Y47.2553
G01 X76.9103 Y48.1553
G01 X76.9539 Y48.1553
G01 X76.9773 Y48.4553
G01 X77.5000 Y48.4553
G01 X77.5000 Y48.7553
G01 X77.2295 Y48.7553
G00 Z2.0000
G00 X77.3610 Y49.0553
G01 F60.00
G01 Z-0.0600
G01 F120.00
G01 X77.5000 Y49.0553
G01 X77.5000 Y49.3553
G01 X77.4081 Y49.3553
G00 Z2.0000
G00 X77.3834 Y49.6553
G01 F60.00
G01 Z-0.0600
G01 F120.00
G01 X77.5000 Y49.6553
G01 X77.5000 Y49.9553
G01 X77.2788 Y49.9553
G00 Z2.0000
G00 X77.0702 Y50.2553
G01 F60.00
G01 Z-0.0600
G01 F120.00
G01 X77.5000 Y50.2553
G00 Z2.0000
G00 X77.5540 Y50.5553
G01 F60.00
G01 Z-0.0600
G01 F120.00
G01 X77.5541 Y50.5553
G00 Z2.0000
G00 X76.6459 Y50.5553
G01 F60.00
G01 Z-0.0600
G01 F120.00
G01 X76.6371 Y50.5553
G00 Z2.0000
G00 X75.6829 Y50.5553
G01 F60.00
G01 Z-0.0600
G01 F120.00
G01 X75.6741 Y50.5553
G00 Z2.0000
G00 X75.2498 Y50.2553
G01 F60.00
G01 Z-0.0600
G01 F120.00
G01 X75.2477 Y50.2553
G00 Z2.0000
G00 X72.7651 Y48.4553
G01 F60.00
G01 Z-0.0600
G01 F120.00
G01 X72.7635 Y48.4553
G00 Z2.0000
G00 X75.2826 Y45.1553
G01 F60.00
G01 Z-0.0600
G01 F120.00
G01 X75.2891 Y45.1553
G00 Z2.0000
G00 X77.6906 Y48.1553
G01 F60.00
G01 Z-0.0600
G01 F120.00
G01 X77.6987 Y48.1553
G00 Z2.0000
G00 X79.2500 Y48.1500
G01 F60.00
G01 Z-0.0600
G01 F120.00
G01 X79.2500 Y48.1500
G01 X79.7500 Y48.1500
G01 X79.7623 Y48.1503
G01 X79.7745 Y48.1512
G01 X79.7867 Y48.1527
G01 X79.7988 Y48.1548
G01 X79.8167 Y48.1591
G01 X79.8342 Y48.1646
G01 X79.8457 Y48.1690
G01 X79.8569 Y48.1740
G01 X79.8678 Y48.1795
G01 X79.8785 Y48.1856
G01 X79.8940 Y48.1956
G01 X79.9086 Y48.2067
G01 X79.9179 Y48.2148
G01 X79.9268 Y48.2232
G01 X79.9352 Y48.2321
G01 X79.9433 Y48.2414
G01 X79.9544 Y48.2560
G01 X79.9644 Y48.2715
G01 X79.9705 Y48.2822
G01 X79.9760 Y48.2931
G01 X79.9832 Y48.3100
G01 X79.9874 Y48.3216
G01 X79.9909 Y48.3333
G01 X79.9952 Y48.3512
G01 X79.9973 Y48.3633
G01 X79.9988 Y48.3755
G01 X79.9997 Y48.3877
G01 X80.0000 Y48.4000
G01 X80.0000 Y48.9000
G01 X80.0000 Y48.3656
G01 X79.9984 Y48.3506
G01 X79.9717 Y48.2790
G01 X79.9286 Y48.2214
G01 X79.8710 Y48.1783
G01 X79.7994 Y48.1516
G01 X79.7844 Y48.1500
G01 X79.2500 Y48.1500
G01 X79.5500 Y48.1500
G01 X79.5500 Y48.1500
G00 Z2.0000
G00 X79.8500 Y48.1705
G01 F60.00
G01 Z-0.0600
G01 F120.00
G01 X79.8500 Y48.1709
G00 Z2.0000
G00 X79.8500 Y50.6291
G01 F60.00
G01 Z-0.0600
G01 F120.00
G01 X79.8500 Y50.6295
G00 Z2.0000
G00 X79.7501 Y50.6500
G01 F60.00
G01 Z-0.0600
G01 F120.00
G01 X79.7844 Y50.6500
G01 X79.7994 Y50.6484
G01 X79.8710 Y50.6217
G01 X79.9286 Y50.5786
G01 X79.9717 Y50.5210
G01 X79.9984 Y50.4494
G01 X80.0000 Y50.4344
G01 X80.0000 Y49.9000
G01 X79.9999 Y50.4061
G01 X79.9988 Y50.4245
G01 X79.9963 Y50.4427
G01 X79.9925 Y50.4607
G01 X79.9874 Y50.4784
G01 X79.9810 Y50.4957
G01 X79.9733 Y50.5124
G01 X79.9644 Y50.5285
G01 X79.9579 Y50.5389
G01 X79.9508 Y50.5489
G01 X79.9393 Y50.5633
G01 X79.9268 Y50.5768
G01 X79.9133 Y50.5893
G01 X79.8989 Y50.6008
G01 X79.8889 Y50.6079
G01 X79.8785 Y50.6144
G01 X79.8624 Y50.6233
G01 X79.8457 Y50.6310
G01 X79.8284 Y50.6374
G01 X79.8107 Y50.6425
G01 X79.7927 Y50.6463
G01 X79.7745 Y50.6488
G01 X79.7623 Y50.6497
G01 X79.7501 Y50.6500
G00 Z2.0000
G00 X81.1796 Y44.0418
G01 F60.00
G01 Z-0.0600
G01 F120.00
G01 X82.3063 Y44.0418
G01 X82.3690 Y44.3418
G01 X81.1169 Y44.3418
G01 X81.1143 Y44.3165
G01 X81.1280 Y44.4472
G01 X81.1686 Y44.5722
G01 X81.2343 Y44.6861
G01 X81.3223 Y44.7837
G01 X81.4247 Y44.8582
G01 X81.4286 Y44.8610
G01 X81.5487 Y44.9144
G01 X81.6772 Y44.9418
G01 X81.8087 Y44.9418
G01 X81.9372 Y44.9144
G01 X82.0573 Y44.8610
G01 X82.1636 Y44.7837
G01 X82.2516 Y44.6861
G01 X82.3173 Y44.5722
G01 X82.3579 Y44.4472
G01 X82.3717 Y44.3165
G01 X82.3579 Y44.1858
G01 X82.3173 Y44.0608
G01 X82.2516 Y43.9470
G01 X82.1636 Y43.8493
G01 X82.0573 Y43.7720
G01 X81.9372 Y43.7186
G01 X81.8087 Y43.6913
G01 X81.6772 Y43.6913
G01 X81.5487 Y43.7186
G01 X81.4286 Y43.7720
G01 X81.3223 Y43.8493
G01 X81.2343 Y43.9470
G01 X81.1686 Y44.0608
G01 X81.1280 Y44.1858
G01 X81.1143 Y44.3165
G01 X81.2088 Y44.6418
G01 X82.2772 Y44.6418
G01 X81.9893 Y43.7418
G01 X81.4966 Y43.7418
G00 Z2.0000
G00 X64.9336 Y52.3553
G01 F60.00
G01 Z-0.0600
G01 F120.00
G01 X63.9464 Y52.3553
G00 Z2.0000
G00 X64.6194 Y52.6553
G01 F60.00
G01 Z-0.0600
G01 F120.00
G01 X64.2606 Y52.6553
G00 Z2.0000
G00 X64.1911 Y52.9553
G01 F60.00
G01 Z-0.0600
G01 F120.00
G01 X64.6889 Y52.9553
G00 Z2.0000
G00 X65.1111 Y53.2553
G01 F60.00
G01 Z-0.0600
G01 F120.00
G01 X65.1128 Y53.2553
G00 Z2.0000
G00 X65.3230 Y53.5553
G01 F60.00
G01 Z-0.0600
G01 F120.00
G01 X65.3245 Y53.5553
G00 Z2.0000
G00 X65.4048 Y53.8553
G01 F60.00
G01 Z-0.0600
G01 F120.00
G01 X65.4055 Y53.8553
G00 Z2.0000
G00 X65.3911 Y54.1553
G01 F60.00
G01 Z-0.0600
G01 F120.00
G01 X65.3889 Y54.1553
G00 Z2.0000
G00 X65.2744 Y54.4553
G01 F60.00
G01 Z-0.0600
G01 F120.00
G01 X65.2700 Y54.4553
G00 Z2.0000
G00 X64.9890 Y54.7553
G01 F60.00
G01 Z-0.0600
G01 F120.00
G01 X64.9877 Y54.7553
G00 Z2.0000
G00 X63.8923 Y54.7553
G01 F60.00
G01 Z-0.0600
G01 F120.00
G01 X63.8910 Y54.7553
G00 Z2.0000
G00 X63.6100 Y54.4553
G01 F60.00
G01 Z-0.0600
G01 F120.00
G01 X63.6056 Y54.4553
G00 Z2.0000
G00 X63.4911 Y54.1553
G01 F60.00
G01 Z-0.0600
G01 F120.00
G01 X63.4889 Y54.1553
G01 X63.4762 Y54.0623
G01 X63.4753 Y54.0562
G01 X63.4747 Y54.0501
G01 X63.4738 Y54.0378
G01 X63.4703 Y53.9673
G01 X63.4700 Y53.9550
G01 X63.4703 Y53.9427
G01 X63.4738 Y53.8722
G01 X63.4747 Y53.8599
G01 X63.4762 Y53.8477
G01 X63.4865 Y53.7779
G01 X63.4886 Y53.7658
G01 X63.4913 Y53.7538
G01 X63.5085 Y53.6853
G01 X63.5118 Y53.6734
G01 X63.5156 Y53.6618
G01 X63.5394 Y53.5952
G01 X63.5438 Y53.5838
G01 X63.5488 Y53.5726
G01 X63.5790 Y53.5087
G01 X63.5845 Y53.4977
G01 X63.5906 Y53.4871
G01 X63.6269 Y53.4265
G01 X63.6335 Y53.4161
G01 X63.6405 Y53.4061
G01 X63.6826 Y53.3493
G01 X63.6902 Y53.3396
G01 X63.6982 Y53.3303
G01 X63.7456 Y53.2780
G01 X63.7541 Y53.2691
G01 X63.7630 Y53.2606
G01 X63.8153 Y53.2132
G01 X63.8246 Y53.2052
G01 X63.8343 Y53.1976
G01 X63.8911 Y53.1555
G01 X63.9011 Y53.1485
G01 X63.9115 Y53.1419
G01 X63.9721 Y53.1056
G01 X63.9827 Y53.0995
G01 X63.9937 Y53.0940
G01 X64.0576 Y53.0638
G01 X64.0688 Y53.0588
G01 X64.0802 Y53.0544
G01 X64.1468 Y53.0306
G01 X64.1584 Y53.0268
G01 X64.1703 Y53.0235
G01 X64.2388 Y53.0063
G01 X64.2508 Y53.0036
G01 X64.2629 Y53.0015
G01 X64.3327 Y52.9912
G01 X64.3449 Y52.9897
G01 X64.3572 Y52.9888
G01 X64.4277 Y52.9853
G01 X64.4400 Y52.9850
G01 X64.4523 Y52.9853
G01 X64.5228 Y52.9888
G01 X64.5351 Y52.9897
G01 X64.5473 Y52.9912
G01 X64.6171 Y53.0015
G01 X64.6292 Y53.0036
G01 X64.6412 Y53.0063
G01 X64.7097 Y53.0235
G01 X64.7216 Y53.0268
G01 X64.7332 Y53.0306
G01 X64.7998 Y53.0544
G01 X64.8112 Y53.0588
G01 X64.8224 Y53.0638
G01 X64.8863 Y53.0940
G01 X64.8973 Y53.0995
G01 X64.9079 Y53.1056
G01 X64.9685 Y53.1419
G01 X64.9789 Y53.1485
G01 X64.9889 Y53.1555
G01 X65.0457 Y53.1976
G01 X65.0554 Y53.2052
G01 X65.0647 Y53.2132
G01 X65.1170 Y53.2606
G01 X65.1259 Y53.2691
G01 X65.1344 Y53.2780
G01 X65.1818 Y53.3303
G01 X65.1898 Y53.3396
G01 X65.1974 Y53.3493
G01 X65.2395 Y53.4061
G01 X65.2465 Y53.4161
G01 X65.2531 Y53.4265
G01 X65.2894 Y53.4871
G01 X65.2955 Y53.4977
G01 X65.3010 Y53.5087
G01 X65.3312 Y53.5726
G01 X65.3362 Y53.5838
G01 X65.3406 Y53.5952
G01 X65.3644 Y53.6618
G01 X65.3682 Y53.6734
G01 X65.3715 Y53.6853
G01 X65.3887 Y53.7538
G01 X65.3914 Y53.7658
G01 X65.3935 Y53.7779
G01 X65.4038 Y53.8477
G01 X65.4053 Y53.8599
G01 X65.4062 Y53.8722
G01 X65.4097 Y53.9427
G01 X65.4100 Y53.9550
G01 X65.4097 Y53.9673
G01 X65.4062 Y54.0378
G01 X65.4053 Y54.0501
G01 X65.4038 Y54.0623
G01 X65.3935 Y54.1321
G01 X65.3914 Y54.1442
G01 X65.3887 Y54.1562
G01 X65.3715 Y54.2247
G01 X65.3682 Y54.2366
G01 X65.3644 Y54.2482
G01 X65.3406 Y54.3148
G01 X65.3362 Y54.3262
G01 X65.3312 Y54.3374
G01 X65.3010 Y54.4013
G01 X65.2955 Y54.4123
G01 X65.2894 Y54.4229
G01 X65.2531 Y54.4835
G01 X65.2431 Y54.4990
G01 X65.1974 Y54.5607
G01 X65.1898 Y54.5704
G01 X65.1818 Y54.5797
G01 X65.1344 Y54.6320
G01 X65.1259 Y54.6409
G01 X65.1170 Y54.6494
G01 X65.0647 Y54.6968
G01 X65.0554 Y54.7048
G01 X65.0457 Y54.7124
G01 X64.9889 Y54.7545
G01 X64.9789 Y54.7615
G01 X64.9685 Y54.7681
G01 X64.9079 Y54.8044
G01 X64.8973 Y54.8105
G01 X64.8863 Y54.8160
G01 X64.8224 Y54.8462
G01 X64.8112 Y54.8512
G01 X64.7998 Y54.8556
G01 X64.7332 Y54.8794
G01 X64.7216 Y54.8832
G01 X64.7097 Y54.8865
G01 X64.6412 Y54.9037
G01 X64.6292 Y54.9064
G01 X64.6171 Y54.9085
G01 X64.5473 Y54.9188
G01 X64.5351 Y54.9203
G01 X64.5228 Y54.9212
G01 X64.4523 Y54.9247
G01 X64.4400 Y54.9250
G01 X64.4277 Y54.9247
G01 X64.3572 Y54.9212
G01 X64.3449 Y54.9203
G01 X64.3327 Y54.9188
G01 X64.2629 Y54.9085
G01 X64.2448 Y54.9051
G01 X64.1703 Y54.8865
G01 X64.1584 Y54.8832
G01 X64.1468 Y54.8794
G01 X64.0802 Y54.8556
G01 X64.0688 Y54.8512
G01 X64.0576 Y54.8462
G01 X63.9937 Y54.8160
G01 X63.9827 Y54.8105
G01 X63.9721 Y54.8044
G01 X63.9115 Y54.7681
G01 X63.9011 Y54.7615
G01 X63.8911 Y54.7545
G01 X63.8343 Y54.7124
G01 X63.8246 Y54.7048
G01 X63.8153 Y54.6968
G01 X63.7630 Y54.6494
G01 X63.7498 Y54.6365
G01 X63.6982 Y54.5797
G01 X63.6902 Y54.5704
G01 X63.6826 Y54.5607
G01 X63.6405 Y54.5039
G01 X63.6335 Y54.4939
G01 X63.6269 Y54.4835
G01 X63.5875 Y54.4176
G01 X63.5790 Y54.4013
G01 X63.5488 Y54.3374
G01 X63.5438 Y54.3262
G01 X63.5394 Y54.3148
G01 X63.5156 Y54.2482
G01 X63.5118 Y54.2366
G01 X63.5085 Y54.2247
G01 X63.4899 Y54.1502
G01 X63.4865 Y54.1321
G01 X63.4762 Y54.0623
G00 Z2.0000
G00 X63.4752 Y53.8553
G01 F60.00
G01 Z-0.0600
G01 F120.00
G01 X63.4745 Y53.8553
G00 Z2.0000
G00 X63.5555 Y53.5553
G01 F60.00
G01 Z-0.0600
G01 F120.00
G01 X63.5570 Y53.5553
G00 Z2.0000
G00 X63.7672 Y53.2553
G01 F60.00
G01 Z-0.0600
G01 F120.00
G01 X63.7689 Y53.2553
G00 Z2.0000
G00 X60.3255 Y53.8553
G01 F60.00
G01 Z-0.0600
G01 F120.00
G01 X60.3248 Y53.8553
G00 Z2.0000
G00 X60.3111 Y54.1553
G01 F60.00
G01 Z-0.0600
G01 F120.00
G01 X60.3089 Y54.1553
G00 Z2.0000
G00 X60.1944 Y54.4553
G01 F60.00
G01 Z-0.0600
G01 F120.00
G01 X60.1900 Y54.4553
G00 Z2.0000
G00 X59.9090 Y54.7553
G01 F60.00
G01 Z-0.0600
G01 F120.00
G01 X59.9077 Y54.7553
G00 Z2.0000
G00 X58.8123 Y54.7553
G01 F60.00
G01 Z-0.0600
G01 F120.00
G01 X58.8110 Y54.7553
G00 Z2.0000
G00 X58.5300 Y54.4553
G01 F60.00
G01 Z-0.0600
G01 F120.00
G01 X58.5256 Y54.4553
G00 Z2.0000
G00 X58.4111 Y54.1553
G01 F60.00
G01 Z-0.0600
G01 F120.00
G01 X58.4089 Y54.1553
G01 X58.3962 Y54.0623
G01 X58.3953 Y54.0562
G01 X58.3947 Y54.0501
G01 X58.3938 Y54.0378
G01 X58.3903 Y53.9673
G01 X58.3900 Y53.9550
G01 X58.3903 Y53.9427
G01 X58.3938 Y53.8722
G01 X58.3947 Y53.8599
G01 X58.3962 Y53.8477
G01 X58.4065 Y53.7779
G01 X58.4086 Y53.7658
G01 X58.4113 Y53.7538
G01 X58.4285 Y53.6853
G01 X58.4318 Y53.6734
G01 X58.4356 Y53.6618
G01 X58.4594 Y53.5952
G01 X58.4638 Y53.5838
G01 X58.4688 Y53.5726
G01 X58.4990 Y53.5087
G01 X58.5045 Y53.4977
G01 X58.5106 Y53.4871
G01 X58.5469 Y53.4265
G01 X58.5535 Y53.4161
G01 X58.5605 Y53.4061
G01 X58.6026 Y53.3493
G01 X58.6102 Y53.3396
G01 X58.6182 Y53.3303
G01 X58.6656 Y53.2780
G01 X58.6741 Y53.2691
G01 X58.6830 Y53.2606
G01 X58.7353 Y53.2132
G01 X58.7446 Y53.2052
G01 X58.7543 Y53.1976
G01 X58.8111 Y53.1555
G01 X58.8211 Y53.1485
G01 X58.8315 Y53.1419
G01 X58.8921 Y53.1056
G01 X58.9027 Y53.0995
G01 X58.9137 Y53.0940
G01 X58.9776 Y53.0638
G01 X58.9888 Y53.0588
G01 X59.0002 Y53.0544
G01 X59.0668 Y53.0306
G01 X59.0784 Y53.0268
G01 X59.0903 Y53.0235
G01 X59.1588 Y53.0063
G01 X59.1708 Y53.0036
G01 X59.1829 Y53.0015
G01 X59.2527 Y52.9912
G01 X59.2649 Y52.9897
G01 X59.2772 Y52.9888
G01 X59.3477 Y52.9853
G01 X59.3600 Y52.9850
G01 X59.3723 Y52.9853
G01 X59.4428 Y52.9888
G01 X59.4551 Y52.9897
G01 X59.4673 Y52.9912
