(G-CODE GENERATED BY FLATCAM v8.994 - www.flatcam.org - Version Date: 2020/11/7)

(Name: Sensorbox-NPTH.drl_mill_cnc)
(Type: G-code from Geometry)
(Units: MM)

(Created on Monday, 19 February 2024 at 14:23)

(This preprocessor is the default preprocessor used by FlatCAM.)
(It is made to work with MACH3 compatible motion controllers.)

(TOOL DIAMETER: 1.2 mm)
(Feedrate_XY: 60.0 mm/min)
(Feedrate_Z: 60.0 mm/min)
(Feedrate rapids 1500.0 mm/min)

(Z_Cut: -1.8 mm)
(Z_Move: 2.0 mm)
(Z Start: None mm)
(Z End: 15.0 mm)
(X,Y End: None mm)
(Steps per circle: 64)
(Preprocessor Geometry: default)

(X range:    4.0000 ...  106.3890  mm)
(Y range:    4.0000 ...   66.0000  mm)

(Spindle Speed: 20000.0 RPM)
G21
G90
G94

G01 F60.00

M5
G00 Z15.0000
G00 X0.0000 Y0.0000
T1
M6    
(MSG, Change to Tool Dia = 1.2000)
M0
G00 Z15.0000

M03 S20000.0
G01 F60.00
G00 X6.0000 Y5.0000
G01 F60.00
G01 Z-1.8000
G01 F60.00
G01 X5.9952 Y4.9020
G01 X5.9808 Y4.8049
G01 X5.9569 Y4.7097
G01 X5.9239 Y4.6173
G01 X5.8819 Y4.5286
G01 X5.8315 Y4.4444
G01 X5.7730 Y4.3656
G01 X5.7071 Y4.2929
G01 X5.6344 Y4.2270
G01 X5.5556 Y4.1685
G01 X5.4714 Y4.1181
G01 X5.3827 Y4.0761
G01 X5.2903 Y4.0431
G01 X5.1951 Y4.0192
G01 X5.0980 Y4.0048
G01 X5.0000 Y4.0000
G01 X4.9020 Y4.0048
G01 X4.8049 Y4.0192
G01 X4.7097 Y4.0431
G01 X4.6173 Y4.0761
G01 X4.5286 Y4.1181
G01 X4.4444 Y4.1685
G01 X4.3656 Y4.2270
G01 X4.2929 Y4.2929
G01 X4.2270 Y4.3656
G01 X4.1685 Y4.4444
G01 X4.1181 Y4.5286
G01 X4.0761 Y4.6173
G01 X4.0431 Y4.7097
G01 X4.0192 Y4.8049
G01 X4.0048 Y4.9020
G01 X4.0000 Y5.0000
G01 X4.0048 Y5.0980
G01 X4.0192 Y5.1951
G01 X4.0431 Y5.2903
G01 X4.0761 Y5.3827
G01 X4.1181 Y5.4714
G01 X4.1685 Y5.5556
G01 X4.2270 Y5.6344
G01 X4.2929 Y5.7071
G01 X4.3656 Y5.7730
G01 X4.4444 Y5.8315
G01 X4.5286 Y5.8819
G01 X4.6173 Y5.9239
G01 X4.7097 Y5.9569
G01 X4.8049 Y5.9808
G01 X4.9020 Y5.9952
G01 X5.0000 Y6.0000
G01 X5.0980 Y5.9952
G01 X5.1951 Y5.9808
G01 X5.2903 Y5.9569
G01 X5.3827 Y5.9239
G01 X5.4714 Y5.8819
G01 X5.5556 Y5.8315
G01 X5.6344 Y5.7730
G01 X5.7071 Y5.7071
G01 X5.7730 Y5.6344
G01 X5.8315 Y5.5556
G01 X5.8819 Y5.4714
G01 X5.9239 Y5.3827
G01 X5.9569 Y5.2903
G01 X5.9808 Y5.1951
G01 X5.9952 Y5.0980
G01 X6.0000 Y5.0000
G00 Z2.0000
G00 X48.9190 Y29.5120
G01 F60.00
G01 Z-1.8000
G01 F60.00
G01 X48.9175 Y29.4816
G01 X48.9130 Y29.4515
G01 X48.9057 Y29.4220
G01 X48.8954 Y29.3934
G01 X48.8824 Y29.3659
G01 X48.8668 Y29.3398
G01 X48.8486 Y29.3153
G01 X48.8282 Y29.2928
G01 X48.8057 Y29.2724
G01 X48.7812 Y29.2542
G01 X48.7551 Y29.2386
G01 X48.7276 Y29.2256
G01 X48.6990 Y29.2153
G01 X48.6695 Y29.2080
G01 X48.6394 Y29.2035
G01 X48.6090 Y29.2020
G01 X48.5786 Y29.2035
G01 X48.5485 Y29.2080
G01 X48.5190 Y29.2153
G01 X48.4904 Y29.2256
G01 X48.4629 Y29.2386
G01 X48.4368 Y29.2542
G01 X48.4123 Y29.2724
G01 X48.3898 Y29.2928
G01 X48.3694 Y29.3153
G01 X48.3512 Y29.3398
G01 X48.3356 Y29.3659
G01 X48.3226 Y29.3934
G01 X48.3123 Y29.4220
G01 X48.3050 Y29.4515
G01 X48.3005 Y29.4816
G01 X48.2990 Y29.5120
G01 X48.3005 Y29.5424
G01 X48.3050 Y29.5725
G01 X48.3123 Y29.6020
G01 X48.3226 Y29.6306
G01 X48.3356 Y29.6581
G01 X48.3512 Y29.6842
G01 X48.3694 Y29.7087
G01 X48.3898 Y29.7312
G01 X48.4123 Y29.7516
G01 X48.4368 Y29.7698
G01 X48.4629 Y29.7854
G01 X48.4904 Y29.7984
G01 X48.5190 Y29.8087
G01 X48.5485 Y29.8160
G01 X48.5786 Y29.8205
G01 X48.6090 Y29.8220
G01 X48.6394 Y29.8205
G01 X48.6695 Y29.8160
G01 X48.6990 Y29.8087
G01 X48.7276 Y29.7984
G01 X48.7551 Y29.7854
G01 X48.7812 Y29.7698
G01 X48.8057 Y29.7516
G01 X48.8282 Y29.7312
G01 X48.8486 Y29.7087
G01 X48.8668 Y29.6842
G01 X48.8824 Y29.6581
G01 X48.8954 Y29.6306
G01 X48.9057 Y29.6020
G01 X48.9130 Y29.5725
G01 X48.9175 Y29.5424
G01 X48.9190 Y29.5120
G00 Z2.0000
G00 X48.9190 Y44.2020
G01 F60.00
G01 Z-1.8000
G01 F60.00
G01 X48.9175 Y44.1716
G01 X48.9130 Y44.1415
G01 X48.9057 Y44.1120
G01 X48.8954 Y44.0834
G01 X48.8824 Y44.0559
G01 X48.8668 Y44.0298
G01 X48.8486 Y44.0053
G01 X48.8282 Y43.9828
G01 X48.8057 Y43.9624
G01 X48.7812 Y43.9442
G01 X48.7551 Y43.9286
G01 X48.7276 Y43.9156
G01 X48.6990 Y43.9053
G01 X48.6695 Y43.8980
G01 X48.6394 Y43.8935
G01 X48.6090 Y43.8920
G01 X48.5786 Y43.8935
G01 X48.5485 Y43.8980
G01 X48.5190 Y43.9053
G01 X48.4904 Y43.9156
G01 X48.4629 Y43.9286
G01 X48.4368 Y43.9442
G01 X48.4123 Y43.9624
G01 X48.3898 Y43.9828
G01 X48.3694 Y44.0053
G01 X48.3512 Y44.0298
G01 X48.3356 Y44.0559
G01 X48.3226 Y44.0834
G01 X48.3123 Y44.1120
G01 X48.3050 Y44.1415
G01 X48.3005 Y44.1716
G01 X48.2990 Y44.2020
G01 X48.3005 Y44.2324
G01 X48.3050 Y44.2625
G01 X48.3123 Y44.2920
G01 X48.3226 Y44.3206
G01 X48.3356 Y44.3481
G01 X48.3512 Y44.3742
G01 X48.3694 Y44.3987
G01 X48.3898 Y44.4212
G01 X48.4123 Y44.4416
G01 X48.4368 Y44.4598
G01 X48.4629 Y44.4754
G01 X48.4904 Y44.4884
G01 X48.5190 Y44.4987
G01 X48.5485 Y44.5060
G01 X48.5786 Y44.5105
G01 X48.6090 Y44.5120
G01 X48.6394 Y44.5105
G01 X48.6695 Y44.5060
G01 X48.6990 Y44.4987
G01 X48.7276 Y44.4884
G01 X48.7551 Y44.4754
G01 X48.7812 Y44.4598
G01 X48.8057 Y44.4416
G01 X48.8282 Y44.4212
G01 X48.8486 Y44.3987
G01 X48.8668 Y44.3742
G01 X48.8824 Y44.3481
G01 X48.8954 Y44.3206
G01 X48.9057 Y44.2920
G01 X48.9130 Y44.2625
G01 X48.9175 Y44.2324
G01 X48.9190 Y44.2020
G00 Z2.0000
G00 X67.0190 Y44.2820
G01 F60.00
G01 Z-1.8000
G01 F60.00
G01 X67.0175 Y44.2516
G01 X67.0130 Y44.2215
G01 X67.0057 Y44.1920
G01 X66.9954 Y44.1634
G01 X66.9824 Y44.1359
G01 X66.9668 Y44.1098
G01 X66.9486 Y44.0853
G01 X66.9282 Y44.0628
G01 X66.9057 Y44.0424
G01 X66.8812 Y44.0242
G01 X66.8551 Y44.0086
G01 X66.8276 Y43.9956
G01 X66.7990 Y43.9853
G01 X66.7695 Y43.9780
G01 X66.7394 Y43.9735
G01 X66.7090 Y43.9720
G01 X66.6786 Y43.9735
G01 X66.6485 Y43.9780
G01 X66.6190 Y43.9853
G01 X66.5904 Y43.9956
G01 X66.5629 Y44.0086
G01 X66.5368 Y44.0242
G01 X66.5123 Y44.0424
G01 X66.4898 Y44.0628
G01 X66.4694 Y44.0853
G01 X66.4512 Y44.1098
G01 X66.4356 Y44.1359
G01 X66.4226 Y44.1634
G01 X66.4123 Y44.1920
G01 X66.4050 Y44.2215
G01 X66.4005 Y44.2516
G01 X66.3990 Y44.2820
G01 X66.4005 Y44.3124
G01 X66.4050 Y44.3425
G01 X66.4123 Y44.3720
G01 X66.4226 Y44.4006
G01 X66.4356 Y44.4281
G01 X66.4512 Y44.4542
G01 X66.4694 Y44.4787
G01 X66.4898 Y44.5012
G01 X66.5123 Y44.5216
G01 X66.5368 Y44.5398
G01 X66.5629 Y44.5554
G01 X66.5904 Y44.5684
G01 X66.6190 Y44.5787
G01 X66.6485 Y44.5860
G01 X66.6786 Y44.5905
G01 X66.7090 Y44.5920
G01 X66.7394 Y44.5905
G01 X66.7695 Y44.5860
G01 X66.7990 Y44.5787
G01 X66.8276 Y44.5684
G01 X66.8551 Y44.5554
G01 X66.8812 Y44.5398
G01 X66.9057 Y44.5216
G01 X66.9282 Y44.5012
G01 X66.9486 Y44.4787
G01 X66.9668 Y44.4542
G01 X66.9824 Y44.4281
G01 X66.9954 Y44.4006
G01 X67.0057 Y44.3720
G01 X67.0130 Y44.3425
G01 X67.0175 Y44.3124
G01 X67.0190 Y44.2820
G00 Z2.0000
G00 X76.8990 Y36.9920
G01 F60.00
G01 Z-1.8000
G01 F60.00
G01 X76.8747 Y36.4970
G01 X76.8020 Y36.0068
G01 X76.6815 Y35.5261
G01 X76.5146 Y35.0594
G01 X76.3027 Y34.6114
G01 X76.0479 Y34.1864
G01 X75.7527 Y33.7883
G01 X75.4199 Y33.4211
G01 X75.0527 Y33.0883
G01 X74.6546 Y32.7931
G01 X74.2296 Y32.5383
G01 X73.7816 Y32.3264
G01 X73.3149 Y32.1595
G01 X72.8342 Y32.0390
G01 X72.3440 Y31.9663
G01 X71.8490 Y31.9420
G01 X71.3540 Y31.9663
G01 X70.8638 Y32.0390
G01 X70.3831 Y32.1595
G01 X69.9164 Y32.3264
G01 X69.4684 Y32.5383
G01 X69.0434 Y32.7931
G01 X68.6453 Y33.0883
G01 X68.2781 Y33.4211
G01 X67.9453 Y33.7883
G01 X67.6501 Y34.1864
G01 X67.3953 Y34.6114
G01 X67.1834 Y35.0594
G01 X67.0165 Y35.5261
G01 X66.8960 Y36.0068
G01 X66.8233 Y36.4970
G01 X66.7990 Y36.9920
G01 X66.8233 Y37.4870
G01 X66.8960 Y37.9772
G01 X67.0165 Y38.4579
G01 X67.1834 Y38.9246
G01 X67.3953 Y39.3726
G01 X67.6501 Y39.7976
G01 X67.9453 Y40.1957
G01 X68.2781 Y40.5629
G01 X68.6453 Y40.8957
G01 X69.0434 Y41.1909
G01 X69.4684 Y41.4457
G01 X69.9164 Y41.6576
G01 X70.3831 Y41.8245
G01 X70.8638 Y41.9450
G01 X71.3540 Y42.0177
G01 X71.8490 Y42.0420
G01 X72.3440 Y42.0177
G01 X72.8342 Y41.9450
G01 X73.3149 Y41.8245
G01 X73.7816 Y41.6576
G01 X74.2296 Y41.4457
G01 X74.6546 Y41.1909
G01 X75.0527 Y40.8957
G01 X75.4199 Y40.5629
G01 X75.7527 Y40.1957
G01 X76.0479 Y39.7976
G01 X76.3027 Y39.3726
G01 X76.5146 Y38.9246
G01 X76.6815 Y38.4579
G01 X76.8020 Y37.9772
G01 X76.8747 Y37.4870
G01 X76.8990 Y36.9920
G00 Z2.0000
G00 X82.0490 Y44.3020
G01 F60.00
G01 Z-1.8000
G01 F60.00
G01 X82.0475 Y44.2716
G01 X82.0430 Y44.2415
G01 X82.0357 Y44.2120
G01 X82.0254 Y44.1834
G01 X82.0124 Y44.1559
G01 X81.9968 Y44.1298
G01 X81.9786 Y44.1053
G01 X81.9582 Y44.0828
G01 X81.9357 Y44.0624
G01 X81.9112 Y44.0442
G01 X81.8851 Y44.0286
G01 X81.8576 Y44.0156
G01 X81.8290 Y44.0053
G01 X81.7995 Y43.9980
G01 X81.7694 Y43.9935
G01 X81.7390 Y43.9920
G01 X81.7086 Y43.9935
G01 X81.6785 Y43.9980
G01 X81.6490 Y44.0053
G01 X81.6204 Y44.0156
G01 X81.5929 Y44.0286
G01 X81.5668 Y44.0442
G01 X81.5423 Y44.0624
G01 X81.5198 Y44.0828
G01 X81.4994 Y44.1053
G01 X81.4812 Y44.1298
G01 X81.4656 Y44.1559
G01 X81.4526 Y44.1834
G01 X81.4423 Y44.2120
G01 X81.4350 Y44.2415
G01 X81.4305 Y44.2716
G01 X81.4290 Y44.3020
G01 X81.4305 Y44.3324
G01 X81.4350 Y44.3625
G01 X81.4423 Y44.3920
G01 X81.4526 Y44.4206
G01 X81.4656 Y44.4481
G01 X81.4812 Y44.4742
G01 X81.4994 Y44.4987
G01 X81.5198 Y44.5212
G01 X81.5423 Y44.5416
G01 X81.5668 Y44.5598
G01 X81.5929 Y44.5754
G01 X81.6204 Y44.5884
G01 X81.6490 Y44.5987
G01 X81.6785 Y44.6060
G01 X81.7086 Y44.6105
G01 X81.7390 Y44.6120
G01 X81.7694 Y44.6105
G01 X81.7995 Y44.6060
G01 X81.8290 Y44.5987
G01 X81.8576 Y44.5884
G01 X81.8851 Y44.5754
G01 X81.9112 Y44.5598
G01 X81.9357 Y44.5416
G01 X81.9582 Y44.5212
G01 X81.9786 Y44.4987
G01 X81.9968 Y44.4742
G01 X82.0124 Y44.4481
G01 X82.0254 Y44.4206
G01 X82.0357 Y44.3920
G01 X82.0430 Y44.3625
G01 X82.0475 Y44.3324
G01 X82.0490 Y44.3020
G00 Z2.0000
G00 X82.0090 Y29.5620
G01 F60.00
G01 Z-1.8000
G01 F60.00
G01 X82.0075 Y29.5316
G01 X82.0030 Y29.5015
G01 X81.9957 Y29.4720
G01 X81.9854 Y29.4434
G01 X81.9724 Y29.4159
G01 X81.9568 Y29.3898
G01 X81.9386 Y29.3653
G01 X81.9182 Y29.3428
G01 X81.8957 Y29.3224
G01 X81.8712 Y29.3042
G01 X81.8451 Y29.2886
G01 X81.8176 Y29.2756
G01 X81.7890 Y29.2653
G01 X81.7595 Y29.2580
G01 X81.7294 Y29.2535
G01 X81.6990 Y29.2520
G01 X81.6686 Y29.2535
G01 X81.6385 Y29.2580
G01 X81.6090 Y29.2653
G01 X81.5804 Y29.2756
G01 X81.5529 Y29.2886
G01 X81.5268 Y29.3042
G01 X81.5023 Y29.3224
G01 X81.4798 Y29.3428
G01 X81.4594 Y29.3653
G01 X81.4412 Y29.3898
G01 X81.4256 Y29.4159
G01 X81.4126 Y29.4434
G01 X81.4023 Y29.4720
G01 X81.3950 Y29.5015
G01 X81.3905 Y29.5316
G01 X81.3890 Y29.5620
G01 X81.3905 Y29.5924
G01 X81.3950 Y29.6225
G01 X81.4023 Y29.6520
G01 X81.4126 Y29.6806
G01 X81.4256 Y29.7081
G01 X81.4412 Y29.7342
G01 X81.4594 Y29.7587
G01 X81.4798 Y29.7812
G01 X81.5023 Y29.8016
G01 X81.5268 Y29.8198
G01 X81.5529 Y29.8354
G01 X81.5804 Y29.8484
G01 X81.6090 Y29.8587
G01 X81.6385 Y29.8660
G01 X81.6686 Y29.8705
G01 X81.6990 Y29.8720
G01 X81.7294 Y29.8705
G01 X81.7595 Y29.8660
G01 X81.7890 Y29.8587
G01 X81.8176 Y29.8484
G01 X81.8451 Y29.8354
G01 X81.8712 Y29.8198
G01 X81.8957 Y29.8016
G01 X81.9182 Y29.7812
G01 X81.9386 Y29.7587
G01 X81.9568 Y29.7342
G01 X81.9724 Y29.7081
G01 X81.9854 Y29.6806
G01 X81.9957 Y29.6520
G01 X82.0030 Y29.6225
G01 X82.0075 Y29.5924
G01 X82.0090 Y29.5620
G00 Z2.0000
G00 X89.1600 Y30.1100
G01 F60.00
G01 Z-1.8000
G01 F60.00
G01 X89.1548 Y30.0051
G01 X89.1394 Y29.9013
G01 X89.1139 Y29.7994
G01 X89.0786 Y29.7005
G01 X89.0337 Y29.6056
G01 X88.9797 Y29.5155
G01 X88.9171 Y29.4312
G01 X88.8466 Y29.3534
G01 X88.7688 Y29.2829
G01 X88.6845 Y29.2203
G01 X88.5944 Y29.1663
G01 X88.4995 Y29.1214
G01 X88.4006 Y29.0861
G01 X88.2987 Y29.0606
G01 X88.1949 Y29.0452
G01 X88.0900 Y29.0400
G01 X87.9851 Y29.0452
G01 X87.8813 Y29.0606
G01 X87.7794 Y29.0861
G01 X87.6805 Y29.1214
G01 X87.5856 Y29.1663
G01 X87.4955 Y29.2203
G01 X87.4112 Y29.2829
G01 X87.3334 Y29.3534
G01 X87.2629 Y29.4312
G01 X87.2003 Y29.5155
G01 X87.1463 Y29.6056
G01 X87.1014 Y29.7005
G01 X87.0661 Y29.7994
G01 X87.0406 Y29.9013
G01 X87.0252 Y30.0051
G01 X87.0200 Y30.1100
G01 X87.0252 Y30.2149
G01 X87.0406 Y30.3187
G01 X87.0661 Y30.4206
G01 X87.1014 Y30.5195
G01 X87.1463 Y30.6144
G01 X87.2003 Y30.7045
G01 X87.2629 Y30.7888
G01 X87.3334 Y30.8666
G01 X87.4112 Y30.9371
G01 X87.4955 Y30.9997
G01 X87.5856 Y31.0537
G01 X87.6805 Y31.0986
G01 X87.7794 Y31.1339
G01 X87.8813 Y31.1594
G01 X87.9851 Y31.1748
G01 X88.0900 Y31.1800
G01 X88.1949 Y31.1748
G01 X88.2987 Y31.1594
G01 X88.4006 Y31.1339
G01 X88.4995 Y31.0986
G01 X88.5944 Y31.0537
G01 X88.6845 Y30.9997
G01 X88.7688 Y30.9371
G01 X88.8466 Y30.8666
G01 X88.9171 Y30.7888
G01 X88.9797 Y30.7045
G01 X89.0337 Y30.6144
G01 X89.0786 Y30.5195
G01 X89.1139 Y30.4206
G01 X89.1394 Y30.3187
G01 X89.1548 Y30.2149
G01 X89.1600 Y30.1100
G00 Z2.0000
G00 X94.2890 Y24.8000
G01 F60.00
G01 Z-1.8000
G01 F60.00
G01 X94.2842 Y24.7021
G01 X94.2698 Y24.6051
G01 X94.2460 Y24.5100
G01 X94.2130 Y24.4177
G01 X94.1710 Y24.3291
G01 X94.1206 Y24.2450
G01 X94.0622 Y24.1662
G01 X93.9964 Y24.0936
G01 X93.9238 Y24.0278
G01 X93.8450 Y23.9694
G01 X93.7609 Y23.9190
G01 X93.6723 Y23.8770
G01 X93.5800 Y23.8440
G01 X93.4849 Y23.8202
G01 X93.3879 Y23.8058
G01 X93.2900 Y23.8010
G01 X93.1921 Y23.8058
G01 X93.0951 Y23.8202
G01 X93.0000 Y23.8440
G01 X92.9077 Y23.8770
G01 X92.8191 Y23.9190
G01 X92.7350 Y23.9694
G01 X92.6562 Y24.0278
G01 X92.5836 Y24.0936
G01 X92.5178 Y24.1662
G01 X92.4594 Y24.2450
G01 X92.4090 Y24.3291
G01 X92.3670 Y24.4177
G01 X92.3340 Y24.5100
G01 X92.3102 Y24.6051
G01 X92.2958 Y24.7021
G01 X92.2910 Y24.8000
G01 X92.2958 Y24.8979
G01 X92.3102 Y24.9949
G01 X92.3340 Y25.0900
G01 X92.3670 Y25.1823
G01 X92.4090 Y25.2709
G01 X92.4594 Y25.3550
G01 X92.5178 Y25.4338
G01 X92.5836 Y25.5064
G01 X92.6562 Y25.5722
G01 X92.7350 Y25.6306
G01 X92.8191 Y25.6810
G01 X92.9077 Y25.7230
G01 X93.0000 Y25.7560
G01 X93.0951 Y25.7798
G01 X93.1921 Y25.7942
G01 X93.2900 Y25.7990
G01 X93.3879 Y25.7942
G01 X93.4849 Y25.7798
G01 X93.5800 Y25.7560
G01 X93.6723 Y25.7230
G01 X93.7609 Y25.6810
G01 X93.8450 Y25.6306
G01 X93.9238 Y25.5722
G01 X93.9964 Y25.5064
G01 X94.0622 Y25.4338
G01 X94.1206 Y25.3550
G01 X94.1710 Y25.2709
G01 X94.2130 Y25.1823
G01 X94.2460 Y25.0900
G01 X94.2698 Y24.9949
G01 X94.2842 Y24.8979
G01 X94.2890 Y24.8000
G00 Z2.0000
G00 X104.1300 Y29.9800
G01 F60.00
G01 Z-1.8000
G01 F60.00
G01 X104.1248 Y29.8751
G01 X104.1094 Y29.7713
G01 X104.0839 Y29.6694
G01 X104.0486 Y29.5705
G01 X104.0037 Y29.4756
G01 X103.9497 Y29.3855
G01 X103.8871 Y29.3012
G01 X103.8166 Y29.2234
G01 X103.7388 Y29.1529
G01 X103.6545 Y29.0903
G01 X103.5644 Y29.0363
G01 X103.4695 Y28.9914
G01 X103.3706 Y28.9561
G01 X103.2687 Y28.9306
G01 X103.1649 Y28.9152
G01 X103.0600 Y28.9100
G01 X102.9551 Y28.9152
G01 X102.8513 Y28.9306
G01 X102.7494 Y28.9561
G01 X102.6505 Y28.9914
G01 X102.5556 Y29.0363
G01 X102.4655 Y29.0903
G01 X102.3812 Y29.1529
G01 X102.3034 Y29.2234
G01 X102.2329 Y29.3012
G01 X102.1703 Y29.3855
G01 X102.1163 Y29.4756
G01 X102.0714 Y29.5705
G01 X102.0361 Y29.6694
G01 X102.0106 Y29.7713
G01 X101.9952 Y29.8751
G01 X101.9900 Y29.9800
G01 X101.9952 Y30.0849
G01 X102.0106 Y30.1887
G01 X102.0361 Y30.2906
G01 X102.0714 Y30.3895
G01 X102.1163 Y30.4844
G01 X102.1703 Y30.5745
G01 X102.2329 Y30.6588
G01 X102.3034 Y30.7366
G01 X102.3812 Y30.8071
G01 X102.4655 Y30.8697
G01 X102.5556 Y30.9237
G01 X102.6505 Y30.9686
G01 X102.7494 Y31.0039
G01 X102.8513 Y31.0294
G01 X102.9551 Y31.0448
G01 X103.0600 Y31.0500
G01 X103.1649 Y31.0448
G01 X103.2687 Y31.0294
G01 X103.3706 Y31.0039
G01 X103.4695 Y30.9686
G01 X103.5644 Y30.9237
G01 X103.6545 Y30.8697
G01 X103.7388 Y30.8071
G01 X103.8166 Y30.7366
G01 X103.8871 Y30.6588
G01 X103.9497 Y30.5745
G01 X104.0037 Y30.4844
G01 X104.0486 Y30.3895
G01 X104.0839 Y30.2906
G01 X104.1094 Y30.1887
G01 X104.1248 Y30.0849
G01 X104.1300 Y29.9800
G00 Z2.0000
G00 X104.7750 Y35.8200
G01 F60.00
G01 Z-1.8000
G01 F60.00
G01 X104.7593 Y35.5010
G01 X104.7125 Y35.1850
G01 X104.6348 Y34.8751
G01 X104.5272 Y34.5744
G01 X104.3907 Y34.2856
G01 X104.2264 Y34.0116
G01 X104.0361 Y33.7550
G01 X103.8216 Y33.5184
G01 X103.5850 Y33.3039
G01 X103.3284 Y33.1136
G01 X103.0544 Y32.9493
G01 X102.7656 Y32.8128
G01 X102.4649 Y32.7052
G01 X102.1550 Y32.6275
G01 X101.8390 Y32.5807
G01 X101.5200 Y32.5650
G01 X101.2010 Y32.5807
G01 X100.8850 Y32.6275
G01 X100.5751 Y32.7052
G01 X100.2744 Y32.8128
G01 X99.9856 Y32.9493
G01 X99.7116 Y33.1136
G01 X99.4550 Y33.3039
G01 X99.2184 Y33.5184
G01 X99.0039 Y33.7550
G01 X98.8136 Y34.0116
G01 X98.6493 Y34.2856
G01 X98.5128 Y34.5744
G01 X98.4052 Y34.8751
G01 X98.3275 Y35.1850
G01 X98.2807 Y35.5010
G01 X98.2650 Y35.8200
G01 X98.2807 Y36.1390
G01 X98.3275 Y36.4550
G01 X98.4052 Y36.7649
G01 X98.5128 Y37.0656
G01 X98.6493 Y37.3544
G01 X98.8136 Y37.6284
G01 X99.0039 Y37.8850
G01 X99.2184 Y38.1216
G01 X99.4550 Y38.3361
G01 X99.7116 Y38.5264
G01 X99.9856 Y38.6907
G01 X100.2744 Y38.8272
G01 X100.5751 Y38.9348
G01 X100.8850 Y39.0125
G01 X101.2010 Y39.0593
G01 X101.5200 Y39.0750
G01 X101.8390 Y39.0593
G01 X102.1550 Y39.0125
G01 X102.4649 Y38.9348
G01 X102.7656 Y38.8272
G01 X103.0544 Y38.6907
G01 X103.3284 Y38.5264
G01 X103.5850 Y38.3361
G01 X103.8216 Y38.1216
G01 X104.0361 Y37.8850
G01 X104.2264 Y37.6284
G01 X104.3907 Y37.3544
G01 X104.5272 Y37.0656
G01 X104.6348 Y36.7649
G01 X104.7125 Y36.4550
G01 X104.7593 Y36.1390
G01 X104.7750 Y35.8200
G00 Z2.0000
G00 X101.1400 Y47.4100
G01 F60.00
G01 Z-1.8000
G01 F60.00
G01 X101.1132 Y46.8640
G01 X101.0330 Y46.3233
G01 X100.9002 Y45.7931
G01 X100.7160 Y45.2785
G01 X100.4823 Y44.7843
G01 X100.2013 Y44.3155
G01 X99.8757 Y43.8764
G01 X99.5086 Y43.4714
G01 X99.1036 Y43.1043
G01 X98.6645 Y42.7787
G01 X98.1957 Y42.4977
G01 X97.7015 Y42.2640
G01 X97.1869 Y42.0798
G01 X96.6567 Y41.9470
G01 X96.1160 Y41.8668
G01 X95.5700 Y41.8400
G01 X95.0240 Y41.8668
G01 X94.4833 Y41.9470
G01 X93.9531 Y42.0798
G01 X93.4385 Y42.2640
G01 X92.9443 Y42.4977
G01 X92.4755 Y42.7787
G01 X92.0364 Y43.1043
G01 X91.6314 Y43.4714
G01 X91.2643 Y43.8764
G01 X90.9387 Y44.3155
G01 X90.6577 Y44.7843
G01 X90.4240 Y45.2785
G01 X90.2398 Y45.7931
G01 X90.1070 Y46.3233
G01 X90.0268 Y46.8640
G01 X90.0000 Y47.4100
G01 X90.0268 Y47.9560
G01 X90.1070 Y48.4967
G01 X90.2398 Y49.0269
G01 X90.4240 Y49.5415
G01 X90.6577 Y50.0357
G01 X90.9387 Y50.5045
G01 X91.2643 Y50.9436
G01 X91.6314 Y51.3486
G01 X92.0364 Y51.7157
G01 X92.4755 Y52.0413
G01 X92.9443 Y52.3223
G01 X93.4385 Y52.5560
G01 X93.9531 Y52.7402
G01 X94.4833 Y52.8730
G01 X95.0240 Y52.9532
G01 X95.5700 Y52.9800
G01 X96.1160 Y52.9532
G01 X96.6567 Y52.8730
G01 X97.1869 Y52.7402
G01 X97.7015 Y52.5560
G01 X98.1957 Y52.3223
G01 X98.6645 Y52.0413
G01 X99.1036 Y51.7157
G01 X99.5086 Y51.3486
G01 X99.8757 Y50.9436
G01 X100.2013 Y50.5045
G01 X100.4823 Y50.0357
G01 X100.7160 Y49.5415
G01 X100.9002 Y49.0269
G01 X101.0330 Y48.4967
G01 X101.1132 Y47.9560
G01 X101.1400 Y47.4100
G00 Z2.0000
G00 X104.8200 Y57.9400
G01 F60.00
G01 Z-1.8000
G01 F60.00
G01 X104.8148 Y57.8351
G01 X104.7994 Y57.7313
G01 X104.7739 Y57.6294
G01 X104.7386 Y57.5305
G01 X104.6937 Y57.4356
G01 X104.6397 Y57.3455
G01 X104.5771 Y57.2612
G01 X104.5066 Y57.1834
G01 X104.4288 Y57.1129
G01 X104.3445 Y57.0503
G01 X104.2544 Y56.9963
G01 X104.1595 Y56.9514
G01 X104.0606 Y56.9161
G01 X103.9587 Y56.8906
G01 X103.8549 Y56.8752
G01 X103.7500 Y56.8700
G01 X103.6451 Y56.8752
G01 X103.5413 Y56.8906
G01 X103.4394 Y56.9161
G01 X103.3405 Y56.9514
G01 X103.2456 Y56.9963
G01 X103.1555 Y57.0503
G01 X103.0712 Y57.1129
G01 X102.9934 Y57.1834
G01 X102.9229 Y57.2612
G01 X102.8603 Y57.3455
G01 X102.8063 Y57.4356
G01 X102.7614 Y57.5305
G01 X102.7261 Y57.6294
G01 X102.7006 Y57.7313
G01 X102.6852 Y57.8351
G01 X102.6800 Y57.9400
G01 X102.6852 Y58.0449
G01 X102.7006 Y58.1487
G01 X102.7261 Y58.2506
G01 X102.7614 Y58.3495
G01 X102.8063 Y58.4444
G01 X102.8603 Y58.5345
G01 X102.9229 Y58.6188
G01 X102.9934 Y58.6966
G01 X103.0712 Y58.7671
G01 X103.1555 Y58.8297
G01 X103.2456 Y58.8837
G01 X103.3405 Y58.9286
G01 X103.4394 Y58.9639
G01 X103.5413 Y58.9894
G01 X103.6451 Y59.0048
G01 X103.7500 Y59.0100
G01 X103.8549 Y59.0048
G01 X103.9587 Y58.9894
G01 X104.0606 Y58.9639
G01 X104.1595 Y58.9286
G01 X104.2544 Y58.8837
G01 X104.3445 Y58.8297
G01 X104.4288 Y58.7671
G01 X104.5066 Y58.6966
G01 X104.5771 Y58.6188
G01 X104.6397 Y58.5345
G01 X104.6937 Y58.4444
G01 X104.7386 Y58.3495
G01 X104.7739 Y58.2506
G01 X104.7994 Y58.1487
G01 X104.8148 Y58.0449
G01 X104.8200 Y57.9400
G00 Z2.0000
G00 X106.0000 Y65.0000
G01 F60.00
G01 Z-1.8000
G01 F60.00
G01 X105.9952 Y64.9020
G01 X105.9808 Y64.8049
G01 X105.9569 Y64.7097
G01 X105.9239 Y64.6173
G01 X105.8819 Y64.5286
G01 X105.8315 Y64.4444
G01 X105.7730 Y64.3656
G01 X105.7071 Y64.2929
G01 X105.6344 Y64.2270
G01 X105.5556 Y64.1685
G01 X105.4714 Y64.1181
G01 X105.3827 Y64.0761
G01 X105.2903 Y64.0431
G01 X105.1951 Y64.0192
G01 X105.0980 Y64.0048
G01 X105.0000 Y64.0000
G01 X104.9020 Y64.0048
G01 X104.8049 Y64.0192
G01 X104.7097 Y64.0431
G01 X104.6173 Y64.0761
G01 X104.5286 Y64.1181
G01 X104.4444 Y64.1685
G01 X104.3656 Y64.2270
G01 X104.2929 Y64.2929
G01 X104.2270 Y64.3656
G01 X104.1685 Y64.4444
G01 X104.1181 Y64.5286
G01 X104.0761 Y64.6173
G01 X104.0431 Y64.7097
G01 X104.0192 Y64.8049
G01 X104.0048 Y64.9020
G01 X104.0000 Y65.0000
G01 X104.0048 Y65.0980
G01 X104.0192 Y65.1951
G01 X104.0431 Y65.2903
G01 X104.0761 Y65.3827
G01 X104.1181 Y65.4714
G01 X104.1685 Y65.5556
G01 X104.2270 Y65.6344
G01 X104.2929 Y65.7071
G01 X104.3656 Y65.7730
G01 X104.4444 Y65.8315
G01 X104.5286 Y65.8819
G01 X104.6173 Y65.9239
G01 X104.7097 Y65.9569
G01 X104.8049 Y65.9808
G01 X104.9020 Y65.9952
G01 X105.0000 Y66.0000
G01 X105.0980 Y65.9952
G01 X105.1951 Y65.9808
G01 X105.2903 Y65.9569
G01 X105.3827 Y65.9239
G01 X105.4714 Y65.8819
G01 X105.5556 Y65.8315
G01 X105.6344 Y65.7730
G01 X105.7071 Y65.7071
G01 X105.7730 Y65.6344
G01 X105.8315 Y65.5556
G01 X105.8819 Y65.4714
G01 X105.9239 Y65.3827
G01 X105.9569 Y65.2903
G01 X105.9808 Y65.1951
G01 X105.9952 Y65.0980
G01 X106.0000 Y65.0000
G00 Z2.0000
G00 X89.2700 Y57.9000
G01 F60.00
G01 Z-1.8000
G01 F60.00
G01 X89.2648 Y57.7951
G01 X89.2494 Y57.6913
G01 X89.2239 Y57.5894
G01 X89.1886 Y57.4905
G01 X89.1437 Y57.3956
G01 X89.0897 Y57.3055
G01 X89.0271 Y57.2212
G01 X88.9566 Y57.1434
G01 X88.8788 Y57.0729
G01 X88.7945 Y57.0103
G01 X88.7044 Y56.9563
G01 X88.6095 Y56.9114
G01 X88.5106 Y56.8761
G01 X88.4087 Y56.8506
G01 X88.3049 Y56.8352
G01 X88.2000 Y56.8300
G01 X88.0951 Y56.8352
G01 X87.9913 Y56.8506
G01 X87.8894 Y56.8761
G01 X87.7905 Y56.9114
G01 X87.6956 Y56.9563
G01 X87.6055 Y57.0103
G01 X87.5212 Y57.0729
G01 X87.4434 Y57.1434
G01 X87.3729 Y57.2212
G01 X87.3103 Y57.3055
G01 X87.2563 Y57.3956
G01 X87.2114 Y57.4905
G01 X87.1761 Y57.5894
G01 X87.1506 Y57.6913
G01 X87.1352 Y57.7951
G01 X87.1300 Y57.9000
G01 X87.1352 Y58.0049
G01 X87.1506 Y58.1087
G01 X87.1761 Y58.2106
G01 X87.2114 Y58.3095
G01 X87.2563 Y58.4044
G01 X87.3103 Y58.4945
G01 X87.3729 Y58.5788
G01 X87.4434 Y58.6566
G01 X87.5212 Y58.7271
G01 X87.6055 Y58.7897
G01 X87.6956 Y58.8437
G01 X87.7905 Y58.8886
G01 X87.8894 Y58.9239
G01 X87.9913 Y58.9494
G01 X88.0951 Y58.9648
G01 X88.2000 Y58.9700
G01 X88.3049 Y58.9648
G01 X88.4087 Y58.9494
G01 X88.5106 Y58.9239
G01 X88.6095 Y58.8886
G01 X88.7044 Y58.8437
G01 X88.7945 Y58.7897
G01 X88.8788 Y58.7271
G01 X88.9566 Y58.6566
G01 X89.0271 Y58.5788
G01 X89.0897 Y58.4945
G01 X89.1437 Y58.4044
G01 X89.1886 Y58.3095
G01 X89.2239 Y58.2106
G01 X89.2494 Y58.1087
G01 X89.2648 Y58.0049
G01 X89.2700 Y57.9000
G00 Z2.0000
G00 X67.0290 Y29.5220
G01 F60.00
G01 Z-1.8000
G01 F60.00
G01 X67.0275 Y29.4916
G01 X67.0230 Y29.4615
G01 X67.0157 Y29.4320
G01 X67.0054 Y29.4034
G01 X66.9924 Y29.3759
G01 X66.9768 Y29.3498
G01 X66.9586 Y29.3253
G01 X66.9382 Y29.3028
G01 X66.9157 Y29.2824
G01 X66.8912 Y29.2642
G01 X66.8651 Y29.2486
G01 X66.8376 Y29.2356
G01 X66.8090 Y29.2253
G01 X66.7795 Y29.2180
G01 X66.7494 Y29.2135
G01 X66.7190 Y29.2120
G01 X66.6886 Y29.2135
G01 X66.6585 Y29.2180
G01 X66.6290 Y29.2253
G01 X66.6004 Y29.2356
G01 X66.5729 Y29.2486
G01 X66.5468 Y29.2642
G01 X66.5223 Y29.2824
G01 X66.4998 Y29.3028
G01 X66.4794 Y29.3253
G01 X66.4612 Y29.3498
G01 X66.4456 Y29.3759
G01 X66.4326 Y29.4034
G01 X66.4223 Y29.4320
G01 X66.4150 Y29.4615
G01 X66.4105 Y29.4916
G01 X66.4090 Y29.5220
G01 X66.4105 Y29.5524
G01 X66.4150 Y29.5825
G01 X66.4223 Y29.6120
G01 X66.4326 Y29.6406
G01 X66.4456 Y29.6681
G01 X66.4612 Y29.6942
G01 X66.4794 Y29.7187
G01 X66.4998 Y29.7412
G01 X66.5223 Y29.7616
G01 X66.5468 Y29.7798
G01 X66.5729 Y29.7954
G01 X66.6004 Y29.8084
G01 X66.6290 Y29.8187
G01 X66.6585 Y29.8260
G01 X66.6886 Y29.8305
G01 X66.7190 Y29.8320
G01 X66.7494 Y29.8305
G01 X66.7795 Y29.8260
G01 X66.8090 Y29.8187
G01 X66.8376 Y29.8084
G01 X66.8651 Y29.7954
G01 X66.8912 Y29.7798
G01 X66.9157 Y29.7616
G01 X66.9382 Y29.7412
G01 X66.9586 Y29.7187
G01 X66.9768 Y29.6942
G01 X66.9924 Y29.6681
G01 X67.0054 Y29.6406
G01 X67.0157 Y29.6120
G01 X67.0230 Y29.5825
G01 X67.0275 Y29.5524
G01 X67.0290 Y29.5220
G00 Z2.0000
G00 X71.8990 Y25.0500
G01 F60.00
G01 Z-1.8000
G01 F60.00
G01 X71.8942 Y24.9521
G01 X71.8798 Y24.8551
G01 X71.8560 Y24.7600
G01 X71.8230 Y24.6677
G01 X71.7810 Y24.5791
G01 X71.7306 Y24.4950
G01 X71.6722 Y24.4162
G01 X71.6064 Y24.3436
G01 X71.5338 Y24.2778
G01 X71.4550 Y24.2194
G01 X71.3709 Y24.1690
G01 X71.2823 Y24.1270
G01 X71.1900 Y24.0940
G01 X71.0949 Y24.0702
G01 X70.9979 Y24.0558
G01 X70.9000 Y24.0510
G01 X70.8021 Y24.0558
G01 X70.7051 Y24.0702
G01 X70.6100 Y24.0940
G01 X70.5177 Y24.1270
G01 X70.4291 Y24.1690
G01 X70.3450 Y24.2194
G01 X70.2662 Y24.2778
G01 X70.1936 Y24.3436
G01 X70.1278 Y24.4162
G01 X70.0694 Y24.4950
G01 X70.0190 Y24.5791
G01 X69.9770 Y24.6677
G01 X69.9440 Y24.7600
G01 X69.9202 Y24.8551
G01 X69.9058 Y24.9521
G01 X69.9010 Y25.0500
G01 X69.9058 Y25.1479
G01 X69.9202 Y25.2449
G01 X69.9440 Y25.3400
G01 X69.9770 Y25.4323
G01 X70.0190 Y25.5209
G01 X70.0694 Y25.6050
G01 X70.1278 Y25.6838
G01 X70.1936 Y25.7564
G01 X70.2662 Y25.8222
G01 X70.3450 Y25.8806
G01 X70.4291 Y25.9310
G01 X70.5177 Y25.9730
G01 X70.6100 Y26.0060
G01 X70.7051 Y26.0298
G01 X70.8021 Y26.0442
G01 X70.9000 Y26.0490
G01 X70.9979 Y26.0442
G01 X71.0949 Y26.0298
G01 X71.1900 Y26.0060
G01 X71.2823 Y25.9730
G01 X71.3709 Y25.9310
G01 X71.4550 Y25.8806
G01 X71.5338 Y25.8222
G01 X71.6064 Y25.7564
G01 X71.6722 Y25.6838
G01 X71.7306 Y25.6050
G01 X71.7810 Y25.5209
G01 X71.8230 Y25.4323
G01 X71.8560 Y25.3400
G01 X71.8798 Y25.2449
G01 X71.8942 Y25.1479
G01 X71.8990 Y25.0500
G00 Z2.0000
G00 X106.3890 Y22.1700
G01 F60.00
G01 Z-1.8000
G01 F60.00
G01 X106.3842 Y22.0721
G01 X106.3698 Y21.9751
G01 X106.3460 Y21.8800
G01 X106.3130 Y21.7877
G01 X106.2710 Y21.6991
G01 X106.2206 Y21.6150
G01 X106.1622 Y21.5362
G01 X106.0964 Y21.4636
G01 X106.0238 Y21.3978
G01 X105.9450 Y21.3394
G01 X105.8609 Y21.2890
G01 X105.7723 Y21.2470
G01 X105.6800 Y21.2140
G01 X105.5849 Y21.1902
G01 X105.4879 Y21.1758
G01 X105.3900 Y21.1710
G01 X105.2921 Y21.1758
G01 X105.1951 Y21.1902
G01 X105.1000 Y21.2140
G01 X105.0077 Y21.2470
G01 X104.9191 Y21.2890
G01 X104.8350 Y21.3394
G01 X104.7562 Y21.3978
G01 X104.6836 Y21.4636
G01 X104.6178 Y21.5362
G01 X104.5594 Y21.6150
G01 X104.5090 Y21.6991
G01 X104.4670 Y21.7877
G01 X104.4340 Y21.8800
G01 X104.4102 Y21.9751
G01 X104.3958 Y22.0721
G01 X104.3910 Y22.1700
G01 X104.3958 Y22.2679
G01 X104.4102 Y22.3649
G01 X104.4340 Y22.4600
G01 X104.4670 Y22.5523
G01 X104.5090 Y22.6409
G01 X104.5594 Y22.7250
G01 X104.6178 Y22.8038
G01 X104.6836 Y22.8764
G01 X104.7562 Y22.9422
G01 X104.8350 Y23.0006
G01 X104.9191 Y23.0510
G01 X105.0077 Y23.0930
G01 X105.1000 Y23.1260
G01 X105.1951 Y23.1498
G01 X105.2921 Y23.1642
G01 X105.3900 Y23.1690
G01 X105.4879 Y23.1642
G01 X105.5849 Y23.1498
G01 X105.6800 Y23.1260
G01 X105.7723 Y23.0930
G01 X105.8609 Y23.0510
G01 X105.9450 Y23.0006
G01 X106.0238 Y22.9422
G01 X106.0964 Y22.8764
G01 X106.1622 Y22.8038
G01 X106.2206 Y22.7250
G01 X106.2710 Y22.6409
G01 X106.3130 Y22.5523
G01 X106.3460 Y22.4600
G01 X106.3698 Y22.3649
G01 X106.3842 Y22.2679
G01 X106.3890 Y22.1700
G00 Z2.0000
G00 X106.0000 Y5.0000
G01 F60.00
G01 Z-1.8000
G01 F60.00
G01 X105.9952 Y4.9020
G01 X105.9808 Y4.8049
G01 X105.9569 Y4.7097
G01 X105.9239 Y4.6173
G01 X105.8819 Y4.5286
G01 X105.8315 Y4.4444
G01 X105.7730 Y4.3656
G01 X105.7071 Y4.2929
G01 X105.6344 Y4.2270
G01 X105.5556 Y4.1685
G01 X105.4714 Y4.1181
G01 X105.3827 Y4.0761
G01 X105.2903 Y4.0431
G01 X105.1951 Y4.0192
G01 X105.0980 Y4.0048
G01 X105.0000 Y4.0000
G01 X104.9020 Y4.0048
G01 X104.8049 Y4.0192
G01 X104.7097 Y4.0431
G01 X104.6173 Y4.0761
G01 X104.5286 Y4.1181
G01 X104.4444 Y4.1685
G01 X104.3656 Y4.2270
G01 X104.2929 Y4.2929
G01 X104.2270 Y4.3656
G01 X104.1685 Y4.4444
G01 X104.1181 Y4.5286
G01 X104.0761 Y4.6173
G01 X104.0431 Y4.7097
G01 X104.0192 Y4.8049
G01 X104.0048 Y4.9020
G01 X104.0000 Y5.0000
G01 X104.0048 Y5.0980
G01 X104.0192 Y5.1951
G01 X104.0431 Y5.2903
G01 X104.0761 Y5.3827
G01 X104.1181 Y5.4714
G01 X104.1685 Y5.5556
G01 X104.2270 Y5.6344
G01 X104.2929 Y5.7071
G01 X104.3656 Y5.7730
G01 X104.4444 Y5.8315
G01 X104.5286 Y5.8819
G01 X104.6173 Y5.9239
G01 X104.7097 Y5.9569
G01 X104.8049 Y5.9808
G01 X104.9020 Y5.9952
G01 X105.0000 Y6.0000
G01 X105.0980 Y5.9952
G01 X105.1951 Y5.9808
G01 X105.2903 Y5.9569
G01 X105.3827 Y5.9239
G01 X105.4714 Y5.8819
G01 X105.5556 Y5.8315
G01 X105.6344 Y5.7730
G01 X105.7071 Y5.7071
G01 X105.7730 Y5.6344
G01 X105.8315 Y5.5556
G01 X105.8819 Y5.4714
G01 X105.9239 Y5.3827
G01 X105.9569 Y5.2903
G01 X105.9808 Y5.1951
G01 X105.9952 Y5.0980
G01 X106.0000 Y5.0000
G00 Z2.0000
G00 X6.0000 Y65.0000
G01 F60.00
G01 Z-1.8000
G01 F60.00
G01 X5.9952 Y64.9020
G01 X5.9808 Y64.8049
G01 X5.9569 Y64.7097
G01 X5.9239 Y64.6173
G01 X5.8819 Y64.5286
G01 X5.8315 Y64.4444
G01 X5.7730 Y64.3656
G01 X5.7071 Y64.2929
G01 X5.6344 Y64.2270
G01 X5.5556 Y64.1685
G01 X5.4714 Y64.1181
G01 X5.3827 Y64.0761
G01 X5.2903 Y64.0431
G01 X5.1951 Y64.0192
G01 X5.0980 Y64.0048
G01 X5.0000 Y64.0000
G01 X4.9020 Y64.0048
G01 X4.8049 Y64.0192
G01 X4.7097 Y64.0431
G01 X4.6173 Y64.0761
G01 X4.5286 Y64.1181
G01 X4.4444 Y64.1685
G01 X4.3656 Y64.2270
G01 X4.2929 Y64.2929
G01 X4.2270 Y64.3656
G01 X4.1685 Y64.4444
G01 X4.1181 Y64.5286
G01 X4.0761 Y64.6173
G01 X4.0431 Y64.7097
G01 X4.0192 Y64.8049
G01 X4.0048 Y64.9020
G01 X4.0000 Y65.0000
G01 X4.0048 Y65.0980
G01 X4.0192 Y65.1951
G01 X4.0431 Y65.2903
G01 X4.0761 Y65.3827
G01 X4.1181 Y65.4714
G01 X4.1685 Y65.5556
G01 X4.2270 Y65.6344
G01 X4.2929 Y65.7071
G01 X4.3656 Y65.7730
G01 X4.4444 Y65.8315
G01 X4.5286 Y65.8819
G01 X4.6173 Y65.9239
G01 X4.7097 Y65.9569
G01 X4.8049 Y65.9808
G01 X4.9020 Y65.9952
G01 X5.0000 Y66.0000
G01 X5.0980 Y65.9952
G01 X5.1951 Y65.9808
G01 X5.2903 Y65.9569
G01 X5.3827 Y65.9239
G01 X5.4714 Y65.8819
G01 X5.5556 Y65.8315
G01 X5.6344 Y65.7730
G01 X5.7071 Y65.7071
G01 X5.7730 Y65.6344
G01 X5.8315 Y65.5556
G01 X5.8819 Y65.4714
G01 X5.9239 Y65.3827
G01 X5.9569 Y65.2903
G01 X5.9808 Y65.1951
G01 X5.9952 Y65.0980
G01 X6.0000 Y65.0000
G00 Z2.0000
M05
G00 Z2.0000
G00 Z15.00


