(G-CODE GENERATED BY FLATCAM v8.994 - www.flatcam.org - Version Date: 2020/11/7)

(Name: Sensorbox-NPTH.drl_mill_cnc)
(Type: G-code from Geometry)
(Units: MM)

(Created on Tuesday, 06 February 2024 at 13:19)

(This preprocessor is the default preprocessor used by FlatCAM.)
(It is made to work with MACH3 compatible motion controllers.)

(TOOL DIAMETER: 1.0 mm)
(Feedrate_XY: 80.0 mm/min)
(Feedrate_Z: 40.0 mm/min)
(Feedrate rapids 1500.0 mm/min)

(Z_Cut: -2.2 mm)
(DepthPerCut: 0.2 mm <=>11 passes)
(Z_Move: 2.0 mm)
(Z Start: None mm)
(Z End: 15.0 mm)
(X,Y End: None mm)
(Steps per circle: 64)
(Preprocessor Geometry: default)

(X range:    3.9000 ...  106.4890  mm)
(Y range:    3.9000 ...   66.1000  mm)

(Spindle Speed: 20000.0 RPM)
G21
G90
G94

G01 F80.00

M5
G00 Z15.0000
G00 X0.0000 Y0.0000
T1
M6    
(MSG, Change to Tool Dia = 1.0000)
M0
G00 Z15.0000

M03 S20000.0
G01 F80.00
G00 X6.1000 Y5.0000
G01 F40.00
G01 Z-0.2000
G01 F80.00
G01 X6.0947 Y4.8922
G01 X6.0789 Y4.7854
G01 X6.0526 Y4.6807
G01 X6.0163 Y4.5790
G01 X5.9701 Y4.4815
G01 X5.9146 Y4.3889
G01 X5.8503 Y4.3022
G01 X5.7778 Y4.2222
G01 X5.6978 Y4.1497
G01 X5.6111 Y4.0854
G01 X5.5185 Y4.0299
G01 X5.4210 Y3.9837
G01 X5.3193 Y3.9474
G01 X5.2146 Y3.9211
G01 X5.1078 Y3.9053
G01 X5.0000 Y3.9000
G01 X4.8922 Y3.9053
G01 X4.7854 Y3.9211
G01 X4.6807 Y3.9474
G01 X4.5790 Y3.9837
G01 X4.4815 Y4.0299
G01 X4.3889 Y4.0854
G01 X4.3022 Y4.1497
G01 X4.2222 Y4.2222
G01 X4.1497 Y4.3022
G01 X4.0854 Y4.3889
G01 X4.0299 Y4.4815
G01 X3.9837 Y4.5790
G01 X3.9474 Y4.6807
G01 X3.9211 Y4.7854
G01 X3.9053 Y4.8922
G01 X3.9000 Y5.0000
G01 X3.9053 Y5.1078
G01 X3.9211 Y5.2146
G01 X3.9474 Y5.3193
G01 X3.9837 Y5.4210
G01 X4.0299 Y5.5185
G01 X4.0854 Y5.6111
G01 X4.1497 Y5.6978
G01 X4.2222 Y5.7778
G01 X4.3022 Y5.8503
G01 X4.3889 Y5.9146
G01 X4.4815 Y5.9701
G01 X4.5790 Y6.0163
G01 X4.6807 Y6.0526
G01 X4.7854 Y6.0789
G01 X4.8922 Y6.0947
G01 X5.0000 Y6.1000
G01 X5.1078 Y6.0947
G01 X5.2146 Y6.0789
G01 X5.3193 Y6.0526
G01 X5.4210 Y6.0163
G01 X5.5185 Y5.9701
G01 X5.6111 Y5.9146
G01 X5.6978 Y5.8503
G01 X5.7778 Y5.7778
G01 X5.8503 Y5.6978
G01 X5.9146 Y5.6111
G01 X5.9701 Y5.5185
G01 X6.0163 Y5.4210
G01 X6.0526 Y5.3193
G01 X6.0789 Y5.2146
G01 X6.0947 Y5.1078
G01 X6.1000 Y5.0000
G00 X6.1000 Y5.0000
G01 F40.00
G01 Z-0.4000
G01 F80.00
G01 X6.0947 Y4.8922
G01 X6.0789 Y4.7854
G01 X6.0526 Y4.6807
G01 X6.0163 Y4.5790
G01 X5.9701 Y4.4815
G01 X5.9146 Y4.3889
G01 X5.8503 Y4.3022
G01 X5.7778 Y4.2222
G01 X5.6978 Y4.1497
G01 X5.6111 Y4.0854
G01 X5.5185 Y4.0299
G01 X5.4210 Y3.9837
G01 X5.3193 Y3.9474
G01 X5.2146 Y3.9211
G01 X5.1078 Y3.9053
G01 X5.0000 Y3.9000
G01 X4.8922 Y3.9053
G01 X4.7854 Y3.9211
G01 X4.6807 Y3.9474
G01 X4.5790 Y3.9837
G01 X4.4815 Y4.0299
G01 X4.3889 Y4.0854
G01 X4.3022 Y4.1497
G01 X4.2222 Y4.2222
G01 X4.1497 Y4.3022
G01 X4.0854 Y4.3889
G01 X4.0299 Y4.4815
G01 X3.9837 Y4.5790
G01 X3.9474 Y4.6807
G01 X3.9211 Y4.7854
G01 X3.9053 Y4.8922
G01 X3.9000 Y5.0000
G01 X3.9053 Y5.1078
G01 X3.9211 Y5.2146
G01 X3.9474 Y5.3193
G01 X3.9837 Y5.4210
G01 X4.0299 Y5.5185
G01 X4.0854 Y5.6111
G01 X4.1497 Y5.6978
G01 X4.2222 Y5.7778
G01 X4.3022 Y5.8503
G01 X4.3889 Y5.9146
G01 X4.4815 Y5.9701
G01 X4.5790 Y6.0163
G01 X4.6807 Y6.0526
G01 X4.7854 Y6.0789
G01 X4.8922 Y6.0947
G01 X5.0000 Y6.1000
G01 X5.1078 Y6.0947
G01 X5.2146 Y6.0789
G01 X5.3193 Y6.0526
G01 X5.4210 Y6.0163
G01 X5.5185 Y5.9701
G01 X5.6111 Y5.9146
G01 X5.6978 Y5.8503
G01 X5.7778 Y5.7778
G01 X5.8503 Y5.6978
G01 X5.9146 Y5.6111
G01 X5.9701 Y5.5185
G01 X6.0163 Y5.4210
G01 X6.0526 Y5.3193
G01 X6.0789 Y5.2146
G01 X6.0947 Y5.1078
G01 X6.1000 Y5.0000
G00 X6.1000 Y5.0000
G01 F40.00
G01 Z-0.6000
G01 F80.00
G01 X6.0947 Y4.8922
G01 X6.0789 Y4.7854
G01 X6.0526 Y4.6807
G01 X6.0163 Y4.5790
G01 X5.9701 Y4.4815
G01 X5.9146 Y4.3889
G01 X5.8503 Y4.3022
G01 X5.7778 Y4.2222
G01 X5.6978 Y4.1497
G01 X5.6111 Y4.0854
G01 X5.5185 Y4.0299
G01 X5.4210 Y3.9837
G01 X5.3193 Y3.9474
G01 X5.2146 Y3.9211
G01 X5.1078 Y3.9053
G01 X5.0000 Y3.9000
G01 X4.8922 Y3.9053
G01 X4.7854 Y3.9211
G01 X4.6807 Y3.9474
G01 X4.5790 Y3.9837
G01 X4.4815 Y4.0299
G01 X4.3889 Y4.0854
G01 X4.3022 Y4.1497
G01 X4.2222 Y4.2222
G01 X4.1497 Y4.3022
G01 X4.0854 Y4.3889
G01 X4.0299 Y4.4815
G01 X3.9837 Y4.5790
G01 X3.9474 Y4.6807
G01 X3.9211 Y4.7854
G01 X3.9053 Y4.8922
G01 X3.9000 Y5.0000
G01 X3.9053 Y5.1078
G01 X3.9211 Y5.2146
G01 X3.9474 Y5.3193
G01 X3.9837 Y5.4210
G01 X4.0299 Y5.5185
G01 X4.0854 Y5.6111
G01 X4.1497 Y5.6978
G01 X4.2222 Y5.7778
G01 X4.3022 Y5.8503
G01 X4.3889 Y5.9146
G01 X4.4815 Y5.9701
G01 X4.5790 Y6.0163
G01 X4.6807 Y6.0526
G01 X4.7854 Y6.0789
G01 X4.8922 Y6.0947
G01 X5.0000 Y6.1000
G01 X5.1078 Y6.0947
G01 X5.2146 Y6.0789
G01 X5.3193 Y6.0526
G01 X5.4210 Y6.0163
G01 X5.5185 Y5.9701
G01 X5.6111 Y5.9146
G01 X5.6978 Y5.8503
G01 X5.7778 Y5.7778
G01 X5.8503 Y5.6978
G01 X5.9146 Y5.6111
G01 X5.9701 Y5.5185
G01 X6.0163 Y5.4210
G01 X6.0526 Y5.3193
G01 X6.0789 Y5.2146
G01 X6.0947 Y5.1078
G01 X6.1000 Y5.0000
G00 X6.1000 Y5.0000
G01 F40.00
G01 Z-0.8000
G01 F80.00
G01 X6.0947 Y4.8922
G01 X6.0789 Y4.7854
G01 X6.0526 Y4.6807
G01 X6.0163 Y4.5790
G01 X5.9701 Y4.4815
G01 X5.9146 Y4.3889
G01 X5.8503 Y4.3022
G01 X5.7778 Y4.2222
G01 X5.6978 Y4.1497
G01 X5.6111 Y4.0854
G01 X5.5185 Y4.0299
G01 X5.4210 Y3.9837
G01 X5.3193 Y3.9474
G01 X5.2146 Y3.9211
G01 X5.1078 Y3.9053
G01 X5.0000 Y3.9000
G01 X4.8922 Y3.9053
G01 X4.7854 Y3.9211
G01 X4.6807 Y3.9474
G01 X4.5790 Y3.9837
G01 X4.4815 Y4.0299
G01 X4.3889 Y4.0854
G01 X4.3022 Y4.1497
G01 X4.2222 Y4.2222
G01 X4.1497 Y4.3022
G01 X4.0854 Y4.3889
G01 X4.0299 Y4.4815
G01 X3.9837 Y4.5790
G01 X3.9474 Y4.6807
G01 X3.9211 Y4.7854
G01 X3.9053 Y4.8922
G01 X3.9000 Y5.0000
G01 X3.9053 Y5.1078
G01 X3.9211 Y5.2146
G01 X3.9474 Y5.3193
G01 X3.9837 Y5.4210
G01 X4.0299 Y5.5185
G01 X4.0854 Y5.6111
G01 X4.1497 Y5.6978
G01 X4.2222 Y5.7778
G01 X4.3022 Y5.8503
G01 X4.3889 Y5.9146
G01 X4.4815 Y5.9701
G01 X4.5790 Y6.0163
G01 X4.6807 Y6.0526
G01 X4.7854 Y6.0789
G01 X4.8922 Y6.0947
G01 X5.0000 Y6.1000
G01 X5.1078 Y6.0947
G01 X5.2146 Y6.0789
G01 X5.3193 Y6.0526
G01 X5.4210 Y6.0163
G01 X5.5185 Y5.9701
G01 X5.6111 Y5.9146
G01 X5.6978 Y5.8503
G01 X5.7778 Y5.7778
G01 X5.8503 Y5.6978
G01 X5.9146 Y5.6111
G01 X5.9701 Y5.5185
G01 X6.0163 Y5.4210
G01 X6.0526 Y5.3193
G01 X6.0789 Y5.2146
G01 X6.0947 Y5.1078
G01 X6.1000 Y5.0000
G00 X6.1000 Y5.0000
G01 F40.00
G01 Z-1.0000
G01 F80.00
G01 X6.0947 Y4.8922
G01 X6.0789 Y4.7854
G01 X6.0526 Y4.6807
G01 X6.0163 Y4.5790
G01 X5.9701 Y4.4815
G01 X5.9146 Y4.3889
G01 X5.8503 Y4.3022
G01 X5.7778 Y4.2222
G01 X5.6978 Y4.1497
G01 X5.6111 Y4.0854
G01 X5.5185 Y4.0299
G01 X5.4210 Y3.9837
G01 X5.3193 Y3.9474
G01 X5.2146 Y3.9211
G01 X5.1078 Y3.9053
G01 X5.0000 Y3.9000
G01 X4.8922 Y3.9053
G01 X4.7854 Y3.9211
G01 X4.6807 Y3.9474
G01 X4.5790 Y3.9837
G01 X4.4815 Y4.0299
G01 X4.3889 Y4.0854
G01 X4.3022 Y4.1497
G01 X4.2222 Y4.2222
G01 X4.1497 Y4.3022
G01 X4.0854 Y4.3889
G01 X4.0299 Y4.4815
G01 X3.9837 Y4.5790
G01 X3.9474 Y4.6807
G01 X3.9211 Y4.7854
G01 X3.9053 Y4.8922
G01 X3.9000 Y5.0000
G01 X3.9053 Y5.1078
G01 X3.9211 Y5.2146
G01 X3.9474 Y5.3193
G01 X3.9837 Y5.4210
G01 X4.0299 Y5.5185
G01 X4.0854 Y5.6111
G01 X4.1497 Y5.6978
G01 X4.2222 Y5.7778
G01 X4.3022 Y5.8503
G01 X4.3889 Y5.9146
G01 X4.4815 Y5.9701
G01 X4.5790 Y6.0163
G01 X4.6807 Y6.0526
G01 X4.7854 Y6.0789
G01 X4.8922 Y6.0947
G01 X5.0000 Y6.1000
G01 X5.1078 Y6.0947
G01 X5.2146 Y6.0789
G01 X5.3193 Y6.0526
G01 X5.4210 Y6.0163
G01 X5.5185 Y5.9701
G01 X5.6111 Y5.9146
G01 X5.6978 Y5.8503
G01 X5.7778 Y5.7778
G01 X5.8503 Y5.6978
G01 X5.9146 Y5.6111
G01 X5.9701 Y5.5185
G01 X6.0163 Y5.4210
G01 X6.0526 Y5.3193
G01 X6.0789 Y5.2146
G01 X6.0947 Y5.1078
G01 X6.1000 Y5.0000
G00 X6.1000 Y5.0000
G01 F40.00
G01 Z-1.2000
G01 F80.00
G01 X6.0947 Y4.8922
G01 X6.0789 Y4.7854
G01 X6.0526 Y4.6807
G01 X6.0163 Y4.5790
G01 X5.9701 Y4.4815
G01 X5.9146 Y4.3889
G01 X5.8503 Y4.3022
G01 X5.7778 Y4.2222
G01 X5.6978 Y4.1497
G01 X5.6111 Y4.0854
G01 X5.5185 Y4.0299
G01 X5.4210 Y3.9837
G01 X5.3193 Y3.9474
G01 X5.2146 Y3.9211
G01 X5.1078 Y3.9053
G01 X5.0000 Y3.9000
G01 X4.8922 Y3.9053
G01 X4.7854 Y3.9211
G01 X4.6807 Y3.9474
G01 X4.5790 Y3.9837
G01 X4.4815 Y4.0299
G01 X4.3889 Y4.0854
G01 X4.3022 Y4.1497
G01 X4.2222 Y4.2222
G01 X4.1497 Y4.3022
G01 X4.0854 Y4.3889
G01 X4.0299 Y4.4815
G01 X3.9837 Y4.5790
G01 X3.9474 Y4.6807
G01 X3.9211 Y4.7854
G01 X3.9053 Y4.8922
G01 X3.9000 Y5.0000
G01 X3.9053 Y5.1078
G01 X3.9211 Y5.2146
G01 X3.9474 Y5.3193
G01 X3.9837 Y5.4210
G01 X4.0299 Y5.5185
G01 X4.0854 Y5.6111
G01 X4.1497 Y5.6978
G01 X4.2222 Y5.7778
G01 X4.3022 Y5.8503
G01 X4.3889 Y5.9146
G01 X4.4815 Y5.9701
G01 X4.5790 Y6.0163
G01 X4.6807 Y6.0526
G01 X4.7854 Y6.0789
G01 X4.8922 Y6.0947
G01 X5.0000 Y6.1000
G01 X5.1078 Y6.0947
G01 X5.2146 Y6.0789
G01 X5.3193 Y6.0526
G01 X5.4210 Y6.0163
G01 X5.5185 Y5.9701
G01 X5.6111 Y5.9146
G01 X5.6978 Y5.8503
G01 X5.7778 Y5.7778
G01 X5.8503 Y5.6978
G01 X5.9146 Y5.6111
G01 X5.9701 Y5.5185
G01 X6.0163 Y5.4210
G01 X6.0526 Y5.3193
G01 X6.0789 Y5.2146
G01 X6.0947 Y5.1078
G01 X6.1000 Y5.0000
G00 X6.1000 Y5.0000
G01 F40.00
G01 Z-1.4000
G01 F80.00
G01 X6.0947 Y4.8922
G01 X6.0789 Y4.7854
G01 X6.0526 Y4.6807
G01 X6.0163 Y4.5790
G01 X5.9701 Y4.4815
G01 X5.9146 Y4.3889
G01 X5.8503 Y4.3022
G01 X5.7778 Y4.2222
G01 X5.6978 Y4.1497
G01 X5.6111 Y4.0854
G01 X5.5185 Y4.0299
G01 X5.4210 Y3.9837
G01 X5.3193 Y3.9474
G01 X5.2146 Y3.9211
G01 X5.1078 Y3.9053
G01 X5.0000 Y3.9000
G01 X4.8922 Y3.9053
G01 X4.7854 Y3.9211
G01 X4.6807 Y3.9474
G01 X4.5790 Y3.9837
G01 X4.4815 Y4.0299
G01 X4.3889 Y4.0854
G01 X4.3022 Y4.1497
G01 X4.2222 Y4.2222
G01 X4.1497 Y4.3022
G01 X4.0854 Y4.3889
G01 X4.0299 Y4.4815
G01 X3.9837 Y4.5790
G01 X3.9474 Y4.6807
G01 X3.9211 Y4.7854
G01 X3.9053 Y4.8922
G01 X3.9000 Y5.0000
G01 X3.9053 Y5.1078
G01 X3.9211 Y5.2146
G01 X3.9474 Y5.3193
G01 X3.9837 Y5.4210
G01 X4.0299 Y5.5185
G01 X4.0854 Y5.6111
G01 X4.1497 Y5.6978
G01 X4.2222 Y5.7778
G01 X4.3022 Y5.8503
G01 X4.3889 Y5.9146
G01 X4.4815 Y5.9701
G01 X4.5790 Y6.0163
G01 X4.6807 Y6.0526
G01 X4.7854 Y6.0789
G01 X4.8922 Y6.0947
G01 X5.0000 Y6.1000
G01 X5.1078 Y6.0947
G01 X5.2146 Y6.0789
G01 X5.3193 Y6.0526
G01 X5.4210 Y6.0163
G01 X5.5185 Y5.9701
G01 X5.6111 Y5.9146
G01 X5.6978 Y5.8503
G01 X5.7778 Y5.7778
G01 X5.8503 Y5.6978
G01 X5.9146 Y5.6111
G01 X5.9701 Y5.5185
G01 X6.0163 Y5.4210
G01 X6.0526 Y5.3193
G01 X6.0789 Y5.2146
G01 X6.0947 Y5.1078
G01 X6.1000 Y5.0000
G00 X6.1000 Y5.0000
G01 F40.00
G01 Z-1.6000
G01 F80.00
G01 X6.0947 Y4.8922
G01 X6.0789 Y4.7854
G01 X6.0526 Y4.6807
G01 X6.0163 Y4.5790
G01 X5.9701 Y4.4815
G01 X5.9146 Y4.3889
G01 X5.8503 Y4.3022
G01 X5.7778 Y4.2222
G01 X5.6978 Y4.1497
G01 X5.6111 Y4.0854
G01 X5.5185 Y4.0299
G01 X5.4210 Y3.9837
G01 X5.3193 Y3.9474
G01 X5.2146 Y3.9211
G01 X5.1078 Y3.9053
G01 X5.0000 Y3.9000
G01 X4.8922 Y3.9053
G01 X4.7854 Y3.9211
G01 X4.6807 Y3.9474
G01 X4.5790 Y3.9837
G01 X4.4815 Y4.0299
G01 X4.3889 Y4.0854
G01 X4.3022 Y4.1497
G01 X4.2222 Y4.2222
G01 X4.1497 Y4.3022
G01 X4.0854 Y4.3889
G01 X4.0299 Y4.4815
G01 X3.9837 Y4.5790
G01 X3.9474 Y4.6807
G01 X3.9211 Y4.7854
G01 X3.9053 Y4.8922
G01 X3.9000 Y5.0000
G01 X3.9053 Y5.1078
G01 X3.9211 Y5.2146
G01 X3.9474 Y5.3193
G01 X3.9837 Y5.4210
G01 X4.0299 Y5.5185
G01 X4.0854 Y5.6111
G01 X4.1497 Y5.6978
G01 X4.2222 Y5.7778
G01 X4.3022 Y5.8503
G01 X4.3889 Y5.9146
G01 X4.4815 Y5.9701
G01 X4.5790 Y6.0163
G01 X4.6807 Y6.0526
G01 X4.7854 Y6.0789
G01 X4.8922 Y6.0947
G01 X5.0000 Y6.1000
G01 X5.1078 Y6.0947
G01 X5.2146 Y6.0789
G01 X5.3193 Y6.0526
G01 X5.4210 Y6.0163
G01 X5.5185 Y5.9701
G01 X5.6111 Y5.9146
G01 X5.6978 Y5.8503
G01 X5.7778 Y5.7778
G01 X5.8503 Y5.6978
G01 X5.9146 Y5.6111
G01 X5.9701 Y5.5185
G01 X6.0163 Y5.4210
G01 X6.0526 Y5.3193
G01 X6.0789 Y5.2146
G01 X6.0947 Y5.1078
G01 X6.1000 Y5.0000
G00 X6.1000 Y5.0000
G01 F40.00
G01 Z-1.8000
G01 F80.00
G01 X6.0947 Y4.8922
G01 X6.0789 Y4.7854
G01 X6.0526 Y4.6807
G01 X6.0163 Y4.5790
G01 X5.9701 Y4.4815
G01 X5.9146 Y4.3889
G01 X5.8503 Y4.3022
G01 X5.7778 Y4.2222
G01 X5.6978 Y4.1497
G01 X5.6111 Y4.0854
G01 X5.5185 Y4.0299
G01 X5.4210 Y3.9837
G01 X5.3193 Y3.9474
G01 X5.2146 Y3.9211
G01 X5.1078 Y3.9053
G01 X5.0000 Y3.9000
G01 X4.8922 Y3.9053
G01 X4.7854 Y3.9211
G01 X4.6807 Y3.9474
G01 X4.5790 Y3.9837
G01 X4.4815 Y4.0299
G01 X4.3889 Y4.0854
G01 X4.3022 Y4.1497
G01 X4.2222 Y4.2222
G01 X4.1497 Y4.3022
G01 X4.0854 Y4.3889
G01 X4.0299 Y4.4815
G01 X3.9837 Y4.5790
G01 X3.9474 Y4.6807
G01 X3.9211 Y4.7854
G01 X3.9053 Y4.8922
G01 X3.9000 Y5.0000
G01 X3.9053 Y5.1078
G01 X3.9211 Y5.2146
G01 X3.9474 Y5.3193
G01 X3.9837 Y5.4210
G01 X4.0299 Y5.5185
G01 X4.0854 Y5.6111
G01 X4.1497 Y5.6978
G01 X4.2222 Y5.7778
G01 X4.3022 Y5.8503
G01 X4.3889 Y5.9146
G01 X4.4815 Y5.9701
G01 X4.5790 Y6.0163
G01 X4.6807 Y6.0526
G01 X4.7854 Y6.0789
G01 X4.8922 Y6.0947
G01 X5.0000 Y6.1000
G01 X5.1078 Y6.0947
G01 X5.2146 Y6.0789
G01 X5.3193 Y6.0526
G01 X5.4210 Y6.0163
G01 X5.5185 Y5.9701
G01 X5.6111 Y5.9146
G01 X5.6978 Y5.8503
G01 X5.7778 Y5.7778
G01 X5.8503 Y5.6978
G01 X5.9146 Y5.6111
G01 X5.9701 Y5.5185
G01 X6.0163 Y5.4210
G01 X6.0526 Y5.3193
G01 X6.0789 Y5.2146
G01 X6.0947 Y5.1078
G01 X6.1000 Y5.0000
G00 X6.1000 Y5.0000
G01 F40.00
G01 Z-2.0000
G01 F80.00
G01 X6.0947 Y4.8922
G01 X6.0789 Y4.7854
G01 X6.0526 Y4.6807
G01 X6.0163 Y4.5790
G01 X5.9701 Y4.4815
G01 X5.9146 Y4.3889
G01 X5.8503 Y4.3022
G01 X5.7778 Y4.2222
G01 X5.6978 Y4.1497
G01 X5.6111 Y4.0854
G01 X5.5185 Y4.0299
G01 X5.4210 Y3.9837
G01 X5.3193 Y3.9474
G01 X5.2146 Y3.9211
G01 X5.1078 Y3.9053
G01 X5.0000 Y3.9000
G01 X4.8922 Y3.9053
G01 X4.7854 Y3.9211
G01 X4.6807 Y3.9474
G01 X4.5790 Y3.9837
G01 X4.4815 Y4.0299
G01 X4.3889 Y4.0854
G01 X4.3022 Y4.1497
G01 X4.2222 Y4.2222
G01 X4.1497 Y4.3022
G01 X4.0854 Y4.3889
G01 X4.0299 Y4.4815
G01 X3.9837 Y4.5790
G01 X3.9474 Y4.6807
G01 X3.9211 Y4.7854
G01 X3.9053 Y4.8922
G01 X3.9000 Y5.0000
G01 X3.9053 Y5.1078
G01 X3.9211 Y5.2146
G01 X3.9474 Y5.3193
G01 X3.9837 Y5.4210
G01 X4.0299 Y5.5185
G01 X4.0854 Y5.6111
G01 X4.1497 Y5.6978
G01 X4.2222 Y5.7778
G01 X4.3022 Y5.8503
G01 X4.3889 Y5.9146
G01 X4.4815 Y5.9701
G01 X4.5790 Y6.0163
G01 X4.6807 Y6.0526
G01 X4.7854 Y6.0789
G01 X4.8922 Y6.0947
G01 X5.0000 Y6.1000
G01 X5.1078 Y6.0947
G01 X5.2146 Y6.0789
G01 X5.3193 Y6.0526
G01 X5.4210 Y6.0163
G01 X5.5185 Y5.9701
G01 X5.6111 Y5.9146
G01 X5.6978 Y5.8503
G01 X5.7778 Y5.7778
G01 X5.8503 Y5.6978
G01 X5.9146 Y5.6111
G01 X5.9701 Y5.5185
G01 X6.0163 Y5.4210
G01 X6.0526 Y5.3193
G01 X6.0789 Y5.2146
G01 X6.0947 Y5.1078
G01 X6.1000 Y5.0000
G00 X6.1000 Y5.0000
G01 F40.00
G01 Z-2.2000
G01 F80.00
G01 X6.0947 Y4.8922
G01 X6.0789 Y4.7854
G01 X6.0526 Y4.6807
G01 X6.0163 Y4.5790
G01 X5.9701 Y4.4815
G01 X5.9146 Y4.3889
G01 X5.8503 Y4.3022
G01 X5.7778 Y4.2222
G01 X5.6978 Y4.1497
G01 X5.6111 Y4.0854
G01 X5.5185 Y4.0299
G01 X5.4210 Y3.9837
G01 X5.3193 Y3.9474
G01 X5.2146 Y3.9211
G01 X5.1078 Y3.9053
G01 X5.0000 Y3.9000
G01 X4.8922 Y3.9053
G01 X4.7854 Y3.9211
G01 X4.6807 Y3.9474
G01 X4.5790 Y3.9837
G01 X4.4815 Y4.0299
G01 X4.3889 Y4.0854
G01 X4.3022 Y4.1497
G01 X4.2222 Y4.2222
G01 X4.1497 Y4.3022
G01 X4.0854 Y4.3889
G01 X4.0299 Y4.4815
G01 X3.9837 Y4.5790
G01 X3.9474 Y4.6807
G01 X3.9211 Y4.7854
G01 X3.9053 Y4.8922
G01 X3.9000 Y5.0000
G01 X3.9053 Y5.1078
G01 X3.9211 Y5.2146
G01 X3.9474 Y5.3193
G01 X3.9837 Y5.4210
G01 X4.0299 Y5.5185
G01 X4.0854 Y5.6111
G01 X4.1497 Y5.6978
G01 X4.2222 Y5.7778
G01 X4.3022 Y5.8503
G01 X4.3889 Y5.9146
G01 X4.4815 Y5.9701
G01 X4.5790 Y6.0163
G01 X4.6807 Y6.0526
G01 X4.7854 Y6.0789
G01 X4.8922 Y6.0947
G01 X5.0000 Y6.1000
G01 X5.1078 Y6.0947
G01 X5.2146 Y6.0789
G01 X5.3193 Y6.0526
G01 X5.4210 Y6.0163
G01 X5.5185 Y5.9701
G01 X5.6111 Y5.9146
G01 X5.6978 Y5.8503
G01 X5.7778 Y5.7778
G01 X5.8503 Y5.6978
G01 X5.9146 Y5.6111
G01 X5.9701 Y5.5185
G01 X6.0163 Y5.4210
G01 X6.0526 Y5.3193
G01 X6.0789 Y5.2146
G01 X6.0947 Y5.1078
G01 X6.1000 Y5.0000
G00 Z2.0000
G00 X49.0190 Y25.7980
G01 F40.00
G01 Z-0.2000
G01 F80.00
G01 X49.0170 Y25.7578
G01 X49.0111 Y25.7180
G01 X49.0013 Y25.6790
G01 X48.9878 Y25.6411
G01 X48.9706 Y25.6047
G01 X48.9499 Y25.5702
G01 X48.9259 Y25.5379
G01 X48.8989 Y25.5081
G01 X48.8691 Y25.4811
G01 X48.8368 Y25.4571
G01 X48.8023 Y25.4364
G01 X48.7659 Y25.4192
G01 X48.7280 Y25.4057
G01 X48.6890 Y25.3959
G01 X48.6492 Y25.3900
G01 X48.6090 Y25.3880
G01 X48.5688 Y25.3900
G01 X48.5290 Y25.3959
G01 X48.4900 Y25.4057
G01 X48.4521 Y25.4192
G01 X48.4157 Y25.4364
G01 X48.3812 Y25.4571
G01 X48.3489 Y25.4811
G01 X48.3191 Y25.5081
G01 X48.2921 Y25.5379
G01 X48.2681 Y25.5702
G01 X48.2474 Y25.6047
G01 X48.2302 Y25.6411
G01 X48.2167 Y25.6790
G01 X48.2069 Y25.7180
G01 X48.2010 Y25.7578
G01 X48.1990 Y25.7980
G01 X48.2010 Y25.8382
G01 X48.2069 Y25.8780
G01 X48.2167 Y25.9170
G01 X48.2302 Y25.9549
G01 X48.2474 Y25.9913
G01 X48.2681 Y26.0258
G01 X48.2921 Y26.0581
G01 X48.3191 Y26.0879
G01 X48.3489 Y26.1149
G01 X48.3812 Y26.1389
G01 X48.4157 Y26.1596
G01 X48.4521 Y26.1768
G01 X48.4900 Y26.1903
G01 X48.5290 Y26.2001
G01 X48.5688 Y26.2060
G01 X48.6090 Y26.2080
G01 X48.6492 Y26.2060
G01 X48.6890 Y26.2001
G01 X48.7280 Y26.1903
G01 X48.7659 Y26.1768
G01 X48.8023 Y26.1596
G01 X48.8368 Y26.1389
G01 X48.8691 Y26.1149
G01 X48.8989 Y26.0879
G01 X48.9259 Y26.0581
G01 X48.9499 Y26.0258
G01 X48.9706 Y25.9913
G01 X48.9878 Y25.9549
G01 X49.0013 Y25.9170
G01 X49.0111 Y25.8780
G01 X49.0170 Y25.8382
G01 X49.0190 Y25.7980
G00 X49.0190 Y25.7980
G01 F40.00
G01 Z-0.4000
G01 F80.00
G01 X49.0170 Y25.7578
G01 X49.0111 Y25.7180
G01 X49.0013 Y25.6790
G01 X48.9878 Y25.6411
G01 X48.9706 Y25.6047
G01 X48.9499 Y25.5702
G01 X48.9259 Y25.5379
G01 X48.8989 Y25.5081
G01 X48.8691 Y25.4811
G01 X48.8368 Y25.4571
G01 X48.8023 Y25.4364
G01 X48.7659 Y25.4192
G01 X48.7280 Y25.4057
G01 X48.6890 Y25.3959
G01 X48.6492 Y25.3900
G01 X48.6090 Y25.3880
G01 X48.5688 Y25.3900
G01 X48.5290 Y25.3959
G01 X48.4900 Y25.4057
G01 X48.4521 Y25.4192
G01 X48.4157 Y25.4364
G01 X48.3812 Y25.4571
G01 X48.3489 Y25.4811
G01 X48.3191 Y25.5081
G01 X48.2921 Y25.5379
G01 X48.2681 Y25.5702
G01 X48.2474 Y25.6047
G01 X48.2302 Y25.6411
G01 X48.2167 Y25.6790
G01 X48.2069 Y25.7180
G01 X48.2010 Y25.7578
G01 X48.1990 Y25.7980
G01 X48.2010 Y25.8382
G01 X48.2069 Y25.8780
G01 X48.2167 Y25.9170
G01 X48.2302 Y25.9549
G01 X48.2474 Y25.9913
G01 X48.2681 Y26.0258
G01 X48.2921 Y26.0581
G01 X48.3191 Y26.0879
G01 X48.3489 Y26.1149
G01 X48.3812 Y26.1389
G01 X48.4157 Y26.1596
G01 X48.4521 Y26.1768
G01 X48.4900 Y26.1903
G01 X48.5290 Y26.2001
G01 X48.5688 Y26.2060
G01 X48.6090 Y26.2080
G01 X48.6492 Y26.2060
G01 X48.6890 Y26.2001
G01 X48.7280 Y26.1903
G01 X48.7659 Y26.1768
G01 X48.8023 Y26.1596
G01 X48.8368 Y26.1389
G01 X48.8691 Y26.1149
G01 X48.8989 Y26.0879
G01 X48.9259 Y26.0581
G01 X48.9499 Y26.0258
G01 X48.9706 Y25.9913
G01 X48.9878 Y25.9549
G01 X49.0013 Y25.9170
G01 X49.0111 Y25.8780
G01 X49.0170 Y25.8382
G01 X49.0190 Y25.7980
G00 X49.0190 Y25.7980
G01 F40.00
G01 Z-0.6000
G01 F80.00
G01 X49.0170 Y25.7578
G01 X49.0111 Y25.7180
G01 X49.0013 Y25.6790
G01 X48.9878 Y25.6411
G01 X48.9706 Y25.6047
G01 X48.9499 Y25.5702
G01 X48.9259 Y25.5379
G01 X48.8989 Y25.5081
G01 X48.8691 Y25.4811
G01 X48.8368 Y25.4571
G01 X48.8023 Y25.4364
G01 X48.7659 Y25.4192
G01 X48.7280 Y25.4057
G01 X48.6890 Y25.3959
G01 X48.6492 Y25.3900
G01 X48.6090 Y25.3880
G01 X48.5688 Y25.3900
G01 X48.5290 Y25.3959
G01 X48.4900 Y25.4057
G01 X48.4521 Y25.4192
G01 X48.4157 Y25.4364
G01 X48.3812 Y25.4571
G01 X48.3489 Y25.4811
G01 X48.3191 Y25.5081
G01 X48.2921 Y25.5379
G01 X48.2681 Y25.5702
G01 X48.2474 Y25.6047
G01 X48.2302 Y25.6411
G01 X48.2167 Y25.6790
G01 X48.2069 Y25.7180
G01 X48.2010 Y25.7578
G01 X48.1990 Y25.7980
G01 X48.2010 Y25.8382
G01 X48.2069 Y25.8780
G01 X48.2167 Y25.9170
G01 X48.2302 Y25.9549
G01 X48.2474 Y25.9913
G01 X48.2681 Y26.0258
G01 X48.2921 Y26.0581
G01 X48.3191 Y26.0879
G01 X48.3489 Y26.1149
G01 X48.3812 Y26.1389
G01 X48.4157 Y26.1596
G01 X48.4521 Y26.1768
G01 X48.4900 Y26.1903
G01 X48.5290 Y26.2001
G01 X48.5688 Y26.2060
G01 X48.6090 Y26.2080
G01 X48.6492 Y26.2060
G01 X48.6890 Y26.2001
G01 X48.7280 Y26.1903
G01 X48.7659 Y26.1768
G01 X48.8023 Y26.1596
G01 X48.8368 Y26.1389
G01 X48.8691 Y26.1149
G01 X48.8989 Y26.0879
G01 X48.9259 Y26.0581
G01 X48.9499 Y26.0258
G01 X48.9706 Y25.9913
G01 X48.9878 Y25.9549
G01 X49.0013 Y25.9170
G01 X49.0111 Y25.8780
G01 X49.0170 Y25.8382
G01 X49.0190 Y25.7980
G00 X49.0190 Y25.7980
G01 F40.00
G01 Z-0.8000
G01 F80.00
G01 X49.0170 Y25.7578
G01 X49.0111 Y25.7180
G01 X49.0013 Y25.6790
G01 X48.9878 Y25.6411
G01 X48.9706 Y25.6047
G01 X48.9499 Y25.5702
G01 X48.9259 Y25.5379
G01 X48.8989 Y25.5081
G01 X48.8691 Y25.4811
G01 X48.8368 Y25.4571
G01 X48.8023 Y25.4364
G01 X48.7659 Y25.4192
G01 X48.7280 Y25.4057
G01 X48.6890 Y25.3959
G01 X48.6492 Y25.3900
G01 X48.6090 Y25.3880
G01 X48.5688 Y25.3900
G01 X48.5290 Y25.3959
G01 X48.4900 Y25.4057
G01 X48.4521 Y25.4192
G01 X48.4157 Y25.4364
G01 X48.3812 Y25.4571
G01 X48.3489 Y25.4811
G01 X48.3191 Y25.5081
G01 X48.2921 Y25.5379
G01 X48.2681 Y25.5702
G01 X48.2474 Y25.6047
G01 X48.2302 Y25.6411
G01 X48.2167 Y25.6790
G01 X48.2069 Y25.7180
G01 X48.2010 Y25.7578
G01 X48.1990 Y25.7980
G01 X48.2010 Y25.8382
G01 X48.2069 Y25.8780
G01 X48.2167 Y25.9170
G01 X48.2302 Y25.9549
G01 X48.2474 Y25.9913
G01 X48.2681 Y26.0258
G01 X48.2921 Y26.0581
G01 X48.3191 Y26.0879
G01 X48.3489 Y26.1149
G01 X48.3812 Y26.1389
G01 X48.4157 Y26.1596
G01 X48.4521 Y26.1768
G01 X48.4900 Y26.1903
G01 X48.5290 Y26.2001
G01 X48.5688 Y26.2060
G01 X48.6090 Y26.2080
G01 X48.6492 Y26.2060
G01 X48.6890 Y26.2001
G01 X48.7280 Y26.1903
G01 X48.7659 Y26.1768
G01 X48.8023 Y26.1596
G01 X48.8368 Y26.1389
G01 X48.8691 Y26.1149
G01 X48.8989 Y26.0879
G01 X48.9259 Y26.0581
G01 X48.9499 Y26.0258
G01 X48.9706 Y25.9913
G01 X48.9878 Y25.9549
G01 X49.0013 Y25.9170
G01 X49.0111 Y25.8780
G01 X49.0170 Y25.8382
G01 X49.0190 Y25.7980
G00 X49.0190 Y25.7980
G01 F40.00
G01 Z-1.0000
G01 F80.00
G01 X49.0170 Y25.7578
G01 X49.0111 Y25.7180
G01 X49.0013 Y25.6790
G01 X48.9878 Y25.6411
G01 X48.9706 Y25.6047
G01 X48.9499 Y25.5702
G01 X48.9259 Y25.5379
G01 X48.8989 Y25.5081
G01 X48.8691 Y25.4811
G01 X48.8368 Y25.4571
G01 X48.8023 Y25.4364
G01 X48.7659 Y25.4192
G01 X48.7280 Y25.4057
G01 X48.6890 Y25.3959
G01 X48.6492 Y25.3900
G01 X48.6090 Y25.3880
G01 X48.5688 Y25.3900
G01 X48.5290 Y25.3959
G01 X48.4900 Y25.4057
G01 X48.4521 Y25.4192
G01 X48.4157 Y25.4364
G01 X48.3812 Y25.4571
G01 X48.3489 Y25.4811
G01 X48.3191 Y25.5081
G01 X48.2921 Y25.5379
G01 X48.2681 Y25.5702
G01 X48.2474 Y25.6047
G01 X48.2302 Y25.6411
G01 X48.2167 Y25.6790
G01 X48.2069 Y25.7180
G01 X48.2010 Y25.7578
G01 X48.1990 Y25.7980
G01 X48.2010 Y25.8382
G01 X48.2069 Y25.8780
G01 X48.2167 Y25.9170
G01 X48.2302 Y25.9549
G01 X48.2474 Y25.9913
G01 X48.2681 Y26.0258
G01 X48.2921 Y26.0581
G01 X48.3191 Y26.0879
G01 X48.3489 Y26.1149
G01 X48.3812 Y26.1389
G01 X48.4157 Y26.1596
G01 X48.4521 Y26.1768
G01 X48.4900 Y26.1903
G01 X48.5290 Y26.2001
G01 X48.5688 Y26.2060
G01 X48.6090 Y26.2080
G01 X48.6492 Y26.2060
G01 X48.6890 Y26.2001
G01 X48.7280 Y26.1903
G01 X48.7659 Y26.1768
G01 X48.8023 Y26.1596
G01 X48.8368 Y26.1389
G01 X48.8691 Y26.1149
G01 X48.8989 Y26.0879
G01 X48.9259 Y26.0581
G01 X48.9499 Y26.0258
G01 X48.9706 Y25.9913
G01 X48.9878 Y25.9549
G01 X49.0013 Y25.9170
G01 X49.0111 Y25.8780
G01 X49.0170 Y25.8382
G01 X49.0190 Y25.7980
G00 X49.0190 Y25.7980
G01 F40.00
G01 Z-1.2000
G01 F80.00
G01 X49.0170 Y25.7578
G01 X49.0111 Y25.7180
G01 X49.0013 Y25.6790
G01 X48.9878 Y25.6411
G01 X48.9706 Y25.6047
G01 X48.9499 Y25.5702
G01 X48.9259 Y25.5379
G01 X48.8989 Y25.5081
G01 X48.8691 Y25.4811
G01 X48.8368 Y25.4571
G01 X48.8023 Y25.4364
G01 X48.7659 Y25.4192
G01 X48.7280 Y25.4057
G01 X48.6890 Y25.3959
G01 X48.6492 Y25.3900
G01 X48.6090 Y25.3880
G01 X48.5688 Y25.3900
G01 X48.5290 Y25.3959
G01 X48.4900 Y25.4057
G01 X48.4521 Y25.4192
G01 X48.4157 Y25.4364
G01 X48.3812 Y25.4571
G01 X48.3489 Y25.4811
G01 X48.3191 Y25.5081
G01 X48.2921 Y25.5379
G01 X48.2681 Y25.5702
G01 X48.2474 Y25.6047
G01 X48.2302 Y25.6411
G01 X48.2167 Y25.6790
G01 X48.2069 Y25.7180
G01 X48.2010 Y25.7578
G01 X48.1990 Y25.7980
G01 X48.2010 Y25.8382
G01 X48.2069 Y25.8780
G01 X48.2167 Y25.9170
G01 X48.2302 Y25.9549
G01 X48.2474 Y25.9913
G01 X48.2681 Y26.0258
G01 X48.2921 Y26.0581
G01 X48.3191 Y26.0879
G01 X48.3489 Y26.1149
G01 X48.3812 Y26.1389
G01 X48.4157 Y26.1596
G01 X48.4521 Y26.1768
G01 X48.4900 Y26.1903
G01 X48.5290 Y26.2001
G01 X48.5688 Y26.2060
G01 X48.6090 Y26.2080
G01 X48.6492 Y26.2060
G01 X48.6890 Y26.2001
G01 X48.7280 Y26.1903
G01 X48.7659 Y26.1768
G01 X48.8023 Y26.1596
G01 X48.8368 Y26.1389
G01 X48.8691 Y26.1149
G01 X48.8989 Y26.0879
G01 X48.9259 Y26.0581
G01 X48.9499 Y26.0258
G01 X48.9706 Y25.9913
G01 X48.9878 Y25.9549
G01 X49.0013 Y25.9170
G01 X49.0111 Y25.8780
G01 X49.0170 Y25.8382
G01 X49.0190 Y25.7980
G00 X49.0190 Y25.7980
G01 F40.00
G01 Z-1.4000
G01 F80.00
G01 X49.0170 Y25.7578
G01 X49.0111 Y25.7180
G01 X49.0013 Y25.6790
G01 X48.9878 Y25.6411
G01 X48.9706 Y25.6047
G01 X48.9499 Y25.5702
G01 X48.9259 Y25.5379
G01 X48.8989 Y25.5081
G01 X48.8691 Y25.4811
G01 X48.8368 Y25.4571
G01 X48.8023 Y25.4364
G01 X48.7659 Y25.4192
G01 X48.7280 Y25.4057
G01 X48.6890 Y25.3959
G01 X48.6492 Y25.3900
G01 X48.6090 Y25.3880
G01 X48.5688 Y25.3900
G01 X48.5290 Y25.3959
G01 X48.4900 Y25.4057
G01 X48.4521 Y25.4192
G01 X48.4157 Y25.4364
G01 X48.3812 Y25.4571
G01 X48.3489 Y25.4811
G01 X48.3191 Y25.5081
G01 X48.2921 Y25.5379
G01 X48.2681 Y25.5702
G01 X48.2474 Y25.6047
G01 X48.2302 Y25.6411
G01 X48.2167 Y25.6790
G01 X48.2069 Y25.7180
G01 X48.2010 Y25.7578
G01 X48.1990 Y25.7980
G01 X48.2010 Y25.8382
G01 X48.2069 Y25.8780
G01 X48.2167 Y25.9170
G01 X48.2302 Y25.9549
G01 X48.2474 Y25.9913
G01 X48.2681 Y26.0258
G01 X48.2921 Y26.0581
G01 X48.3191 Y26.0879
G01 X48.3489 Y26.1149
G01 X48.3812 Y26.1389
G01 X48.4157 Y26.1596
G01 X48.4521 Y26.1768
G01 X48.4900 Y26.1903
G01 X48.5290 Y26.2001
G01 X48.5688 Y26.2060
G01 X48.6090 Y26.2080
G01 X48.6492 Y26.2060
G01 X48.6890 Y26.2001
G01 X48.7280 Y26.1903
G01 X48.7659 Y26.1768
G01 X48.8023 Y26.1596
G01 X48.8368 Y26.1389
G01 X48.8691 Y26.1149
G01 X48.8989 Y26.0879
G01 X48.9259 Y26.0581
G01 X48.9499 Y26.0258
G01 X48.9706 Y25.9913
G01 X48.9878 Y25.9549
G01 X49.0013 Y25.9170
G01 X49.0111 Y25.8780
G01 X49.0170 Y25.8382
G01 X49.0190 Y25.7980
G00 X49.0190 Y25.7980
G01 F40.00
G01 Z-1.6000
G01 F80.00
G01 X49.0170 Y25.7578
G01 X49.0111 Y25.7180
G01 X49.0013 Y25.6790
G01 X48.9878 Y25.6411
G01 X48.9706 Y25.6047
G01 X48.9499 Y25.5702
G01 X48.9259 Y25.5379
G01 X48.8989 Y25.5081
G01 X48.8691 Y25.4811
G01 X48.8368 Y25.4571
G01 X48.8023 Y25.4364
G01 X48.7659 Y25.4192
G01 X48.7280 Y25.4057
G01 X48.6890 Y25.3959
G01 X48.6492 Y25.3900
G01 X48.6090 Y25.3880
G01 X48.5688 Y25.3900
G01 X48.5290 Y25.3959
G01 X48.4900 Y25.4057
G01 X48.4521 Y25.4192
G01 X48.4157 Y25.4364
G01 X48.3812 Y25.4571
G01 X48.3489 Y25.4811
G01 X48.3191 Y25.5081
G01 X48.2921 Y25.5379
G01 X48.2681 Y25.5702
G01 X48.2474 Y25.6047
G01 X48.2302 Y25.6411
G01 X48.2167 Y25.6790
G01 X48.2069 Y25.7180
G01 X48.2010 Y25.7578
G01 X48.1990 Y25.7980
G01 X48.2010 Y25.8382
G01 X48.2069 Y25.8780
G01 X48.2167 Y25.9170
G01 X48.2302 Y25.9549
G01 X48.2474 Y25.9913
G01 X48.2681 Y26.0258
G01 X48.2921 Y26.0581
G01 X48.3191 Y26.0879
G01 X48.3489 Y26.1149
G01 X48.3812 Y26.1389
G01 X48.4157 Y26.1596
G01 X48.4521 Y26.1768
G01 X48.4900 Y26.1903
G01 X48.5290 Y26.2001
G01 X48.5688 Y26.2060
G01 X48.6090 Y26.2080
G01 X48.6492 Y26.2060
G01 X48.6890 Y26.2001
G01 X48.7280 Y26.1903
G01 X48.7659 Y26.1768
G01 X48.8023 Y26.1596
G01 X48.8368 Y26.1389
G01 X48.8691 Y26.1149
G01 X48.8989 Y26.0879
G01 X48.9259 Y26.0581
G01 X48.9499 Y26.0258
G01 X48.9706 Y25.9913
G01 X48.9878 Y25.9549
G01 X49.0013 Y25.9170
G01 X49.0111 Y25.8780
G01 X49.0170 Y25.8382
G01 X49.0190 Y25.7980
G00 X49.0190 Y25.7980
G01 F40.00
G01 Z-1.8000
G01 F80.00
G01 X49.0170 Y25.7578
G01 X49.0111 Y25.7180
G01 X49.0013 Y25.6790
G01 X48.9878 Y25.6411
G01 X48.9706 Y25.6047
G01 X48.9499 Y25.5702
G01 X48.9259 Y25.5379
G01 X48.8989 Y25.5081
G01 X48.8691 Y25.4811
G01 X48.8368 Y25.4571
G01 X48.8023 Y25.4364
G01 X48.7659 Y25.4192
G01 X48.7280 Y25.4057
G01 X48.6890 Y25.3959
G01 X48.6492 Y25.3900
G01 X48.6090 Y25.3880
G01 X48.5688 Y25.3900
G01 X48.5290 Y25.3959
G01 X48.4900 Y25.4057
G01 X48.4521 Y25.4192
G01 X48.4157 Y25.4364
G01 X48.3812 Y25.4571
G01 X48.3489 Y25.4811
G01 X48.3191 Y25.5081
G01 X48.2921 Y25.5379
G01 X48.2681 Y25.5702
G01 X48.2474 Y25.6047
G01 X48.2302 Y25.6411
G01 X48.2167 Y25.6790
G01 X48.2069 Y25.7180
G01 X48.2010 Y25.7578
G01 X48.1990 Y25.7980
G01 X48.2010 Y25.8382
G01 X48.2069 Y25.8780
G01 X48.2167 Y25.9170
G01 X48.2302 Y25.9549
G01 X48.2474 Y25.9913
G01 X48.2681 Y26.0258
G01 X48.2921 Y26.0581
G01 X48.3191 Y26.0879
G01 X48.3489 Y26.1149
G01 X48.3812 Y26.1389
G01 X48.4157 Y26.1596
G01 X48.4521 Y26.1768
G01 X48.4900 Y26.1903
G01 X48.5290 Y26.2001
G01 X48.5688 Y26.2060
G01 X48.6090 Y26.2080
G01 X48.6492 Y26.2060
G01 X48.6890 Y26.2001
G01 X48.7280 Y26.1903
G01 X48.7659 Y26.1768
G01 X48.8023 Y26.1596
G01 X48.8368 Y26.1389
G01 X48.8691 Y26.1149
G01 X48.8989 Y26.0879
G01 X48.9259 Y26.0581
G01 X48.9499 Y26.0258
G01 X48.9706 Y25.9913
G01 X48.9878 Y25.9549
G01 X49.0013 Y25.9170
G01 X49.0111 Y25.8780
G01 X49.0170 Y25.8382
G01 X49.0190 Y25.7980
G00 X49.0190 Y25.7980
G01 F40.00
G01 Z-2.0000
G01 F80.00
G01 X49.0170 Y25.7578
G01 X49.0111 Y25.7180
G01 X49.0013 Y25.6790
G01 X48.9878 Y25.6411
G01 X48.9706 Y25.6047
G01 X48.9499 Y25.5702
G01 X48.9259 Y25.5379
G01 X48.8989 Y25.5081
G01 X48.8691 Y25.4811
G01 X48.8368 Y25.4571
G01 X48.8023 Y25.4364
G01 X48.7659 Y25.4192
G01 X48.7280 Y25.4057
G01 X48.6890 Y25.3959
G01 X48.6492 Y25.3900
G01 X48.6090 Y25.3880
G01 X48.5688 Y25.3900
G01 X48.5290 Y25.3959
G01 X48.4900 Y25.4057
G01 X48.4521 Y25.4192
G01 X48.4157 Y25.4364
G01 X48.3812 Y25.4571
G01 X48.3489 Y25.4811
G01 X48.3191 Y25.5081
G01 X48.2921 Y25.5379
G01 X48.2681 Y25.5702
G01 X48.2474 Y25.6047
G01 X48.2302 Y25.6411
G01 X48.2167 Y25.6790
G01 X48.2069 Y25.7180
G01 X48.2010 Y25.7578
G01 X48.1990 Y25.7980
G01 X48.2010 Y25.8382
G01 X48.2069 Y25.8780
G01 X48.2167 Y25.9170
G01 X48.2302 Y25.9549
G01 X48.2474 Y25.9913
G01 X48.2681 Y26.0258
G01 X48.2921 Y26.0581
G01 X48.3191 Y26.0879
G01 X48.3489 Y26.1149
G01 X48.3812 Y26.1389
G01 X48.4157 Y26.1596
G01 X48.4521 Y26.1768
G01 X48.4900 Y26.1903
G01 X48.5290 Y26.2001
G01 X48.5688 Y26.2060
G01 X48.6090 Y26.2080
G01 X48.6492 Y26.2060
G01 X48.6890 Y26.2001
G01 X48.7280 Y26.1903
G01 X48.7659 Y26.1768
G01 X48.8023 Y26.1596
G01 X48.8368 Y26.1389
G01 X48.8691 Y26.1149
G01 X48.8989 Y26.0879
G01 X48.9259 Y26.0581
G01 X48.9499 Y26.0258
G01 X48.9706 Y25.9913
G01 X48.9878 Y25.9549
G01 X49.0013 Y25.9170
G01 X49.0111 Y25.8780
G01 X49.0170 Y25.8382
G01 X49.0190 Y25.7980
G00 X49.0190 Y25.7980
G01 F40.00
G01 Z-2.2000
G01 F80.00
G01 X49.0170 Y25.7578
G01 X49.0111 Y25.7180
G01 X49.0013 Y25.6790
G01 X48.9878 Y25.6411
G01 X48.9706 Y25.6047
G01 X48.9499 Y25.5702
G01 X48.9259 Y25.5379
G01 X48.8989 Y25.5081
G01 X48.8691 Y25.4811
G01 X48.8368 Y25.4571
G01 X48.8023 Y25.4364
G01 X48.7659 Y25.4192
G01 X48.7280 Y25.4057
G01 X48.6890 Y25.3959
G01 X48.6492 Y25.3900
G01 X48.6090 Y25.3880
G01 X48.5688 Y25.3900
G01 X48.5290 Y25.3959
G01 X48.4900 Y25.4057
G01 X48.4521 Y25.4192
G01 X48.4157 Y25.4364
G01 X48.3812 Y25.4571
G01 X48.3489 Y25.4811
G01 X48.3191 Y25.5081
G01 X48.2921 Y25.5379
G01 X48.2681 Y25.5702
G01 X48.2474 Y25.6047
G01 X48.2302 Y25.6411
G01 X48.2167 Y25.6790
G01 X48.2069 Y25.7180
G01 X48.2010 Y25.7578
G01 X48.1990 Y25.7980
G01 X48.2010 Y25.8382
G01 X48.2069 Y25.8780
G01 X48.2167 Y25.9170
G01 X48.2302 Y25.9549
G01 X48.2474 Y25.9913
G01 X48.2681 Y26.0258
G01 X48.2921 Y26.0581
G01 X48.3191 Y26.0879
G01 X48.3489 Y26.1149
G01 X48.3812 Y26.1389
G01 X48.4157 Y26.1596
G01 X48.4521 Y26.1768
G01 X48.4900 Y26.1903
G01 X48.5290 Y26.2001
G01 X48.5688 Y26.2060
G01 X48.6090 Y26.2080
G01 X48.6492 Y26.2060
G01 X48.6890 Y26.2001
G01 X48.7280 Y26.1903
G01 X48.7659 Y26.1768
G01 X48.8023 Y26.1596
G01 X48.8368 Y26.1389
G01 X48.8691 Y26.1149
G01 X48.8989 Y26.0879
G01 X48.9259 Y26.0581
G01 X48.9499 Y26.0258
G01 X48.9706 Y25.9913
G01 X48.9878 Y25.9549
G01 X49.0013 Y25.9170
G01 X49.0111 Y25.8780
G01 X49.0170 Y25.8382
G01 X49.0190 Y25.7980
G00 Z2.0000
G00 X49.0190 Y40.4880
G01 F40.00
G01 Z-0.2000
G01 F80.00
G01 X49.0170 Y40.4478
G01 X49.0111 Y40.4080
G01 X49.0013 Y40.3690
G01 X48.9878 Y40.3311
G01 X48.9706 Y40.2947
G01 X48.9499 Y40.2602
G01 X48.9259 Y40.2279
G01 X48.8989 Y40.1981
G01 X48.8691 Y40.1711
G01 X48.8368 Y40.1471
G01 X48.8023 Y40.1264
G01 X48.7659 Y40.1092
G01 X48.7280 Y40.0957
G01 X48.6890 Y40.0859
G01 X48.6492 Y40.0800
G01 X48.6090 Y40.0780
G01 X48.5688 Y40.0800
G01 X48.5290 Y40.0859
G01 X48.4900 Y40.0957
G01 X48.4521 Y40.1092
G01 X48.4157 Y40.1264
G01 X48.3812 Y40.1471
G01 X48.3489 Y40.1711
G01 X48.3191 Y40.1981
G01 X48.2921 Y40.2279
G01 X48.2681 Y40.2602
G01 X48.2474 Y40.2947
G01 X48.2302 Y40.3311
G01 X48.2167 Y40.3690
G01 X48.2069 Y40.4080
G01 X48.2010 Y40.4478
G01 X48.1990 Y40.4880
G01 X48.2010 Y40.5282
G01 X48.2069 Y40.5680
G01 X48.2167 Y40.6070
G01 X48.2302 Y40.6449
G01 X48.2474 Y40.6813
G01 X48.2681 Y40.7158
G01 X48.2921 Y40.7481
G01 X48.3191 Y40.7779
G01 X48.3489 Y40.8049
G01 X48.3812 Y40.8289
G01 X48.4157 Y40.8496
G01 X48.4521 Y40.8668
G01 X48.4900 Y40.8803
G01 X48.5290 Y40.8901
G01 X48.5688 Y40.8960
G01 X48.6090 Y40.8980
G01 X48.6492 Y40.8960
G01 X48.6890 Y40.8901
G01 X48.7280 Y40.8803
G01 X48.7659 Y40.8668
G01 X48.8023 Y40.8496
G01 X48.8368 Y40.8289
G01 X48.8691 Y40.8049
G01 X48.8989 Y40.7779
G01 X48.9259 Y40.7481
G01 X48.9499 Y40.7158
G01 X48.9706 Y40.6813
G01 X48.9878 Y40.6449
G01 X49.0013 Y40.6070
G01 X49.0111 Y40.5680
G01 X49.0170 Y40.5282
G01 X49.0190 Y40.4880
G00 X49.0190 Y40.4880
G01 F40.00
G01 Z-0.4000
G01 F80.00
G01 X49.0170 Y40.4478
G01 X49.0111 Y40.4080
G01 X49.0013 Y40.3690
G01 X48.9878 Y40.3311
G01 X48.9706 Y40.2947
G01 X48.9499 Y40.2602
G01 X48.9259 Y40.2279
G01 X48.8989 Y40.1981
G01 X48.8691 Y40.1711
G01 X48.8368 Y40.1471
G01 X48.8023 Y40.1264
G01 X48.7659 Y40.1092
G01 X48.7280 Y40.0957
G01 X48.6890 Y40.0859
G01 X48.6492 Y40.0800
G01 X48.6090 Y40.0780
G01 X48.5688 Y40.0800
G01 X48.5290 Y40.0859
G01 X48.4900 Y40.0957
G01 X48.4521 Y40.1092
G01 X48.4157 Y40.1264
G01 X48.3812 Y40.1471
G01 X48.3489 Y40.1711
G01 X48.3191 Y40.1981
G01 X48.2921 Y40.2279
G01 X48.2681 Y40.2602
G01 X48.2474 Y40.2947
G01 X48.2302 Y40.3311
G01 X48.2167 Y40.3690
G01 X48.2069 Y40.4080
G01 X48.2010 Y40.4478
G01 X48.1990 Y40.4880
G01 X48.2010 Y40.5282
G01 X48.2069 Y40.5680
G01 X48.2167 Y40.6070
G01 X48.2302 Y40.6449
G01 X48.2474 Y40.6813
G01 X48.2681 Y40.7158
G01 X48.2921 Y40.7481
G01 X48.3191 Y40.7779
G01 X48.3489 Y40.8049
G01 X48.3812 Y40.8289
G01 X48.4157 Y40.8496
G01 X48.4521 Y40.8668
G01 X48.4900 Y40.8803
G01 X48.5290 Y40.8901
G01 X48.5688 Y40.8960
G01 X48.6090 Y40.8980
G01 X48.6492 Y40.8960
G01 X48.6890 Y40.8901
G01 X48.7280 Y40.8803
G01 X48.7659 Y40.8668
G01 X48.8023 Y40.8496
G01 X48.8368 Y40.8289
G01 X48.8691 Y40.8049
G01 X48.8989 Y40.7779
G01 X48.9259 Y40.7481
G01 X48.9499 Y40.7158
G01 X48.9706 Y40.6813
G01 X48.9878 Y40.6449
G01 X49.0013 Y40.6070
G01 X49.0111 Y40.5680
G01 X49.0170 Y40.5282
G01 X49.0190 Y40.4880
G00 X49.0190 Y40.4880
G01 F40.00
G01 Z-0.6000
G01 F80.00
G01 X49.0170 Y40.4478
G01 X49.0111 Y40.4080
G01 X49.0013 Y40.3690
G01 X48.9878 Y40.3311
G01 X48.9706 Y40.2947
G01 X48.9499 Y40.2602
G01 X48.9259 Y40.2279
G01 X48.8989 Y40.1981
G01 X48.8691 Y40.1711
G01 X48.8368 Y40.1471
G01 X48.8023 Y40.1264
G01 X48.7659 Y40.1092
G01 X48.7280 Y40.0957
G01 X48.6890 Y40.0859
G01 X48.6492 Y40.0800
G01 X48.6090 Y40.0780
G01 X48.5688 Y40.0800
G01 X48.5290 Y40.0859
G01 X48.4900 Y40.0957
G01 X48.4521 Y40.1092
G01 X48.4157 Y40.1264
G01 X48.3812 Y40.1471
G01 X48.3489 Y40.1711
G01 X48.3191 Y40.1981
G01 X48.2921 Y40.2279
G01 X48.2681 Y40.2602
G01 X48.2474 Y40.2947
G01 X48.2302 Y40.3311
G01 X48.2167 Y40.3690
G01 X48.2069 Y40.4080
G01 X48.2010 Y40.4478
G01 X48.1990 Y40.4880
G01 X48.2010 Y40.5282
G01 X48.2069 Y40.5680
G01 X48.2167 Y40.6070
G01 X48.2302 Y40.6449
G01 X48.2474 Y40.6813
G01 X48.2681 Y40.7158
G01 X48.2921 Y40.7481
G01 X48.3191 Y40.7779
G01 X48.3489 Y40.8049
G01 X48.3812 Y40.8289
G01 X48.4157 Y40.8496
G01 X48.4521 Y40.8668
G01 X48.4900 Y40.8803
G01 X48.5290 Y40.8901
G01 X48.5688 Y40.8960
G01 X48.6090 Y40.8980
G01 X48.6492 Y40.8960
G01 X48.6890 Y40.8901
G01 X48.7280 Y40.8803
G01 X48.7659 Y40.8668
G01 X48.8023 Y40.8496
G01 X48.8368 Y40.8289
G01 X48.8691 Y40.8049
G01 X48.8989 Y40.7779
G01 X48.9259 Y40.7481
G01 X48.9499 Y40.7158
G01 X48.9706 Y40.6813
G01 X48.9878 Y40.6449
G01 X49.0013 Y40.6070
G01 X49.0111 Y40.5680
G01 X49.0170 Y40.5282
G01 X49.0190 Y40.4880
G00 X49.0190 Y40.4880
G01 F40.00
G01 Z-0.8000
G01 F80.00
G01 X49.0170 Y40.4478
G01 X49.0111 Y40.4080
G01 X49.0013 Y40.3690
G01 X48.9878 Y40.3311
G01 X48.9706 Y40.2947
G01 X48.9499 Y40.2602
G01 X48.9259 Y40.2279
G01 X48.8989 Y40.1981
G01 X48.8691 Y40.1711
G01 X48.8368 Y40.1471
G01 X48.8023 Y40.1264
G01 X48.7659 Y40.1092
G01 X48.7280 Y40.0957
G01 X48.6890 Y40.0859
G01 X48.6492 Y40.0800
G01 X48.6090 Y40.0780
G01 X48.5688 Y40.0800
G01 X48.5290 Y40.0859
G01 X48.4900 Y40.0957
G01 X48.4521 Y40.1092
G01 X48.4157 Y40.1264
G01 X48.3812 Y40.1471
G01 X48.3489 Y40.1711
G01 X48.3191 Y40.1981
G01 X48.2921 Y40.2279
G01 X48.2681 Y40.2602
G01 X48.2474 Y40.2947
G01 X48.2302 Y40.3311
G01 X48.2167 Y40.3690
G01 X48.2069 Y40.4080
G01 X48.2010 Y40.4478
G01 X48.1990 Y40.4880
G01 X48.2010 Y40.5282
G01 X48.2069 Y40.5680
G01 X48.2167 Y40.6070
G01 X48.2302 Y40.6449
G01 X48.2474 Y40.6813
G01 X48.2681 Y40.7158
G01 X48.2921 Y40.7481
G01 X48.3191 Y40.7779
G01 X48.3489 Y40.8049
G01 X48.3812 Y40.8289
G01 X48.4157 Y40.8496
G01 X48.4521 Y40.8668
G01 X48.4900 Y40.8803
G01 X48.5290 Y40.8901
G01 X48.5688 Y40.8960
G01 X48.6090 Y40.8980
G01 X48.6492 Y40.8960
G01 X48.6890 Y40.8901
G01 X48.7280 Y40.8803
G01 X48.7659 Y40.8668
G01 X48.8023 Y40.8496
G01 X48.8368 Y40.8289
G01 X48.8691 Y40.8049
G01 X48.8989 Y40.7779
G01 X48.9259 Y40.7481
G01 X48.9499 Y40.7158
G01 X48.9706 Y40.6813
G01 X48.9878 Y40.6449
G01 X49.0013 Y40.6070
G01 X49.0111 Y40.5680
G01 X49.0170 Y40.5282
G01 X49.0190 Y40.4880
G00 X49.0190 Y40.4880
G01 F40.00
G01 Z-1.0000
G01 F80.00
G01 X49.0170 Y40.4478
G01 X49.0111 Y40.4080
G01 X49.0013 Y40.3690
G01 X48.9878 Y40.3311
G01 X48.9706 Y40.2947
G01 X48.9499 Y40.2602
G01 X48.9259 Y40.2279
G01 X48.8989 Y40.1981
G01 X48.8691 Y40.1711
G01 X48.8368 Y40.1471
G01 X48.8023 Y40.1264
G01 X48.7659 Y40.1092
G01 X48.7280 Y40.0957
G01 X48.6890 Y40.0859
G01 X48.6492 Y40.0800
G01 X48.6090 Y40.0780
G01 X48.5688 Y40.0800
G01 X48.5290 Y40.0859
G01 X48.4900 Y40.0957
G01 X48.4521 Y40.1092
G01 X48.4157 Y40.1264
G01 X48.3812 Y40.1471
G01 X48.3489 Y40.1711
G01 X48.3191 Y40.1981
G01 X48.2921 Y40.2279
G01 X48.2681 Y40.2602
G01 X48.2474 Y40.2947
G01 X48.2302 Y40.3311
G01 X48.2167 Y40.3690
G01 X48.2069 Y40.4080
G01 X48.2010 Y40.4478
G01 X48.1990 Y40.4880
G01 X48.2010 Y40.5282
G01 X48.2069 Y40.5680
G01 X48.2167 Y40.6070
G01 X48.2302 Y40.6449
G01 X48.2474 Y40.6813
G01 X48.2681 Y40.7158
G01 X48.2921 Y40.7481
G01 X48.3191 Y40.7779
G01 X48.3489 Y40.8049
G01 X48.3812 Y40.8289
G01 X48.4157 Y40.8496
G01 X48.4521 Y40.8668
G01 X48.4900 Y40.8803
G01 X48.5290 Y40.8901
G01 X48.5688 Y40.8960
G01 X48.6090 Y40.8980
G01 X48.6492 Y40.8960
G01 X48.6890 Y40.8901
G01 X48.7280 Y40.8803
G01 X48.7659 Y40.8668
G01 X48.8023 Y40.8496
G01 X48.8368 Y40.8289
G01 X48.8691 Y40.8049
G01 X48.8989 Y40.7779
G01 X48.9259 Y40.7481
G01 X48.9499 Y40.7158
G01 X48.9706 Y40.6813
G01 X48.9878 Y40.6449
G01 X49.0013 Y40.6070
G01 X49.0111 Y40.5680
G01 X49.0170 Y40.5282
G01 X49.0190 Y40.4880
G00 X49.0190 Y40.4880
G01 F40.00
G01 Z-1.2000
G01 F80.00
G01 X49.0170 Y40.4478
G01 X49.0111 Y40.4080
G01 X49.0013 Y40.3690
G01 X48.9878 Y40.3311
G01 X48.9706 Y40.2947
G01 X48.9499 Y40.2602
G01 X48.9259 Y40.2279
G01 X48.8989 Y40.1981
G01 X48.8691 Y40.1711
G01 X48.8368 Y40.1471
G01 X48.8023 Y40.1264
G01 X48.7659 Y40.1092
G01 X48.7280 Y40.0957
G01 X48.6890 Y40.0859
G01 X48.6492 Y40.0800
G01 X48.6090 Y40.0780
G01 X48.5688 Y40.0800
G01 X48.5290 Y40.0859
G01 X48.4900 Y40.0957
G01 X48.4521 Y40.1092
G01 X48.4157 Y40.1264
G01 X48.3812 Y40.1471
G01 X48.3489 Y40.1711
G01 X48.3191 Y40.1981
G01 X48.2921 Y40.2279
G01 X48.2681 Y40.2602
G01 X48.2474 Y40.2947
G01 X48.2302 Y40.3311
G01 X48.2167 Y40.3690
G01 X48.2069 Y40.4080
G01 X48.2010 Y40.4478
G01 X48.1990 Y40.4880
G01 X48.2010 Y40.5282
G01 X48.2069 Y40.5680
G01 X48.2167 Y40.6070
G01 X48.2302 Y40.6449
G01 X48.2474 Y40.6813
G01 X48.2681 Y40.7158
G01 X48.2921 Y40.7481
G01 X48.3191 Y40.7779
G01 X48.3489 Y40.8049
G01 X48.3812 Y40.8289
G01 X48.4157 Y40.8496
G01 X48.4521 Y40.8668
G01 X48.4900 Y40.8803
G01 X48.5290 Y40.8901
G01 X48.5688 Y40.8960
G01 X48.6090 Y40.8980
G01 X48.6492 Y40.8960
G01 X48.6890 Y40.8901
G01 X48.7280 Y40.8803
G01 X48.7659 Y40.8668
G01 X48.8023 Y40.8496
G01 X48.8368 Y40.8289
G01 X48.8691 Y40.8049
G01 X48.8989 Y40.7779
G01 X48.9259 Y40.7481
G01 X48.9499 Y40.7158
G01 X48.9706 Y40.6813
G01 X48.9878 Y40.6449
G01 X49.0013 Y40.6070
G01 X49.0111 Y40.5680
G01 X49.0170 Y40.5282
G01 X49.0190 Y40.4880
G00 X49.0190 Y40.4880
G01 F40.00
G01 Z-1.4000
G01 F80.00
G01 X49.0170 Y40.4478
G01 X49.0111 Y40.4080
G01 X49.0013 Y40.3690
G01 X48.9878 Y40.3311
G01 X48.9706 Y40.2947
G01 X48.9499 Y40.2602
G01 X48.9259 Y40.2279
G01 X48.8989 Y40.1981
G01 X48.8691 Y40.1711
G01 X48.8368 Y40.1471
G01 X48.8023 Y40.1264
G01 X48.7659 Y40.1092
G01 X48.7280 Y40.0957
G01 X48.6890 Y40.0859
G01 X48.6492 Y40.0800
G01 X48.6090 Y40.0780
G01 X48.5688 Y40.0800
G01 X48.5290 Y40.0859
G01 X48.4900 Y40.0957
G01 X48.4521 Y40.1092
G01 X48.4157 Y40.1264
G01 X48.3812 Y40.1471
G01 X48.3489 Y40.1711
G01 X48.3191 Y40.1981
G01 X48.2921 Y40.2279
G01 X48.2681 Y40.2602
G01 X48.2474 Y40.2947
G01 X48.2302 Y40.3311
G01 X48.2167 Y40.3690
G01 X48.2069 Y40.4080
G01 X48.2010 Y40.4478
G01 X48.1990 Y40.4880
G01 X48.2010 Y40.5282
G01 X48.2069 Y40.5680
G01 X48.2167 Y40.6070
G01 X48.2302 Y40.6449
G01 X48.2474 Y40.6813
G01 X48.2681 Y40.7158
G01 X48.2921 Y40.7481
G01 X48.3191 Y40.7779
G01 X48.3489 Y40.8049
G01 X48.3812 Y40.8289
G01 X48.4157 Y40.8496
G01 X48.4521 Y40.8668
G01 X48.4900 Y40.8803
G01 X48.5290 Y40.8901
G01 X48.5688 Y40.8960
G01 X48.6090 Y40.8980
G01 X48.6492 Y40.8960
G01 X48.6890 Y40.8901
G01 X48.7280 Y40.8803
G01 X48.7659 Y40.8668
G01 X48.8023 Y40.8496
G01 X48.8368 Y40.8289
G01 X48.8691 Y40.8049
G01 X48.8989 Y40.7779
G01 X48.9259 Y40.7481
G01 X48.9499 Y40.7158
G01 X48.9706 Y40.6813
G01 X48.9878 Y40.6449
G01 X49.0013 Y40.6070
G01 X49.0111 Y40.5680
G01 X49.0170 Y40.5282
G01 X49.0190 Y40.4880
G00 X49.0190 Y40.4880
G01 F40.00
G01 Z-1.6000
G01 F80.00
G01 X49.0170 Y40.4478
G01 X49.0111 Y40.4080
G01 X49.0013 Y40.3690
G01 X48.9878 Y40.3311
G01 X48.9706 Y40.2947
G01 X48.9499 Y40.2602
G01 X48.9259 Y40.2279
G01 X48.8989 Y40.1981
G01 X48.8691 Y40.1711
G01 X48.8368 Y40.1471
G01 X48.8023 Y40.1264
G01 X48.7659 Y40.1092
G01 X48.7280 Y40.0957
G01 X48.6890 Y40.0859
G01 X48.6492 Y40.0800
G01 X48.6090 Y40.0780
G01 X48.5688 Y40.0800
G01 X48.5290 Y40.0859
G01 X48.4900 Y40.0957
G01 X48.4521 Y40.1092
G01 X48.4157 Y40.1264
G01 X48.3812 Y40.1471
G01 X48.3489 Y40.1711
G01 X48.3191 Y40.1981
G01 X48.2921 Y40.2279
G01 X48.2681 Y40.2602
G01 X48.2474 Y40.2947
G01 X48.2302 Y40.3311
G01 X48.2167 Y40.3690
G01 X48.2069 Y40.4080
G01 X48.2010 Y40.4478
G01 X48.1990 Y40.4880
G01 X48.2010 Y40.5282
G01 X48.2069 Y40.5680
G01 X48.2167 Y40.6070
G01 X48.2302 Y40.6449
G01 X48.2474 Y40.6813
G01 X48.2681 Y40.7158
G01 X48.2921 Y40.7481
G01 X48.3191 Y40.7779
G01 X48.3489 Y40.8049
G01 X48.3812 Y40.8289
G01 X48.4157 Y40.8496
G01 X48.4521 Y40.8668
G01 X48.4900 Y40.8803
G01 X48.5290 Y40.8901
G01 X48.5688 Y40.8960
G01 X48.6090 Y40.8980
G01 X48.6492 Y40.8960
G01 X48.6890 Y40.8901
G01 X48.7280 Y40.8803
G01 X48.7659 Y40.8668
G01 X48.8023 Y40.8496
G01 X48.8368 Y40.8289
G01 X48.8691 Y40.8049
G01 X48.8989 Y40.7779
G01 X48.9259 Y40.7481
G01 X48.9499 Y40.7158
G01 X48.9706 Y40.6813
G01 X48.9878 Y40.6449
G01 X49.0013 Y40.6070
G01 X49.0111 Y40.5680
G01 X49.0170 Y40.5282
G01 X49.0190 Y40.4880
G00 X49.0190 Y40.4880
G01 F40.00
G01 Z-1.8000
G01 F80.00
G01 X49.0170 Y40.4478
G01 X49.0111 Y40.4080
G01 X49.0013 Y40.3690
G01 X48.9878 Y40.3311
G01 X48.9706 Y40.2947
G01 X48.9499 Y40.2602
G01 X48.9259 Y40.2279
G01 X48.8989 Y40.1981
G01 X48.8691 Y40.1711
G01 X48.8368 Y40.1471
G01 X48.8023 Y40.1264
G01 X48.7659 Y40.1092
G01 X48.7280 Y40.0957
G01 X48.6890 Y40.0859
G01 X48.6492 Y40.0800
G01 X48.6090 Y40.0780
G01 X48.5688 Y40.0800
G01 X48.5290 Y40.0859
G01 X48.4900 Y40.0957
G01 X48.4521 Y40.1092
G01 X48.4157 Y40.1264
G01 X48.3812 Y40.1471
G01 X48.3489 Y40.1711
G01 X48.3191 Y40.1981
G01 X48.2921 Y40.2279
G01 X48.2681 Y40.2602
G01 X48.2474 Y40.2947
G01 X48.2302 Y40.3311
G01 X48.2167 Y40.3690
G01 X48.2069 Y40.4080
G01 X48.2010 Y40.4478
G01 X48.1990 Y40.4880
G01 X48.2010 Y40.5282
G01 X48.2069 Y40.5680
G01 X48.2167 Y40.6070
G01 X48.2302 Y40.6449
G01 X48.2474 Y40.6813
G01 X48.2681 Y40.7158
G01 X48.2921 Y40.7481
G01 X48.3191 Y40.7779
G01 X48.3489 Y40.8049
G01 X48.3812 Y40.8289
G01 X48.4157 Y40.8496
G01 X48.4521 Y40.8668
G01 X48.4900 Y40.8803
G01 X48.5290 Y40.8901
G01 X48.5688 Y40.8960
G01 X48.6090 Y40.8980
G01 X48.6492 Y40.8960
G01 X48.6890 Y40.8901
G01 X48.7280 Y40.8803
G01 X48.7659 Y40.8668
G01 X48.8023 Y40.8496
G01 X48.8368 Y40.8289
G01 X48.8691 Y40.8049
G01 X48.8989 Y40.7779
G01 X48.9259 Y40.7481
G01 X48.9499 Y40.7158
G01 X48.9706 Y40.6813
G01 X48.9878 Y40.6449
G01 X49.0013 Y40.6070
G01 X49.0111 Y40.5680
G01 X49.0170 Y40.5282
G01 X49.0190 Y40.4880
G00 X49.0190 Y40.4880
G01 F40.00
G01 Z-2.0000
G01 F80.00
G01 X49.0170 Y40.4478
G01 X49.0111 Y40.4080
G01 X49.0013 Y40.3690
G01 X48.9878 Y40.3311
G01 X48.9706 Y40.2947
G01 X48.9499 Y40.2602
G01 X48.9259 Y40.2279
G01 X48.8989 Y40.1981
G01 X48.8691 Y40.1711
G01 X48.8368 Y40.1471
G01 X48.8023 Y40.1264
G01 X48.7659 Y40.1092
G01 X48.7280 Y40.0957
G01 X48.6890 Y40.0859
G01 X48.6492 Y40.0800
G01 X48.6090 Y40.0780
G01 X48.5688 Y40.0800
G01 X48.5290 Y40.0859
G01 X48.4900 Y40.0957
G01 X48.4521 Y40.1092
G01 X48.4157 Y40.1264
G01 X48.3812 Y40.1471
G01 X48.3489 Y40.1711
G01 X48.3191 Y40.1981
G01 X48.2921 Y40.2279
G01 X48.2681 Y40.2602
G01 X48.2474 Y40.2947
G01 X48.2302 Y40.3311
G01 X48.2167 Y40.3690
G01 X48.2069 Y40.4080
G01 X48.2010 Y40.4478
G01 X48.1990 Y40.4880
G01 X48.2010 Y40.5282
G01 X48.2069 Y40.5680
G01 X48.2167 Y40.6070
G01 X48.2302 Y40.6449
G01 X48.2474 Y40.6813
G01 X48.2681 Y40.7158
G01 X48.2921 Y40.7481
G01 X48.3191 Y40.7779
G01 X48.3489 Y40.8049
G01 X48.3812 Y40.8289
G01 X48.4157 Y40.8496
G01 X48.4521 Y40.8668
G01 X48.4900 Y40.8803
G01 X48.5290 Y40.8901
G01 X48.5688 Y40.8960
G01 X48.6090 Y40.8980
G01 X48.6492 Y40.8960
G01 X48.6890 Y40.8901
G01 X48.7280 Y40.8803
G01 X48.7659 Y40.8668
G01 X48.8023 Y40.8496
G01 X48.8368 Y40.8289
G01 X48.8691 Y40.8049
G01 X48.8989 Y40.7779
G01 X48.9259 Y40.7481
G01 X48.9499 Y40.7158
G01 X48.9706 Y40.6813
G01 X48.9878 Y40.6449
G01 X49.0013 Y40.6070
G01 X49.0111 Y40.5680
G01 X49.0170 Y40.5282
G01 X49.0190 Y40.4880
G00 X49.0190 Y40.4880
G01 F40.00
G01 Z-2.2000
G01 F80.00
G01 X49.0170 Y40.4478
G01 X49.0111 Y40.4080
G01 X49.0013 Y40.3690
G01 X48.9878 Y40.3311
G01 X48.9706 Y40.2947
G01 X48.9499 Y40.2602
G01 X48.9259 Y40.2279
G01 X48.8989 Y40.1981
G01 X48.8691 Y40.1711
G01 X48.8368 Y40.1471
G01 X48.8023 Y40.1264
G01 X48.7659 Y40.1092
G01 X48.7280 Y40.0957
G01 X48.6890 Y40.0859
G01 X48.6492 Y40.0800
G01 X48.6090 Y40.0780
G01 X48.5688 Y40.0800
G01 X48.5290 Y40.0859
G01 X48.4900 Y40.0957
G01 X48.4521 Y40.1092
G01 X48.4157 Y40.1264
G01 X48.3812 Y40.1471
G01 X48.3489 Y40.1711
G01 X48.3191 Y40.1981
G01 X48.2921 Y40.2279
G01 X48.2681 Y40.2602
G01 X48.2474 Y40.2947
G01 X48.2302 Y40.3311
G01 X48.2167 Y40.3690
G01 X48.2069 Y40.4080
G01 X48.2010 Y40.4478
G01 X48.1990 Y40.4880
G01 X48.2010 Y40.5282
G01 X48.2069 Y40.5680
G01 X48.2167 Y40.6070
G01 X48.2302 Y40.6449
G01 X48.2474 Y40.6813
G01 X48.2681 Y40.7158
G01 X48.2921 Y40.7481
G01 X48.3191 Y40.7779
G01 X48.3489 Y40.8049
G01 X48.3812 Y40.8289
G01 X48.4157 Y40.8496
G01 X48.4521 Y40.8668
G01 X48.4900 Y40.8803
G01 X48.5290 Y40.8901
G01 X48.5688 Y40.8960
G01 X48.6090 Y40.8980
G01 X48.6492 Y40.8960
G01 X48.6890 Y40.8901
G01 X48.7280 Y40.8803
G01 X48.7659 Y40.8668
G01 X48.8023 Y40.8496
G01 X48.8368 Y40.8289
G01 X48.8691 Y40.8049
G01 X48.8989 Y40.7779
G01 X48.9259 Y40.7481
G01 X48.9499 Y40.7158
G01 X48.9706 Y40.6813
G01 X48.9878 Y40.6449
G01 X49.0013 Y40.6070
G01 X49.0111 Y40.5680
G01 X49.0170 Y40.5282
G01 X49.0190 Y40.4880
G00 Z2.0000
G00 X67.1290 Y40.4780
G01 F40.00
G01 Z-0.2000
G01 F80.00
G01 X67.1270 Y40.4378
G01 X67.1211 Y40.3980
G01 X67.1113 Y40.3590
G01 X67.0978 Y40.3211
G01 X67.0806 Y40.2847
G01 X67.0599 Y40.2502
G01 X67.0359 Y40.2179
G01 X67.0089 Y40.1881
G01 X66.9791 Y40.1611
G01 X66.9468 Y40.1371
G01 X66.9123 Y40.1164
G01 X66.8759 Y40.0992
G01 X66.8380 Y40.0857
G01 X66.7990 Y40.0759
G01 X66.7592 Y40.0700
G01 X66.7190 Y40.0680
G01 X66.6788 Y40.0700
G01 X66.6390 Y40.0759
G01 X66.6000 Y40.0857
G01 X66.5621 Y40.0992
G01 X66.5257 Y40.1164
G01 X66.4912 Y40.1371
G01 X66.4589 Y40.1611
G01 X66.4291 Y40.1881
G01 X66.4021 Y40.2179
G01 X66.3781 Y40.2502
G01 X66.3574 Y40.2847
G01 X66.3402 Y40.3211
G01 X66.3267 Y40.3590
G01 X66.3169 Y40.3980
G01 X66.3110 Y40.4378
G01 X66.3090 Y40.4780
G01 X66.3110 Y40.5182
G01 X66.3169 Y40.5580
G01 X66.3267 Y40.5970
G01 X66.3402 Y40.6349
G01 X66.3574 Y40.6713
G01 X66.3781 Y40.7058
G01 X66.4021 Y40.7381
G01 X66.4291 Y40.7679
G01 X66.4589 Y40.7949
G01 X66.4912 Y40.8189
G01 X66.5257 Y40.8396
G01 X66.5621 Y40.8568
G01 X66.6000 Y40.8703
G01 X66.6390 Y40.8801
G01 X66.6788 Y40.8860
G01 X66.7190 Y40.8880
G01 X66.7592 Y40.8860
G01 X66.7990 Y40.8801
G01 X66.8380 Y40.8703
G01 X66.8759 Y40.8568
G01 X66.9123 Y40.8396
G01 X66.9468 Y40.8189
G01 X66.9791 Y40.7949
G01 X67.0089 Y40.7679
G01 X67.0359 Y40.7381
G01 X67.0599 Y40.7058
G01 X67.0806 Y40.6713
G01 X67.0978 Y40.6349
G01 X67.1113 Y40.5970
G01 X67.1211 Y40.5580
G01 X67.1270 Y40.5182
G01 X67.1290 Y40.4780
G00 X67.1290 Y40.4780
G01 F40.00
G01 Z-0.4000
G01 F80.00
G01 X67.1270 Y40.4378
G01 X67.1211 Y40.3980
G01 X67.1113 Y40.3590
G01 X67.0978 Y40.3211
G01 X67.0806 Y40.2847
G01 X67.0599 Y40.2502
G01 X67.0359 Y40.2179
G01 X67.0089 Y40.1881
G01 X66.9791 Y40.1611
G01 X66.9468 Y40.1371
G01 X66.9123 Y40.1164
G01 X66.8759 Y40.0992
G01 X66.8380 Y40.0857
G01 X66.7990 Y40.0759
G01 X66.7592 Y40.0700
G01 X66.7190 Y40.0680
G01 X66.6788 Y40.0700
G01 X66.6390 Y40.0759
G01 X66.6000 Y40.0857
G01 X66.5621 Y40.0992
G01 X66.5257 Y40.1164
G01 X66.4912 Y40.1371
G01 X66.4589 Y40.1611
G01 X66.4291 Y40.1881
G01 X66.4021 Y40.2179
G01 X66.3781 Y40.2502
G01 X66.3574 Y40.2847
G01 X66.3402 Y40.3211
G01 X66.3267 Y40.3590
G01 X66.3169 Y40.3980
G01 X66.3110 Y40.4378
G01 X66.3090 Y40.4780
G01 X66.3110 Y40.5182
G01 X66.3169 Y40.5580
G01 X66.3267 Y40.5970
G01 X66.3402 Y40.6349
G01 X66.3574 Y40.6713
G01 X66.3781 Y40.7058
G01 X66.4021 Y40.7381
G01 X66.4291 Y40.7679
G01 X66.4589 Y40.7949
G01 X66.4912 Y40.8189
G01 X66.5257 Y40.8396
G01 X66.5621 Y40.8568
G01 X66.6000 Y40.8703
G01 X66.6390 Y40.8801
G01 X66.6788 Y40.8860
G01 X66.7190 Y40.8880
G01 X66.7592 Y40.8860
G01 X66.7990 Y40.8801
G01 X66.8380 Y40.8703
G01 X66.8759 Y40.8568
G01 X66.9123 Y40.8396
G01 X66.9468 Y40.8189
G01 X66.9791 Y40.7949
G01 X67.0089 Y40.7679
G01 X67.0359 Y40.7381
G01 X67.0599 Y40.7058
G01 X67.0806 Y40.6713
G01 X67.0978 Y40.6349
G01 X67.1113 Y40.5970
G01 X67.1211 Y40.5580
G01 X67.1270 Y40.5182
G01 X67.1290 Y40.4780
G00 X67.1290 Y40.4780
G01 F40.00
G01 Z-0.6000
G01 F80.00
G01 X67.1270 Y40.4378
G01 X67.1211 Y40.3980
G01 X67.1113 Y40.3590
G01 X67.0978 Y40.3211
G01 X67.0806 Y40.2847
G01 X67.0599 Y40.2502
G01 X67.0359 Y40.2179
G01 X67.0089 Y40.1881
G01 X66.9791 Y40.1611
G01 X66.9468 Y40.1371
G01 X66.9123 Y40.1164
G01 X66.8759 Y40.0992
G01 X66.8380 Y40.0857
G01 X66.7990 Y40.0759
G01 X66.7592 Y40.0700
G01 X66.7190 Y40.0680
G01 X66.6788 Y40.0700
G01 X66.6390 Y40.0759
G01 X66.6000 Y40.0857
G01 X66.5621 Y40.0992
G01 X66.5257 Y40.1164
G01 X66.4912 Y40.1371
G01 X66.4589 Y40.1611
G01 X66.4291 Y40.1881
G01 X66.4021 Y40.2179
G01 X66.3781 Y40.2502
G01 X66.3574 Y40.2847
G01 X66.3402 Y40.3211
G01 X66.3267 Y40.3590
G01 X66.3169 Y40.3980
G01 X66.3110 Y40.4378
G01 X66.3090 Y40.4780
G01 X66.3110 Y40.5182
G01 X66.3169 Y40.5580
G01 X66.3267 Y40.5970
G01 X66.3402 Y40.6349
G01 X66.3574 Y40.6713
G01 X66.3781 Y40.7058
G01 X66.4021 Y40.7381
G01 X66.4291 Y40.7679
G01 X66.4589 Y40.7949
G01 X66.4912 Y40.8189
G01 X66.5257 Y40.8396
G01 X66.5621 Y40.8568
G01 X66.6000 Y40.8703
G01 X66.6390 Y40.8801
G01 X66.6788 Y40.8860
G01 X66.7190 Y40.8880
G01 X66.7592 Y40.8860
G01 X66.7990 Y40.8801
G01 X66.8380 Y40.8703
G01 X66.8759 Y40.8568
G01 X66.9123 Y40.8396
G01 X66.9468 Y40.8189
G01 X66.9791 Y40.7949
G01 X67.0089 Y40.7679
G01 X67.0359 Y40.7381
G01 X67.0599 Y40.7058
G01 X67.0806 Y40.6713
G01 X67.0978 Y40.6349
G01 X67.1113 Y40.5970
G01 X67.1211 Y40.5580
G01 X67.1270 Y40.5182
G01 X67.1290 Y40.4780
G00 X67.1290 Y40.4780
G01 F40.00
G01 Z-0.8000
G01 F80.00
G01 X67.1270 Y40.4378
G01 X67.1211 Y40.3980
G01 X67.1113 Y40.3590
G01 X67.0978 Y40.3211
G01 X67.0806 Y40.2847
G01 X67.0599 Y40.2502
G01 X67.0359 Y40.2179
G01 X67.0089 Y40.1881
G01 X66.9791 Y40.1611
G01 X66.9468 Y40.1371
G01 X66.9123 Y40.1164
G01 X66.8759 Y40.0992
G01 X66.8380 Y40.0857
G01 X66.7990 Y40.0759
G01 X66.7592 Y40.0700
G01 X66.7190 Y40.0680
G01 X66.6788 Y40.0700
G01 X66.6390 Y40.0759
G01 X66.6000 Y40.0857
G01 X66.5621 Y40.0992
G01 X66.5257 Y40.1164
G01 X66.4912 Y40.1371
G01 X66.4589 Y40.1611
G01 X66.4291 Y40.1881
G01 X66.4021 Y40.2179
G01 X66.3781 Y40.2502
G01 X66.3574 Y40.2847
G01 X66.3402 Y40.3211
G01 X66.3267 Y40.3590
G01 X66.3169 Y40.3980
G01 X66.3110 Y40.4378
G01 X66.3090 Y40.4780
G01 X66.3110 Y40.5182
G01 X66.3169 Y40.5580
G01 X66.3267 Y40.5970
G01 X66.3402 Y40.6349
G01 X66.3574 Y40.6713
G01 X66.3781 Y40.7058
G01 X66.4021 Y40.7381
G01 X66.4291 Y40.7679
G01 X66.4589 Y40.7949
G01 X66.4912 Y40.8189
G01 X66.5257 Y40.8396
G01 X66.5621 Y40.8568
G01 X66.6000 Y40.8703
G01 X66.6390 Y40.8801
G01 X66.6788 Y40.8860
G01 X66.7190 Y40.8880
G01 X66.7592 Y40.8860
G01 X66.7990 Y40.8801
G01 X66.8380 Y40.8703
G01 X66.8759 Y40.8568
G01 X66.9123 Y40.8396
G01 X66.9468 Y40.8189
G01 X66.9791 Y40.7949
G01 X67.0089 Y40.7679
G01 X67.0359 Y40.7381
G01 X67.0599 Y40.7058
G01 X67.0806 Y40.6713
G01 X67.0978 Y40.6349
G01 X67.1113 Y40.5970
G01 X67.1211 Y40.5580
G01 X67.1270 Y40.5182
G01 X67.1290 Y40.4780
G00 X67.1290 Y40.4780
G01 F40.00
G01 Z-1.0000
G01 F80.00
G01 X67.1270 Y40.4378
G01 X67.1211 Y40.3980
G01 X67.1113 Y40.3590
G01 X67.0978 Y40.3211
G01 X67.0806 Y40.2847
G01 X67.0599 Y40.2502
G01 X67.0359 Y40.2179
G01 X67.0089 Y40.1881
G01 X66.9791 Y40.1611
G01 X66.9468 Y40.1371
G01 X66.9123 Y40.1164
G01 X66.8759 Y40.0992
G01 X66.8380 Y40.0857
G01 X66.7990 Y40.0759
G01 X66.7592 Y40.0700
G01 X66.7190 Y40.0680
G01 X66.6788 Y40.0700
G01 X66.6390 Y40.0759
G01 X66.6000 Y40.0857
G01 X66.5621 Y40.0992
G01 X66.5257 Y40.1164
G01 X66.4912 Y40.1371
G01 X66.4589 Y40.1611
G01 X66.4291 Y40.1881
G01 X66.4021 Y40.2179
G01 X66.3781 Y40.2502
G01 X66.3574 Y40.2847
G01 X66.3402 Y40.3211
G01 X66.3267 Y40.3590
G01 X66.3169 Y40.3980
G01 X66.3110 Y40.4378
G01 X66.3090 Y40.4780
G01 X66.3110 Y40.5182
G01 X66.3169 Y40.5580
G01 X66.3267 Y40.5970
G01 X66.3402 Y40.6349
G01 X66.3574 Y40.6713
G01 X66.3781 Y40.7058
G01 X66.4021 Y40.7381
G01 X66.4291 Y40.7679
G01 X66.4589 Y40.7949
G01 X66.4912 Y40.8189
G01 X66.5257 Y40.8396
G01 X66.5621 Y40.8568
G01 X66.6000 Y40.8703
G01 X66.6390 Y40.8801
G01 X66.6788 Y40.8860
G01 X66.7190 Y40.8880
G01 X66.7592 Y40.8860
G01 X66.7990 Y40.8801
G01 X66.8380 Y40.8703
G01 X66.8759 Y40.8568
G01 X66.9123 Y40.8396
G01 X66.9468 Y40.8189
G01 X66.9791 Y40.7949
G01 X67.0089 Y40.7679
G01 X67.0359 Y40.7381
G01 X67.0599 Y40.7058
G01 X67.0806 Y40.6713
G01 X67.0978 Y40.6349
G01 X67.1113 Y40.5970
G01 X67.1211 Y40.5580
G01 X67.1270 Y40.5182
G01 X67.1290 Y40.4780
G00 X67.1290 Y40.4780
G01 F40.00
G01 Z-1.2000
G01 F80.00
G01 X67.1270 Y40.4378
G01 X67.1211 Y40.3980
G01 X67.1113 Y40.3590
G01 X67.0978 Y40.3211
G01 X67.0806 Y40.2847
G01 X67.0599 Y40.2502
G01 X67.0359 Y40.2179
G01 X67.0089 Y40.1881
G01 X66.9791 Y40.1611
G01 X66.9468 Y40.1371
G01 X66.9123 Y40.1164
G01 X66.8759 Y40.0992
G01 X66.8380 Y40.0857
G01 X66.7990 Y40.0759
G01 X66.7592 Y40.0700
G01 X66.7190 Y40.0680
G01 X66.6788 Y40.0700
G01 X66.6390 Y40.0759
G01 X66.6000 Y40.0857
G01 X66.5621 Y40.0992
G01 X66.5257 Y40.1164
G01 X66.4912 Y40.1371
G01 X66.4589 Y40.1611
G01 X66.4291 Y40.1881
G01 X66.4021 Y40.2179
G01 X66.3781 Y40.2502
G01 X66.3574 Y40.2847
G01 X66.3402 Y40.3211
G01 X66.3267 Y40.3590
G01 X66.3169 Y40.3980
G01 X66.3110 Y40.4378
G01 X66.3090 Y40.4780
G01 X66.3110 Y40.5182
G01 X66.3169 Y40.5580
G01 X66.3267 Y40.5970
G01 X66.3402 Y40.6349
G01 X66.3574 Y40.6713
G01 X66.3781 Y40.7058
G01 X66.4021 Y40.7381
G01 X66.4291 Y40.7679
G01 X66.4589 Y40.7949
G01 X66.4912 Y40.8189
G01 X66.5257 Y40.8396
G01 X66.5621 Y40.8568
G01 X66.6000 Y40.8703
G01 X66.6390 Y40.8801
G01 X66.6788 Y40.8860
G01 X66.7190 Y40.8880
G01 X66.7592 Y40.8860
G01 X66.7990 Y40.8801
G01 X66.8380 Y40.8703
G01 X66.8759 Y40.8568
G01 X66.9123 Y40.8396
G01 X66.9468 Y40.8189
G01 X66.9791 Y40.7949
G01 X67.0089 Y40.7679
G01 X67.0359 Y40.7381
G01 X67.0599 Y40.7058
G01 X67.0806 Y40.6713
G01 X67.0978 Y40.6349
G01 X67.1113 Y40.5970
G01 X67.1211 Y40.5580
G01 X67.1270 Y40.5182
G01 X67.1290 Y40.4780
G00 X67.1290 Y40.4780
G01 F40.00
G01 Z-1.4000
G01 F80.00
G01 X67.1270 Y40.4378
G01 X67.1211 Y40.3980
G01 X67.1113 Y40.3590
G01 X67.0978 Y40.3211
G01 X67.0806 Y40.2847
G01 X67.0599 Y40.2502
G01 X67.0359 Y40.2179
G01 X67.0089 Y40.1881
G01 X66.9791 Y40.1611
G01 X66.9468 Y40.1371
G01 X66.9123 Y40.1164
G01 X66.8759 Y40.0992
G01 X66.8380 Y40.0857
G01 X66.7990 Y40.0759
G01 X66.7592 Y40.0700
G01 X66.7190 Y40.0680
G01 X66.6788 Y40.0700
G01 X66.6390 Y40.0759
G01 X66.6000 Y40.0857
G01 X66.5621 Y40.0992
G01 X66.5257 Y40.1164
G01 X66.4912 Y40.1371
G01 X66.4589 Y40.1611
G01 X66.4291 Y40.1881
G01 X66.4021 Y40.2179
G01 X66.3781 Y40.2502
G01 X66.3574 Y40.2847
G01 X66.3402 Y40.3211
G01 X66.3267 Y40.3590
G01 X66.3169 Y40.3980
G01 X66.3110 Y40.4378
G01 X66.3090 Y40.4780
G01 X66.3110 Y40.5182
G01 X66.3169 Y40.5580
G01 X66.3267 Y40.5970
G01 X66.3402 Y40.6349
G01 X66.3574 Y40.6713
G01 X66.3781 Y40.7058
G01 X66.4021 Y40.7381
G01 X66.4291 Y40.7679
G01 X66.4589 Y40.7949
G01 X66.4912 Y40.8189
G01 X66.5257 Y40.8396
G01 X66.5621 Y40.8568
G01 X66.6000 Y40.8703
G01 X66.6390 Y40.8801
G01 X66.6788 Y40.8860
G01 X66.7190 Y40.8880
G01 X66.7592 Y40.8860
G01 X66.7990 Y40.8801
G01 X66.8380 Y40.8703
G01 X66.8759 Y40.8568
G01 X66.9123 Y40.8396
G01 X66.9468 Y40.8189
G01 X66.9791 Y40.7949
G01 X67.0089 Y40.7679
G01 X67.0359 Y40.7381
G01 X67.0599 Y40.7058
G01 X67.0806 Y40.6713
G01 X67.0978 Y40.6349
G01 X67.1113 Y40.5970
G01 X67.1211 Y40.5580
G01 X67.1270 Y40.5182
G01 X67.1290 Y40.4780
G00 X67.1290 Y40.4780
G01 F40.00
G01 Z-1.6000
G01 F80.00
G01 X67.1270 Y40.4378
G01 X67.1211 Y40.3980
G01 X67.1113 Y40.3590
G01 X67.0978 Y40.3211
G01 X67.0806 Y40.2847
G01 X67.0599 Y40.2502
G01 X67.0359 Y40.2179
G01 X67.0089 Y40.1881
G01 X66.9791 Y40.1611
G01 X66.9468 Y40.1371
G01 X66.9123 Y40.1164
G01 X66.8759 Y40.0992
G01 X66.8380 Y40.0857
G01 X66.7990 Y40.0759
G01 X66.7592 Y40.0700
G01 X66.7190 Y40.0680
G01 X66.6788 Y40.0700
G01 X66.6390 Y40.0759
G01 X66.6000 Y40.0857
G01 X66.5621 Y40.0992
G01 X66.5257 Y40.1164
G01 X66.4912 Y40.1371
G01 X66.4589 Y40.1611
G01 X66.4291 Y40.1881
G01 X66.4021 Y40.2179
G01 X66.3781 Y40.2502
G01 X66.3574 Y40.2847
G01 X66.3402 Y40.3211
G01 X66.3267 Y40.3590
G01 X66.3169 Y40.3980
G01 X66.3110 Y40.4378
G01 X66.3090 Y40.4780
G01 X66.3110 Y40.5182
G01 X66.3169 Y40.5580
G01 X66.3267 Y40.5970
G01 X66.3402 Y40.6349
G01 X66.3574 Y40.6713
G01 X66.3781 Y40.7058
G01 X66.4021 Y40.7381
G01 X66.4291 Y40.7679
G01 X66.4589 Y40.7949
G01 X66.4912 Y40.8189
G01 X66.5257 Y40.8396
G01 X66.5621 Y40.8568
G01 X66.6000 Y40.8703
G01 X66.6390 Y40.8801
G01 X66.6788 Y40.8860
G01 X66.7190 Y40.8880
G01 X66.7592 Y40.8860
G01 X66.7990 Y40.8801
G01 X66.8380 Y40.8703
G01 X66.8759 Y40.8568
G01 X66.9123 Y40.8396
G01 X66.9468 Y40.8189
G01 X66.9791 Y40.7949
G01 X67.0089 Y40.7679
G01 X67.0359 Y40.7381
G01 X67.0599 Y40.7058
G01 X67.0806 Y40.6713
G01 X67.0978 Y40.6349
G01 X67.1113 Y40.5970
G01 X67.1211 Y40.5580
G01 X67.1270 Y40.5182
G01 X67.1290 Y40.4780
G00 X67.1290 Y40.4780
G01 F40.00
G01 Z-1.8000
G01 F80.00
G01 X67.1270 Y40.4378
G01 X67.1211 Y40.3980
G01 X67.1113 Y40.3590
G01 X67.0978 Y40.3211
G01 X67.0806 Y40.2847
G01 X67.0599 Y40.2502
G01 X67.0359 Y40.2179
G01 X67.0089 Y40.1881
G01 X66.9791 Y40.1611
G01 X66.9468 Y40.1371
G01 X66.9123 Y40.1164
G01 X66.8759 Y40.0992
G01 X66.8380 Y40.0857
G01 X66.7990 Y40.0759
G01 X66.7592 Y40.0700
G01 X66.7190 Y40.0680
G01 X66.6788 Y40.0700
G01 X66.6390 Y40.0759
G01 X66.6000 Y40.0857
G01 X66.5621 Y40.0992
G01 X66.5257 Y40.1164
G01 X66.4912 Y40.1371
G01 X66.4589 Y40.1611
G01 X66.4291 Y40.1881
G01 X66.4021 Y40.2179
G01 X66.3781 Y40.2502
G01 X66.3574 Y40.2847
G01 X66.3402 Y40.3211
G01 X66.3267 Y40.3590
G01 X66.3169 Y40.3980
G01 X66.3110 Y40.4378
G01 X66.3090 Y40.4780
G01 X66.3110 Y40.5182
G01 X66.3169 Y40.5580
G01 X66.3267 Y40.5970
G01 X66.3402 Y40.6349
G01 X66.3574 Y40.6713
G01 X66.3781 Y40.7058
G01 X66.4021 Y40.7381
G01 X66.4291 Y40.7679
G01 X66.4589 Y40.7949
G01 X66.4912 Y40.8189
G01 X66.5257 Y40.8396
G01 X66.5621 Y40.8568
G01 X66.6000 Y40.8703
G01 X66.6390 Y40.8801
G01 X66.6788 Y40.8860
G01 X66.7190 Y40.8880
G01 X66.7592 Y40.8860
G01 X66.7990 Y40.8801
G01 X66.8380 Y40.8703
G01 X66.8759 Y40.8568
G01 X66.9123 Y40.8396
G01 X66.9468 Y40.8189
G01 X66.9791 Y40.7949
G01 X67.0089 Y40.7679
G01 X67.0359 Y40.7381
G01 X67.0599 Y40.7058
G01 X67.0806 Y40.6713
G01 X67.0978 Y40.6349
G01 X67.1113 Y40.5970
G01 X67.1211 Y40.5580
G01 X67.1270 Y40.5182
G01 X67.1290 Y40.4780
G00 X67.1290 Y40.4780
G01 F40.00
G01 Z-2.0000
G01 F80.00
G01 X67.1270 Y40.4378
G01 X67.1211 Y40.3980
G01 X67.1113 Y40.3590
G01 X67.0978 Y40.3211
G01 X67.0806 Y40.2847
G01 X67.0599 Y40.2502
G01 X67.0359 Y40.2179
G01 X67.0089 Y40.1881
G01 X66.9791 Y40.1611
G01 X66.9468 Y40.1371
G01 X66.9123 Y40.1164
G01 X66.8759 Y40.0992
G01 X66.8380 Y40.0857
G01 X66.7990 Y40.0759
G01 X66.7592 Y40.0700
G01 X66.7190 Y40.0680
G01 X66.6788 Y40.0700
G01 X66.6390 Y40.0759
G01 X66.6000 Y40.0857
G01 X66.5621 Y40.0992
G01 X66.5257 Y40.1164
G01 X66.4912 Y40.1371
G01 X66.4589 Y40.1611
G01 X66.4291 Y40.1881
G01 X66.4021 Y40.2179
G01 X66.3781 Y40.2502
G01 X66.3574 Y40.2847
G01 X66.3402 Y40.3211
G01 X66.3267 Y40.3590
G01 X66.3169 Y40.3980
G01 X66.3110 Y40.4378
G01 X66.3090 Y40.4780
G01 X66.3110 Y40.5182
G01 X66.3169 Y40.5580
G01 X66.3267 Y40.5970
G01 X66.3402 Y40.6349
G01 X66.3574 Y40.6713
G01 X66.3781 Y40.7058
G01 X66.4021 Y40.7381
G01 X66.4291 Y40.7679
G01 X66.4589 Y40.7949
G01 X66.4912 Y40.8189
G01 X66.5257 Y40.8396
G01 X66.5621 Y40.8568
G01 X66.6000 Y40.8703
G01 X66.6390 Y40.8801
G01 X66.6788 Y40.8860
G01 X66.7190 Y40.8880
G01 X66.7592 Y40.8860
G01 X66.7990 Y40.8801
G01 X66.8380 Y40.8703
G01 X66.8759 Y40.8568
G01 X66.9123 Y40.8396
G01 X66.9468 Y40.8189
G01 X66.9791 Y40.7949
G01 X67.0089 Y40.7679
G01 X67.0359 Y40.7381
G01 X67.0599 Y40.7058
G01 X67.0806 Y40.6713
G01 X67.0978 Y40.6349
G01 X67.1113 Y40.5970
G01 X67.1211 Y40.5580
G01 X67.1270 Y40.5182
G01 X67.1290 Y40.4780
G00 X67.1290 Y40.4780
G01 F40.00
G01 Z-2.2000
G01 F80.00
G01 X67.1270 Y40.4378
G01 X67.1211 Y40.3980
G01 X67.1113 Y40.3590
G01 X67.0978 Y40.3211
G01 X67.0806 Y40.2847
G01 X67.0599 Y40.2502
G01 X67.0359 Y40.2179
G01 X67.0089 Y40.1881
G01 X66.9791 Y40.1611
G01 X66.9468 Y40.1371
G01 X66.9123 Y40.1164
G01 X66.8759 Y40.0992
G01 X66.8380 Y40.0857
G01 X66.7990 Y40.0759
G01 X66.7592 Y40.0700
G01 X66.7190 Y40.0680
G01 X66.6788 Y40.0700
G01 X66.6390 Y40.0759
G01 X66.6000 Y40.0857
G01 X66.5621 Y40.0992
G01 X66.5257 Y40.1164
G01 X66.4912 Y40.1371
G01 X66.4589 Y40.1611
G01 X66.4291 Y40.1881
G01 X66.4021 Y40.2179
G01 X66.3781 Y40.2502
G01 X66.3574 Y40.2847
G01 X66.3402 Y40.3211
G01 X66.3267 Y40.3590
G01 X66.3169 Y40.3980
G01 X66.3110 Y40.4378
G01 X66.3090 Y40.4780
G01 X66.3110 Y40.5182
G01 X66.3169 Y40.5580
G01 X66.3267 Y40.5970
G01 X66.3402 Y40.6349
G01 X66.3574 Y40.6713
G01 X66.3781 Y40.7058
G01 X66.4021 Y40.7381
G01 X66.4291 Y40.7679
G01 X66.4589 Y40.7949
G01 X66.4912 Y40.8189
G01 X66.5257 Y40.8396
G01 X66.5621 Y40.8568
G01 X66.6000 Y40.8703
G01 X66.6390 Y40.8801
G01 X66.6788 Y40.8860
G01 X66.7190 Y40.8880
G01 X66.7592 Y40.8860
G01 X66.7990 Y40.8801
G01 X66.8380 Y40.8703
G01 X66.8759 Y40.8568
G01 X66.9123 Y40.8396
G01 X66.9468 Y40.8189
G01 X66.9791 Y40.7949
G01 X67.0089 Y40.7679
G01 X67.0359 Y40.7381
G01 X67.0599 Y40.7058
G01 X67.0806 Y40.6713
G01 X67.0978 Y40.6349
G01 X67.1113 Y40.5970
G01 X67.1211 Y40.5580
G01 X67.1270 Y40.5182
G01 X67.1290 Y40.4780
G00 Z2.0000
G00 X71.9990 Y44.9500
G01 F40.00
G01 Z-0.2000
G01 F80.00
G01 X71.9937 Y44.8423
G01 X71.9779 Y44.7356
G01 X71.9517 Y44.6310
G01 X71.9153 Y44.5294
G01 X71.8692 Y44.4319
G01 X71.8138 Y44.3394
G01 X71.7495 Y44.2528
G01 X71.6771 Y44.1729
G01 X71.5972 Y44.1005
G01 X71.5106 Y44.0362
G01 X71.4181 Y43.9808
G01 X71.3206 Y43.9347
G01 X71.2190 Y43.8983
G01 X71.1144 Y43.8721
G01 X71.0077 Y43.8563
G01 X70.9000 Y43.8510
G01 X70.7923 Y43.8563
G01 X70.6856 Y43.8721
G01 X70.5810 Y43.8983
G01 X70.4794 Y43.9347
G01 X70.3819 Y43.9808
G01 X70.2894 Y44.0362
G01 X70.2028 Y44.1005
G01 X70.1229 Y44.1729
G01 X70.0505 Y44.2528
G01 X69.9862 Y44.3394
G01 X69.9308 Y44.4319
G01 X69.8847 Y44.5294
G01 X69.8483 Y44.6310
G01 X69.8221 Y44.7356
G01 X69.8063 Y44.8423
G01 X69.8010 Y44.9500
G01 X69.8063 Y45.0577
G01 X69.8221 Y45.1644
G01 X69.8483 Y45.2690
G01 X69.8847 Y45.3706
G01 X69.9308 Y45.4681
G01 X69.9862 Y45.5606
G01 X70.0505 Y45.6472
G01 X70.1229 Y45.7271
G01 X70.2028 Y45.7995
G01 X70.2894 Y45.8638
G01 X70.3819 Y45.9192
G01 X70.4794 Y45.9653
G01 X70.5810 Y46.0017
G01 X70.6856 Y46.0279
G01 X70.7923 Y46.0437
G01 X70.9000 Y46.0490
G01 X71.0077 Y46.0437
G01 X71.1144 Y46.0279
G01 X71.2190 Y46.0017
G01 X71.3206 Y45.9653
G01 X71.4181 Y45.9192
G01 X71.5106 Y45.8638
G01 X71.5972 Y45.7995
G01 X71.6771 Y45.7271
G01 X71.7495 Y45.6472
G01 X71.8138 Y45.5606
G01 X71.8692 Y45.4681
G01 X71.9153 Y45.3706
G01 X71.9517 Y45.2690
G01 X71.9779 Y45.1644
G01 X71.9937 Y45.0577
G01 X71.9990 Y44.9500
G00 X71.9990 Y44.9500
G01 F40.00
G01 Z-0.4000
G01 F80.00
G01 X71.9937 Y44.8423
G01 X71.9779 Y44.7356
G01 X71.9517 Y44.6310
G01 X71.9153 Y44.5294
G01 X71.8692 Y44.4319
G01 X71.8138 Y44.3394
G01 X71.7495 Y44.2528
G01 X71.6771 Y44.1729
G01 X71.5972 Y44.1005
G01 X71.5106 Y44.0362
G01 X71.4181 Y43.9808
G01 X71.3206 Y43.9347
G01 X71.2190 Y43.8983
G01 X71.1144 Y43.8721
G01 X71.0077 Y43.8563
G01 X70.9000 Y43.8510
G01 X70.7923 Y43.8563
G01 X70.6856 Y43.8721
G01 X70.5810 Y43.8983
G01 X70.4794 Y43.9347
G01 X70.3819 Y43.9808
G01 X70.2894 Y44.0362
G01 X70.2028 Y44.1005
G01 X70.1229 Y44.1729
G01 X70.0505 Y44.2528
G01 X69.9862 Y44.3394
G01 X69.9308 Y44.4319
G01 X69.8847 Y44.5294
G01 X69.8483 Y44.6310
G01 X69.8221 Y44.7356
G01 X69.8063 Y44.8423
G01 X69.8010 Y44.9500
G01 X69.8063 Y45.0577
G01 X69.8221 Y45.1644
G01 X69.8483 Y45.2690
G01 X69.8847 Y45.3706
G01 X69.9308 Y45.4681
G01 X69.9862 Y45.5606
G01 X70.0505 Y45.6472
G01 X70.1229 Y45.7271
G01 X70.2028 Y45.7995
G01 X70.2894 Y45.8638
G01 X70.3819 Y45.9192
G01 X70.4794 Y45.9653
G01 X70.5810 Y46.0017
G01 X70.6856 Y46.0279
G01 X70.7923 Y46.0437
G01 X70.9000 Y46.0490
G01 X71.0077 Y46.0437
G01 X71.1144 Y46.0279
G01 X71.2190 Y46.0017
G01 X71.3206 Y45.9653
G01 X71.4181 Y45.9192
G01 X71.5106 Y45.8638
G01 X71.5972 Y45.7995
G01 X71.6771 Y45.7271
G01 X71.7495 Y45.6472
G01 X71.8138 Y45.5606
G01 X71.8692 Y45.4681
G01 X71.9153 Y45.3706
G01 X71.9517 Y45.2690
G01 X71.9779 Y45.1644
G01 X71.9937 Y45.0577
G01 X71.9990 Y44.9500
G00 X71.9990 Y44.9500
G01 F40.00
G01 Z-0.6000
G01 F80.00
G01 X71.9937 Y44.8423
G01 X71.9779 Y44.7356
G01 X71.9517 Y44.6310
G01 X71.9153 Y44.5294
G01 X71.8692 Y44.4319
G01 X71.8138 Y44.3394
G01 X71.7495 Y44.2528
G01 X71.6771 Y44.1729
G01 X71.5972 Y44.1005
G01 X71.5106 Y44.0362
G01 X71.4181 Y43.9808
G01 X71.3206 Y43.9347
G01 X71.2190 Y43.8983
G01 X71.1144 Y43.8721
G01 X71.0077 Y43.8563
G01 X70.9000 Y43.8510
G01 X70.7923 Y43.8563
G01 X70.6856 Y43.8721
G01 X70.5810 Y43.8983
G01 X70.4794 Y43.9347
G01 X70.3819 Y43.9808
G01 X70.2894 Y44.0362
G01 X70.2028 Y44.1005
G01 X70.1229 Y44.1729
G01 X70.0505 Y44.2528
G01 X69.9862 Y44.3394
G01 X69.9308 Y44.4319
G01 X69.8847 Y44.5294
G01 X69.8483 Y44.6310
G01 X69.8221 Y44.7356
G01 X69.8063 Y44.8423
G01 X69.8010 Y44.9500
G01 X69.8063 Y45.0577
G01 X69.8221 Y45.1644
G01 X69.8483 Y45.2690
G01 X69.8847 Y45.3706
G01 X69.9308 Y45.4681
G01 X69.9862 Y45.5606
G01 X70.0505 Y45.6472
G01 X70.1229 Y45.7271
G01 X70.2028 Y45.7995
G01 X70.2894 Y45.8638
G01 X70.3819 Y45.9192
G01 X70.4794 Y45.9653
G01 X70.5810 Y46.0017
G01 X70.6856 Y46.0279
G01 X70.7923 Y46.0437
G01 X70.9000 Y46.0490
G01 X71.0077 Y46.0437
G01 X71.1144 Y46.0279
G01 X71.2190 Y46.0017
G01 X71.3206 Y45.9653
G01 X71.4181 Y45.9192
G01 X71.5106 Y45.8638
G01 X71.5972 Y45.7995
G01 X71.6771 Y45.7271
G01 X71.7495 Y45.6472
G01 X71.8138 Y45.5606
G01 X71.8692 Y45.4681
G01 X71.9153 Y45.3706
G01 X71.9517 Y45.2690
G01 X71.9779 Y45.1644
G01 X71.9937 Y45.0577
G01 X71.9990 Y44.9500
G00 X71.9990 Y44.9500
G01 F40.00
G01 Z-0.8000
G01 F80.00
G01 X71.9937 Y44.8423
G01 X71.9779 Y44.7356
G01 X71.9517 Y44.6310
G01 X71.9153 Y44.5294
G01 X71.8692 Y44.4319
G01 X71.8138 Y44.3394
G01 X71.7495 Y44.2528
G01 X71.6771 Y44.1729
G01 X71.5972 Y44.1005
G01 X71.5106 Y44.0362
G01 X71.4181 Y43.9808
G01 X71.3206 Y43.9347
G01 X71.2190 Y43.8983
G01 X71.1144 Y43.8721
G01 X71.0077 Y43.8563
G01 X70.9000 Y43.8510
G01 X70.7923 Y43.8563
G01 X70.6856 Y43.8721
G01 X70.5810 Y43.8983
G01 X70.4794 Y43.9347
G01 X70.3819 Y43.9808
G01 X70.2894 Y44.0362
G01 X70.2028 Y44.1005
G01 X70.1229 Y44.1729
G01 X70.0505 Y44.2528
G01 X69.9862 Y44.3394
G01 X69.9308 Y44.4319
G01 X69.8847 Y44.5294
G01 X69.8483 Y44.6310
G01 X69.8221 Y44.7356
G01 X69.8063 Y44.8423
G01 X69.8010 Y44.9500
G01 X69.8063 Y45.0577
G01 X69.8221 Y45.1644
G01 X69.8483 Y45.2690
G01 X69.8847 Y45.3706
G01 X69.9308 Y45.4681
G01 X69.9862 Y45.5606
G01 X70.0505 Y45.6472
G01 X70.1229 Y45.7271
G01 X70.2028 Y45.7995
G01 X70.2894 Y45.8638
G01 X70.3819 Y45.9192
G01 X70.4794 Y45.9653
G01 X70.5810 Y46.0017
G01 X70.6856 Y46.0279
G01 X70.7923 Y46.0437
G01 X70.9000 Y46.0490
G01 X71.0077 Y46.0437
G01 X71.1144 Y46.0279
G01 X71.2190 Y46.0017
G01 X71.3206 Y45.9653
G01 X71.4181 Y45.9192
G01 X71.5106 Y45.8638
G01 X71.5972 Y45.7995
G01 X71.6771 Y45.7271
G01 X71.7495 Y45.6472
G01 X71.8138 Y45.5606
G01 X71.8692 Y45.4681
G01 X71.9153 Y45.3706
G01 X71.9517 Y45.2690
G01 X71.9779 Y45.1644
G01 X71.9937 Y45.0577
G01 X71.9990 Y44.9500
G00 X71.9990 Y44.9500
G01 F40.00
G01 Z-1.0000
G01 F80.00
G01 X71.9937 Y44.8423
G01 X71.9779 Y44.7356
G01 X71.9517 Y44.6310
G01 X71.9153 Y44.5294
G01 X71.8692 Y44.4319
G01 X71.8138 Y44.3394
G01 X71.7495 Y44.2528
G01 X71.6771 Y44.1729
G01 X71.5972 Y44.1005
G01 X71.5106 Y44.0362
G01 X71.4181 Y43.9808
G01 X71.3206 Y43.9347
G01 X71.2190 Y43.8983
G01 X71.1144 Y43.8721
G01 X71.0077 Y43.8563
G01 X70.9000 Y43.8510
G01 X70.7923 Y43.8563
G01 X70.6856 Y43.8721
G01 X70.5810 Y43.8983
G01 X70.4794 Y43.9347
G01 X70.3819 Y43.9808
G01 X70.2894 Y44.0362
G01 X70.2028 Y44.1005
G01 X70.1229 Y44.1729
G01 X70.0505 Y44.2528
G01 X69.9862 Y44.3394
G01 X69.9308 Y44.4319
G01 X69.8847 Y44.5294
G01 X69.8483 Y44.6310
G01 X69.8221 Y44.7356
G01 X69.8063 Y44.8423
G01 X69.8010 Y44.9500
G01 X69.8063 Y45.0577
G01 X69.8221 Y45.1644
G01 X69.8483 Y45.2690
G01 X69.8847 Y45.3706
G01 X69.9308 Y45.4681
G01 X69.9862 Y45.5606
G01 X70.0505 Y45.6472
G01 X70.1229 Y45.7271
G01 X70.2028 Y45.7995
G01 X70.2894 Y45.8638
G01 X70.3819 Y45.9192
G01 X70.4794 Y45.9653
G01 X70.5810 Y46.0017
G01 X70.6856 Y46.0279
G01 X70.7923 Y46.0437
G01 X70.9000 Y46.0490
G01 X71.0077 Y46.0437
G01 X71.1144 Y46.0279
G01 X71.2190 Y46.0017
G01 X71.3206 Y45.9653
G01 X71.4181 Y45.9192
G01 X71.5106 Y45.8638
G01 X71.5972 Y45.7995
G01 X71.6771 Y45.7271
G01 X71.7495 Y45.6472
G01 X71.8138 Y45.5606
G01 X71.8692 Y45.4681
G01 X71.9153 Y45.3706
G01 X71.9517 Y45.2690
G01 X71.9779 Y45.1644
G01 X71.9937 Y45.0577
G01 X71.9990 Y44.9500
G00 X71.9990 Y44.9500
G01 F40.00
G01 Z-1.2000
G01 F80.00
G01 X71.9937 Y44.8423
G01 X71.9779 Y44.7356
G01 X71.9517 Y44.6310
G01 X71.9153 Y44.5294
G01 X71.8692 Y44.4319
G01 X71.8138 Y44.3394
G01 X71.7495 Y44.2528
G01 X71.6771 Y44.1729
G01 X71.5972 Y44.1005
G01 X71.5106 Y44.0362
G01 X71.4181 Y43.9808
G01 X71.3206 Y43.9347
G01 X71.2190 Y43.8983
G01 X71.1144 Y43.8721
G01 X71.0077 Y43.8563
G01 X70.9000 Y43.8510
G01 X70.7923 Y43.8563
G01 X70.6856 Y43.8721
G01 X70.5810 Y43.8983
G01 X70.4794 Y43.9347
G01 X70.3819 Y43.9808
G01 X70.2894 Y44.0362
G01 X70.2028 Y44.1005
G01 X70.1229 Y44.1729
G01 X70.0505 Y44.2528
G01 X69.9862 Y44.3394
G01 X69.9308 Y44.4319
G01 X69.8847 Y44.5294
G01 X69.8483 Y44.6310
G01 X69.8221 Y44.7356
G01 X69.8063 Y44.8423
G01 X69.8010 Y44.9500
G01 X69.8063 Y45.0577
G01 X69.8221 Y45.1644
G01 X69.8483 Y45.2690
G01 X69.8847 Y45.3706
G01 X69.9308 Y45.4681
G01 X69.9862 Y45.5606
G01 X70.0505 Y45.6472
G01 X70.1229 Y45.7271
G01 X70.2028 Y45.7995
G01 X70.2894 Y45.8638
G01 X70.3819 Y45.9192
G01 X70.4794 Y45.9653
G01 X70.5810 Y46.0017
G01 X70.6856 Y46.0279
G01 X70.7923 Y46.0437
G01 X70.9000 Y46.0490
G01 X71.0077 Y46.0437
G01 X71.1144 Y46.0279
G01 X71.2190 Y46.0017
G01 X71.3206 Y45.9653
G01 X71.4181 Y45.9192
G01 X71.5106 Y45.8638
G01 X71.5972 Y45.7995
G01 X71.6771 Y45.7271
G01 X71.7495 Y45.6472
G01 X71.8138 Y45.5606
G01 X71.8692 Y45.4681
G01 X71.9153 Y45.3706
G01 X71.9517 Y45.2690
G01 X71.9779 Y45.1644
G01 X71.9937 Y45.0577
G01 X71.9990 Y44.9500
G00 X71.9990 Y44.9500
G01 F40.00
G01 Z-1.4000
G01 F80.00
G01 X71.9937 Y44.8423
G01 X71.9779 Y44.7356
G01 X71.9517 Y44.6310
G01 X71.9153 Y44.5294
G01 X71.8692 Y44.4319
G01 X71.8138 Y44.3394
G01 X71.7495 Y44.2528
G01 X71.6771 Y44.1729
G01 X71.5972 Y44.1005
G01 X71.5106 Y44.0362
G01 X71.4181 Y43.9808
G01 X71.3206 Y43.9347
G01 X71.2190 Y43.8983
G01 X71.1144 Y43.8721
G01 X71.0077 Y43.8563
G01 X70.9000 Y43.8510
G01 X70.7923 Y43.8563
G01 X70.6856 Y43.8721
G01 X70.5810 Y43.8983
G01 X70.4794 Y43.9347
G01 X70.3819 Y43.9808
G01 X70.2894 Y44.0362
G01 X70.2028 Y44.1005
G01 X70.1229 Y44.1729
G01 X70.0505 Y44.2528
G01 X69.9862 Y44.3394
G01 X69.9308 Y44.4319
G01 X69.8847 Y44.5294
G01 X69.8483 Y44.6310
G01 X69.8221 Y44.7356
G01 X69.8063 Y44.8423
G01 X69.8010 Y44.9500
G01 X69.8063 Y45.0577
G01 X69.8221 Y45.1644
G01 X69.8483 Y45.2690
G01 X69.8847 Y45.3706
G01 X69.9308 Y45.4681
G01 X69.9862 Y45.5606
G01 X70.0505 Y45.6472
G01 X70.1229 Y45.7271
G01 X70.2028 Y45.7995
G01 X70.2894 Y45.8638
G01 X70.3819 Y45.9192
G01 X70.4794 Y45.9653
G01 X70.5810 Y46.0017
G01 X70.6856 Y46.0279
G01 X70.7923 Y46.0437
G01 X70.9000 Y46.0490
G01 X71.0077 Y46.0437
G01 X71.1144 Y46.0279
G01 X71.2190 Y46.0017
G01 X71.3206 Y45.9653
G01 X71.4181 Y45.9192
G01 X71.5106 Y45.8638
G01 X71.5972 Y45.7995
G01 X71.6771 Y45.7271
G01 X71.7495 Y45.6472
G01 X71.8138 Y45.5606
G01 X71.8692 Y45.4681
G01 X71.9153 Y45.3706
G01 X71.9517 Y45.2690
G01 X71.9779 Y45.1644
G01 X71.9937 Y45.0577
G01 X71.9990 Y44.9500
G00 X71.9990 Y44.9500
G01 F40.00
G01 Z-1.6000
G01 F80.00
G01 X71.9937 Y44.8423
G01 X71.9779 Y44.7356
G01 X71.9517 Y44.6310
G01 X71.9153 Y44.5294
G01 X71.8692 Y44.4319
G01 X71.8138 Y44.3394
G01 X71.7495 Y44.2528
G01 X71.6771 Y44.1729
G01 X71.5972 Y44.1005
G01 X71.5106 Y44.0362
G01 X71.4181 Y43.9808
G01 X71.3206 Y43.9347
G01 X71.2190 Y43.8983
G01 X71.1144 Y43.8721
G01 X71.0077 Y43.8563
G01 X70.9000 Y43.8510
G01 X70.7923 Y43.8563
G01 X70.6856 Y43.8721
G01 X70.5810 Y43.8983
G01 X70.4794 Y43.9347
G01 X70.3819 Y43.9808
G01 X70.2894 Y44.0362
G01 X70.2028 Y44.1005
G01 X70.1229 Y44.1729
G01 X70.0505 Y44.2528
G01 X69.9862 Y44.3394
G01 X69.9308 Y44.4319
G01 X69.8847 Y44.5294
G01 X69.8483 Y44.6310
G01 X69.8221 Y44.7356
G01 X69.8063 Y44.8423
G01 X69.8010 Y44.9500
G01 X69.8063 Y45.0577
G01 X69.8221 Y45.1644
G01 X69.8483 Y45.2690
G01 X69.8847 Y45.3706
G01 X69.9308 Y45.4681
G01 X69.9862 Y45.5606
G01 X70.0505 Y45.6472
G01 X70.1229 Y45.7271
G01 X70.2028 Y45.7995
G01 X70.2894 Y45.8638
G01 X70.3819 Y45.9192
G01 X70.4794 Y45.9653
G01 X70.5810 Y46.0017
G01 X70.6856 Y46.0279
G01 X70.7923 Y46.0437
G01 X70.9000 Y46.0490
G01 X71.0077 Y46.0437
G01 X71.1144 Y46.0279
G01 X71.2190 Y46.0017
G01 X71.3206 Y45.9653
G01 X71.4181 Y45.9192
G01 X71.5106 Y45.8638
G01 X71.5972 Y45.7995
G01 X71.6771 Y45.7271
G01 X71.7495 Y45.6472
G01 X71.8138 Y45.5606
G01 X71.8692 Y45.4681
G01 X71.9153 Y45.3706
G01 X71.9517 Y45.2690
G01 X71.9779 Y45.1644
G01 X71.9937 Y45.0577
G01 X71.9990 Y44.9500
G00 X71.9990 Y44.9500
G01 F40.00
G01 Z-1.8000
G01 F80.00
G01 X71.9937 Y44.8423
G01 X71.9779 Y44.7356
G01 X71.9517 Y44.6310
G01 X71.9153 Y44.5294
G01 X71.8692 Y44.4319
G01 X71.8138 Y44.3394
G01 X71.7495 Y44.2528
G01 X71.6771 Y44.1729
G01 X71.5972 Y44.1005
G01 X71.5106 Y44.0362
G01 X71.4181 Y43.9808
G01 X71.3206 Y43.9347
G01 X71.2190 Y43.8983
G01 X71.1144 Y43.8721
G01 X71.0077 Y43.8563
G01 X70.9000 Y43.8510
G01 X70.7923 Y43.8563
G01 X70.6856 Y43.8721
G01 X70.5810 Y43.8983
G01 X70.4794 Y43.9347
G01 X70.3819 Y43.9808
G01 X70.2894 Y44.0362
G01 X70.2028 Y44.1005
G01 X70.1229 Y44.1729
G01 X70.0505 Y44.2528
G01 X69.9862 Y44.3394
G01 X69.9308 Y44.4319
G01 X69.8847 Y44.5294
G01 X69.8483 Y44.6310
G01 X69.8221 Y44.7356
G01 X69.8063 Y44.8423
G01 X69.8010 Y44.9500
G01 X69.8063 Y45.0577
G01 X69.8221 Y45.1644
G01 X69.8483 Y45.2690
G01 X69.8847 Y45.3706
G01 X69.9308 Y45.4681
G01 X69.9862 Y45.5606
G01 X70.0505 Y45.6472
G01 X70.1229 Y45.7271
G01 X70.2028 Y45.7995
G01 X70.2894 Y45.8638
G01 X70.3819 Y45.9192
G01 X70.4794 Y45.9653
G01 X70.5810 Y46.0017
G01 X70.6856 Y46.0279
G01 X70.7923 Y46.0437
G01 X70.9000 Y46.0490
G01 X71.0077 Y46.0437
G01 X71.1144 Y46.0279
G01 X71.2190 Y46.0017
G01 X71.3206 Y45.9653
G01 X71.4181 Y45.9192
G01 X71.5106 Y45.8638
G01 X71.5972 Y45.7995
G01 X71.6771 Y45.7271
G01 X71.7495 Y45.6472
G01 X71.8138 Y45.5606
G01 X71.8692 Y45.4681
G01 X71.9153 Y45.3706
G01 X71.9517 Y45.2690
G01 X71.9779 Y45.1644
G01 X71.9937 Y45.0577
G01 X71.9990 Y44.9500
G00 X71.9990 Y44.9500
G01 F40.00
G01 Z-2.0000
G01 F80.00
G01 X71.9937 Y44.8423
G01 X71.9779 Y44.7356
G01 X71.9517 Y44.6310
G01 X71.9153 Y44.5294
G01 X71.8692 Y44.4319
G01 X71.8138 Y44.3394
G01 X71.7495 Y44.2528
G01 X71.6771 Y44.1729
G01 X71.5972 Y44.1005
G01 X71.5106 Y44.0362
G01 X71.4181 Y43.9808
G01 X71.3206 Y43.9347
G01 X71.2190 Y43.8983
G01 X71.1144 Y43.8721
G01 X71.0077 Y43.8563
G01 X70.9000 Y43.8510
G01 X70.7923 Y43.8563
G01 X70.6856 Y43.8721
G01 X70.5810 Y43.8983
G01 X70.4794 Y43.9347
G01 X70.3819 Y43.9808
G01 X70.2894 Y44.0362
G01 X70.2028 Y44.1005
G01 X70.1229 Y44.1729
G01 X70.0505 Y44.2528
G01 X69.9862 Y44.3394
G01 X69.9308 Y44.4319
G01 X69.8847 Y44.5294
G01 X69.8483 Y44.6310
G01 X69.8221 Y44.7356
G01 X69.8063 Y44.8423
G01 X69.8010 Y44.9500
G01 X69.8063 Y45.0577
G01 X69.8221 Y45.1644
G01 X69.8483 Y45.2690
G01 X69.8847 Y45.3706
G01 X69.9308 Y45.4681
G01 X69.9862 Y45.5606
G01 X70.0505 Y45.6472
G01 X70.1229 Y45.7271
G01 X70.2028 Y45.7995
G01 X70.2894 Y45.8638
G01 X70.3819 Y45.9192
G01 X70.4794 Y45.9653
G01 X70.5810 Y46.0017
G01 X70.6856 Y46.0279
G01 X70.7923 Y46.0437
G01 X70.9000 Y46.0490
G01 X71.0077 Y46.0437
G01 X71.1144 Y46.0279
G01 X71.2190 Y46.0017
G01 X71.3206 Y45.9653
G01 X71.4181 Y45.9192
G01 X71.5106 Y45.8638
G01 X71.5972 Y45.7995
G01 X71.6771 Y45.7271
G01 X71.7495 Y45.6472
G01 X71.8138 Y45.5606
G01 X71.8692 Y45.4681
G01 X71.9153 Y45.3706
G01 X71.9517 Y45.2690
G01 X71.9779 Y45.1644
G01 X71.9937 Y45.0577
G01 X71.9990 Y44.9500
G00 X71.9990 Y44.9500
G01 F40.00
G01 Z-2.2000
G01 F80.00
G01 X71.9937 Y44.8423
G01 X71.9779 Y44.7356
G01 X71.9517 Y44.6310
G01 X71.9153 Y44.5294
G01 X71.8692 Y44.4319
G01 X71.8138 Y44.3394
G01 X71.7495 Y44.2528
G01 X71.6771 Y44.1729
G01 X71.5972 Y44.1005
G01 X71.5106 Y44.0362
G01 X71.4181 Y43.9808
G01 X71.3206 Y43.9347
G01 X71.2190 Y43.8983
G01 X71.1144 Y43.8721
G01 X71.0077 Y43.8563
G01 X70.9000 Y43.8510
G01 X70.7923 Y43.8563
G01 X70.6856 Y43.8721
G01 X70.5810 Y43.8983
G01 X70.4794 Y43.9347
G01 X70.3819 Y43.9808
G01 X70.2894 Y44.0362
G01 X70.2028 Y44.1005
G01 X70.1229 Y44.1729
G01 X70.0505 Y44.2528
G01 X69.9862 Y44.3394
G01 X69.9308 Y44.4319
G01 X69.8847 Y44.5294
G01 X69.8483 Y44.6310
G01 X69.8221 Y44.7356
G01 X69.8063 Y44.8423
G01 X69.8010 Y44.9500
G01 X69.8063 Y45.0577
G01 X69.8221 Y45.1644
G01 X69.8483 Y45.2690
G01 X69.8847 Y45.3706
G01 X69.9308 Y45.4681
G01 X69.9862 Y45.5606
G01 X70.0505 Y45.6472
G01 X70.1229 Y45.7271
G01 X70.2028 Y45.7995
G01 X70.2894 Y45.8638
G01 X70.3819 Y45.9192
G01 X70.4794 Y45.9653
G01 X70.5810 Y46.0017
G01 X70.6856 Y46.0279
G01 X70.7923 Y46.0437
G01 X70.9000 Y46.0490
G01 X71.0077 Y46.0437
G01 X71.1144 Y46.0279
G01 X71.2190 Y46.0017
G01 X71.3206 Y45.9653
G01 X71.4181 Y45.9192
G01 X71.5106 Y45.8638
G01 X71.5972 Y45.7995
G01 X71.6771 Y45.7271
G01 X71.7495 Y45.6472
G01 X71.8138 Y45.5606
G01 X71.8692 Y45.4681
G01 X71.9153 Y45.3706
G01 X71.9517 Y45.2690
G01 X71.9779 Y45.1644
G01 X71.9937 Y45.0577
G01 X71.9990 Y44.9500
G00 Z2.0000
G00 X82.1090 Y40.4380
G01 F40.00
G01 Z-0.2000
G01 F80.00
G01 X82.1070 Y40.3978
G01 X82.1011 Y40.3580
G01 X82.0913 Y40.3190
G01 X82.0778 Y40.2811
G01 X82.0606 Y40.2447
G01 X82.0399 Y40.2102
G01 X82.0159 Y40.1779
G01 X81.9889 Y40.1481
G01 X81.9591 Y40.1211
G01 X81.9268 Y40.0971
G01 X81.8923 Y40.0764
G01 X81.8559 Y40.0592
G01 X81.8180 Y40.0457
G01 X81.7790 Y40.0359
G01 X81.7392 Y40.0300
G01 X81.6990 Y40.0280
G01 X81.6588 Y40.0300
G01 X81.6190 Y40.0359
G01 X81.5800 Y40.0457
G01 X81.5421 Y40.0592
G01 X81.5057 Y40.0764
G01 X81.4712 Y40.0971
G01 X81.4389 Y40.1211
G01 X81.4091 Y40.1481
G01 X81.3821 Y40.1779
G01 X81.3581 Y40.2102
G01 X81.3374 Y40.2447
G01 X81.3202 Y40.2811
G01 X81.3067 Y40.3190
G01 X81.2969 Y40.3580
G01 X81.2910 Y40.3978
G01 X81.2890 Y40.4380
G01 X81.2910 Y40.4782
G01 X81.2969 Y40.5180
G01 X81.3067 Y40.5570
G01 X81.3202 Y40.5949
G01 X81.3374 Y40.6313
G01 X81.3581 Y40.6658
G01 X81.3821 Y40.6981
G01 X81.4091 Y40.7279
G01 X81.4389 Y40.7549
G01 X81.4712 Y40.7789
G01 X81.5057 Y40.7996
G01 X81.5421 Y40.8168
G01 X81.5800 Y40.8303
G01 X81.6190 Y40.8401
G01 X81.6588 Y40.8460
G01 X81.6990 Y40.8480
G01 X81.7392 Y40.8460
G01 X81.7790 Y40.8401
G01 X81.8180 Y40.8303
G01 X81.8559 Y40.8168
G01 X81.8923 Y40.7996
G01 X81.9268 Y40.7789
G01 X81.9591 Y40.7549
G01 X81.9889 Y40.7279
G01 X82.0159 Y40.6981
G01 X82.0399 Y40.6658
G01 X82.0606 Y40.6313
G01 X82.0778 Y40.5949
G01 X82.0913 Y40.5570
G01 X82.1011 Y40.5180
G01 X82.1070 Y40.4782
G01 X82.1090 Y40.4380
G00 X82.1090 Y40.4380
G01 F40.00
G01 Z-0.4000
G01 F80.00
G01 X82.1070 Y40.3978
G01 X82.1011 Y40.3580
G01 X82.0913 Y40.3190
G01 X82.0778 Y40.2811
G01 X82.0606 Y40.2447
G01 X82.0399 Y40.2102
G01 X82.0159 Y40.1779
G01 X81.9889 Y40.1481
G01 X81.9591 Y40.1211
G01 X81.9268 Y40.0971
G01 X81.8923 Y40.0764
G01 X81.8559 Y40.0592
G01 X81.8180 Y40.0457
G01 X81.7790 Y40.0359
G01 X81.7392 Y40.0300
G01 X81.6990 Y40.0280
G01 X81.6588 Y40.0300
G01 X81.6190 Y40.0359
G01 X81.5800 Y40.0457
G01 X81.5421 Y40.0592
G01 X81.5057 Y40.0764
G01 X81.4712 Y40.0971
G01 X81.4389 Y40.1211
G01 X81.4091 Y40.1481
G01 X81.3821 Y40.1779
G01 X81.3581 Y40.2102
G01 X81.3374 Y40.2447
G01 X81.3202 Y40.2811
G01 X81.3067 Y40.3190
G01 X81.2969 Y40.3580
G01 X81.2910 Y40.3978
G01 X81.2890 Y40.4380
G01 X81.2910 Y40.4782
G01 X81.2969 Y40.5180
G01 X81.3067 Y40.5570
G01 X81.3202 Y40.5949
G01 X81.3374 Y40.6313
G01 X81.3581 Y40.6658
G01 X81.3821 Y40.6981
G01 X81.4091 Y40.7279
G01 X81.4389 Y40.7549
G01 X81.4712 Y40.7789
G01 X81.5057 Y40.7996
G01 X81.5421 Y40.8168
G01 X81.5800 Y40.8303
G01 X81.6190 Y40.8401
G01 X81.6588 Y40.8460
G01 X81.6990 Y40.8480
G01 X81.7392 Y40.8460
G01 X81.7790 Y40.8401
G01 X81.8180 Y40.8303
G01 X81.8559 Y40.8168
G01 X81.8923 Y40.7996
G01 X81.9268 Y40.7789
G01 X81.9591 Y40.7549
G01 X81.9889 Y40.7279
G01 X82.0159 Y40.6981
G01 X82.0399 Y40.6658
G01 X82.0606 Y40.6313
G01 X82.0778 Y40.5949
G01 X82.0913 Y40.5570
G01 X82.1011 Y40.5180
G01 X82.1070 Y40.4782
G01 X82.1090 Y40.4380
G00 X82.1090 Y40.4380
G01 F40.00
G01 Z-0.6000
G01 F80.00
G01 X82.1070 Y40.3978
G01 X82.1011 Y40.3580
G01 X82.0913 Y40.3190
G01 X82.0778 Y40.2811
G01 X82.0606 Y40.2447
G01 X82.0399 Y40.2102
G01 X82.0159 Y40.1779
G01 X81.9889 Y40.1481
G01 X81.9591 Y40.1211
G01 X81.9268 Y40.0971
G01 X81.8923 Y40.0764
G01 X81.8559 Y40.0592
G01 X81.8180 Y40.0457
G01 X81.7790 Y40.0359
G01 X81.7392 Y40.0300
G01 X81.6990 Y40.0280
G01 X81.6588 Y40.0300
G01 X81.6190 Y40.0359
G01 X81.5800 Y40.0457
G01 X81.5421 Y40.0592
G01 X81.5057 Y40.0764
G01 X81.4712 Y40.0971
G01 X81.4389 Y40.1211
G01 X81.4091 Y40.1481
G01 X81.3821 Y40.1779
G01 X81.3581 Y40.2102
G01 X81.3374 Y40.2447
G01 X81.3202 Y40.2811
G01 X81.3067 Y40.3190
G01 X81.2969 Y40.3580
G01 X81.2910 Y40.3978
G01 X81.2890 Y40.4380
G01 X81.2910 Y40.4782
G01 X81.2969 Y40.5180
G01 X81.3067 Y40.5570
G01 X81.3202 Y40.5949
G01 X81.3374 Y40.6313
G01 X81.3581 Y40.6658
G01 X81.3821 Y40.6981
G01 X81.4091 Y40.7279
G01 X81.4389 Y40.7549
G01 X81.4712 Y40.7789
G01 X81.5057 Y40.7996
G01 X81.5421 Y40.8168
G01 X81.5800 Y40.8303
G01 X81.6190 Y40.8401
G01 X81.6588 Y40.8460
G01 X81.6990 Y40.8480
G01 X81.7392 Y40.8460
G01 X81.7790 Y40.8401
G01 X81.8180 Y40.8303
G01 X81.8559 Y40.8168
G01 X81.8923 Y40.7996
G01 X81.9268 Y40.7789
G01 X81.9591 Y40.7549
G01 X81.9889 Y40.7279
G01 X82.0159 Y40.6981
G01 X82.0399 Y40.6658
G01 X82.0606 Y40.6313
G01 X82.0778 Y40.5949
G01 X82.0913 Y40.5570
G01 X82.1011 Y40.5180
G01 X82.1070 Y40.4782
G01 X82.1090 Y40.4380
G00 X82.1090 Y40.4380
G01 F40.00
G01 Z-0.8000
G01 F80.00
G01 X82.1070 Y40.3978
G01 X82.1011 Y40.3580
G01 X82.0913 Y40.3190
G01 X82.0778 Y40.2811
G01 X82.0606 Y40.2447
G01 X82.0399 Y40.2102
G01 X82.0159 Y40.1779
G01 X81.9889 Y40.1481
G01 X81.9591 Y40.1211
G01 X81.9268 Y40.0971
G01 X81.8923 Y40.0764
G01 X81.8559 Y40.0592
G01 X81.8180 Y40.0457
G01 X81.7790 Y40.0359
G01 X81.7392 Y40.0300
G01 X81.6990 Y40.0280
G01 X81.6588 Y40.0300
G01 X81.6190 Y40.0359
G01 X81.5800 Y40.0457
G01 X81.5421 Y40.0592
G01 X81.5057 Y40.0764
G01 X81.4712 Y40.0971
G01 X81.4389 Y40.1211
G01 X81.4091 Y40.1481
G01 X81.3821 Y40.1779
G01 X81.3581 Y40.2102
G01 X81.3374 Y40.2447
G01 X81.3202 Y40.2811
G01 X81.3067 Y40.3190
G01 X81.2969 Y40.3580
G01 X81.2910 Y40.3978
G01 X81.2890 Y40.4380
G01 X81.2910 Y40.4782
G01 X81.2969 Y40.5180
G01 X81.3067 Y40.5570
G01 X81.3202 Y40.5949
G01 X81.3374 Y40.6313
G01 X81.3581 Y40.6658
G01 X81.3821 Y40.6981
G01 X81.4091 Y40.7279
G01 X81.4389 Y40.7549
G01 X81.4712 Y40.7789
G01 X81.5057 Y40.7996
G01 X81.5421 Y40.8168
G01 X81.5800 Y40.8303
G01 X81.6190 Y40.8401
G01 X81.6588 Y40.8460
G01 X81.6990 Y40.8480
G01 X81.7392 Y40.8460
G01 X81.7790 Y40.8401
G01 X81.8180 Y40.8303
G01 X81.8559 Y40.8168
G01 X81.8923 Y40.7996
G01 X81.9268 Y40.7789
G01 X81.9591 Y40.7549
G01 X81.9889 Y40.7279
G01 X82.0159 Y40.6981
G01 X82.0399 Y40.6658
G01 X82.0606 Y40.6313
G01 X82.0778 Y40.5949
G01 X82.0913 Y40.5570
G01 X82.1011 Y40.5180
G01 X82.1070 Y40.4782
G01 X82.1090 Y40.4380
G00 X82.1090 Y40.4380
G01 F40.00
G01 Z-1.0000
G01 F80.00
G01 X82.1070 Y40.3978
G01 X82.1011 Y40.3580
G01 X82.0913 Y40.3190
G01 X82.0778 Y40.2811
G01 X82.0606 Y40.2447
G01 X82.0399 Y40.2102
G01 X82.0159 Y40.1779
G01 X81.9889 Y40.1481
G01 X81.9591 Y40.1211
G01 X81.9268 Y40.0971
G01 X81.8923 Y40.0764
G01 X81.8559 Y40.0592
G01 X81.8180 Y40.0457
G01 X81.7790 Y40.0359
G01 X81.7392 Y40.0300
G01 X81.6990 Y40.0280
G01 X81.6588 Y40.0300
G01 X81.6190 Y40.0359
G01 X81.5800 Y40.0457
G01 X81.5421 Y40.0592
G01 X81.5057 Y40.0764
G01 X81.4712 Y40.0971
G01 X81.4389 Y40.1211
G01 X81.4091 Y40.1481
G01 X81.3821 Y40.1779
G01 X81.3581 Y40.2102
G01 X81.3374 Y40.2447
G01 X81.3202 Y40.2811
G01 X81.3067 Y40.3190
G01 X81.2969 Y40.3580
G01 X81.2910 Y40.3978
G01 X81.2890 Y40.4380
G01 X81.2910 Y40.4782
G01 X81.2969 Y40.5180
G01 X81.3067 Y40.5570
G01 X81.3202 Y40.5949
G01 X81.3374 Y40.6313
G01 X81.3581 Y40.6658
G01 X81.3821 Y40.6981
G01 X81.4091 Y40.7279
G01 X81.4389 Y40.7549
G01 X81.4712 Y40.7789
G01 X81.5057 Y40.7996
G01 X81.5421 Y40.8168
G01 X81.5800 Y40.8303
G01 X81.6190 Y40.8401
G01 X81.6588 Y40.8460
G01 X81.6990 Y40.8480
G01 X81.7392 Y40.8460
G01 X81.7790 Y40.8401
G01 X81.8180 Y40.8303
G01 X81.8559 Y40.8168
G01 X81.8923 Y40.7996
G01 X81.9268 Y40.7789
G01 X81.9591 Y40.7549
G01 X81.9889 Y40.7279
G01 X82.0159 Y40.6981
G01 X82.0399 Y40.6658
G01 X82.0606 Y40.6313
G01 X82.0778 Y40.5949
G01 X82.0913 Y40.5570
G01 X82.1011 Y40.5180
G01 X82.1070 Y40.4782
G01 X82.1090 Y40.4380
G00 X82.1090 Y40.4380
G01 F40.00
G01 Z-1.2000
G01 F80.00
G01 X82.1070 Y40.3978
G01 X82.1011 Y40.3580
G01 X82.0913 Y40.3190
G01 X82.0778 Y40.2811
G01 X82.0606 Y40.2447
G01 X82.0399 Y40.2102
G01 X82.0159 Y40.1779
G01 X81.9889 Y40.1481
G01 X81.9591 Y40.1211
G01 X81.9268 Y40.0971
G01 X81.8923 Y40.0764
G01 X81.8559 Y40.0592
G01 X81.8180 Y40.0457
G01 X81.7790 Y40.0359
G01 X81.7392 Y40.0300
G01 X81.6990 Y40.0280
G01 X81.6588 Y40.0300
G01 X81.6190 Y40.0359
G01 X81.5800 Y40.0457
G01 X81.5421 Y40.0592
G01 X81.5057 Y40.0764
G01 X81.4712 Y40.0971
G01 X81.4389 Y40.1211
G01 X81.4091 Y40.1481
G01 X81.3821 Y40.1779
G01 X81.3581 Y40.2102
G01 X81.3374 Y40.2447
G01 X81.3202 Y40.2811
G01 X81.3067 Y40.3190
G01 X81.2969 Y40.3580
G01 X81.2910 Y40.3978
G01 X81.2890 Y40.4380
G01 X81.2910 Y40.4782
G01 X81.2969 Y40.5180
G01 X81.3067 Y40.5570
G01 X81.3202 Y40.5949
G01 X81.3374 Y40.6313
G01 X81.3581 Y40.6658
G01 X81.3821 Y40.6981
G01 X81.4091 Y40.7279
G01 X81.4389 Y40.7549
G01 X81.4712 Y40.7789
G01 X81.5057 Y40.7996
G01 X81.5421 Y40.8168
G01 X81.5800 Y40.8303
G01 X81.6190 Y40.8401
G01 X81.6588 Y40.8460
G01 X81.6990 Y40.8480
G01 X81.7392 Y40.8460
G01 X81.7790 Y40.8401
G01 X81.8180 Y40.8303
G01 X81.8559 Y40.8168
G01 X81.8923 Y40.7996
G01 X81.9268 Y40.7789
G01 X81.9591 Y40.7549
G01 X81.9889 Y40.7279
G01 X82.0159 Y40.6981
G01 X82.0399 Y40.6658
G01 X82.0606 Y40.6313
G01 X82.0778 Y40.5949
G01 X82.0913 Y40.5570
G01 X82.1011 Y40.5180
G01 X82.1070 Y40.4782
G01 X82.1090 Y40.4380
G00 X82.1090 Y40.4380
G01 F40.00
G01 Z-1.4000
G01 F80.00
G01 X82.1070 Y40.3978
G01 X82.1011 Y40.3580
G01 X82.0913 Y40.3190
G01 X82.0778 Y40.2811
G01 X82.0606 Y40.2447
G01 X82.0399 Y40.2102
G01 X82.0159 Y40.1779
G01 X81.9889 Y40.1481
G01 X81.9591 Y40.1211
G01 X81.9268 Y40.0971
G01 X81.8923 Y40.0764
G01 X81.8559 Y40.0592
G01 X81.8180 Y40.0457
G01 X81.7790 Y40.0359
G01 X81.7392 Y40.0300
G01 X81.6990 Y40.0280
G01 X81.6588 Y40.0300
G01 X81.6190 Y40.0359
G01 X81.5800 Y40.0457
G01 X81.5421 Y40.0592
G01 X81.5057 Y40.0764
G01 X81.4712 Y40.0971
G01 X81.4389 Y40.1211
G01 X81.4091 Y40.1481
G01 X81.3821 Y40.1779
G01 X81.3581 Y40.2102
G01 X81.3374 Y40.2447
G01 X81.3202 Y40.2811
G01 X81.3067 Y40.3190
G01 X81.2969 Y40.3580
G01 X81.2910 Y40.3978
G01 X81.2890 Y40.4380
G01 X81.2910 Y40.4782
G01 X81.2969 Y40.5180
G01 X81.3067 Y40.5570
G01 X81.3202 Y40.5949
G01 X81.3374 Y40.6313
G01 X81.3581 Y40.6658
G01 X81.3821 Y40.6981
G01 X81.4091 Y40.7279
G01 X81.4389 Y40.7549
G01 X81.4712 Y40.7789
G01 X81.5057 Y40.7996
G01 X81.5421 Y40.8168
G01 X81.5800 Y40.8303
G01 X81.6190 Y40.8401
G01 X81.6588 Y40.8460
G01 X81.6990 Y40.8480
G01 X81.7392 Y40.8460
G01 X81.7790 Y40.8401
G01 X81.8180 Y40.8303
G01 X81.8559 Y40.8168
G01 X81.8923 Y40.7996
G01 X81.9268 Y40.7789
G01 X81.9591 Y40.7549
G01 X81.9889 Y40.7279
G01 X82.0159 Y40.6981
G01 X82.0399 Y40.6658
G01 X82.0606 Y40.6313
G01 X82.0778 Y40.5949
G01 X82.0913 Y40.5570
G01 X82.1011 Y40.5180
G01 X82.1070 Y40.4782
G01 X82.1090 Y40.4380
G00 X82.1090 Y40.4380
G01 F40.00
G01 Z-1.6000
G01 F80.00
G01 X82.1070 Y40.3978
G01 X82.1011 Y40.3580
G01 X82.0913 Y40.3190
G01 X82.0778 Y40.2811
G01 X82.0606 Y40.2447
G01 X82.0399 Y40.2102
G01 X82.0159 Y40.1779
G01 X81.9889 Y40.1481
G01 X81.9591 Y40.1211
G01 X81.9268 Y40.0971
G01 X81.8923 Y40.0764
G01 X81.8559 Y40.0592
G01 X81.8180 Y40.0457
G01 X81.7790 Y40.0359
G01 X81.7392 Y40.0300
G01 X81.6990 Y40.0280
G01 X81.6588 Y40.0300
G01 X81.6190 Y40.0359
G01 X81.5800 Y40.0457
G01 X81.5421 Y40.0592
G01 X81.5057 Y40.0764
G01 X81.4712 Y40.0971
G01 X81.4389 Y40.1211
G01 X81.4091 Y40.1481
G01 X81.3821 Y40.1779
G01 X81.3581 Y40.2102
G01 X81.3374 Y40.2447
G01 X81.3202 Y40.2811
G01 X81.3067 Y40.3190
G01 X81.2969 Y40.3580
G01 X81.2910 Y40.3978
G01 X81.2890 Y40.4380
G01 X81.2910 Y40.4782
G01 X81.2969 Y40.5180
G01 X81.3067 Y40.5570
G01 X81.3202 Y40.5949
G01 X81.3374 Y40.6313
G01 X81.3581 Y40.6658
G01 X81.3821 Y40.6981
G01 X81.4091 Y40.7279
G01 X81.4389 Y40.7549
G01 X81.4712 Y40.7789
G01 X81.5057 Y40.7996
G01 X81.5421 Y40.8168
G01 X81.5800 Y40.8303
G01 X81.6190 Y40.8401
G01 X81.6588 Y40.8460
G01 X81.6990 Y40.8480
G01 X81.7392 Y40.8460
G01 X81.7790 Y40.8401
G01 X81.8180 Y40.8303
G01 X81.8559 Y40.8168
G01 X81.8923 Y40.7996
G01 X81.9268 Y40.7789
G01 X81.9591 Y40.7549
G01 X81.9889 Y40.7279
G01 X82.0159 Y40.6981
G01 X82.0399 Y40.6658
G01 X82.0606 Y40.6313
G01 X82.0778 Y40.5949
G01 X82.0913 Y40.5570
G01 X82.1011 Y40.5180
G01 X82.1070 Y40.4782
G01 X82.1090 Y40.4380
G00 X82.1090 Y40.4380
G01 F40.00
G01 Z-1.8000
G01 F80.00
G01 X82.1070 Y40.3978
G01 X82.1011 Y40.3580
G01 X82.0913 Y40.3190
G01 X82.0778 Y40.2811
G01 X82.0606 Y40.2447
G01 X82.0399 Y40.2102
G01 X82.0159 Y40.1779
G01 X81.9889 Y40.1481
G01 X81.9591 Y40.1211
G01 X81.9268 Y40.0971
G01 X81.8923 Y40.0764
G01 X81.8559 Y40.0592
G01 X81.8180 Y40.0457
G01 X81.7790 Y40.0359
G01 X81.7392 Y40.0300
G01 X81.6990 Y40.0280
G01 X81.6588 Y40.0300
G01 X81.6190 Y40.0359
G01 X81.5800 Y40.0457
G01 X81.5421 Y40.0592
G01 X81.5057 Y40.0764
G01 X81.4712 Y40.0971
G01 X81.4389 Y40.1211
G01 X81.4091 Y40.1481
G01 X81.3821 Y40.1779
G01 X81.3581 Y40.2102
G01 X81.3374 Y40.2447
G01 X81.3202 Y40.2811
G01 X81.3067 Y40.3190
G01 X81.2969 Y40.3580
G01 X81.2910 Y40.3978
G01 X81.2890 Y40.4380
G01 X81.2910 Y40.4782
G01 X81.2969 Y40.5180
G01 X81.3067 Y40.5570
G01 X81.3202 Y40.5949
G01 X81.3374 Y40.6313
G01 X81.3581 Y40.6658
G01 X81.3821 Y40.6981
G01 X81.4091 Y40.7279
G01 X81.4389 Y40.7549
G01 X81.4712 Y40.7789
G01 X81.5057 Y40.7996
G01 X81.5421 Y40.8168
G01 X81.5800 Y40.8303
G01 X81.6190 Y40.8401
G01 X81.6588 Y40.8460
G01 X81.6990 Y40.8480
G01 X81.7392 Y40.8460
G01 X81.7790 Y40.8401
G01 X81.8180 Y40.8303
G01 X81.8559 Y40.8168
G01 X81.8923 Y40.7996
G01 X81.9268 Y40.7789
G01 X81.9591 Y40.7549
G01 X81.9889 Y40.7279
G01 X82.0159 Y40.6981
G01 X82.0399 Y40.6658
G01 X82.0606 Y40.6313
G01 X82.0778 Y40.5949
G01 X82.0913 Y40.5570
G01 X82.1011 Y40.5180
G01 X82.1070 Y40.4782
G01 X82.1090 Y40.4380
G00 X82.1090 Y40.4380
G01 F40.00
G01 Z-2.0000
G01 F80.00
G01 X82.1070 Y40.3978
G01 X82.1011 Y40.3580
G01 X82.0913 Y40.3190
G01 X82.0778 Y40.2811
G01 X82.0606 Y40.2447
G01 X82.0399 Y40.2102
G01 X82.0159 Y40.1779
G01 X81.9889 Y40.1481
G01 X81.9591 Y40.1211
G01 X81.9268 Y40.0971
G01 X81.8923 Y40.0764
G01 X81.8559 Y40.0592
G01 X81.8180 Y40.0457
G01 X81.7790 Y40.0359
G01 X81.7392 Y40.0300
G01 X81.6990 Y40.0280
G01 X81.6588 Y40.0300
G01 X81.6190 Y40.0359
G01 X81.5800 Y40.0457
G01 X81.5421 Y40.0592
G01 X81.5057 Y40.0764
G01 X81.4712 Y40.0971
G01 X81.4389 Y40.1211
G01 X81.4091 Y40.1481
G01 X81.3821 Y40.1779
G01 X81.3581 Y40.2102
G01 X81.3374 Y40.2447
G01 X81.3202 Y40.2811
G01 X81.3067 Y40.3190
G01 X81.2969 Y40.3580
G01 X81.2910 Y40.3978
G01 X81.2890 Y40.4380
G01 X81.2910 Y40.4782
G01 X81.2969 Y40.5180
G01 X81.3067 Y40.5570
G01 X81.3202 Y40.5949
G01 X81.3374 Y40.6313
G01 X81.3581 Y40.6658
G01 X81.3821 Y40.6981
G01 X81.4091 Y40.7279
G01 X81.4389 Y40.7549
G01 X81.4712 Y40.7789
G01 X81.5057 Y40.7996
G01 X81.5421 Y40.8168
G01 X81.5800 Y40.8303
G01 X81.6190 Y40.8401
G01 X81.6588 Y40.8460
G01 X81.6990 Y40.8480
G01 X81.7392 Y40.8460
G01 X81.7790 Y40.8401
G01 X81.8180 Y40.8303
G01 X81.8559 Y40.8168
G01 X81.8923 Y40.7996
G01 X81.9268 Y40.7789
G01 X81.9591 Y40.7549
G01 X81.9889 Y40.7279
G01 X82.0159 Y40.6981
G01 X82.0399 Y40.6658
G01 X82.0606 Y40.6313
G01 X82.0778 Y40.5949
G01 X82.0913 Y40.5570
G01 X82.1011 Y40.5180
G01 X82.1070 Y40.4782
G01 X82.1090 Y40.4380
G00 X82.1090 Y40.4380
G01 F40.00
G01 Z-2.2000
G01 F80.00
G01 X82.1070 Y40.3978
G01 X82.1011 Y40.3580
G01 X82.0913 Y40.3190
G01 X82.0778 Y40.2811
G01 X82.0606 Y40.2447
G01 X82.0399 Y40.2102
G01 X82.0159 Y40.1779
G01 X81.9889 Y40.1481
G01 X81.9591 Y40.1211
G01 X81.9268 Y40.0971
G01 X81.8923 Y40.0764
G01 X81.8559 Y40.0592
G01 X81.8180 Y40.0457
G01 X81.7790 Y40.0359
G01 X81.7392 Y40.0300
G01 X81.6990 Y40.0280
G01 X81.6588 Y40.0300
G01 X81.6190 Y40.0359
G01 X81.5800 Y40.0457
G01 X81.5421 Y40.0592
G01 X81.5057 Y40.0764
G01 X81.4712 Y40.0971
G01 X81.4389 Y40.1211
G01 X81.4091 Y40.1481
G01 X81.3821 Y40.1779
G01 X81.3581 Y40.2102
G01 X81.3374 Y40.2447
G01 X81.3202 Y40.2811
G01 X81.3067 Y40.3190
G01 X81.2969 Y40.3580
G01 X81.2910 Y40.3978
G01 X81.2890 Y40.4380
G01 X81.2910 Y40.4782
G01 X81.2969 Y40.5180
G01 X81.3067 Y40.5570
G01 X81.3202 Y40.5949
G01 X81.3374 Y40.6313
G01 X81.3581 Y40.6658
G01 X81.3821 Y40.6981
G01 X81.4091 Y40.7279
G01 X81.4389 Y40.7549
G01 X81.4712 Y40.7789
G01 X81.5057 Y40.7996
G01 X81.5421 Y40.8168
G01 X81.5800 Y40.8303
G01 X81.6190 Y40.8401
G01 X81.6588 Y40.8460
G01 X81.6990 Y40.8480
G01 X81.7392 Y40.8460
G01 X81.7790 Y40.8401
G01 X81.8180 Y40.8303
G01 X81.8559 Y40.8168
G01 X81.8923 Y40.7996
G01 X81.9268 Y40.7789
G01 X81.9591 Y40.7549
G01 X81.9889 Y40.7279
G01 X82.0159 Y40.6981
G01 X82.0399 Y40.6658
G01 X82.0606 Y40.6313
G01 X82.0778 Y40.5949
G01 X82.0913 Y40.5570
G01 X82.1011 Y40.5180
G01 X82.1070 Y40.4782
G01 X82.1090 Y40.4380
G00 Z2.0000
G00 X89.2600 Y39.8900
G01 F40.00
G01 Z-0.2000
G01 F80.00
G01 X89.2544 Y39.7753
G01 X89.2375 Y39.6617
G01 X89.2096 Y39.5504
G01 X89.1709 Y39.4423
G01 X89.1218 Y39.3385
G01 X89.0628 Y39.2400
G01 X88.9944 Y39.1478
G01 X88.9173 Y39.0627
G01 X88.8322 Y38.9856
G01 X88.7400 Y38.9172
G01 X88.6415 Y38.8582
G01 X88.5377 Y38.8091
G01 X88.4296 Y38.7704
G01 X88.3183 Y38.7425
G01 X88.2047 Y38.7256
G01 X88.0900 Y38.7200
G01 X87.9753 Y38.7256
G01 X87.8617 Y38.7425
G01 X87.7504 Y38.7704
G01 X87.6423 Y38.8091
G01 X87.5385 Y38.8582
G01 X87.4400 Y38.9172
G01 X87.3478 Y38.9856
G01 X87.2627 Y39.0627
G01 X87.1856 Y39.1478
G01 X87.1172 Y39.2400
G01 X87.0582 Y39.3385
G01 X87.0091 Y39.4423
G01 X86.9704 Y39.5504
G01 X86.9425 Y39.6617
G01 X86.9256 Y39.7753
G01 X86.9200 Y39.8900
G01 X86.9256 Y40.0047
G01 X86.9425 Y40.1183
G01 X86.9704 Y40.2296
G01 X87.0091 Y40.3377
G01 X87.0582 Y40.4415
G01 X87.1172 Y40.5400
G01 X87.1856 Y40.6322
G01 X87.2627 Y40.7173
G01 X87.3478 Y40.7944
G01 X87.4400 Y40.8628
G01 X87.5385 Y40.9218
G01 X87.6423 Y40.9709
G01 X87.7504 Y41.0096
G01 X87.8617 Y41.0375
G01 X87.9753 Y41.0544
G01 X88.0900 Y41.0600
G01 X88.2047 Y41.0544
G01 X88.3183 Y41.0375
G01 X88.4296 Y41.0096
G01 X88.5377 Y40.9709
G01 X88.6415 Y40.9218
G01 X88.7400 Y40.8628
G01 X88.8322 Y40.7944
G01 X88.9173 Y40.7173
G01 X88.9944 Y40.6322
G01 X89.0628 Y40.5400
G01 X89.1218 Y40.4415
G01 X89.1709 Y40.3377
G01 X89.2096 Y40.2296
G01 X89.2375 Y40.1183
G01 X89.2544 Y40.0047
G01 X89.2600 Y39.8900
G00 X89.2600 Y39.8900
G01 F40.00
G01 Z-0.4000
G01 F80.00
G01 X89.2544 Y39.7753
G01 X89.2375 Y39.6617
G01 X89.2096 Y39.5504
G01 X89.1709 Y39.4423
G01 X89.1218 Y39.3385
G01 X89.0628 Y39.2400
G01 X88.9944 Y39.1478
G01 X88.9173 Y39.0627
G01 X88.8322 Y38.9856
G01 X88.7400 Y38.9172
G01 X88.6415 Y38.8582
G01 X88.5377 Y38.8091
G01 X88.4296 Y38.7704
G01 X88.3183 Y38.7425
G01 X88.2047 Y38.7256
G01 X88.0900 Y38.7200
G01 X87.9753 Y38.7256
G01 X87.8617 Y38.7425
G01 X87.7504 Y38.7704
G01 X87.6423 Y38.8091
G01 X87.5385 Y38.8582
G01 X87.4400 Y38.9172
G01 X87.3478 Y38.9856
G01 X87.2627 Y39.0627
G01 X87.1856 Y39.1478
G01 X87.1172 Y39.2400
G01 X87.0582 Y39.3385
G01 X87.0091 Y39.4423
G01 X86.9704 Y39.5504
G01 X86.9425 Y39.6617
G01 X86.9256 Y39.7753
G01 X86.9200 Y39.8900
G01 X86.9256 Y40.0047
G01 X86.9425 Y40.1183
G01 X86.9704 Y40.2296
G01 X87.0091 Y40.3377
G01 X87.0582 Y40.4415
G01 X87.1172 Y40.5400
G01 X87.1856 Y40.6322
G01 X87.2627 Y40.7173
G01 X87.3478 Y40.7944
G01 X87.4400 Y40.8628
G01 X87.5385 Y40.9218
G01 X87.6423 Y40.9709
G01 X87.7504 Y41.0096
G01 X87.8617 Y41.0375
G01 X87.9753 Y41.0544
G01 X88.0900 Y41.0600
G01 X88.2047 Y41.0544
G01 X88.3183 Y41.0375
G01 X88.4296 Y41.0096
G01 X88.5377 Y40.9709
G01 X88.6415 Y40.9218
G01 X88.7400 Y40.8628
G01 X88.8322 Y40.7944
G01 X88.9173 Y40.7173
G01 X88.9944 Y40.6322
G01 X89.0628 Y40.5400
G01 X89.1218 Y40.4415
G01 X89.1709 Y40.3377
G01 X89.2096 Y40.2296
G01 X89.2375 Y40.1183
G01 X89.2544 Y40.0047
G01 X89.2600 Y39.8900
G00 X89.2600 Y39.8900
G01 F40.00
G01 Z-0.6000
G01 F80.00
G01 X89.2544 Y39.7753
G01 X89.2375 Y39.6617
G01 X89.2096 Y39.5504
G01 X89.1709 Y39.4423
G01 X89.1218 Y39.3385
G01 X89.0628 Y39.2400
G01 X88.9944 Y39.1478
G01 X88.9173 Y39.0627
G01 X88.8322 Y38.9856
G01 X88.7400 Y38.9172
G01 X88.6415 Y38.8582
G01 X88.5377 Y38.8091
G01 X88.4296 Y38.7704
G01 X88.3183 Y38.7425
G01 X88.2047 Y38.7256
G01 X88.0900 Y38.7200
G01 X87.9753 Y38.7256
G01 X87.8617 Y38.7425
G01 X87.7504 Y38.7704
G01 X87.6423 Y38.8091
G01 X87.5385 Y38.8582
G01 X87.4400 Y38.9172
G01 X87.3478 Y38.9856
G01 X87.2627 Y39.0627
G01 X87.1856 Y39.1478
G01 X87.1172 Y39.2400
G01 X87.0582 Y39.3385
G01 X87.0091 Y39.4423
G01 X86.9704 Y39.5504
G01 X86.9425 Y39.6617
G01 X86.9256 Y39.7753
G01 X86.9200 Y39.8900
G01 X86.9256 Y40.0047
G01 X86.9425 Y40.1183
G01 X86.9704 Y40.2296
G01 X87.0091 Y40.3377
