(G-CODE GENERATED BY FLATCAM v8.994 - www.flatcam.org - Version Date: 2020/11/7)

(Name: Sensorbox-PTH_0_8.drl_mill_cnc)
(Type: G-code from Geometry)
(Units: MM)

(Created on Thursday, 25 January 2024 at 17:31)

(This preprocessor is the default preprocessor used by FlatCAM.)
(It is made to work with MACH3 compatible motion controllers.)

(TOOL DIAMETER: 0.8 mm)
(Feedrate_XY: 120.0 mm/min)
(Feedrate_Z: 60.0 mm/min)
(Feedrate rapids 1500.0 mm/min)

(Z_Cut: -2.4 mm)
(Z_Move: 2.0 mm)
(Z Start: None mm)
(Z End: 15.0 mm)
(X,Y End: None mm)
(Steps per circle: 64)
(Preprocessor Geometry: default)

(X range:   21.6000 ...   98.7000  mm)
(Y range:   43.2000 ...   60.7000  mm)

(Spindle Speed: 10000.0 RPM)
G21
G90
G94

G01 F120.00

M5
G00 Z15.0000
G00 X0.0000 Y0.0000
T1
M6    
(MSG, Change to Tool Dia = 0.8000)
M0
G00 Z15.0000

M03 S10000.0
G01 F120.00
G00 X21.6000 Y43.2000
G01 F60.00
G01 Z-2.4000
G01 F120.00
G01 X21.6000 Y43.2000
G01 X21.6000 Y43.2000
G01 X21.6000 Y43.2000
G01 X21.6000 Y43.2000
G00 Z2.0000
G00 X22.7000 Y53.2000
G01 F60.00
G01 Z-2.4000
G01 F120.00
G01 X22.7000 Y53.2000
G01 X22.7000 Y53.2000
G01 X22.7000 Y53.2000
G01 X22.7000 Y53.2000
G00 Z2.0000
G00 X53.2000 Y46.3000
G01 F60.00
G01 Z-2.4000
G01 F120.00
G01 X53.2000 Y46.3000
G01 X53.2000 Y46.3000
G01 X53.2000 Y46.3000
G01 X53.2000 Y46.3000
G00 Z2.0000
G00 X86.3000 Y55.3000
G01 F60.00
G01 Z-2.4000
G01 F120.00
G01 X86.3000 Y55.3000
G01 X86.3000 Y55.3000
G01 X86.3000 Y55.3000
G01 X86.3000 Y55.3000
G00 Z2.0000
G00 X93.8000 Y60.7000
G01 F60.00
G01 Z-2.4000
G01 F120.00
G01 X93.8000 Y60.7000
G01 X93.8000 Y60.7000
G01 X93.8000 Y60.7000
G01 X93.8000 Y60.7000
G00 Z2.0000
G00 X98.7000 Y55.3000
G01 F60.00
G01 Z-2.4000
G01 F120.00
G01 X98.7000 Y55.3000
G01 X98.7000 Y55.3000
G01 X98.7000 Y55.3000
G01 X98.7000 Y55.3000
G00 Z2.0000
M05
G00 Z2.0000
G00 Z15.00


