(G-CODE GENERATED BY FLATCAM v8.994 - www.flatcam.org - Version Date: 2020/11/7)

(Name: Sensorbox-PTH.drl_mill_slot_cnc)
(Type: G-code from Geometry)
(Units: MM)

(Created on Monday, 19 February 2024 at 14:18)

(This preprocessor is the default preprocessor used by FlatCAM.)
(It is made to work with MACH3 compatible motion controllers.)

(TOOL DIAMETER: 1.0 mm)
(Feedrate_XY: 60.0 mm/min)
(Feedrate_Z: 60.0 mm/min)
(Feedrate rapids 1500.0 mm/min)

(Z_Cut: -1.8 mm)
(DepthPerCut: 0.4 mm <=>5 passes)
(Z_Move: 2.0 mm)
(Z Start: None mm)
(Z End: 15.0 mm)
(X,Y End: None mm)
(Steps per circle: 64)
(Preprocessor Geometry: default)

(X range:   35.2499 ...   41.3501  mm)
(Y range:   55.8499 ...   62.1501  mm)

(Spindle Speed: 20000.0 RPM)
G21
G90
G94

G01 F60.00

M5
G00 Z15.0000
G00 X0.0000 Y0.0000
T1
M6    
(MSG, Change to Tool Dia = 1.0000)
M0
G00 Z15.0000

M03 S20000.0
G01 F60.00
G00 X37.8500 Y55.8501
G01 F60.00
G01 Z-0.4000
G01 F60.00
G01 X37.8500 Y55.8499
G01 X35.2499 Y55.8500
G01 X35.2500 Y55.8501
G01 X37.8500 Y55.8501
G00 X37.8500 Y55.8501
G01 F60.00
G01 Z-0.8000
G01 F60.00
G01 X37.8500 Y55.8499
G01 X35.2499 Y55.8500
G01 X35.2500 Y55.8501
G01 X37.8500 Y55.8501
G00 X37.8500 Y55.8501
G01 F60.00
G01 Z-1.2000
G01 F60.00
G01 X37.8500 Y55.8499
G01 X35.2499 Y55.8500
G01 X35.2500 Y55.8501
G01 X37.8500 Y55.8501
G00 X37.8500 Y55.8501
G01 F60.00
G01 Z-1.6000
G01 F60.00
G01 X37.8500 Y55.8499
G01 X35.2499 Y55.8500
G01 X35.2500 Y55.8501
G01 X37.8500 Y55.8501
G00 X37.8500 Y55.8501
G01 F60.00
G01 Z-1.8000
G01 F60.00
G01 X37.8500 Y55.8499
G01 X35.2499 Y55.8500
G01 X35.2500 Y55.8501
G01 X37.8500 Y55.8501
G00 Z2.0000
G00 X41.3499 Y59.8500
G01 F60.00
G01 Z-0.4000
G01 F60.00
G01 X41.3501 Y59.8500
G01 X41.3500 Y57.6499
G01 X41.3499 Y57.6500
G01 X41.3499 Y59.8500
G00 X41.3499 Y59.8500
G01 F60.00
G01 Z-0.8000
G01 F60.00
G01 X41.3501 Y59.8500
G01 X41.3500 Y57.6499
G01 X41.3499 Y57.6500
G01 X41.3499 Y59.8500
G00 X41.3499 Y59.8500
G01 F60.00
G01 Z-1.2000
G01 F60.00
G01 X41.3501 Y59.8500
G01 X41.3500 Y57.6499
G01 X41.3499 Y57.6500
G01 X41.3499 Y59.8500
G00 X41.3499 Y59.8500
G01 F60.00
G01 Z-1.6000
G01 F60.00
G01 X41.3501 Y59.8500
G01 X41.3500 Y57.6499
G01 X41.3499 Y57.6500
G01 X41.3499 Y59.8500
G00 X41.3499 Y59.8500
G01 F60.00
G01 Z-1.8000
G01 F60.00
G01 X41.3501 Y59.8500
G01 X41.3500 Y57.6499
G01 X41.3499 Y57.6500
G01 X41.3499 Y59.8500
G00 Z2.0000
G00 X37.6500 Y62.1501
G01 F60.00
G01 Z-0.4000
G01 F60.00
G01 X37.6500 Y62.1499
G01 X35.4499 Y62.1500
G01 X35.4500 Y62.1501
G01 X37.6500 Y62.1501
G00 X37.6500 Y62.1501
G01 F60.00
G01 Z-0.8000
G01 F60.00
G01 X37.6500 Y62.1499
G01 X35.4499 Y62.1500
G01 X35.4500 Y62.1501
G01 X37.6500 Y62.1501
G00 X37.6500 Y62.1501
G01 F60.00
G01 Z-1.2000
G01 F60.00
G01 X37.6500 Y62.1499
G01 X35.4499 Y62.1500
G01 X35.4500 Y62.1501
G01 X37.6500 Y62.1501
G00 X37.6500 Y62.1501
G01 F60.00
G01 Z-1.6000
G01 F60.00
G01 X37.6500 Y62.1499
G01 X35.4499 Y62.1500
G01 X35.4500 Y62.1501
G01 X37.6500 Y62.1501
G00 X37.6500 Y62.1501
G01 F60.00
G01 Z-1.8000
G01 F60.00
G01 X37.6500 Y62.1499
G01 X35.4499 Y62.1500
G01 X35.4500 Y62.1501
G01 X37.6500 Y62.1501
G00 Z2.0000
M05
G00 Z2.0000
G00 Z15.00


