(G-CODE GENERATED BY FLATCAM v8.994 - www.flatcam.org - Version Date: 2020/11/7)

(Name: Sensorbox-B_Cu.gbr_iso_combined_1_cnc)
(Type: G-code from Geometry)
(Units: MM)

(Created on Wednesday, 21 February 2024 at 15:17)

(This preprocessor is the default preprocessor used by FlatCAM.)
(It is made to work with MACH3 compatible motion controllers.)

(TOOL DIAMETER: 0.1322 mm)
(Feedrate_XY: 20.0 mm/min)
(Feedrate_Z: 20.0 mm/min)
(Feedrate rapids 1500.0 mm/min)

(Z_Cut: -0.0601 mm)
(Z_Move: 2.0 mm)
(Z Start: None mm)
(Z End: 15.0 mm)
(X,Y End: None mm)
(Steps per circle: 64)
(Preprocessor Geometry: default)

(X range:   -0.0656 ...  110.0656  mm)
(Y range:   -0.0656 ...   70.0656  mm)

(Spindle Speed: 20000.0 RPM)
G21
G90
G94

G01 F20.00

M5
G00 Z15.0000
G00 X0.0000 Y0.0000
T1
M6    
(MSG, Change to Tool Dia = 0.1322)
M0
G00 Z15.0000

M03 S20000.0
G01 F20.00
G00 X3.2120 Y5.0653
G01 F20.00
G01 Z-0.0601
G01 F20.00
G01 X3.2216 Y4.8043
G01 X3.2690 Y4.5475
G01 X3.3533 Y4.3002
G01 X3.4728 Y4.0679
G01 X3.6248 Y3.8555
G01 X3.8061 Y3.6675
G01 X4.0128 Y3.5078
G01 X4.2406 Y3.3800
G01 X4.4845 Y3.2867
G01 X4.7395 Y3.2299
G01 X4.9348 Y3.2156
G01 X5.1306 Y3.2156
G01 X5.3890 Y3.2536
G01 X5.6391 Y3.3289
G01 X5.8757 Y3.4398
G01 X6.0935 Y3.5839
G01 X6.2880 Y3.7582
G01 X6.4551 Y3.9590
G01 X6.5912 Y4.1819
G01 X6.6933 Y4.4223
G01 X6.7594 Y4.6750
G01 X6.7880 Y4.9347
G01 X6.7784 Y5.1957
G01 X6.7310 Y5.4525
G01 X6.6467 Y5.6998
G01 X6.5272 Y5.9321
G01 X6.3752 Y6.1445
G01 X6.1939 Y6.3325
G01 X5.9872 Y6.4922
G01 X5.7594 Y6.6200
G01 X5.5155 Y6.7133
G01 X5.2605 Y6.7701
G01 X5.0652 Y6.7844
G01 X4.8694 Y6.7844
G01 X4.6110 Y6.7464
G01 X4.3609 Y6.6711
G01 X4.1243 Y6.5602
G01 X3.9065 Y6.4161
G01 X3.7120 Y6.2418
G01 X3.5449 Y6.0410
G01 X3.4088 Y5.8181
G01 X3.3067 Y5.5777
G01 X3.2728 Y5.4481
G01 X3.2406 Y5.3250
G01 X3.2120 Y5.0653
G00 Z2.0000
G00 X11.9964 Y2.0974
G01 F20.00
G01 Z-0.0601
G01 F20.00
G01 X11.9964 Y2.0926
G01 X12.0156 Y1.8606
G01 X12.0164 Y1.8559
G01 X12.0736 Y1.6301
G01 X12.0751 Y1.6256
G01 X12.1686 Y1.4124
G01 X12.1709 Y1.4082
G01 X12.2224 Y1.3294
G01 X12.4917 Y1.5987
G01 X12.4501 Y1.6870
G01 X12.4158 Y1.7824
G01 X12.4139 Y1.7887
G01 X12.3901 Y1.8838
G01 X12.3888 Y1.8902
G01 X12.3740 Y1.9905
G01 X12.3689 Y2.0950
G01 X12.3740 Y2.1995
G01 X12.3888 Y2.2998
G01 X12.3901 Y2.3062
G01 X12.4139 Y2.4013
G01 X12.4158 Y2.4076
G01 X12.4501 Y2.5030
G01 X12.4917 Y2.5913
G01 X12.2224 Y2.8606
G01 X12.1709 Y2.7818
G01 X12.1686 Y2.7776
G01 X12.0751 Y2.5644
G01 X12.0736 Y2.5599
G01 X12.0164 Y2.3341
G01 X12.0156 Y2.3294
G01 X11.9964 Y2.0974
G00 Z2.0000
G00 X12.6672 Y3.3099
G01 F20.00
G01 Z-0.0601
G01 F20.00
G01 X12.9387 Y3.0383
G01 X13.0270 Y3.0799
G01 X13.1224 Y3.1142
G01 X13.1287 Y3.1161
G01 X13.2238 Y3.1399
G01 X13.2302 Y3.1412
G01 X13.3305 Y3.1560
G01 X13.4350 Y3.1611
G01 X13.5395 Y3.1560
G01 X13.6398 Y3.1412
G01 X13.6462 Y3.1399
G01 X13.7413 Y3.1161
G01 X13.7476 Y3.1142
G01 X13.8430 Y3.0799
G01 X13.9313 Y3.0383
G01 X14.2028 Y3.3099
G01 X14.0151 Y3.4115
G01 X14.0107 Y3.4134
G01 X13.7905 Y3.4890
G01 X13.7859 Y3.4902
G01 X13.5562 Y3.5285
G01 X13.5514 Y3.5289
G01 X13.3186 Y3.5289
G01 X13.3138 Y3.5285
G01 X13.0841 Y3.4902
G01 X13.0795 Y3.4890
G01 X12.8593 Y3.4134
G01 X12.8549 Y3.4115
G01 X12.6672 Y3.3099
G00 Z2.0000
G00 X14.3783 Y2.5913
G01 F20.00
G01 Z-0.0601
G01 F20.00
G01 X14.4199 Y2.5030
G01 X14.4542 Y2.4076
G01 X14.4561 Y2.4013
G01 X14.4799 Y2.3062
G01 X14.4812 Y2.2998
G01 X14.4960 Y2.1995
G01 X14.5011 Y2.0950
G01 X14.4960 Y1.9905
G01 X14.4812 Y1.8902
G01 X14.4799 Y1.8838
G01 X14.4561 Y1.7887
G01 X14.4542 Y1.7824
G01 X14.4199 Y1.6870
G01 X14.3783 Y1.5987
G01 X14.6476 Y1.3294
G01 X14.6991 Y1.4082
G01 X14.7014 Y1.4124
G01 X14.7949 Y1.6256
G01 X14.7964 Y1.6301
G01 X14.8536 Y1.8559
G01 X14.8544 Y1.8606
G01 X14.8736 Y2.0926
G01 X14.8736 Y2.0974
G01 X14.8544 Y2.3294
G01 X14.8536 Y2.3341
G01 X14.7964 Y2.5599
G01 X14.7949 Y2.5644
G01 X14.7014 Y2.7776
G01 X14.6991 Y2.7818
G01 X14.6476 Y2.8606
G01 X14.3783 Y2.5913
G00 Z2.0000
G00 X16.6457 Y2.1534
G01 F20.00
G01 Z-0.0601
G01 F20.00
G01 X16.6653 Y1.9165
G01 X16.7237 Y1.6861
G01 X16.7491 Y1.6281
G01 X16.8192 Y1.4684
G01 X16.9492 Y1.2694
G01 X17.1102 Y1.0945
G01 X17.2978 Y0.9485
G01 X17.5069 Y0.8354
G01 X17.7317 Y0.7582
G01 X17.9662 Y0.7190
G01 X18.2039 Y0.7190
G01 X18.4383 Y0.7582
G01 X18.6632 Y0.8354
G01 X18.8379 Y0.9299
G01 X18.8723 Y0.9485
G01 X19.0598 Y1.0945
G01 X19.2208 Y1.2694
G01 X19.3509 Y1.4684
G01 X19.4463 Y1.6861
G01 X19.5047 Y1.9165
G01 X19.5243 Y2.1534
G01 X19.5047 Y2.3903
G01 X19.4463 Y2.6208
G01 X19.3509 Y2.8385
G01 X19.2208 Y3.0375
G01 X19.0598 Y3.2124
G01 X18.8723 Y3.3584
G01 X18.6632 Y3.4715
G01 X18.4384 Y3.5487
G01 X18.2039 Y3.5878
G01 X17.9662 Y3.5878
G01 X17.7317 Y3.5487
G01 X17.5069 Y3.4715
G01 X17.2978 Y3.3584
G01 X17.1102 Y3.2124
G01 X16.9492 Y3.0375
G01 X16.8192 Y2.8385
G01 X16.7237 Y2.6208
G01 X16.6653 Y2.3903
G01 X16.6457 Y2.1534
G00 Z2.0000
G00 X17.0244 Y2.2612
G01 F20.00
G01 Z-0.0601
G01 F20.00
G01 X17.0238 Y2.2547
G01 X17.0189 Y2.1534
G01 X17.0241 Y2.0489
G01 X17.0394 Y1.9455
G01 X17.0648 Y1.8440
G01 X17.1001 Y1.7455
G01 X17.1448 Y1.6509
G01 X17.1986 Y1.5611
G01 X17.2609 Y1.4771
G01 X17.3312 Y1.3996
G01 X17.4087 Y1.3293
G01 X17.4927 Y1.2670
G01 X17.5825 Y1.2132
G01 X17.6770 Y1.1685
G01 X17.7755 Y1.1332
G01 X17.8770 Y1.1078
G01 X17.9805 Y1.0925
G01 X18.0850 Y1.0873
G01 X18.1895 Y1.0925
G01 X18.2930 Y1.1078
G01 X18.3945 Y1.1332
G01 X18.4930 Y1.1685
G01 X18.5876 Y1.2132
G01 X18.6773 Y1.2670
G01 X18.7613 Y1.3293
G01 X18.8389 Y1.3996
G01 X18.9091 Y1.4771
G01 X18.9714 Y1.5611
G01 X19.0252 Y1.6509
G01 X19.0700 Y1.7455
G01 X19.1052 Y1.8440
G01 X19.1306 Y1.9455
G01 X19.1460 Y2.0489
G01 X19.1511 Y2.1534
G01 X19.1460 Y2.2579
G01 X19.1306 Y2.3614
G01 X19.1052 Y2.4629
G01 X19.0700 Y2.5614
G01 X19.0252 Y2.6560
G01 X18.9714 Y2.7457
G01 X18.9091 Y2.8298
G01 X18.8389 Y2.9073
G01 X18.7613 Y2.9775
G01 X18.6773 Y3.0399
G01 X18.5876 Y3.0937
G01 X18.4930 Y3.1384
G01 X18.3945 Y3.1736
G01 X18.2930 Y3.1991
G01 X18.1895 Y3.2144
G01 X18.0850 Y3.2195
G01 X17.9805 Y3.2144
G01 X17.8770 Y3.1991
G01 X17.7755 Y3.1736
G01 X17.6770 Y3.1384
G01 X17.5825 Y3.0937
G01 X17.4927 Y3.0399
G01 X17.4087 Y2.9775
G01 X17.3312 Y2.9073
G01 X17.2609 Y2.8298
G01 X17.1986 Y2.7457
G01 X17.1448 Y2.6560
G01 X17.1001 Y2.5614
G01 X17.0648 Y2.4629
G01 X17.0394 Y2.3614
G01 X17.0244 Y2.2612
G00 Z2.0000
G00 X12.6672 Y0.8801
G01 F20.00
G01 Z-0.0601
G01 F20.00
G01 X12.8549 Y0.7785
G01 X12.8593 Y0.7766
G01 X13.0795 Y0.7010
G01 X13.0841 Y0.6998
G01 X13.3138 Y0.6615
G01 X13.3186 Y0.6611
G01 X13.5514 Y0.6611
G01 X13.5562 Y0.6615
G01 X13.7859 Y0.6998
G01 X13.7905 Y0.7010
G01 X14.0107 Y0.7766
G01 X14.0151 Y0.7785
G01 X14.2028 Y0.8801
G01 X13.9313 Y1.1517
G01 X13.8430 Y1.1101
G01 X13.7476 Y1.0758
G01 X13.7413 Y1.0739
G01 X13.6462 Y1.0501
G01 X13.6398 Y1.0488
G01 X13.5395 Y1.0340
G01 X13.4350 Y1.0289
G01 X13.3305 Y1.0340
G01 X13.2302 Y1.0488
G01 X13.2238 Y1.0501
G01 X13.1287 Y1.0739
G01 X13.1224 Y1.0758
G01 X13.0270 Y1.1101
G01 X12.9387 Y1.1517
G01 X12.6672 Y0.8801
G00 Z2.0000
G00 X12.8127 Y14.2635
G01 F20.00
G01 Z-0.0601
G01 F20.00
G01 X13.0004 Y14.1619
G01 X13.0048 Y14.1600
G01 X13.2250 Y14.0844
G01 X13.2297 Y14.0832
G01 X13.4593 Y14.0449
G01 X13.4641 Y14.0445
G01 X13.6969 Y14.0445
G01 X13.7017 Y14.0449
G01 X13.9314 Y14.0832
G01 X13.9360 Y14.0844
G01 X14.1562 Y14.1600
G01 X14.1606 Y14.1619
G01 X14.3483 Y14.2635
G01 X14.0768 Y14.5351
G01 X13.9885 Y14.4934
G01 X13.8931 Y14.4592
G01 X13.8869 Y14.4573
G01 X13.7917 Y14.4335
G01 X13.7853 Y14.4322
G01 X13.6850 Y14.4174
G01 X13.5805 Y14.4123
G01 X13.4760 Y14.4174
G01 X13.3757 Y14.4322
G01 X13.3694 Y14.4335
G01 X13.2742 Y14.4573
G01 X13.2680 Y14.4592
G01 X13.1725 Y14.4934
G01 X13.0843 Y14.5351
G01 X12.8127 Y14.2635
G00 Z2.0000
G00 X12.1419 Y15.4808
G01 F20.00
G01 Z-0.0601
G01 F20.00
G01 X12.1419 Y15.4760
G01 X12.1611 Y15.2439
G01 X12.1619 Y15.2392
G01 X12.2191 Y15.0135
G01 X12.2206 Y15.0090
G01 X12.3141 Y14.7958
G01 X12.3164 Y14.7916
G01 X12.3679 Y14.7128
G01 X12.6372 Y14.9821
G01 X12.5956 Y15.0704
G01 X12.5613 Y15.1658
G01 X12.5594 Y15.1720
G01 X12.5356 Y15.2672
G01 X12.5343 Y15.2736
G01 X12.5195 Y15.3739
G01 X12.5144 Y15.4784
G01 X12.5195 Y15.5829
G01 X12.5343 Y15.6832
G01 X12.5356 Y15.6895
G01 X12.5594 Y15.7847
G01 X12.5613 Y15.7909
G01 X12.5956 Y15.8864
G01 X12.6372 Y15.9746
G01 X12.3679 Y16.2440
G01 X12.3164 Y16.1652
G01 X12.3141 Y16.1610
G01 X12.2206 Y15.9477
G01 X12.2191 Y15.9432
G01 X12.1619 Y15.7175
G01 X12.1611 Y15.7128
G01 X12.1419 Y15.4808
G00 Z2.0000
G00 X12.8127 Y16.6932
G01 F20.00
G01 Z-0.0601
G01 F20.00
G01 X13.0843 Y16.4217
G01 X13.1725 Y16.4633
G01 X13.2680 Y16.4976
G01 X13.2742 Y16.4994
G01 X13.3694 Y16.5233
G01 X13.3757 Y16.5245
G01 X13.4760 Y16.5393
G01 X13.5805 Y16.5445
G01 X13.6850 Y16.5393
G01 X13.7853 Y16.5245
G01 X13.7917 Y16.5233
G01 X13.8869 Y16.4994
G01 X13.8931 Y16.4976
G01 X13.9885 Y16.4633
G01 X14.0768 Y16.4217
G01 X14.3483 Y16.6932
G01 X14.1606 Y16.7949
G01 X14.1562 Y16.7968
G01 X13.9360 Y16.8724
G01 X13.9314 Y16.8736
G01 X13.7017 Y16.9119
G01 X13.6969 Y16.9123
G01 X13.4641 Y16.9123
G01 X13.4593 Y16.9119
G01 X13.2297 Y16.8736
G01 X13.2250 Y16.8724
G01 X13.0048 Y16.7968
G01 X13.0004 Y16.7949
G01 X12.8127 Y16.6932
G00 Z2.0000
G00 X14.5238 Y15.9746
G01 F20.00
G01 Z-0.0601
G01 F20.00
G01 X14.5655 Y15.8864
G01 X14.5997 Y15.7909
G01 X14.6016 Y15.7847
G01 X14.6254 Y15.6895
G01 X14.6267 Y15.6832
G01 X14.6415 Y15.5829
G01 X14.6466 Y15.4784
G01 X14.6415 Y15.3739
G01 X14.6267 Y15.2736
G01 X14.6254 Y15.2672
G01 X14.6016 Y15.1720
G01 X14.5997 Y15.1658
G01 X14.5655 Y15.0704
G01 X14.5238 Y14.9821
G01 X14.7931 Y14.7128
G01 X14.8446 Y14.7916
G01 X14.8469 Y14.7958
G01 X14.9404 Y15.0090
G01 X14.9419 Y15.0135
G01 X14.9991 Y15.2392
G01 X14.9999 Y15.2439
G01 X15.0191 Y15.4760
G01 X15.0191 Y15.4808
G01 X14.9999 Y15.7128
G01 X14.9991 Y15.7175
G01 X14.9419 Y15.9432
G01 X14.9404 Y15.9477
G01 X14.8469 Y16.1610
G01 X14.8446 Y16.1652
G01 X14.7931 Y16.2440
G01 X14.5238 Y15.9746
G00 Z2.0000
G00 X16.7912 Y15.5368
G01 F20.00
G01 Z-0.0601
G01 F20.00
G01 X16.8108 Y15.2999
G01 X16.8692 Y15.0695
G01 X16.8812 Y15.0421
G01 X16.9647 Y14.8518
G01 X17.0947 Y14.6528
G01 X17.2557 Y14.4779
G01 X17.4433 Y14.3319
G01 X17.6524 Y14.2187
G01 X17.8772 Y14.1415
G01 X18.1117 Y14.1024
G01 X18.3494 Y14.1024
G01 X18.5839 Y14.1415
G01 X18.8087 Y14.2187
G01 X19.0178 Y14.3319
G01 X19.2053 Y14.4779
G01 X19.3663 Y14.6528
G01 X19.4964 Y14.8518
G01 X19.5848 Y15.0533
G01 X19.5919 Y15.0695
G01 X19.6502 Y15.2999
G01 X19.6698 Y15.5368
G01 X19.6502 Y15.7737
G01 X19.5919 Y16.0042
G01 X19.4964 Y16.2219
G01 X19.3663 Y16.4209
G01 X19.2053 Y16.5958
G01 X19.0178 Y16.7418
G01 X18.8087 Y16.8549
G01 X18.5839 Y16.9321
G01 X18.3494 Y16.9712
G01 X18.1117 Y16.9712
G01 X17.8772 Y16.9321
G01 X17.6524 Y16.8549
G01 X17.4433 Y16.7418
G01 X17.2557 Y16.5958
G01 X17.0947 Y16.4209
G01 X16.9647 Y16.2219
G01 X16.8692 Y16.0042
G01 X16.8108 Y15.7737
G01 X16.7912 Y15.5368
G00 Z2.0000
G00 X17.1700 Y15.6445
G01 F20.00
G01 Z-0.0601
G01 F20.00
G01 X17.1693 Y15.6381
G01 X17.1644 Y15.5368
G01 X17.1696 Y15.4323
G01 X17.1849 Y15.3288
G01 X17.2103 Y15.2273
G01 X17.2456 Y15.1288
G01 X17.2903 Y15.0343
G01 X17.3441 Y14.9445
G01 X17.4064 Y14.8605
G01 X17.4767 Y14.7830
G01 X17.5542 Y14.7127
G01 X17.6382 Y14.6504
G01 X17.7280 Y14.5966
G01 X17.8225 Y14.5519
G01 X17.9211 Y14.5166
G01 X18.0225 Y14.4912
G01 X18.1260 Y14.4758
G01 X18.2305 Y14.4707
G01 X18.3350 Y14.4758
G01 X18.4385 Y14.4912
G01 X18.5400 Y14.5166
G01 X18.6385 Y14.5519
G01 X18.7331 Y14.5966
G01 X18.8228 Y14.6504
G01 X18.9069 Y14.7127
G01 X18.9844 Y14.7830
G01 X19.0546 Y14.8605
G01 X19.1170 Y14.9445
G01 X19.1707 Y15.0343
G01 X19.2155 Y15.1288
G01 X19.2507 Y15.2273
G01 X19.2761 Y15.3288
G01 X19.2915 Y15.4323
G01 X19.2966 Y15.5368
G01 X19.2915 Y15.6413
G01 X19.2761 Y15.7448
G01 X19.2507 Y15.8463
G01 X19.2155 Y15.9448
G01 X19.1707 Y16.0394
G01 X19.1170 Y16.1291
G01 X19.0546 Y16.2131
G01 X18.9844 Y16.2907
G01 X18.9069 Y16.3609
G01 X18.8228 Y16.4232
G01 X18.7331 Y16.4770
G01 X18.6385 Y16.5218
G01 X18.5400 Y16.5570
G01 X18.4385 Y16.5824
G01 X18.3350 Y16.5978
G01 X18.2305 Y16.6029
G01 X18.1260 Y16.5978
G01 X18.0225 Y16.5824
G01 X17.9211 Y16.5570
G01 X17.8225 Y16.5218
G01 X17.7280 Y16.4770
G01 X17.6382 Y16.4232
G01 X17.5542 Y16.3609
G01 X17.4767 Y16.2907
G01 X17.4064 Y16.2131
G01 X17.3441 Y16.1291
G01 X17.2903 Y16.0394
G01 X17.2456 Y15.9448
G01 X17.2103 Y15.8463
G01 X17.1849 Y15.7448
G01 X17.1700 Y15.6445
G00 Z2.0000
G00 X16.1462 Y23.0772
G01 F20.00
G01 Z-0.0601
G01 F20.00
G01 X16.1456 Y23.0707
G01 X16.1407 Y22.9695
G01 X16.1458 Y22.8650
G01 X16.1612 Y22.7615
G01 X16.1866 Y22.6600
G01 X16.2219 Y22.5615
G01 X16.2666 Y22.4669
G01 X16.3204 Y22.3772
G01 X16.3827 Y22.2931
G01 X16.4530 Y22.2156
G01 X16.5305 Y22.1454
G01 X16.6145 Y22.0830
G01 X16.7043 Y22.0293
G01 X16.7988 Y21.9845
G01 X16.8973 Y21.9493
G01 X16.9988 Y21.9239
G01 X17.1023 Y21.9085
G01 X17.2068 Y21.9034
G01 X17.3113 Y21.9085
G01 X17.4148 Y21.9239
G01 X17.5163 Y21.9493
G01 X17.6148 Y21.9845
G01 X17.7094 Y22.0293
G01 X17.7991 Y22.0830
G01 X17.8831 Y22.1454
G01 X17.9607 Y22.2156
G01 X18.0309 Y22.2931
G01 X18.0932 Y22.3772
G01 X18.1470 Y22.4669
G01 X18.1918 Y22.5615
G01 X18.2270 Y22.6600
G01 X18.2524 Y22.7615
G01 X18.2678 Y22.8650
G01 X18.2729 Y22.9695
G01 X18.2680 Y23.0707
G01 X18.2674 Y23.0772
G01 X18.2524 Y23.1775
G01 X18.2279 Y23.2758
G01 X18.2260 Y23.2820
G01 X18.1918 Y23.3775
G01 X18.1478 Y23.4706
G01 X18.0950 Y23.5590
G01 X18.0914 Y23.5644
G01 X18.0309 Y23.6458
G01 X17.9618 Y23.7222
G01 X17.8819 Y23.7946
G01 X17.8004 Y23.8550
G01 X17.7732 Y23.8715
G01 X17.7732 Y44.9722
G01 X18.5346 Y45.7336
G01 X40.9000 Y45.7336
G01 X40.9555 Y45.7364
G01 X41.0105 Y45.7445
G01 X41.0613 Y45.7572
G01 X41.0675 Y45.7591
G01 X41.1167 Y45.7768
G01 X41.1670 Y45.8005
G01 X41.2119 Y45.8274
G01 X41.2173 Y45.8310
G01 X41.2593 Y45.8622
G01 X41.2993 Y45.8984
G01 X42.4416 Y47.0407
G01 X42.4778 Y47.0807
G01 X42.5109 Y47.1254
G01 X42.5395 Y47.1730
G01 X42.5632 Y47.2233
G01 X42.5820 Y47.2756
G01 X42.5955 Y47.3295
G01 X42.6036 Y47.3845
G01 X42.6063 Y47.4384
G01 X42.6064 Y48.4509
G01 X42.6862 Y48.5101
G01 X42.7579 Y48.5750
G01 X42.7625 Y48.5796
G01 X42.8274 Y48.6513
G01 X42.8851 Y48.7289
G01 X42.8887 Y48.7343
G01 X42.9367 Y48.8145
G01 X42.9398 Y48.8202
G01 X42.9811 Y48.9077
G01 X43.0147 Y49.0018
G01 X43.0390 Y49.0988
G01 X43.0538 Y49.1993
G01 X43.0586 Y49.2975
G01 X43.0586 Y49.3941
G01 X43.0538 Y49.4907
G01 X43.0390 Y49.5912
G01 X43.0142 Y49.6897
G01 X42.9822 Y49.7793
G01 X42.9797 Y49.7853
G01 X42.9383 Y49.8727
G01 X42.8887 Y49.9557
G01 X42.8851 Y49.9611
G01 X42.8274 Y50.0387
G01 X42.7603 Y50.1128
G01 X42.6862 Y50.1799
G01 X42.6059 Y50.2394
G01 X42.5202 Y50.2908
G01 X42.4328 Y50.3322
G01 X42.4268 Y50.3347
G01 X42.3357 Y50.3672
G01 X42.2419 Y50.3908
G01 X42.2355 Y50.3921
G01 X42.1431 Y50.4058
G01 X42.1366 Y50.4064
G01 X42.0400 Y50.4111
G01 X41.9402 Y50.4062
G01 X41.8413 Y50.3915
G01 X41.7474 Y50.3681
G01 X41.7412 Y50.3662
G01 X41.6532 Y50.3347
G01 X41.6472 Y50.3322
G01 X41.5598 Y50.2908
G01 X41.4768 Y50.2412
G01 X41.4714 Y50.2376
G01 X41.3938 Y50.1799
G01 X41.3197 Y50.1128
G01 X41.2526 Y50.0387
G01 X41.1922 Y49.9570
G01 X41.1417 Y49.8727
G01 X41.0989 Y49.7823
G01 X41.0653 Y49.6882
G01 X41.0413 Y49.5928
G01 X41.0263 Y49.4923
G01 X41.0215 Y49.3957
G01 X41.0214 Y49.2959
G01 X41.0265 Y49.1960
G01 X41.0410 Y49.0988
G01 X41.0644 Y49.0049
G01 X41.0663 Y48.9987
G01 X41.0978 Y48.9107
G01 X41.1003 Y48.9047
G01 X41.1417 Y48.8173
G01 X41.1913 Y48.7343
G01 X41.1949 Y48.7289
G01 X41.2526 Y48.6513
G01 X41.3197 Y48.5772
G01 X41.3938 Y48.5101
G01 X41.4736 Y48.4509
G01 X41.4736 Y47.6746
G01 X40.6654 Y46.8664
G01 X18.3000 Y46.8664
G01 X18.2477 Y46.8639
G01 X18.2413 Y46.8632
G01 X18.1927 Y46.8560
G01 X18.1863 Y46.8548
G01 X18.1356 Y46.8420
G01 X18.0833 Y46.8232
G01 X18.0330 Y46.7995
G01 X17.9881 Y46.7726
G01 X17.9827 Y46.7690
G01 X17.9395 Y46.7368
G01 X17.8995 Y46.7005
G01 X16.8063 Y45.6073
G01 X16.7690 Y45.5661
G01 X16.7359 Y45.5215
G01 X16.7073 Y45.4738
G01 X16.6836 Y45.4235
G01 X16.6649 Y45.3712
G01 X16.6513 Y45.3173
G01 X16.6432 Y45.2623
G01 X16.6405 Y45.2068
G01 X16.6405 Y23.8715
G01 X16.6132 Y23.8550
G01 X16.5318 Y23.7946
G01 X16.4541 Y23.7245
G01 X16.3827 Y23.6458
G01 X16.3195 Y23.5604
G01 X16.2666 Y23.4720
G01 X16.2232 Y23.3804
G01 X16.2207 Y23.3744
G01 X16.1876 Y23.2820
G01 X16.1858 Y23.2758
G01 X16.1612 Y23.1775
G01 X16.1462 Y23.0772
G00 Z2.0000
G00 X13.5462 Y23.0972
G01 F20.00
G01 Z-0.0601
G01 F20.00
G01 X13.5456 Y23.0907
G01 X13.5407 Y22.9895
G01 X13.5458 Y22.8850
G01 X13.5612 Y22.7815
G01 X13.5866 Y22.6800
G01 X13.6219 Y22.5815
G01 X13.6666 Y22.4869
G01 X13.7204 Y22.3972
G01 X13.7827 Y22.3131
G01 X13.8530 Y22.2356
G01 X13.9305 Y22.1654
G01 X14.0145 Y22.1030
G01 X14.1043 Y22.0493
G01 X14.1988 Y22.0045
G01 X14.2973 Y21.9693
G01 X14.3988 Y21.9439
G01 X14.5023 Y21.9285
G01 X14.6068 Y21.9234
G01 X14.7113 Y21.9285
G01 X14.8148 Y21.9439
G01 X14.9163 Y21.9693
G01 X15.0148 Y22.0045
G01 X15.1094 Y22.0493
G01 X15.1991 Y22.1030
G01 X15.2831 Y22.1654
G01 X15.3607 Y22.2356
G01 X15.4309 Y22.3131
G01 X15.4932 Y22.3972
G01 X15.5470 Y22.4869
G01 X15.5918 Y22.5815
G01 X15.6270 Y22.6800
G01 X15.6524 Y22.7815
G01 X15.6678 Y22.8850
G01 X15.6729 Y22.9895
G01 X15.6678 Y23.0940
G01 X15.6524 Y23.1975
G01 X15.6270 Y23.2989
G01 X15.5918 Y23.3975
G01 X15.5470 Y23.4920
G01 X15.4932 Y23.5818
G01 X15.4309 Y23.6658
G01 X15.3607 Y23.7433
G01 X15.2831 Y23.8136
G01 X15.1991 Y23.8759
G01 X15.1094 Y23.9297
G01 X15.0148 Y23.9744
G01 X14.9163 Y24.0097
G01 X14.8148 Y24.0351
G01 X14.7113 Y24.0504
G01 X14.6068 Y24.0556
G01 X14.5023 Y24.0504
G01 X14.3988 Y24.0351
G01 X14.2973 Y24.0097
G01 X14.1988 Y23.9744
G01 X14.1043 Y23.9297
G01 X14.0145 Y23.8759
G01 X13.9305 Y23.8136
G01 X13.8530 Y23.7433
G01 X13.7827 Y23.6658
G01 X13.7204 Y23.5818
G01 X13.6666 Y23.4920
G01 X13.6219 Y23.3975
G01 X13.5866 Y23.2989
G01 X13.5612 Y23.1975
G01 X13.5462 Y23.0972
G00 Z2.0000
G00 X12.3329 Y21.9234
G01 F20.00
G01 Z-0.0601
G01 F20.00
G01 X12.3329 Y21.5556
G01 X13.0596 Y21.5556
G01 X13.1053 Y21.5603
G01 X13.1122 Y21.5620
G01 X13.2231 Y21.6033
G01 X13.2302 Y21.6072
G01 X13.3235 Y21.6771
G01 X13.3292 Y21.6828
G01 X13.3991 Y21.7761
G01 X13.4030 Y21.7832
G01 X13.4090 Y21.7986
G01 X13.4136 Y21.8066
G01 X13.4476 Y21.8571
G01 X13.4552 Y21.8656
G01 X13.4628 Y21.8718
G01 X13.4683 Y21.8753
G01 X13.5200 Y21.9042
G01 X13.5259 Y21.9070
G01 X13.5321 Y21.9091
G01 X13.5400 Y21.9109
G01 X13.5465 Y21.9117
G01 X13.6089 Y21.9143
G01 X13.6154 Y21.9139
G01 X13.6219 Y21.9129
G01 X13.6328 Y21.9096
G01 X13.6882 Y21.8845
G01 X13.6938 Y21.8816
G01 X13.7015 Y21.8765
G01 X13.8196 Y21.7845
G01 X14.0287 Y21.6714
G01 X14.2535 Y21.5942
G01 X14.4880 Y21.5551
G01 X14.7257 Y21.5551
G01 X14.9601 Y21.5942
G01 X15.1850 Y21.6714
G01 X15.3940 Y21.7845
G01 X15.5816 Y21.9305
G01 X15.7427 Y22.1055
G01 X15.7488 Y22.1136
G01 X15.7530 Y22.1186
G01 X15.7602 Y22.1251
G01 X15.7672 Y22.1299
G01 X15.7965 Y22.1568
G01 X15.8029 Y22.1620
G01 X15.8084 Y22.1655
G01 X15.8142 Y22.1685
G01 X15.8250 Y22.1723
G01 X15.8873 Y22.1880
G01 X15.8954 Y22.1891
G01 X15.9052 Y22.1891
G01 X15.9165 Y22.1872
G01 X15.9787 Y22.1714
G01 X15.9848 Y22.1692
G01 X15.9908 Y22.1663
G01 X15.9964 Y22.1629
G01 X16.0016 Y22.1590
G01 X16.0523 Y22.1121
G01 X16.0585 Y22.1045
G01 X16.0710 Y22.0854
G01 X16.2320 Y21.9105
G01 X16.4196 Y21.7645
G01 X16.6287 Y21.6514
G01 X16.8535 Y21.5742
G01 X17.0880 Y21.5351
G01 X17.3257 Y21.5351
G01 X17.5601 Y21.5742
G01 X17.7850 Y21.6514
G01 X17.9940 Y21.7645
G01 X18.1816 Y21.9105
G01 X18.3426 Y22.0854
G01 X18.3973 Y22.1692
G01 X18.4727 Y22.2844
G01 X18.5681 Y22.5021
G01 X18.6265 Y22.7326
G01 X18.6461 Y22.9695
G01 X18.6265 Y23.2064
G01 X18.5681 Y23.4368
G01 X18.4727 Y23.6545
G01 X18.3426 Y23.8535
G01 X18.1915 Y24.0178
G01 X18.1857 Y24.0250
G01 X18.1589 Y24.0678
G01 X18.1539 Y24.0782
G01 X18.1508 Y24.0892
G01 X18.1421 Y24.1358
G01 X18.1412 Y24.1450
G01 X18.1412 Y44.7410
G01 X18.1422 Y44.7523
G01 X18.1519 Y44.8014
G01 X18.1535 Y44.8077
G01 X18.1557 Y44.8138
G01 X18.1585 Y44.8196
G01 X18.1618 Y44.8252
G01 X18.1887 Y44.8654
G01 X18.1936 Y44.8719
G01 X18.6325 Y45.3111
G01 X18.6400 Y45.3172
G01 X18.6816 Y45.3450
G01 X18.6872 Y45.3484
G01 X18.6930 Y45.3511
G01 X18.6991 Y45.3533
G01 X18.7054 Y45.3549
G01 X18.7545 Y45.3646
G01 X18.7658 Y45.3656
G01 X40.8287 Y45.3656
G01 X40.8499 Y45.3644
G01 X40.8762 Y45.3611
G01 X40.9308 Y45.3652
G01 X40.9428 Y45.3656
G01 X40.9950 Y45.3656
G01 X41.0196 Y45.3706
G01 X41.0379 Y45.3733
G01 X41.0657 Y45.3755
G01 X41.1184 Y45.3905
G01 X41.1300 Y45.3933
G01 X41.1812 Y45.4039
G01 X41.2044 Y45.4138
G01 X41.2216 Y45.4200
G01 X41.2484 Y45.4278
G01 X41.2947 Y45.4520
G01 X41.3055 Y45.4571
G01 X41.3558 Y45.4788
G01 X41.3788 Y45.4946
G01 X41.3946 Y45.5041
G01 X41.4168 Y45.5158
G01 X41.4593 Y45.5504
G01 X41.4689 Y45.5575
G01 X41.5118 Y45.5874
G01 X41.5708 Y45.6494
G01 X42.6503 Y46.7288
G01 X42.6662 Y46.7430
G01 X42.6871 Y46.7593
G01 X42.7228 Y46.8008
G01 X42.7310 Y46.8095
G01 X42.7679 Y46.8465
G01 X42.7834 Y46.8697
G01 X42.7945 Y46.8844
G01 X42.8109 Y46.9035
G01 X42.8362 Y46.9492
G01 X42.8424 Y46.9594
G01 X42.8725 Y47.0051
G01 X42.8830 Y47.0310
G01 X42.8909 Y47.0477
G01 X42.9031 Y47.0696
G01 X42.9187 Y47.1195
G01 X42.9227 Y47.1307
G01 X42.9430 Y47.1816
G01 X42.9474 Y47.2063
G01 X42.9518 Y47.2243
G01 X42.9600 Y47.2509
G01 X42.9653 Y47.3029
G01 X42.9669 Y47.3147
G01 X42.9765 Y47.3687
G01 X42.9744 Y47.4542
G01 X42.9744 Y48.1906
G01 X42.9753 Y48.2013
G01 X42.9847 Y48.2511
G01 X42.9877 Y48.2605
G01 X42.9912 Y48.2679
G01 X43.0172 Y48.3096
G01 X43.0216 Y48.3159
G01 X43.1382 Y48.4427
G01 X43.2639 Y48.6351
G01 X43.3563 Y48.8456
G01 X43.4127 Y49.0684
G01 X43.4269 Y49.2401
G01 X43.4269 Y49.4499
G01 X43.4127 Y49.6216
G01 X43.3563 Y49.8444
G01 X43.2639 Y50.0549
G01 X43.1382 Y50.2473
G01 X42.9825 Y50.4164
G01 X42.8012 Y50.5575
G01 X42.5990 Y50.6669
G01 X42.3816 Y50.7416
G01 X42.1549 Y50.7794
G01 X41.9251 Y50.7794
G01 X41.6984 Y50.7416
G01 X41.4810 Y50.6669
G01 X41.2788 Y50.5575
G01 X41.0975 Y50.4164
G01 X40.9418 Y50.2473
G01 X40.9279 Y50.2261
G01 X40.9218 Y50.2184
G01 X40.8697 Y50.1706
G01 X40.8644 Y50.1667
G01 X40.8587 Y50.1635
G01 X40.8527 Y50.1608
G01 X40.8465 Y50.1587
G01 X40.7827 Y50.1426
G01 X40.7730 Y50.1414
G01 X40.7632 Y50.1417
G01 X40.7535 Y50.1434
G01 X40.6913 Y50.1592
G01 X40.6851 Y50.1614
G01 X40.6792 Y50.1642
G01 X40.6736 Y50.1676
G01 X40.6684 Y50.1716
G01 X40.6176 Y50.2184
G01 X40.6124 Y50.2248
G01 X40.5991 Y50.2450
G01 X40.5962 Y50.2487
G01 X40.4438 Y50.4143
G01 X40.4403 Y50.4175
G01 X40.2628 Y50.5557
G01 X40.2588 Y50.5583
G01 X40.0609 Y50.6653
G01 X40.0566 Y50.6673
G01 X39.8438 Y50.7403
G01 X39.8392 Y50.7415
G01 X39.8161 Y50.7453
G01 X39.8161 Y50.3600
G01 X39.8898 Y50.3336
G01 X39.9802 Y50.2908
G01 X40.0659 Y50.2394
G01 X40.1436 Y50.1819
G01 X40.1486 Y50.1778
G01 X40.2179 Y50.1150
G01 X40.2225 Y50.1104
G01 X40.2874 Y50.0387
G01 X40.3469 Y49.9584
G01 X40.3983 Y49.8727
G01 X40.4397 Y49.7853
G01 X40.4422 Y49.7793
G01 X40.4737 Y49.6913
G01 X40.4756 Y49.6851
G01 X40.4990 Y49.5912
G01 X40.5135 Y49.4940
G01 X40.5186 Y49.3941
G01 X40.5186 Y49.2975
G01 X40.5137 Y49.1977
G01 X40.4996 Y49.1020
G01 X40.4983 Y49.0956
G01 X40.4747 Y49.0018
G01 X40.4411 Y48.9077
G01 X40.3998 Y48.8202
G01 X40.3967 Y48.8145
G01 X40.3487 Y48.7343
G01 X40.3451 Y48.7289
G01 X40.2874 Y48.6513
G01 X40.2225 Y48.5796
G01 X40.2179 Y48.5750
G01 X40.1486 Y48.5122
G01 X40.1436 Y48.5081
G01 X40.0659 Y48.4506
G01 X39.9802 Y48.3992
G01 X39.8898 Y48.3564
G01 X39.8161 Y48.3300
G01 X39.8161 Y47.9447
G01 X39.8392 Y47.9485
G01 X39.8438 Y47.9497
G01 X40.0566 Y48.0227
G01 X40.0609 Y48.0247
G01 X40.2588 Y48.1317
G01 X40.2628 Y48.1343
G01 X40.4403 Y48.2725
G01 X40.4438 Y48.2757
G01 X40.5962 Y48.4413
G01 X40.5991 Y48.4450
G01 X40.6124 Y48.4652
G01 X40.6176 Y48.4716
G01 X40.6684 Y48.5184
G01 X40.6736 Y48.5223
G01 X40.6792 Y48.5258
G01 X40.6897 Y48.5303
G01 X40.7567 Y48.5474
G01 X40.7631 Y48.5483
G01 X40.7697 Y48.5487
G01 X40.7762 Y48.5483
G01 X40.7827 Y48.5474
G01 X40.8449 Y48.5317
G01 X40.8558 Y48.5279
G01 X40.8644 Y48.5233
G01 X40.8710 Y48.5184
G01 X40.9195 Y48.4739
G01 X40.9270 Y48.4652
G01 X40.9418 Y48.4427
G01 X41.0554 Y48.3194
G01 X41.0611 Y48.3122
G01 X41.0879 Y48.2693
G01 X41.0923 Y48.2605
G01 X41.0957 Y48.2495
G01 X41.1045 Y48.2028
G01 X41.1053 Y48.1967
G01 X41.1056 Y48.1906
G01 X41.1056 Y47.9058
G01 X41.1053 Y47.8993
G01 X41.1043 Y47.8929
G01 X41.0949 Y47.8454
G01 X41.0917 Y47.8345
G01 X41.0891 Y47.8286
G01 X41.0859 Y47.8230
G01 X41.0581 Y47.7814
G01 X41.0543 Y47.7762
G01 X41.0499 Y47.7714
G01 X40.5663 Y47.2878
G01 X40.5600 Y47.2828
G01 X40.5184 Y47.2550
G01 X40.5128 Y47.2516
G01 X40.5070 Y47.2489
G01 X40.4962 Y47.2454
G01 X40.4423 Y47.2349
G01 X40.4342 Y47.2344
G01 X18.3713 Y47.2344
G01 X18.3501 Y47.2356
G01 X18.3238 Y47.2389
G01 X18.2717 Y47.2349
G01 X18.2598 Y47.2344
G01 X18.2050 Y47.2344
G01 X18.1804 Y47.2294
G01 X18.1621 Y47.2267
G01 X18.1343 Y47.2245
G01 X18.0816 Y47.2095
G01 X18.0700 Y47.2067
G01 X18.0188 Y47.1961
G01 X17.9956 Y47.1862
G01 X17.9784 Y47.1800
G01 X17.9516 Y47.1722
G01 X17.9053 Y47.1480
G01 X17.8945 Y47.1429
G01 X17.8442 Y47.1212
G01 X17.8236 Y47.1069
G01 X17.8078 Y47.0972
G01 X17.7831 Y47.0842
G01 X17.7426 Y47.0512
G01 X17.7331 Y47.0440
G01 X17.6882 Y47.0126
G01 X17.6292 Y46.9506
G01 X16.5965 Y45.9180
G01 X16.5806 Y45.9038
G01 X16.5597 Y45.8876
G01 X16.5240 Y45.8460
G01 X16.5159 Y45.8373
G01 X16.4789 Y45.8003
G01 X16.4651 Y45.7794
G01 X16.4540 Y45.7646
G01 X16.4359 Y45.7434
G01 X16.4093 Y45.6955
G01 X16.4031 Y45.6853
G01 X16.3743 Y45.6417
G01 X16.3639 Y45.6158
G01 X16.3559 Y45.5991
G01 X16.3437 Y45.5772
G01 X16.3273 Y45.5249
G01 X16.3232 Y45.5137
G01 X16.3038 Y45.4652
G01 X16.2988 Y45.4378
G01 X16.2943 Y45.4198
G01 X16.2868 Y45.3959
G01 X16.2812 Y45.3414
G01 X16.2795 Y45.3296
G01 X16.2703 Y45.2781
G01 X16.2724 Y45.1925
G01 X16.2724 Y24.1465
G01 X16.2715 Y24.1358
G01 X16.2625 Y24.0876
G01 X16.2597 Y24.0782
G01 X16.2556 Y24.0693
G01 X16.2296 Y24.0275
G01 X16.2242 Y24.0201
G01 X16.0710 Y23.8535
G01 X16.0638 Y23.8441
G01 X16.0572 Y23.8370
G01 X16.0522 Y23.8329
G01 X16.0464 Y23.8291
G01 X16.0134 Y23.7989
G01 X16.0067 Y23.7942
G01 X15.9994 Y23.7904
G01 X15.9902 Y23.7871
G01 X15.9280 Y23.7713
G01 X15.9183 Y23.7699
G01 X15.9084 Y23.7699
G01 X15.8971 Y23.7717
G01 X15.8349 Y23.7875
G01 X15.8288 Y23.7898
G01 X15.8229 Y23.7926
G01 X15.8173 Y23.7960
G01 X15.8120 Y23.7999
G01 X15.7613 Y23.8468
G01 X15.7551 Y23.8545
G01 X15.7426 Y23.8735
G01 X15.5816 Y24.0484
G01 X15.3940 Y24.1944
G01 X15.1850 Y24.3076
G01 X14.9601 Y24.3848
G01 X14.7257 Y24.4239
G01 X14.4880 Y24.4239
G01 X14.2535 Y24.3848
G01 X14.0286 Y24.3076
G01 X13.8196 Y24.1944
G01 X13.7015 Y24.1025
G01 X13.6937 Y24.0973
G01 X13.6882 Y24.0945
G01 X13.6313 Y24.0688
G01 X13.6251 Y24.0668
G01 X13.6187 Y24.0655
G01 X13.6073 Y24.0647
G01 X13.5465 Y24.0673
G01 X13.5400 Y24.0680
G01 X13.5321 Y24.0698
G01 X13.5259 Y24.0720
G01 X13.5200 Y24.0748
G01 X13.4683 Y24.1037
G01 X13.4628 Y24.1071
G01 X13.4540 Y24.1145
G01 X13.4476 Y24.1218
G01 X13.4136 Y24.1723
G01 X13.4090 Y24.1804
G01 X13.4030 Y24.1957
G01 X13.3991 Y24.2028
G01 X13.3292 Y24.2962
G01 X13.3235 Y24.3019
G01 X13.2302 Y24.3718
G01 X13.2231 Y24.3756
G01 X13.1122 Y24.4170
G01 X13.1053 Y24.4186
G01 X13.0596 Y24.4234
G01 X12.3329 Y24.4234
G01 X12.3329 Y24.0556
G01 X13.0217 Y24.0554
G01 X13.0313 Y24.0540
G01 X13.0421 Y24.0505
G01 X13.0508 Y24.0462
G01 X13.0587 Y24.0406
G01 X13.0658 Y24.0339
G01 X13.0718 Y24.0262
G01 X13.0766 Y24.0177
G01 X13.0801 Y24.0087
G01 X13.0822 Y23.9992
G01 X13.0829 Y23.9895
G01 X13.0829 Y21.9895
G01 X13.0819 Y21.9782
G01 X13.0805 Y21.9718
G01 X13.0785 Y21.9657
G01 X13.0735 Y21.9555
G01 X13.0699 Y21.9501
G01 X13.0658 Y21.9451
G01 X13.0612 Y21.9405
G01 X13.0562 Y21.9364
G01 X13.0465 Y21.9304
G01 X13.0406 Y21.9278
G01 X13.0344 Y21.9258
G01 X13.0233 Y21.9237
G01 X13.0168 Y21.9234
G01 X12.3329 Y21.9234
G00 Z2.0000
G00 X10.5829 Y22.6734
G01 F20.00
G01 Z-0.0601
G01 F20.00
G01 X10.5829 Y21.9467
G01 X10.5877 Y21.9010
G01 X10.5893 Y21.8941
G01 X10.6306 Y21.7832
G01 X10.6345 Y21.7761
G01 X10.7044 Y21.6828
G01 X10.7101 Y21.6771
G01 X10.8035 Y21.6072
G01 X10.8106 Y21.6033
G01 X10.9214 Y21.5620
G01 X10.9283 Y21.5603
G01 X10.9741 Y21.5556
G01 X11.7007 Y21.5556
G01 X11.7007 Y21.9234
G01 X11.0152 Y21.9234
G01 X11.0055 Y21.9244
G01 X10.9961 Y21.9267
G01 X10.9871 Y21.9304
G01 X10.9801 Y21.9345
G01 X10.9736 Y21.9394
G01 X10.9689 Y21.9439
G01 X10.9637 Y21.9501
G01 X10.9593 Y21.9569
G01 X10.9557 Y21.9642
G01 X10.9531 Y21.9718
G01 X10.9514 Y21.9798
G01 X10.9508 Y21.9862
G01 X10.9507 Y22.6734
G01 X10.5829 Y22.6734
G00 Z2.0000
G00 X10.5829 Y24.0322
G01 F20.00
G01 Z-0.0601
G01 F20.00
G01 X10.5829 Y23.3056
G01 X10.9507 Y23.3056
G01 X10.9507 Y23.9911
G01 X10.9514 Y23.9992
G01 X10.9536 Y24.0087
G01 X10.9571 Y24.0177
G01 X10.9619 Y24.0262
G01 X10.9668 Y24.0327
G01 X10.9712 Y24.0373
G01 X10.9774 Y24.0426
G01 X10.9842 Y24.0470
G01 X10.9915 Y24.0505
G01 X10.9992 Y24.0532
G01 X11.0071 Y24.0549
G01 X11.0136 Y24.0555
G01 X11.7007 Y24.0556
G01 X11.7007 Y24.4234
G01 X10.9741 Y24.4234
G01 X10.9283 Y24.4186
G01 X10.9214 Y24.4170
G01 X10.8106 Y24.3756
G01 X10.8035 Y24.3718
G01 X10.7101 Y24.3019
G01 X10.7044 Y24.2962
G01 X10.6345 Y24.2028
G01 X10.6306 Y24.1957
G01 X10.5893 Y24.0849
G01 X10.5877 Y24.0780
G01 X10.5829 Y24.0322
G00 Z2.0000
G00 X20.6611 Y26.8000
G01 F20.00
G01 Z-0.0601
G01 F20.00
G01 X20.6648 Y26.7618
G01 X20.6656 Y26.7448
G01 X20.6656 Y17.9713
G01 X20.6644 Y17.9501
G01 X20.6611 Y17.9238
G01 X20.6652 Y17.8692
G01 X20.6656 Y17.8572
G01 X20.6656 Y17.8050
G01 X20.6706 Y17.7804
G01 X20.6733 Y17.7621
G01 X20.6755 Y17.7343
G01 X20.6905 Y17.6816
G01 X20.6933 Y17.6700
G01 X20.7039 Y17.6188
G01 X20.7147 Y17.5931
G01 X20.7209 Y17.5757
G01 X20.7278 Y17.5516
G01 X20.7520 Y17.5053
G01 X20.7571 Y17.4945
G01 X20.7788 Y17.4442
G01 X20.7946 Y17.4212
G01 X20.8041 Y17.4054
G01 X20.8158 Y17.3832
G01 X20.8504 Y17.3407
G01 X20.8575 Y17.3311
G01 X20.8874 Y17.2882
G01 X20.9494 Y17.2292
G01 X22.0002 Y16.1783
G01 X22.0117 Y16.1658
G01 X22.0361 Y16.1361
G01 X22.0658 Y16.1117
G01 X22.0760 Y16.1025
G01 X22.1065 Y16.0721
G01 X22.1395 Y16.0502
G01 X22.1513 Y16.0415
G01 X22.1784 Y16.0193
G01 X22.2139 Y16.0003
G01 X22.2264 Y15.9930
G01 X22.2651 Y15.9675
G01 X22.2988 Y15.9540
G01 X22.3129 Y15.9474
G01 X22.3407 Y15.9326
G01 X22.3827 Y15.9198
G01 X22.3954 Y15.9154
G01 X22.4416 Y15.8970
G01 X22.4740 Y15.8911
G01 X22.4900 Y15.8872
G01 X22.5168 Y15.8791
G01 X22.5641 Y15.8745
G01 X22.5764 Y15.8728
G01 X22.6287 Y15.8635
G01 X22.6582 Y15.8641
G01 X22.6762 Y15.8634
G01 X22.7000 Y15.8611
G01 X22.7508 Y15.8661
G01 X22.7622 Y15.8668
G01 X22.8187 Y15.8683
G01 X22.8442 Y15.8741
G01 X22.8629 Y15.8771
G01 X22.8832 Y15.8791
G01 X22.9355 Y15.8950
G01 X22.9455 Y15.8977
G01 X23.0038 Y15.9113
G01 X23.0246 Y15.9207
G01 X23.0418 Y15.9272
G01 X23.0593 Y15.9325
G01 X23.1191 Y15.9642
G01 X23.1765 Y15.9906
G01 X23.1922 Y16.0020
G01 X23.2085 Y16.0122
G01 X23.2216 Y16.0193
G01 X23.2760 Y16.0637
G01 X23.3296 Y16.1031
G01 X23.3406 Y16.1149
G01 X23.3551 Y16.1287
G01 X23.3639 Y16.1361
G01 X23.4102 Y16.1922
G01 X23.4570 Y16.2441
G01 X23.4637 Y16.2550
G01 X23.4757 Y16.2721
G01 X23.4807 Y16.2784
G01 X23.5163 Y16.3447
G01 X23.5534 Y16.4079
G01 X23.5567 Y16.4166
G01 X23.5674 Y16.4407
G01 X23.5901 Y16.5151
G01 X23.6149 Y16.5877
G01 X23.6209 Y16.6168
G01 X23.6288 Y16.6969
G01 X23.6389 Y16.7762
G01 X23.6386 Y16.7939
G01 X23.6389 Y16.8000
G01 X23.6308 Y16.8826
G01 X23.6245 Y16.9657
G01 X23.6220 Y16.9763
G01 X23.6209 Y16.9831
G01 X23.5961 Y17.0650
G01 X23.5722 Y17.1484
G01 X23.5677 Y17.1589
G01 X23.5260 Y17.2368
G01 X23.4841 Y17.3170
G01 X23.4818 Y17.3203
G01 X23.3639 Y17.4639
G01 X23.3342 Y17.4883
G01 X23.3217 Y17.4998
G01 X22.5878 Y18.2337
G01 X22.5828 Y18.2400
G01 X22.5550 Y18.2816
G01 X22.5516 Y18.2872
G01 X22.5489 Y18.2930
G01 X22.5467 Y18.2991
G01 X22.5451 Y18.3054
G01 X22.5354 Y18.3545
G01 X22.5344 Y18.3642
G01 X22.5344 Y26.7448
G01 X22.5352 Y26.7618
G01 X22.5389 Y26.8000
G01 X22.5352 Y26.8382
G01 X22.5344 Y26.8552
G01 X22.5345 Y33.2375
G01 X22.5354 Y33.2455
G01 X22.5451 Y33.2946
G01 X22.5467 Y33.3009
G01 X22.5489 Y33.3070
G01 X22.5516 Y33.3128
G01 X22.5550 Y33.3184
G01 X22.5828 Y33.3600
G01 X22.5889 Y33.3675
G01 X23.1325 Y33.9111
G01 X23.1400 Y33.9172
G01 X23.1843 Y33.9468
G01 X23.1945 Y33.9517
G01 X23.2038 Y33.9546
G01 X23.2545 Y33.9646
G01 X23.2658 Y33.9656
G01 X45.0144 Y33.9656
G01 X45.0398 Y33.9638
G01 X45.0524 Y33.9620
G01 X45.1285 Y33.9656
G01 X50.0342 Y33.9656
G01 X50.0407 Y33.9653
G01 X50.0471 Y33.9643
G01 X50.0962 Y33.9546
G01 X50.1039 Y33.9523
G01 X50.1114 Y33.9491
G01 X50.1184 Y33.9450
G01 X50.1600 Y33.9172
G01 X50.1686 Y33.9099
G01 X52.2099 Y31.8686
G01 X52.2172 Y31.8600
G01 X52.2459 Y31.8170
G01 X52.2498 Y31.8099
G01 X52.2528 Y31.8024
G01 X52.2549 Y31.7946
G01 X52.2643 Y31.7471
G01 X52.2653 Y31.7407
G01 X52.2656 Y31.7342
G01 X52.2656 Y23.7552
G01 X52.2648 Y23.7382
G01 X52.2611 Y23.7000
G01 X52.2648 Y23.6618
G01 X52.2655 Y23.6480
G01 X52.2656 Y23.6050
G01 X52.2735 Y23.5661
G01 X52.2757 Y23.5516
G01 X52.2791 Y23.5168
G01 X52.2908 Y23.4782
G01 X52.2944 Y23.4643
G01 X52.3039 Y23.4188
G01 X52.3181 Y23.3854
G01 X52.3234 Y23.3708
G01 X52.3325 Y23.3407
G01 X52.3533 Y23.3019
G01 X52.3591 Y23.2899
G01 X52.3788 Y23.2442
G01 X52.3975 Y23.2171
G01 X52.4061 Y23.2030
G01 X52.4193 Y23.1784
G01 X52.4494 Y23.1416
G01 X52.4570 Y23.1318
G01 X52.4874 Y23.0882
G01 X52.5087 Y23.0677
G01 X52.5209 Y23.0545
G01 X52.5361 Y23.0361
G01 X52.5755 Y23.0037
G01 X52.5841 Y22.9962
G01 X52.6251 Y22.9573
G01 X52.6473 Y22.9433
G01 X52.6626 Y22.9322
G01 X52.6784 Y22.9193
G01 X52.7265 Y22.8936
G01 X52.7356 Y22.8884
G01 X52.7864 Y22.8568
G01 X52.8077 Y22.8487
G01 X52.8245 Y22.8411
G01 X52.8407 Y22.8325
G01 X52.9053 Y22.8127
G01 X52.9646 Y22.7908
G01 X52.9838 Y22.7876
G01 X53.0025 Y22.7834
G01 X53.0168 Y22.7791
G01 X53.0867 Y22.7720
G01 X53.1524 Y22.7620
G01 X53.1685 Y22.7626
G01 X53.1886 Y22.7621
G01 X53.2000 Y22.7611
G01 X53.2724 Y22.7681
G01 X53.3422 Y22.7716
G01 X53.3546 Y22.7746
G01 X53.3752 Y22.7782
G01 X53.3832 Y22.7791
G01 X53.4553 Y22.8009
G01 X53.5262 Y22.8192
G01 X53.5347 Y22.8232
G01 X53.5593 Y22.8325
G01 X53.6280 Y22.8692
G01 X53.6968 Y22.9029
G01 X53.7216 Y22.9193
G01 X53.7838 Y22.9703
G01 X53.8471 Y23.0193
G01 X53.8594 Y23.0320
G01 X53.8639 Y23.0361
G01 X53.9166 Y23.1002
G01 X53.9709 Y23.1635
G01 X53.9766 Y23.1727
G01 X53.9807 Y23.1783
G01 X54.0201 Y23.2521
G01 X54.0631 Y23.3296
G01 X54.0673 Y23.3402
G01 X54.0930 Y23.4250
G01 X54.1200 Y23.5111
G01 X54.1207 Y23.5152
G01 X54.1389 Y23.7000
G01 X54.1352 Y23.7382
G01 X54.1344 Y23.7552
G01 X54.1344 Y32.1287
G01 X54.1356 Y32.1499
G01 X54.1389 Y32.1762
G01 X54.1349 Y32.2283
G01 X54.1344 Y32.2402
G01 X54.1344 Y32.2950
G01 X54.1294 Y32.3196
G01 X54.1267 Y32.3379
G01 X54.1245 Y32.3657
G01 X54.1095 Y32.4184
G01 X54.1067 Y32.4300
G01 X54.0961 Y32.4812
G01 X54.0853 Y32.5069
G01 X54.0791 Y32.5243
G01 X54.0722 Y32.5484
G01 X54.0480 Y32.5947
G01 X54.0429 Y32.6055
G01 X54.0212 Y32.6558
G01 X54.0054 Y32.6788
G01 X53.9959 Y32.6946
G01 X53.9842 Y32.7168
G01 X53.9512 Y32.7574
G01 X53.9440 Y32.7669
G01 X53.9126 Y32.8118
G01 X53.8507 Y32.8708
G01 X51.2111 Y35.5103
G01 X51.1970 Y35.5262
G01 X51.1807 Y35.5471
G01 X51.1411 Y35.5811
G01 X51.1323 Y35.5892
G01 X51.0935 Y35.6279
G01 X51.0703 Y35.6434
G01 X51.0556 Y35.6545
G01 X51.0365 Y35.6709
G01 X50.9887 Y35.6975
G01 X50.9785 Y35.7037
G01 X50.9349 Y35.7325
G01 X50.9116 Y35.7418
G01 X50.8948 Y35.7497
G01 X50.8704 Y35.7631
G01 X50.8181 Y35.7795
G01 X50.8069 Y35.7836
G01 X50.7584 Y35.8030
G01 X50.7337 Y35.8074
G01 X50.7157 Y35.8118
G01 X50.6891 Y35.8200
G01 X50.6346 Y35.8256
G01 X50.6228 Y35.8273
G01 X50.5713 Y35.8365
G01 X50.4857 Y35.8344
G01 X46.2214 Y35.8345
G01 X46.2151 Y35.8351
G01 X46.2089 Y35.8363
G01 X46.1438 Y35.8537
G01 X46.1346 Y35.8572
G01 X46.1259 Y35.8620
G01 X46.1169 Y35.8692
G01 X46.0681 Y35.9181
G01 X46.0630 Y35.9246
G01 X46.0595 Y35.9302
G01 X46.0565 Y35.9361
G01 X46.0537 Y35.9438
G01 X46.0363 Y36.0089
G01 X46.0349 Y36.0167
G01 X46.0344 Y36.0245
G01 X46.0344 Y48.9342
G01 X46.0349 Y48.9423
G01 X46.0454 Y48.9962
G01 X46.0472 Y49.0024
G01 X46.0495 Y49.0085
G01 X46.0550 Y49.0184
G01 X46.0828 Y49.0600
G01 X46.0889 Y49.0675
G01 X46.8464 Y49.8249
G01 X46.8550 Y49.8322
G01 X46.8966 Y49.8600
G01 X46.9022 Y49.8634
G01 X46.9111 Y49.8673
G01 X46.9188 Y49.8696
G01 X46.9695 Y49.8796
G01 X46.9792 Y49.8806
G01 X47.7759 Y49.8806
G01 X47.7843 Y49.8798
G01 X47.7908 Y49.8785
G01 X47.8610 Y49.8584
G01 X47.8683 Y49.8554
G01 X47.8753 Y49.8515
G01 X47.8818 Y49.8468
G01 X47.8876 Y49.8414
G01 X47.9355 Y49.7885
G01 X47.9404 Y49.7822
G01 X47.9451 Y49.7739
G01 X47.9481 Y49.7665
G01 X47.9502 Y49.7587
G01 X47.9632 Y49.6869
G01 X47.9637 Y49.6802
G01 X47.9635 Y49.6719
G01 X47.9510 Y49.5450
G01 X47.9695 Y49.3569
G01 X48.0271 Y49.1667
G01 X48.0288 Y49.1571
G01 X48.0290 Y49.1474
G01 X48.0345 Y49.1153
G01 X48.0351 Y49.1055
G01 X48.0346 Y49.0974
G01 X48.0331 Y49.0893
G01 X48.0167 Y49.0318
G01 X48.0128 Y49.0228
G01 X48.0038 Y49.0063
G01 X47.9625 Y48.8954
G01 X47.9609 Y48.8885
G01 X47.9561 Y48.8428
G01 X47.9561 Y48.5911
G01 X48.3239 Y48.5911
G01 X48.3239 Y48.8000
G01 X48.3244 Y48.8081
G01 X48.3259 Y48.8161
G01 X48.3296 Y48.8268
G01 X48.3342 Y48.8354
G01 X48.3410 Y48.8444
G01 X48.3493 Y48.8521
G01 X48.3588 Y48.8583
G01 X48.3693 Y48.8628
G01 X48.3803 Y48.8654
G01 X48.3900 Y48.8661
G01 X49.8900 Y48.8661
G01 X49.9013 Y48.8651
G01 X49.9107 Y48.8628
G01 X49.9197 Y48.8590
G01 X49.9294 Y48.8531
G01 X49.9367 Y48.8467
G01 X49.9431 Y48.8394
G01 X49.9483 Y48.8312
G01 X49.9522 Y48.8223
G01 X49.9548 Y48.8129
G01 X49.9558 Y48.8065
G01 X49.9561 Y48.8000
G01 X49.9561 Y48.5911
G01 X50.3650 Y48.5911
G01 X50.3796 Y48.5950
G01 X50.3867 Y48.5978
G01 X50.3930 Y48.5996
G01 X50.4436 Y48.6096
G01 X50.4549 Y48.6106
G01 X56.9892 Y48.6106
G01 X57.0005 Y48.6096
G01 X57.0543 Y48.5988
G01 X57.0635 Y48.5955
G01 X57.0720 Y48.5909
G01 X57.1150 Y48.5622
G01 X57.1236 Y48.5549
G01 X58.6111 Y47.0675
G01 X58.6172 Y47.0600
G01 X58.6450 Y47.0184
G01 X58.6484 Y47.0128
G01 X58.6511 Y47.0070
G01 X58.6533 Y47.0009
G01 X58.6549 Y46.9946
G01 X58.6646 Y46.9455
G01 X58.6655 Y46.9375
G01 X58.6656 Y9.9904
G01 X58.6651 Y9.9820
G01 X58.6588 Y9.9414
G01 X58.6568 Y9.9333
G01 X58.6538 Y9.9254
G01 X58.6364 Y9.8901
G01 X58.6331 Y9.8842
G01 X58.5704 Y9.7945
G01 X58.4828 Y9.6066
G01 X58.4291 Y9.4065
G01 X58.4111 Y9.2000
G01 X58.4291 Y8.9935
G01 X58.4828 Y8.7934
G01 X58.5704 Y8.6055
G01 X58.6340 Y8.5144
G01 X58.6545 Y8.4731
G01 X58.6568 Y8.4667
G01 X58.6588 Y8.4586
G01 X58.6651 Y8.4180
G01 X58.6656 Y8.4096
G01 X58.6656 Y7.9713
G01 X58.6644 Y7.9501
G01 X58.6611 Y7.9238
G01 X58.6652 Y7.8692
G01 X58.6656 Y7.8572
G01 X58.6656 Y7.8050
G01 X58.6706 Y7.7804
G01 X58.6733 Y7.7621
G01 X58.6755 Y7.7343
G01 X58.6905 Y7.6816
G01 X58.6933 Y7.6700
G01 X58.7039 Y7.6188
G01 X58.7147 Y7.5931
G01 X58.7209 Y7.5757
G01 X58.7278 Y7.5516
G01 X58.7520 Y7.5053
G01 X58.7571 Y7.4945
G01 X58.7788 Y7.4442
G01 X58.7946 Y7.4212
G01 X58.8041 Y7.4054
G01 X58.8158 Y7.3832
G01 X58.8504 Y7.3407
G01 X58.8575 Y7.3311
G01 X58.8874 Y7.2882
G01 X58.9494 Y7.2292
G01 X59.6888 Y6.4897
G01 X59.7030 Y6.4738
G01 X59.7193 Y6.4529
G01 X59.7608 Y6.4172
G01 X59.7695 Y6.4090
G01 X59.8065 Y6.3721
G01 X59.8297 Y6.3566
G01 X59.8444 Y6.3455
G01 X59.8635 Y6.3291
G01 X59.9091 Y6.3038
G01 X59.9194 Y6.2976
G01 X59.9651 Y6.2675
G01 X59.9910 Y6.2570
G01 X60.0077 Y6.2491
G01 X60.0296 Y6.2369
G01 X60.0819 Y6.2204
G01 X60.0931 Y6.2164
G01 X60.1416 Y6.1970
G01 X60.1663 Y6.1926
G01 X60.1843 Y6.1882
G01 X60.2109 Y6.1800
G01 X60.2629 Y6.1747
G01 X60.2748 Y6.1731
G01 X60.3287 Y6.1635
G01 X60.4143 Y6.1656
G01 X92.5287 Y6.1656
G01 X92.5499 Y6.1644
G01 X92.5762 Y6.1611
G01 X92.6308 Y6.1652
G01 X92.6428 Y6.1656
G01 X92.6950 Y6.1656
G01 X92.7196 Y6.1706
G01 X92.7379 Y6.1733
G01 X92.7657 Y6.1755
G01 X92.8184 Y6.1905
G01 X92.8300 Y6.1933
G01 X92.8812 Y6.2039
G01 X92.9044 Y6.2138
G01 X92.9216 Y6.2200
G01 X92.9484 Y6.2278
G01 X92.9947 Y6.2520
G01 X93.0055 Y6.2571
G01 X93.0558 Y6.2788
G01 X93.0788 Y6.2946
G01 X93.0946 Y6.3041
G01 X93.1168 Y6.3158
G01 X93.1593 Y6.3504
G01 X93.1689 Y6.3575
G01 X93.2118 Y6.3874
G01 X93.2708 Y6.4494
G01 X94.4103 Y7.5888
G01 X94.4262 Y7.6030
G01 X94.4471 Y7.6193
G01 X94.4828 Y7.6608
G01 X94.4910 Y7.6695
G01 X94.5279 Y7.7065
G01 X94.5434 Y7.7297
G01 X94.5545 Y7.7444
G01 X94.5709 Y7.7635
G01 X94.5962 Y7.8092
G01 X94.6024 Y7.8194
G01 X94.6325 Y7.8651
G01 X94.6430 Y7.8910
G01 X94.6509 Y7.9077
G01 X94.6631 Y7.9296
G01 X94.6787 Y7.9795
G01 X94.6827 Y7.9907
G01 X94.7030 Y8.0416
G01 X94.7074 Y8.0663
G01 X94.7118 Y8.0843
G01 X94.7200 Y8.1109
G01 X94.7256 Y8.1654
G01 X94.7273 Y8.1772
G01 X94.7365 Y8.2287
G01 X94.7344 Y8.3142
G01 X94.7344 Y9.2448
G01 X94.7352 Y9.2618
G01 X94.7389 Y9.3000
G01 X94.7352 Y9.3382
G01 X94.7345 Y9.3520
G01 X94.7344 Y9.3950
G01 X94.7265 Y9.4339
G01 X94.7243 Y9.4484
G01 X94.7209 Y9.4832
G01 X94.7092 Y9.5218
G01 X94.7056 Y9.5357
G01 X94.6961 Y9.5812
G01 X94.6819 Y9.6146
G01 X94.6766 Y9.6292
G01 X94.6674 Y9.6593
G01 X94.6467 Y9.6981
G01 X94.6409 Y9.7101
G01 X94.6212 Y9.7558
G01 X94.6025 Y9.7829
G01 X94.5939 Y9.7969
G01 X94.5807 Y9.8216
G01 X94.5506 Y9.8583
G01 X94.5430 Y9.8682
G01 X94.5126 Y9.9118
G01 X94.4913 Y9.9323
G01 X94.4791 Y9.9455
G01 X94.4639 Y9.9639
G01 X94.4245 Y9.9963
G01 X94.4159 Y10.0038
G01 X94.3749 Y10.0427
G01 X94.3527 Y10.0567
G01 X94.3374 Y10.0678
G01 X94.3216 Y10.0807
G01 X94.2735 Y10.1064
G01 X94.2644 Y10.1116
G01 X94.2136 Y10.1432
G01 X94.1923 Y10.1513
G01 X94.1755 Y10.1589
G01 X94.1593 Y10.1675
G01 X94.0947 Y10.1873
G01 X94.0354 Y10.2092
G01 X94.0162 Y10.2123
G01 X93.9975 Y10.2166
G01 X93.9832 Y10.2209
G01 X93.9134 Y10.2280
G01 X93.8476 Y10.2380
G01 X93.8315 Y10.2374
G01 X93.8114 Y10.2379
G01 X93.8000 Y10.2389
G01 X93.7276 Y10.2319
G01 X93.6578 Y10.2284
G01 X93.6454 Y10.2254
G01 X93.6248 Y10.2218
G01 X93.6168 Y10.2209
G01 X93.5447 Y10.1991
G01 X93.4738 Y10.1808
G01 X93.4653 Y10.1768
G01 X93.4407 Y10.1674
G01 X93.3719 Y10.1308
G01 X93.3032 Y10.0971
G01 X93.2784 Y10.0807
G01 X93.2161 Y10.0297
G01 X93.1529 Y9.9807
G01 X93.1406 Y9.9680
G01 X93.1361 Y9.9639
G01 X93.0834 Y9.8998
G01 X93.0291 Y9.8365
G01 X93.0234 Y9.8273
G01 X93.0193 Y9.8217
G01 X92.9790 Y9.7462
G01 X92.9369 Y9.6704
G01 X92.9327 Y9.6598
G01 X92.9069 Y9.5749
G01 X92.8799 Y9.4889
G01 X92.8793 Y9.4848
G01 X92.8611 Y9.3000
G01 X92.8648 Y9.2618
G01 X92.8656 Y9.2448
G01 X92.8655 Y8.7625
G01 X92.8643 Y8.7529
G01 X92.8546 Y8.7038
G01 X92.8523 Y8.6961
G01 X92.8491 Y8.6886
G01 X92.8450 Y8.6816
G01 X92.8181 Y8.6414
G01 X92.8111 Y8.6325
G01 X92.2663 Y8.0878
G01 X92.2600 Y8.0828
G01 X92.2184 Y8.0550
G01 X92.2128 Y8.0516
G01 X92.2070 Y8.0489
G01 X92.2009 Y8.0467
G01 X92.1946 Y8.0451
G01 X92.1455 Y8.0354
G01 X92.1375 Y8.0345
G01 X63.9637 Y8.0346
G01 X63.9544 Y8.0359
G01 X63.8950 Y8.0501
G01 X63.8888 Y8.0521
G01 X63.8813 Y8.0555
G01 X63.8743 Y8.0597
G01 X63.8691 Y8.0638
G01 X63.8239 Y8.1024
G01 X63.8192 Y8.1070
G01 X63.8150 Y8.1121
G01 X63.8105 Y8.1190
G01 X63.8070 Y8.1263
G01 X63.7842 Y8.1813
G01 X63.7810 Y8.1923
G01 X63.7799 Y8.2005
G01 X63.7799 Y8.2087
G01 X63.7847 Y8.2696
G01 X63.7868 Y8.2809
G01 X63.7889 Y8.2871
G01 X63.7916 Y8.2931
G01 X63.8269 Y8.3506
G01 X63.8339 Y8.3589
G01 X63.9108 Y8.4358
G01 X64.0296 Y8.6055
G01 X64.1172 Y8.7934
G01 X64.1709 Y8.9935
G01 X64.1889 Y9.2000
G01 X64.1709 Y9.4065
G01 X64.1172 Y9.6066
G01 X64.0296 Y9.7945
G01 X63.9108 Y9.9642
G01 X63.7642 Y10.1108
G01 X63.5945 Y10.2296
G01 X63.4066 Y10.3172
G01 X63.2065 Y10.3709
G01 X63.0000 Y10.3889
G01 X62.7935 Y10.3709
G01 X62.5934 Y10.3172
G01 X62.4055 Y10.2296
G01 X62.2358 Y10.1108
G01 X62.0892 Y9.9642
G01 X61.9704 Y9.7945
G01 X61.8828 Y9.6066
G01 X61.8291 Y9.4065
G01 X61.8111 Y9.2000
G01 X61.8291 Y8.9935
G01 X61.8828 Y8.7934
G01 X61.9704 Y8.6055
G01 X62.0892 Y8.4358
G01 X62.1661 Y8.3589
G01 X62.1722 Y8.3519
G01 X62.1757 Y8.3467
G01 X62.2060 Y8.2974
G01 X62.2111 Y8.2871
G01 X62.2140 Y8.2777
G01 X62.2155 Y8.2680
G01 X62.2201 Y8.2087
G01 X62.2201 Y8.2005
G01 X62.2190 Y8.1923
G01 X62.2158 Y8.1813
G01 X62.1917 Y8.1233
G01 X62.1886 Y8.1175
G01 X62.1850 Y8.1121
G01 X62.1808 Y8.1070
G01 X62.1761 Y8.1024
G01 X62.1296 Y8.0627
G01 X62.1243 Y8.0588
G01 X62.1172 Y8.0548
G01 X62.1112 Y8.0521
G01 X62.1034 Y8.0497
G01 X62.0456 Y8.0359
G01 X62.0348 Y8.0345
G01 X60.8609 Y8.0346
G01 X60.8529 Y8.0357
G01 X60.8054 Y8.0451
G01 X60.7991 Y8.0467
G01 X60.7930 Y8.0489
G01 X60.7830 Y8.0541
G01 X60.7387 Y8.0837
G01 X60.7314 Y8.0901
G01 X60.5889 Y8.2325
G01 X60.5828 Y8.2400
G01 X60.5532 Y8.2843
G01 X60.5483 Y8.2945
G01 X60.5451 Y8.3054
G01 X60.5354 Y8.3545
G01 X60.5344 Y8.3642
G01 X60.5346 Y8.4146
G01 X60.5415 Y8.4602
G01 X60.5432 Y8.4667
G01 X60.5462 Y8.4746
G01 X60.5660 Y8.5144
G01 X60.6296 Y8.6055
G01 X60.7172 Y8.7934
G01 X60.7709 Y8.9935
G01 X60.7889 Y9.2000
G01 X60.7709 Y9.4065
G01 X60.7172 Y9.6066
G01 X60.6296 Y9.7945
G01 X60.5669 Y9.8842
G01 X60.5636 Y9.8901
G01 X60.5462 Y9.9254
G01 X60.5432 Y9.9333
G01 X60.5412 Y9.9414
G01 X60.5349 Y9.9820
G01 X60.5344 Y9.9904
G01 X60.5344 Y47.3287
G01 X60.5356 Y47.3499
G01 X60.5389 Y47.3762
G01 X60.5348 Y47.4308
G01 X60.5344 Y47.4428
G01 X60.5344 Y47.4950
G01 X60.5294 Y47.5196
G01 X60.5267 Y47.5379
G01 X60.5245 Y47.5657
G01 X60.5095 Y47.6184
G01 X60.5067 Y47.6299
G01 X60.4961 Y47.6812
G01 X60.4853 Y47.7069
G01 X60.4791 Y47.7243
G01 X60.4722 Y47.7484
G01 X60.4480 Y47.7947
G01 X60.4429 Y47.8055
G01 X60.4212 Y47.8558
G01 X60.4054 Y47.8788
G01 X60.3959 Y47.8946
G01 X60.3842 Y47.9168
G01 X60.3496 Y47.9593
G01 X60.3425 Y47.9689
G01 X60.3126 Y48.0118
G01 X60.2507 Y48.0708
G01 X59.0037 Y49.3179
G01 X58.9997 Y49.3227
G01 X58.9962 Y49.3279
G01 X58.9625 Y49.3863
G01 X58.9584 Y49.3953
G01 X58.9561 Y49.4032
G01 X58.9549 Y49.4097
G01 X58.9544 Y49.4163
G01 X58.9544 Y49.4837
G01 X58.9557 Y49.4952
G01 X58.9573 Y49.5016
G01 X58.9596 Y49.5078
G01 X58.9633 Y49.5151
G01 X58.9962 Y49.5721
G01 X59.0006 Y49.5785
G01 X59.0048 Y49.5833
G01 X60.0325 Y50.6111
G01 X60.0400 Y50.6172
G01 X60.0816 Y50.6450
G01 X60.0915 Y50.6505
G01 X60.0976 Y50.6528
G01 X60.1038 Y50.6546
G01 X60.1561 Y50.6649
G01 X60.1658 Y50.6656
G01 X67.1342 Y50.6656
G01 X67.1455 Y50.6646
G01 X67.1993 Y50.6538
G01 X67.2085 Y50.6505
G01 X67.2170 Y50.6459
G01 X67.2600 Y50.6172
G01 X67.2686 Y50.6099
G01 X68.5099 Y49.3686
G01 X68.5172 Y49.3600
G01 X68.5450 Y49.3184
G01 X68.5491 Y49.3114
G01 X68.5517 Y49.3055
G01 X68.5546 Y49.2962
G01 X68.5643 Y49.2471
G01 X68.5653 Y49.2407
G01 X68.5656 Y49.2342
G01 X68.5656 Y47.3713
G01 X68.5644 Y47.3501
G01 X68.5611 Y47.3238
G01 X68.5652 Y47.2692
G01 X68.5656 Y47.2572
G01 X68.5656 Y47.2050
G01 X68.5706 Y47.1804
G01 X68.5733 Y47.1621
G01 X68.5755 Y47.1343
G01 X68.5905 Y47.0816
G01 X68.5933 Y47.0700
G01 X68.6039 Y47.0188
G01 X68.6147 Y46.9931
G01 X68.6209 Y46.9757
G01 X68.6278 Y46.9516
G01 X68.6520 Y46.9053
G01 X68.6571 Y46.8945
G01 X68.6788 Y46.8442
G01 X68.6946 Y46.8212
G01 X68.7041 Y46.8054
G01 X68.7158 Y46.7832
G01 X68.7504 Y46.7407
G01 X68.7575 Y46.7311
G01 X68.7874 Y46.6882
G01 X68.8494 Y46.6292
G01 X70.2888 Y45.1897
G01 X70.3030 Y45.1738
G01 X70.3193 Y45.1529
G01 X70.3608 Y45.1172
G01 X70.3695 Y45.1090
G01 X70.4065 Y45.0721
G01 X70.4274 Y45.0583
G01 X70.4422 Y45.0472
G01 X70.4635 Y45.0291
G01 X70.5092 Y45.0038
G01 X70.5194 Y44.9976
G01 X70.5651 Y44.9675
G01 X70.5910 Y44.9570
G01 X70.6077 Y44.9491
G01 X70.6296 Y44.9369
G01 X70.6819 Y44.9204
G01 X70.6931 Y44.9164
G01 X70.7416 Y44.8970
G01 X70.7663 Y44.8926
G01 X70.7843 Y44.8882
G01 X70.8109 Y44.8800
G01 X70.8654 Y44.8744
G01 X70.8772 Y44.8727
G01 X70.9287 Y44.8635
G01 X71.0142 Y44.8656
G01 X74.8287 Y44.8656
G01 X74.8499 Y44.8644
G01 X74.8762 Y44.8611
G01 X74.9308 Y44.8652
G01 X74.9428 Y44.8656
G01 X74.9950 Y44.8656
G01 X75.0196 Y44.8706
G01 X75.0379 Y44.8733
G01 X75.0657 Y44.8755
G01 X75.1184 Y44.8905
G01 X75.1300 Y44.8933
G01 X75.1812 Y44.9039
G01 X75.2044 Y44.9138
G01 X75.2216 Y44.9200
G01 X75.2484 Y44.9278
G01 X75.2947 Y44.9520
G01 X75.3055 Y44.9571
G01 X75.3558 Y44.9788
G01 X75.3788 Y44.9946
G01 X75.3946 Y45.0041
G01 X75.4168 Y45.0158
G01 X75.4593 Y45.0504
G01 X75.4689 Y45.0575
G01 X75.5118 Y45.0874
G01 X75.5708 Y45.1494
G01 X76.6818 Y46.2603
G01 X76.6976 Y46.2745
G01 X76.7108 Y46.2847
G01 X76.7718 Y46.3274
G01 X76.7818 Y46.3377
G01 X76.7971 Y46.3514
G01 X76.8071 Y46.3593
G01 X76.8515 Y46.4110
G01 X76.9027 Y46.4651
G01 X76.9105 Y46.4772
G01 X76.9227 Y46.4937
G01 X76.9309 Y46.5035
G01 X76.9672 Y46.5685
G01 X77.0032 Y46.6264
G01 X77.0084 Y46.6398
G01 X77.0170 Y46.6584
G01 X77.0231 Y46.6696
G01 X77.0436 Y46.7347
G01 X77.0692 Y46.8046
G01 X77.0716 Y46.8188
G01 X77.0763 Y46.8388
G01 X77.0800 Y46.8509
G01 X77.0869 Y46.9188
G01 X77.0980 Y46.9924
G01 X77.0944 Y47.0685
G01 X77.0946 Y47.9855
G01 X77.0961 Y47.9953
G01 X77.1116 Y48.0564
G01 X77.1136 Y48.0627
G01 X77.1169 Y48.0702
G01 X77.1211 Y48.0773
G01 X77.1262 Y48.0838
G01 X77.1726 Y48.1334
G01 X77.1817 Y48.1405
G01 X77.1875 Y48.1438
G01 X77.1935 Y48.1465
G01 X77.2564 Y48.1675
G01 X77.2676 Y48.1699
G01 X77.2759 Y48.1704
G01 X77.2858 Y48.1696
G01 X77.3477 Y48.1584
G01 X77.3573 Y48.1559
G01 X77.3664 Y48.1521
G01 X77.3762 Y48.1459
G01 X77.4265 Y48.1053
G01 X77.4313 Y48.1008
G01 X77.4376 Y48.0933
G01 X77.4433 Y48.0876
G01 X77.5366 Y48.0177
G01 X77.5438 Y48.0138
G01 X77.6546 Y47.9725
G01 X77.6615 Y47.9709
G01 X77.7072 Y47.9661
G01 X78.4339 Y47.9661
G01 X78.4339 Y48.3339
G01 X77.7451 Y48.3341
G01 X77.7355 Y48.3355
G01 X77.7247 Y48.3389
G01 X77.7160 Y48.3433
G01 X77.7081 Y48.3489
G01 X77.7010 Y48.3556
G01 X77.6950 Y48.3633
G01 X77.6902 Y48.3717
G01 X77.6867 Y48.3808
G01 X77.6846 Y48.3903
G01 X77.6839 Y48.4000
G01 X77.6839 Y50.4000
G01 X77.6842 Y50.4065
G01 X77.6852 Y50.4129
G01 X77.6883 Y50.4238
G01 X77.6933 Y50.4340
G01 X77.6969 Y50.4394
G01 X77.7010 Y50.4444
G01 X77.7093 Y50.4521
G01 X77.7146 Y50.4558
G01 X77.7203 Y50.4590
G01 X77.7308 Y50.4633
G01 X77.7371 Y50.4648
G01 X77.7435 Y50.4658
G01 X77.7500 Y50.4661
G01 X78.4339 Y50.4661
G01 X78.4339 Y50.8339
G01 X77.7073 Y50.8339
G01 X77.6615 Y50.8291
G01 X77.6546 Y50.8275
G01 X77.5438 Y50.7862
G01 X77.5366 Y50.7823
G01 X77.4433 Y50.7124
G01 X77.4376 Y50.7067
G01 X77.3677 Y50.6134
G01 X77.3638 Y50.6063
G01 X77.3578 Y50.5909
G01 X77.3532 Y50.5828
G01 X77.3192 Y50.5324
G01 X77.3116 Y50.5238
G01 X77.3040 Y50.5177
G01 X77.2985 Y50.5142
G01 X77.2468 Y50.4853
G01 X77.2409 Y50.4825
G01 X77.2347 Y50.4804
G01 X77.2284 Y50.4788
G01 X77.2203 Y50.4778
G01 X77.1595 Y50.4752
G01 X77.1481 Y50.4760
G01 X77.1418 Y50.4773
G01 X77.1355 Y50.4793
G01 X77.0786 Y50.5050
G01 X77.0731 Y50.5078
G01 X77.0654 Y50.5130
G01 X76.9472 Y50.6049
G01 X76.7382 Y50.7181
G01 X76.5133 Y50.7953
G01 X76.2789 Y50.8344
G01 X76.0411 Y50.8344
G01 X75.8067 Y50.7953
G01 X75.5818 Y50.7181
G01 X75.3728 Y50.6049
G01 X75.1852 Y50.4589
G01 X75.0242 Y50.2840
G01 X75.0180 Y50.2759
G01 X75.0138 Y50.2709
G01 X75.0066 Y50.2644
G01 X74.9996 Y50.2596
G01 X74.9666 Y50.2294
G01 X74.9613 Y50.2256
G01 X74.9556 Y50.2224
G01 X74.9449 Y50.2181
G01 X74.8812 Y50.2019
G01 X74.8747 Y50.2007
G01 X74.8682 Y50.2002
G01 X74.8600 Y50.2005
G01 X74.8519 Y50.2019
G01 X74.7881 Y50.2181
G01 X74.7820 Y50.2203
G01 X74.7761 Y50.2231
G01 X74.7705 Y50.2265
G01 X74.7652 Y50.2305
G01 X74.7145 Y50.2773
G01 X74.7083 Y50.2850
G01 X74.6958 Y50.3040
G01 X74.5348 Y50.4789
G01 X74.3472 Y50.6249
G01 X74.1382 Y50.7381
G01 X73.9133 Y50.8153
G01 X73.6789 Y50.8544
G01 X73.4411 Y50.8544
G01 X73.2067 Y50.8153
G01 X72.9818 Y50.7381
G01 X72.7728 Y50.6249
G01 X72.5852 Y50.4789
G01 X72.4242 Y50.3040
G01 X72.4141 Y50.2886
G01 X72.2942 Y50.1050
G01 X72.1987 Y49.8873
G01 X72.1403 Y49.6569
G01 X72.1207 Y49.4200
G01 X72.1403 Y49.1831
G01 X72.1987 Y48.9527
G01 X72.2942 Y48.7350
G01 X72.4242 Y48.5360
G01 X72.5852 Y48.3611
G01 X72.7728 Y48.2151
G01 X72.9818 Y48.1019
G01 X73.2067 Y48.0247
G01 X73.4411 Y47.9856
G01 X73.6789 Y47.9856
G01 X73.9133 Y48.0247
G01 X74.1382 Y48.1019
G01 X74.3472 Y48.2151
G01 X74.5348 Y48.3611
G01 X74.6958 Y48.5360
G01 X74.7020 Y48.5442
G01 X74.7062 Y48.5491
G01 X74.7134 Y48.5556
G01 X74.7204 Y48.5604
G01 X74.7509 Y48.5885
G01 X74.7588 Y48.5944
G01 X74.7674 Y48.5990
G01 X74.7766 Y48.6024
G01 X74.8388 Y48.6181
G01 X74.8453 Y48.6193
G01 X74.8518 Y48.6198
G01 X74.8600 Y48.6195
G01 X74.8681 Y48.6181
G01 X74.9287 Y48.6028
G01 X74.9365 Y48.6003
G01 X74.9468 Y48.5952
G01 X74.9548 Y48.5895
G01 X75.0044 Y48.5439
G01 X75.0107 Y48.5364
G01 X75.0242 Y48.5160
G01 X75.1764 Y48.3506
G01 X75.1820 Y48.3433
G01 X75.2079 Y48.3016
G01 X75.2123 Y48.2928
G01 X75.2153 Y48.2835
G01 X75.2247 Y48.2337
G01 X75.2256 Y48.2245
G01 X75.2256 Y47.5258
G01 X75.2253 Y47.5193
G01 X75.2243 Y47.5129
G01 X75.2149 Y47.4654
G01 X75.2128 Y47.4576
G01 X75.2098 Y47.4501
G01 X75.2059 Y47.4430
G01 X75.1772 Y47.4000
G01 X75.1711 Y47.3925
G01 X74.5675 Y46.7889
G01 X74.5600 Y46.7828
G01 X74.5184 Y46.7550
G01 X74.5085 Y46.7495
G01 X74.5024 Y46.7472
G01 X74.4962 Y46.7454
G01 X74.4471 Y46.7357
G01 X74.4407 Y46.7347
G01 X74.4342 Y46.7344
G01 X71.4642 Y46.7344
G01 X71.4545 Y46.7354
G01 X71.4054 Y46.7451
G01 X71.3991 Y46.7467
G01 X71.3930 Y46.7489
G01 X71.3872 Y46.7516
G01 X71.3816 Y46.7550
G01 X71.3400 Y46.7828
G01 X71.3325 Y46.7889
G01 X70.4889 Y47.6325
G01 X70.4828 Y47.6400
G01 X70.4541 Y47.6830
G01 X70.4502 Y47.6901
G01 X70.4472 Y47.6976
G01 X70.4451 Y47.7054
G01 X70.4357 Y47.7529
G01 X70.4347 Y47.7593
G01 X70.4344 Y47.7658
G01 X70.4344 Y49.6287
G01 X70.4356 Y49.6499
G01 X70.4389 Y49.6762
G01 X70.4349 Y49.7283
G01 X70.4344 Y49.7402
G01 X70.4344 Y49.7950
G01 X70.4294 Y49.8196
G01 X70.4267 Y49.8379
G01 X70.4245 Y49.8657
G01 X70.4095 Y49.9184
G01 X70.4067 Y49.9300
G01 X70.3961 Y49.9812
G01 X70.3862 Y50.0044
G01 X70.3800 Y50.0216
G01 X70.3722 Y50.0484
G01 X70.3480 Y50.0947
G01 X70.3429 Y50.1055
G01 X70.3212 Y50.1558
G01 X70.3054 Y50.1788
G01 X70.2959 Y50.1946
G01 X70.2842 Y50.2168
G01 X70.2512 Y50.2574
G01 X70.2440 Y50.2669
G01 X70.2126 Y50.3118
G01 X70.1507 Y50.3708
G01 X68.3111 Y52.2103
G01 X68.2970 Y52.2262
G01 X68.2807 Y52.2471
G01 X68.2392 Y52.2828
G01 X68.2305 Y52.2909
G01 X68.1935 Y52.3279
G01 X68.1703 Y52.3434
G01 X68.1556 Y52.3545
G01 X68.1365 Y52.3709
G01 X68.0887 Y52.3975
G01 X68.0785 Y52.4037
G01 X68.0349 Y52.4325
G01 X68.0116 Y52.4418
G01 X67.9948 Y52.4497
G01 X67.9704 Y52.4631
G01 X67.9181 Y52.4795
G01 X67.9069 Y52.4836
G01 X67.8584 Y52.5030
G01 X67.8337 Y52.5074
G01 X67.8157 Y52.5118
G01 X67.7891 Y52.5200
G01 X67.7346 Y52.5256
G01 X67.7228 Y52.5273
G01 X67.6713 Y52.5365
G01 X67.5857 Y52.5344
G01 X64.9809 Y52.5344
G01 X64.9728 Y52.5351
G01 X64.9664 Y52.5364
G01 X64.9010 Y52.5545
G01 X64.8933 Y52.5572
G01 X64.8860 Y52.5607
G01 X64.8792 Y52.5652
G01 X64.8719 Y52.5715
G01 X64.8219 Y52.6244
G01 X64.8171 Y52.6310
G01 X64.8139 Y52.6367
G01 X64.8113 Y52.6426
G01 X64.8093 Y52.6488
G01 X64.7938 Y52.7183
G01 X64.7928 Y52.7263
G01 X64.7926 Y52.7328
G01 X64.7936 Y52.7425
G01 X64.7955 Y52.7504
G01 X64.8176 Y52.8163
G01 X64.8224 Y52.8267
G01 X64.8288 Y52.8360
G01 X64.8368 Y52.8441
G01 X64.8872 Y52.8871
G01 X64.8937 Y52.8920
G01 X64.9022 Y52.8968
G01 X65.0194 Y52.9514
G01 X65.1849 Y53.0673
G01 X65.3277 Y53.2101
G01 X65.4436 Y53.3756
G01 X65.5289 Y53.5587
G01 X65.5812 Y53.7538
G01 X65.5988 Y53.9550
G01 X65.5812 Y54.1562
G01 X65.5289 Y54.3513
G01 X65.4436 Y54.5344
G01 X65.3277 Y54.6999
G01 X65.1849 Y54.8427
G01 X65.0194 Y54.9586
G01 X64.8363 Y55.0439
G01 X64.6412 Y55.0962
G01 X64.4400 Y55.1138
G01 X64.2388 Y55.0962
G01 X64.0437 Y55.0439
G01 X63.8606 Y54.9586
G01 X63.6951 Y54.8427
G01 X63.5523 Y54.6999
G01 X63.4364 Y54.5344
G01 X63.3511 Y54.3513
G01 X63.2988 Y54.1562
G01 X63.2812 Y53.9550
G01 X63.2988 Y53.7538
G01 X63.3511 Y53.5587
G01 X63.4364 Y53.3756
G01 X63.5523 Y53.2101
G01 X63.6951 Y53.0673
G01 X63.8606 Y52.9514
G01 X63.9778 Y52.8968
G01 X63.9849 Y52.8929
G01 X63.9928 Y52.8871
G01 X64.0432 Y52.8441
G01 X64.0490 Y52.8385
G01 X64.0532 Y52.8335
G01 X64.0568 Y52.8281
G01 X64.0606 Y52.8209
G01 X64.0629 Y52.8148
G01 X64.0845 Y52.7504
G01 X64.0864 Y52.7425
G01 X64.0873 Y52.7344
G01 X64.0872 Y52.7263
G01 X64.0858 Y52.7167
G01 X64.0702 Y52.6473
G01 X64.0681 Y52.6411
G01 X64.0653 Y52.6353
G01 X64.0611 Y52.6283
G01 X64.0571 Y52.6232
G01 X64.0081 Y52.5715
G01 X64.0008 Y52.5652
G01 X63.9940 Y52.5607
G01 X63.9867 Y52.5572
G01 X63.9790 Y52.5545
G01 X63.9136 Y52.5364
G01 X63.9056 Y52.5349
G01 X63.8991 Y52.5344
G01 X59.9025 Y52.5344
G01 X59.8944 Y52.5349
G01 X59.8864 Y52.5364
G01 X59.8210 Y52.5545
G01 X59.8104 Y52.5585
G01 X59.8005 Y52.5642
G01 X59.7930 Y52.5704
G01 X59.7440 Y52.6220
G01 X59.7389 Y52.6283
G01 X59.7347 Y52.6353
G01 X59.7313 Y52.6426
G01 X59.7289 Y52.6504
G01 X59.7138 Y52.7183
G01 X59.7127 Y52.7279
G01 X59.7128 Y52.7361
G01 X59.7136 Y52.7425
G01 X59.7155 Y52.7504
G01 X59.7371 Y52.8148
G01 X59.7401 Y52.8223
G01 X59.7440 Y52.8294
G01 X59.7499 Y52.8372
G01 X59.7556 Y52.8430
G01 X59.8072 Y52.8871
G01 X59.8137 Y52.8920
G01 X59.8222 Y52.8968
G01 X59.9394 Y52.9514
G01 X60.1049 Y53.0673
G01 X60.2477 Y53.2101
G01 X60.3636 Y53.3756
G01 X60.4489 Y53.5587
G01 X60.5012 Y53.7538
G01 X60.5188 Y53.9550
G01 X60.5012 Y54.1562
G01 X60.4489 Y54.3513
G01 X60.3636 Y54.5344
G01 X60.2477 Y54.6999
G01 X60.1049 Y54.8427
G01 X59.9394 Y54.9586
G01 X59.7563 Y55.0439
G01 X59.5612 Y55.0962
G01 X59.3600 Y55.1138
G01 X59.1588 Y55.0962
G01 X58.9637 Y55.0439
G01 X58.7806 Y54.9586
G01 X58.6151 Y54.8427
G01 X58.4723 Y54.6999
G01 X58.3564 Y54.5344
G01 X58.2711 Y54.3513
G01 X58.2188 Y54.1562
G01 X58.2012 Y53.9550
G01 X58.2188 Y53.7538
G01 X58.2711 Y53.5587
G01 X58.3564 Y53.3756
G01 X58.4723 Y53.2101
G01 X58.6151 Y53.0673
G01 X58.7806 Y52.9514
G01 X58.9637 Y52.8661
G01 X59.1588 Y52.8138
G01 X59.2360 Y52.8070
G01 X59.2461 Y52.8054
G01 X59.2526 Y52.8034
G01 X59.3135 Y52.7815
G01 X59.3209 Y52.7781
G01 X59.3291 Y52.7729
G01 X59.3341 Y52.7688
G01 X59.3387 Y52.7642
G01 X59.3830 Y52.7127
G01 X59.3876 Y52.7061
G01 X59.3906 Y52.7003
G01 X59.3931 Y52.6944
G01 X59.3954 Y52.6866
G01 X59.4084 Y52.6215
G01 X59.4093 Y52.6135
G01 X59.4093 Y52.6070
G01 X59.4084 Y52.5989
G01 X59.4065 Y52.5911
G01 X59.3858 Y52.5280
G01 X59.3826 Y52.5206
G01 X59.3794 Y52.5150
G01 X59.3757 Y52.5097
G01 X59.3715 Y52.5047
G01 X59.3213 Y52.4589
G01 X59.3161 Y52.4545
G01 X59.3089 Y52.4500
G01 X59.2945 Y52.4428
G01 X59.2442 Y52.4212
G01 X59.2212 Y52.4054
G01 X59.2054 Y52.3959
G01 X59.1832 Y52.3842
G01 X59.1407 Y52.3496
G01 X59.1311 Y52.3425
G01 X59.0882 Y52.3126
G01 X59.0292 Y52.2506
G01 X57.3136 Y50.5351
G01 X57.3050 Y50.5278
G01 X57.2620 Y50.4991
G01 X57.2535 Y50.4945
G01 X57.2427 Y50.4908
G01 X57.1905 Y50.4804
G01 X57.1792 Y50.4794
G01 X50.5057 Y50.4794
G01 X50.4974 Y50.4799
G01 X50.4876 Y50.4819
G01 X50.4206 Y50.5011
G01 X50.4117 Y50.5046
G01 X50.4033 Y50.5094
G01 X50.3982 Y50.5132
G01 X50.3924 Y50.5186
G01 X50.3445 Y50.5715
G01 X50.3379 Y50.5805
G01 X50.3336 Y50.5891
G01 X50.3314 Y50.5951
G01 X50.3295 Y50.6028
G01 X50.3173 Y50.6698
G01 X50.3163 Y50.6781
G01 X50.3165 Y50.6881
G01 X50.3290 Y50.8150
G01 X50.3105 Y51.0031
G01 X50.2557 Y51.1839
G01 X50.1666 Y51.3506
G01 X50.1175 Y51.4103
G01 X50.1137 Y51.4155
G01 X50.0887 Y51.4594
G01 X50.0850 Y51.4684
G01 X50.0826 Y51.4779
G01 X50.0751 Y51.5212
G01 X50.0744 Y51.5309
G01 X50.0744 Y56.1742
G01 X50.0754 Y56.1855
G01 X50.0854 Y56.2362
G01 X50.0872 Y56.2424
G01 X50.0895 Y56.2485
G01 X50.0950 Y56.2584
G01 X50.1228 Y56.3000
G01 X50.1289 Y56.3075
G01 X51.0314 Y57.2099
G01 X51.0362 Y57.2143
G01 X51.0414 Y57.2181
G01 X51.0830 Y57.2459
G01 X51.0915 Y57.2505
G01 X51.0976 Y57.2528
G01 X51.1038 Y57.2546
G01 X51.1545 Y57.2646
G01 X51.1658 Y57.2656
G01 X82.4342 Y57.2656
G01 X82.4455 Y57.2646
G01 X82.4962 Y57.2546
G01 X82.5024 Y57.2528
G01 X82.5085 Y57.2505
G01 X82.5184 Y57.2450
G01 X82.5600 Y57.2172
G01 X82.5675 Y57.2111
G01 X83.7099 Y56.0686
G01 X83.7172 Y56.0600
G01 X83.7450 Y56.0184
G01 X83.7484 Y56.0128
G01 X83.7511 Y56.0070
G01 X83.7533 Y56.0009
G01 X83.7549 Y55.9946
G01 X83.7646 Y55.9455
G01 X83.7655 Y55.9375
G01 X83.7656 Y22.5713
G01 X83.7644 Y22.5501
G01 X83.7611 Y22.5238
G01 X83.7652 Y22.4692
G01 X83.7656 Y22.4572
G01 X83.7656 Y22.4050
G01 X83.7706 Y22.3804
G01 X83.7733 Y22.3621
G01 X83.7755 Y22.3343
G01 X83.7905 Y22.2816
G01 X83.7933 Y22.2700
G01 X83.8039 Y22.2188
G01 X83.8147 Y22.1931
G01 X83.8209 Y22.1757
G01 X83.8278 Y22.1516
G01 X83.8520 Y22.1053
G01 X83.8571 Y22.0945
G01 X83.8788 Y22.0442
G01 X83.8946 Y22.0212
G01 X83.9041 Y22.0054
G01 X83.9158 Y21.9832
G01 X83.9504 Y21.9407
G01 X83.9575 Y21.9311
G01 X83.9874 Y21.8882
G01 X84.0494 Y21.8292
G01 X85.4888 Y20.3897
G01 X85.5030 Y20.3738
G01 X85.5193 Y20.3529
G01 X85.5608 Y20.3172
G01 X85.5695 Y20.3090
G01 X85.6065 Y20.2721
G01 X85.6274 Y20.2583
G01 X85.6422 Y20.2472
G01 X85.6635 Y20.2291
G01 X85.7092 Y20.2038
G01 X85.7194 Y20.1976
G01 X85.7651 Y20.1675
G01 X85.7910 Y20.1570
G01 X85.8077 Y20.1491
G01 X85.8296 Y20.1369
G01 X85.8819 Y20.1204
G01 X85.8931 Y20.1164
G01 X85.9416 Y20.0970
G01 X85.9663 Y20.0926
G01 X85.9843 Y20.0882
G01 X86.0109 Y20.0800
G01 X86.0654 Y20.0744
G01 X86.0772 Y20.0727
G01 X86.1287 Y20.0635
G01 X86.2142 Y20.0656
G01 X101.8342 Y20.0656
G01 X101.8407 Y20.0653
G01 X101.8471 Y20.0643
G01 X101.8962 Y20.0546
G01 X101.9055 Y20.0517
G01 X101.9114 Y20.0491
G01 X101.9184 Y20.0450
G01 X101.9600 Y20.0172
G01 X101.9686 Y20.0099
G01 X105.5099 Y16.4686
G01 X105.5172 Y16.4600
G01 X105.5450 Y16.4184
G01 X105.5491 Y16.4114
G01 X105.5517 Y16.4055
G01 X105.5546 Y16.3962
G01 X105.5643 Y16.3471
G01 X105.5653 Y16.3407
G01 X105.5656 Y16.3342
G01 X105.5656 Y14.0570
G01 X105.5647 Y14.0463
G01 X105.5557 Y13.9981
G01 X105.5523 Y13.9872
G01 X105.5471 Y13.9770
G01 X105.5228 Y13.9380
G01 X105.5193 Y13.9330
G01 X105.5154 Y13.9283
G01 X105.3642 Y13.7640
G01 X105.3563 Y13.7522
G01 X105.3512 Y13.7459
G01 X105.3102 Y13.7059
G01 X105.3015 Y13.6988
G01 X105.2960 Y13.6954
G01 X105.2902 Y13.6925
G01 X105.2347 Y13.6731
G01 X105.2269 Y13.6710
G01 X105.2173 Y13.6696
G01 X105.2093 Y13.6696
G01 X105.1616 Y13.6746
G01 X104.8633 Y13.3763
G01 X104.9049 Y13.2880
G01 X104.9392 Y13.1926
G01 X104.9411 Y13.1863
G01 X104.9649 Y13.0912
G01 X104.9662 Y13.0848
G01 X104.9810 Y12.9845
G01 X104.9861 Y12.8800
G01 X104.9810 Y12.7755
G01 X104.9662 Y12.6752
G01 X104.9649 Y12.6688
G01 X104.9411 Y12.5737
G01 X104.9392 Y12.5674
G01 X104.9049 Y12.4720
G01 X104.8633 Y12.3837
G01 X105.1616 Y12.0854
G01 X105.2093 Y12.0904
G01 X105.2173 Y12.0904
G01 X105.2238 Y12.0896
G01 X105.2332 Y12.0874
G01 X105.2873 Y12.0687
G01 X105.2946 Y12.0654
G01 X105.3015 Y12.0612
G01 X105.3091 Y12.0552
G01 X105.3512 Y12.0141
G01 X105.3563 Y12.0079
G01 X105.3642 Y11.9960
G01 X105.5252 Y11.8211
G01 X105.7128 Y11.6751
G01 X105.9218 Y11.5619
G01 X106.1467 Y11.4847
G01 X106.3811 Y11.4456
G01 X106.6189 Y11.4456
G01 X106.8533 Y11.4847
G01 X107.0782 Y11.5619
G01 X107.2872 Y11.6751
G01 X107.4748 Y11.8211
G01 X107.6358 Y11.9960
G01 X107.7658 Y12.1950
G01 X107.8613 Y12.4127
G01 X107.9197 Y12.6431
G01 X107.9393 Y12.8800
G01 X107.9197 Y13.1169
G01 X107.8613 Y13.3473
G01 X107.7658 Y13.5650
G01 X107.6358 Y13.7640
G01 X107.4846 Y13.9283
G01 X107.4789 Y13.9355
G01 X107.4521 Y13.9784
G01 X107.4471 Y13.9887
G01 X107.4443 Y13.9981
G01 X107.4350 Y14.0478
G01 X107.4344 Y14.0570
G01 X107.4344 Y16.7287
G01 X107.4356 Y16.7499
G01 X107.4389 Y16.7762
G01 X107.4349 Y16.8283
G01 X107.4344 Y16.8402
G01 X107.4344 Y16.8950
G01 X107.4294 Y16.9196
G01 X107.4267 Y16.9379
G01 X107.4245 Y16.9657
G01 X107.4095 Y17.0184
G01 X107.4067 Y17.0300
G01 X107.3961 Y17.0812
G01 X107.3862 Y17.1044
G01 X107.3800 Y17.1216
G01 X107.3722 Y17.1484
G01 X107.3480 Y17.1947
G01 X107.3429 Y17.2055
G01 X107.3212 Y17.2558
G01 X107.3054 Y17.2788
G01 X107.2959 Y17.2946
G01 X107.2842 Y17.3168
G01 X107.2496 Y17.3593
G01 X107.2425 Y17.3689
G01 X107.2126 Y17.4118
G01 X107.1506 Y17.4708
G01 X103.0111 Y21.6103
G01 X102.9970 Y21.6262
G01 X102.9807 Y21.6471
G01 X102.9392 Y21.6828
G01 X102.9305 Y21.6909
G01 X102.8935 Y21.7279
G01 X102.8703 Y21.7434
G01 X102.8556 Y21.7545
G01 X102.8365 Y21.7709
G01 X102.7887 Y21.7975
G01 X102.7785 Y21.8037
G01 X102.7349 Y21.8325
G01 X102.7116 Y21.8418
G01 X102.6948 Y21.8497
G01 X102.6704 Y21.8631
G01 X102.6181 Y21.8795
G01 X102.6069 Y21.8836
G01 X102.5584 Y21.9030
G01 X102.5337 Y21.9074
G01 X102.5157 Y21.9118
G01 X102.4891 Y21.9200
G01 X102.4346 Y21.9256
G01 X102.4228 Y21.9273
G01 X102.3713 Y21.9365
G01 X102.2857 Y21.9344
G01 X86.6625 Y21.9345
G01 X86.6545 Y21.9354
G01 X86.6054 Y21.9451
G01 X86.5991 Y21.9467
G01 X86.5930 Y21.9489
G01 X86.5872 Y21.9516
G01 X86.5816 Y21.9550
G01 X86.5400 Y21.9828
G01 X86.5325 Y21.9889
G01 X85.6901 Y22.8314
G01 X85.6828 Y22.8400
G01 X85.6550 Y22.8816
G01 X85.6516 Y22.8872
G01 X85.6477 Y22.8961
G01 X85.6454 Y22.9038
G01 X85.6354 Y22.9545
G01 X85.6344 Y22.9658
G01 X85.6344 Y56.3287
G01 X85.6356 Y56.3499
G01 X85.6389 Y56.3762
G01 X85.6348 Y56.4308
G01 X85.6344 Y56.4428
G01 X85.6344 Y56.4950
G01 X85.6294 Y56.5196
G01 X85.6267 Y56.5379
G01 X85.6245 Y56.5657
G01 X85.6095 Y56.6184
G01 X85.6067 Y56.6299
G01 X85.5961 Y56.6812
G01 X85.5853 Y56.7069
G01 X85.5791 Y56.7243
G01 X85.5722 Y56.7484
G01 X85.5480 Y56.7947
G01 X85.5429 Y56.8055
G01 X85.5212 Y56.8558
G01 X85.5054 Y56.8788
G01 X85.4959 Y56.8946
G01 X85.4842 Y56.9168
G01 X85.4496 Y56.9593
G01 X85.4425 Y56.9689
G01 X85.4126 Y57.0118
G01 X85.3507 Y57.0708
G01 X83.6111 Y58.8103
G01 X83.5970 Y58.8262
G01 X83.5807 Y58.8471
G01 X83.5392 Y58.8828
G01 X83.5305 Y58.8909
G01 X83.4935 Y58.9279
G01 X83.4703 Y58.9434
G01 X83.4556 Y58.9545
G01 X83.4365 Y58.9709
G01 X83.3887 Y58.9975
G01 X83.3785 Y59.0037
G01 X83.3349 Y59.0325
G01 X83.3116 Y59.0418
G01 X83.2948 Y59.0497
G01 X83.2704 Y59.0631
G01 X83.2181 Y59.0795
G01 X83.2069 Y59.0836
G01 X83.1584 Y59.1030
G01 X83.1337 Y59.1074
G01 X83.1157 Y59.1118
G01 X83.0891 Y59.1200
G01 X83.0346 Y59.1256
G01 X83.0228 Y59.1273
G01 X82.9713 Y59.1365
G01 X82.8857 Y59.1344
G01 X50.7713 Y59.1344
G01 X50.7501 Y59.1356
G01 X50.7238 Y59.1389
G01 X50.6717 Y59.1349
G01 X50.6598 Y59.1344
G01 X50.6050 Y59.1344
G01 X50.5804 Y59.1294
G01 X50.5621 Y59.1267
G01 X50.5343 Y59.1245
G01 X50.4816 Y59.1095
G01 X50.4700 Y59.1067
G01 X50.4188 Y59.0961
G01 X50.3956 Y59.0862
G01 X50.3784 Y59.0800
G01 X50.3516 Y59.0722
G01 X50.3053 Y59.0480
G01 X50.2945 Y59.0429
G01 X50.2442 Y59.0212
G01 X50.2236 Y59.0069
G01 X50.2078 Y58.9972
G01 X50.1831 Y58.9842
G01 X50.1426 Y58.9512
G01 X50.1331 Y58.9440
G01 X50.0882 Y58.9126
G01 X50.0292 Y58.8506
G01 X48.4998 Y57.3213
G01 X48.4806 Y57.3045
G01 X48.4704 Y57.2969
G01 X48.4246 Y57.2463
G01 X48.3721 Y57.1935
G01 X48.3640 Y57.1816
G01 X48.3514 Y57.1654
G01 X48.3430 Y57.1559
G01 X48.3084 Y57.0972
G01 X48.2675 Y57.0349
G01 X48.2620 Y57.0215
G01 X48.2529 Y57.0031
G01 X48.2466 Y56.9921
G01 X48.2223 Y56.9217
G01 X48.1970 Y56.8584
G01 X48.1943 Y56.8442
G01 X48.1891 Y56.8244
G01 X48.1851 Y56.8123
G01 X48.1755 Y56.7385
G01 X48.1635 Y56.6713
G01 X48.1637 Y56.6569
G01 X48.1626 Y56.6364
G01 X48.1611 Y56.6238
G01 X48.1666 Y56.5495
G01 X48.1683 Y56.4813
G01 X48.1714 Y56.4673
G01 X48.1745 Y56.4470
G01 X48.1755 Y56.4343
G01 X48.1943 Y56.3687
G01 X48.2010 Y56.3404
G01 X48.2052 Y56.3064
G01 X48.2056 Y56.2989
G01 X48.2056 Y51.9395
G01 X48.2051 Y51.9317
G01 X48.2037 Y51.9239
G01 X48.1867 Y51.8604
G01 X48.1835 Y51.8511
G01 X48.1780 Y51.8409
G01 X48.1708 Y51.8319
G01 X48.1242 Y51.7854
G01 X48.1168 Y51.7789
G01 X48.1098 Y51.7745
G01 X48.1024 Y51.7709
G01 X48.0946 Y51.7683
G01 X48.0311 Y51.7513
G01 X48.0249 Y51.7501
G01 X48.0186 Y51.7495
G01 X46.5863 Y51.7494
G01 X46.5651 Y51.7506
G01 X46.5388 Y51.7539
G01 X46.4867 Y51.7499
G01 X46.4748 Y51.7494
G01 X46.4200 Y51.7494
G01 X46.3954 Y51.7444
G01 X46.3771 Y51.7417
G01 X46.3493 Y51.7395
G01 X46.2966 Y51.7245
G01 X46.2850 Y51.7217
G01 X46.2338 Y51.7111
G01 X46.2106 Y51.7012
G01 X46.1934 Y51.6950
G01 X46.1666 Y51.6872
G01 X46.1203 Y51.6630
G01 X46.1095 Y51.6579
G01 X46.0592 Y51.6362
G01 X46.0386 Y51.6219
G01 X46.0228 Y51.6122
G01 X45.9981 Y51.5992
G01 X45.9576 Y51.5662
G01 X45.9481 Y51.5590
G01 X45.9032 Y51.5276
G01 X45.8442 Y51.4656
G01 X44.4897 Y50.1111
G01 X44.4738 Y50.0970
G01 X44.4529 Y50.0807
G01 X44.4172 Y50.0392
G01 X44.4090 Y50.0305
G01 X44.3721 Y49.9935
G01 X44.3583 Y49.9726
G01 X44.3472 Y49.9578
G01 X44.3291 Y49.9365
G01 X44.3025 Y49.8887
G01 X44.2963 Y49.8785
G01 X44.2675 Y49.8349
G01 X44.2570 Y49.8090
G01 X44.2491 Y49.7923
G01 X44.2369 Y49.7704
G01 X44.2205 Y49.7181
G01 X44.2164 Y49.7069
G01 X44.1970 Y49.6584
G01 X44.1920 Y49.6309
G01 X44.1875 Y49.6130
G01 X44.1800 Y49.5891
G01 X44.1744 Y49.5346
G01 X44.1727 Y49.5228
G01 X44.1635 Y49.4713
G01 X44.1656 Y49.3857
G01 X44.1656 Y36.0245
G01 X44.1651 Y36.0167
G01 X44.1637 Y36.0089
G01 X44.1458 Y35.9422
G01 X44.1435 Y35.9361
G01 X44.1405 Y35.9302
G01 X44.1370 Y35.9246
G01 X44.1319 Y35.9181
G01 X44.0831 Y35.8692
G01 X44.0754 Y35.8630
G01 X44.0684 Y35.8587
G01 X44.0624 Y35.8559
G01 X44.0562 Y35.8537
G01 X43.9926 Y35.8367
G01 X43.9849 Y35.8351
G01 X43.9755 Y35.8344
G01 X22.8713 Y35.8344
G01 X22.8501 Y35.8356
G01 X22.8238 Y35.8389
G01 X22.7692 Y35.8348
G01 X22.7572 Y35.8344
G01 X22.7050 Y35.8344
G01 X22.6804 Y35.8294
G01 X22.6621 Y35.8267
G01 X22.6343 Y35.8245
G01 X22.5816 Y35.8095
G01 X22.5700 Y35.8067
G01 X22.5188 Y35.7961
G01 X22.4931 Y35.7853
G01 X22.4757 Y35.7791
G01 X22.4516 Y35.7722
G01 X22.4053 Y35.7480
G01 X22.3945 Y35.7429
G01 X22.3442 Y35.7212
G01 X22.3236 Y35.7069
G01 X22.3078 Y35.6972
G01 X22.2832 Y35.6842
G01 X22.2426 Y35.6512
G01 X22.2331 Y35.6440
G01 X22.1882 Y35.6126
G01 X22.1292 Y35.5506
G01 X20.9897 Y34.4111
G01 X20.9738 Y34.3970
G01 X20.9529 Y34.3807
G01 X20.9172 Y34.3392
G01 X20.9090 Y34.3305
G01 X20.8721 Y34.2935
G01 X20.8583 Y34.2726
G01 X20.8472 Y34.2578
G01 X20.8291 Y34.2365
G01 X20.8025 Y34.1887
G01 X20.7963 Y34.1785
G01 X20.7675 Y34.1349
G01 X20.7570 Y34.1090
G01 X20.7491 Y34.0923
G01 X20.7369 Y34.0704
G01 X20.7205 Y34.0181
G01 X20.7164 Y34.0069
G01 X20.6970 Y33.9584
G01 X20.6920 Y33.9309
G01 X20.6875 Y33.9130
G01 X20.6800 Y33.8891
G01 X20.6744 Y33.8346
G01 X20.6727 Y33.8228
G01 X20.6635 Y33.7713
G01 X20.6656 Y33.6857
G01 X20.6656 Y26.8552
G01 X20.6648 Y26.8382
G01 X20.6611 Y26.8000
G00 Z2.0000
G00 X21.0337 Y33.7032
G01 F20.00
G01 Z-0.0601
G01 F20.00
G01 X21.0336 Y17.9000
G01 X21.0362 Y17.8461
G01 X21.0445 Y17.7895
G01 X21.0572 Y17.7387
G01 X21.0591 Y17.7325
G01 X21.0756 Y17.6863
G01 X21.0781 Y17.6803
G01 X21.1005 Y17.6330
G01 X21.1291 Y17.5854
G01 X21.1622 Y17.5407
G01 X21.1984 Y17.5007
G01 X22.3007 Y16.3984
G01 X22.3383 Y16.3643
G01 X22.3433 Y16.3602
G01 X22.3854 Y16.3291
G01 X22.4302 Y16.3021
G01 X22.4359 Y16.2991
G01 X22.4833 Y16.2768
G01 X22.5341 Y16.2585
G01 X22.5895 Y16.2445
G01 X22.6413 Y16.2368
G01 X22.6477 Y16.2361
G01 X22.7000 Y16.2336
G01 X22.7523 Y16.2361
G01 X22.7587 Y16.2368
G01 X22.8073 Y16.2440
G01 X22.8137 Y16.2452
G01 X22.8644 Y16.2580
G01 X22.9167 Y16.2768
G01 X22.9670 Y16.3005
G01 X23.0119 Y16.3274
G01 X23.0173 Y16.3310
G01 X23.0593 Y16.3622
G01 X23.0981 Y16.3973
G01 X23.1027 Y16.4019
G01 X23.1357 Y16.4383
G01 X23.1398 Y16.4433
G01 X23.1709 Y16.4854
G01 X23.1995 Y16.5330
G01 X23.2219 Y16.5803
G01 X23.2244 Y16.5863
G01 X23.2420 Y16.6356
G01 X23.2548 Y16.6863
G01 X23.2560 Y16.6927
G01 X23.2636 Y16.7445
G01 X23.2663 Y16.8016
G01 X23.2636 Y16.8555
G01 X23.2555 Y16.9105
G01 X23.2420 Y16.9644
G01 X23.2244 Y17.0137
G01 X23.2219 Y17.0197
G01 X23.2009 Y17.0641
G01 X23.1979 Y17.0698
G01 X23.1709 Y17.1146
G01 X23.1378 Y17.1593
G01 X23.1005 Y17.2005
G01 X22.1664 Y18.1346
G01 X22.1664 Y33.4654
G01 X23.0346 Y34.3336
G01 X50.2654 Y34.3336
G01 X52.6336 Y31.9654
G01 X52.6336 Y23.7000
G01 X52.6364 Y23.6445
G01 X52.6445 Y23.5895
G01 X52.6572 Y23.5387
G01 X52.6591 Y23.5325
G01 X52.6756 Y23.4863
G01 X52.6781 Y23.4803
G01 X52.7005 Y23.4330
G01 X52.7274 Y23.3881
G01 X52.7310 Y23.3827
G01 X52.7622 Y23.3407
G01 X52.7995 Y23.2995
G01 X52.8407 Y23.2622
G01 X52.8827 Y23.2310
G01 X52.8881 Y23.2274
G01 X52.9330 Y23.2005
G01 X52.9803 Y23.1781
G01 X52.9863 Y23.1756
G01 X53.0325 Y23.1591
G01 X53.0387 Y23.1572
G01 X53.0895 Y23.1445
G01 X53.1445 Y23.1364
G01 X53.2000 Y23.1336
G01 X53.2523 Y23.1361
G01 X53.2587 Y23.1368
G01 X53.3105 Y23.1445
G01 X53.3613 Y23.1572
G01 X53.3675 Y23.1591
G01 X53.4152 Y23.1762
G01 X53.4641 Y23.1991
G01 X53.4698 Y23.2021
G01 X53.5146 Y23.2291
G01 X53.5593 Y23.2622
G01 X53.5981 Y23.2973
G01 X53.6027 Y23.3019
G01 X53.6378 Y23.3407
G01 X53.6709 Y23.3854
G01 X53.6995 Y23.4330
G01 X53.7219 Y23.4803
G01 X53.7244 Y23.4863
G01 X53.7420 Y23.5356
G01 X53.7548 Y23.5863
G01 X53.7560 Y23.5927
G01 X53.7636 Y23.6445
G01 X53.7663 Y23.6984
G01 X53.7664 Y32.2000
G01 X53.7639 Y32.2523
G01 X53.7632 Y32.2587
G01 X53.7555 Y32.3105
G01 X53.7420 Y32.3644
G01 X53.7244 Y32.4137
G01 X53.7219 Y32.4197
G01 X53.6995 Y32.4670
G01 X53.6718 Y32.5133
G01 X53.6378 Y32.5593
G01 X53.6005 Y32.6005
G01 X50.9005 Y35.3005
G01 X50.8593 Y35.3378
G01 X50.8146 Y35.3709
G01 X50.7670 Y35.3995
G01 X50.7197 Y35.4219
G01 X50.7137 Y35.4244
G01 X50.6644 Y35.4420
G01 X50.6105 Y35.4555
G01 X50.5555 Y35.4636
G01 X50.5000 Y35.4664
G01 X45.6664 Y35.4664
G01 X45.6664 Y49.1654
G01 X46.7496 Y50.2486
G01 X48.7459 Y50.2486
G01 X48.7997 Y50.2353
G01 X48.8538 Y50.2271
G01 X48.8603 Y50.2265
G01 X48.9134 Y50.2239
G01 X49.3650 Y50.2239
G01 X49.4229 Y50.2267
G01 X49.4771 Y50.2347
G01 X49.4835 Y50.2360
G01 X49.5366 Y50.2494
G01 X49.5882 Y50.2677
G01 X49.5942 Y50.2702
G01 X49.6436 Y50.2937
G01 X49.6934 Y50.3235
G01 X49.7400 Y50.3581
G01 X49.7806 Y50.3948
G01 X49.7852 Y50.3994
G01 X49.8219 Y50.4400
G01 X49.8546 Y50.4840
G01 X49.8582 Y50.4893
G01 X49.8855 Y50.5349
G01 X49.9111 Y50.5888
G01 X49.9306 Y50.6434
G01 X49.9447 Y50.6997
G01 X49.9529 Y50.7538
G01 X49.9535 Y50.7603
G01 X49.9560 Y50.8118
G01 X49.9560 Y50.8182
G01 X49.9533 Y50.8729
G01 X49.9444 Y50.9319
G01 X49.9306 Y50.9866
G01 X49.9111 Y51.0412
G01 X49.8863 Y51.0936
G01 X49.8565 Y51.1434
G01 X49.8219 Y51.1900
G01 X49.7830 Y51.2330
G01 X49.7400 Y51.2719
G01 X49.7064 Y51.2970
G01 X49.7064 Y56.4054
G01 X50.9346 Y57.6336
G01 X82.6654 Y57.6336
G01 X84.1336 Y56.1654
G01 X84.1336 Y22.5000
G01 X84.1361 Y22.4477
G01 X84.1368 Y22.4413
G01 X84.1445 Y22.3895
G01 X84.1572 Y22.3387
G01 X84.1591 Y22.3325
G01 X84.1768 Y22.2833
G01 X84.2013 Y22.2316
G01 X84.2291 Y22.1854
G01 X84.2602 Y22.1433
G01 X84.2643 Y22.1383
G01 X84.2995 Y22.0995
G01 X85.8019 Y20.5973
G01 X85.8407 Y20.5622
G01 X85.8854 Y20.5291
G01 X85.9330 Y20.5005
G01 X85.9803 Y20.4781
G01 X85.9863 Y20.4756
G01 X86.0325 Y20.4591
G01 X86.0387 Y20.4572
G01 X86.0895 Y20.4445
G01 X86.1445 Y20.4364
G01 X86.2000 Y20.4336
G01 X102.0654 Y20.4336
G01 X105.9336 Y16.5654
G01 X105.9336 Y13.7821
G01 X105.9064 Y13.7655
G01 X105.8249 Y13.7051
G01 X105.7473 Y13.6350
G01 X105.6759 Y13.5563
G01 X105.6127 Y13.4709
G01 X105.5614 Y13.3854
G01 X105.5583 Y13.3797
G01 X105.5151 Y13.2880
G01 X105.4808 Y13.1926
G01 X105.4789 Y13.1863
G01 X105.4544 Y13.0880
G01 X105.4389 Y12.9829
G01 X105.4339 Y12.8800
G01 X105.4390 Y12.7755
G01 X105.4544 Y12.6720
G01 X105.4789 Y12.5737
G01 X105.4808 Y12.5674
G01 X105.5139 Y12.4750
G01 X105.5164 Y12.4691
G01 X105.5598 Y12.3774
G01 X105.6145 Y12.2864
G01 X105.6759 Y12.2037
G01 X105.7439 Y12.1285
G01 X105.7485 Y12.1239
G01 X105.8237 Y12.0559
G01 X105.9077 Y11.9936
G01 X105.9946 Y11.9414
G01 X106.0003 Y11.9383
G01 X106.0920 Y11.8951
G01 X106.1874 Y11.8608
G01 X106.1937 Y11.8589
G01 X106.2920 Y11.8344
G01 X106.3955 Y11.8190
G01 X106.5000 Y11.8139
G01 X106.6013 Y11.8188
G01 X106.6077 Y11.8194
G01 X106.7080 Y11.8344
G01 X106.8095 Y11.8598
G01 X106.9050 Y11.8939
G01 X106.9109 Y11.8964
G01 X107.0026 Y11.9398
G01 X107.0923 Y11.9936
G01 X107.1738 Y12.0539
G01 X107.1788 Y12.0580
G01 X107.2538 Y12.1262
G01 X107.3220 Y12.2012
G01 X107.3261 Y12.2062
G01 X107.3864 Y12.2877
G01 X107.4402 Y12.3774
G01 X107.4836 Y12.4691
G01 X107.4861 Y12.4750
G01 X107.5202 Y12.5705
G01 X107.5449 Y12.6688
G01 X107.5462 Y12.6752
G01 X107.5606 Y12.7723
G01 X107.5612 Y12.7787
G01 X107.5661 Y12.8800
G01 X107.5610 Y12.9845
G01 X107.5456 Y13.0880
G01 X107.5211 Y13.1863
G01 X107.5192 Y13.1926
G01 X107.4843 Y13.2895
G01 X107.4402 Y13.3826
G01 X107.3882 Y13.4696
G01 X107.3846 Y13.4749
G01 X107.3231 Y13.5576
G01 X107.2538 Y13.6338
G01 X107.1776 Y13.7031
G01 X107.0936 Y13.7655
G01 X107.0664 Y13.7821
G01 X107.0663 Y16.8016
G01 X107.0639 Y16.8523
G01 X107.0632 Y16.8587
G01 X107.0555 Y16.9105
G01 X107.0428 Y16.9613
G01 X107.0409 Y16.9675
G01 X107.0232 Y17.0167
G01 X106.9987 Y17.0684
G01 X106.9709 Y17.1146
G01 X106.9398 Y17.1567
G01 X106.9357 Y17.1617
G01 X106.9005 Y17.2005
G01 X102.7005 Y21.4005
G01 X102.6593 Y21.4378
G01 X102.6146 Y21.4709
G01 X102.5670 Y21.4995
G01 X102.5182 Y21.5226
G01 X102.4644 Y21.5420
G01 X102.4105 Y21.5555
G01 X102.3555 Y21.5636
G01 X102.3000 Y21.5664
G01 X86.4346 Y21.5664
G01 X85.2664 Y22.7346
G01 X85.2664 Y56.4000
G01 X85.2638 Y56.4539
G01 X85.2555 Y56.5105
G01 X85.2428 Y56.5613
G01 X85.2409 Y56.5675
G01 X85.2244 Y56.6137
G01 X85.2219 Y56.6197
G01 X85.1995 Y56.6670
G01 X85.1709 Y56.7146
G01 X85.1378 Y56.7593
G01 X85.1005 Y56.8005
G01 X83.2993 Y58.6016
G01 X83.2593 Y58.6378
G01 X83.2173 Y58.6690
G01 X83.2119 Y58.6726
G01 X83.1670 Y58.6995
G01 X83.1197 Y58.7219
G01 X83.1137 Y58.7244
G01 X83.0644 Y58.7420
G01 X83.0137 Y58.7548
G01 X83.0073 Y58.7560
G01 X82.9555 Y58.7636
G01 X82.9000 Y58.7664
G01 X50.7000 Y58.7664
G01 X50.6445 Y58.7636
G01 X50.5895 Y58.7555
G01 X50.5356 Y58.7420
G01 X50.4833 Y58.7232
G01 X50.4330 Y58.6995
G01 X50.3854 Y58.6709
G01 X50.3407 Y58.6378
G01 X50.3007 Y58.6016
G01 X48.6995 Y57.0005
G01 X48.6643 Y56.9617
G01 X48.6602 Y56.9567
G01 X48.6291 Y56.9146
G01 X48.6021 Y56.8698
G01 X48.5991 Y56.8641
G01 X48.5768 Y56.8167
G01 X48.5591 Y56.7675
G01 X48.5572 Y56.7613
G01 X48.5445 Y56.7105
G01 X48.5368 Y56.6587
G01 X48.5361 Y56.6523
G01 X48.5336 Y56.6000
G01 X48.5364 Y56.5445
G01 X48.5445 Y56.4895
G01 X48.5580 Y56.4356
G01 X48.5736 Y56.3917
G01 X48.5736 Y51.3814
G01 X46.5134 Y51.3813
G01 X46.4595 Y51.3786
G01 X46.4045 Y51.3705
G01 X46.3506 Y51.3570
G01 X46.2968 Y51.3376
G01 X46.2480 Y51.3145
G01 X46.2004 Y51.2859
G01 X46.1557 Y51.2528
G01 X46.1157 Y51.2166
G01 X44.6995 Y49.8005
G01 X44.6643 Y49.7617
G01 X44.6602 Y49.7567
G01 X44.6291 Y49.7146
G01 X44.6021 Y49.6698
G01 X44.5991 Y49.6641
G01 X44.5768 Y49.6167
G01 X44.5591 Y49.5675
G01 X44.5572 Y49.5613
G01 X44.5445 Y49.5105
G01 X44.5368 Y49.4587
G01 X44.5361 Y49.4523
G01 X44.5336 Y49.4000
G01 X44.5336 Y35.4664
G01 X22.8000 Y35.4664
G01 X22.7461 Y35.4638
G01 X22.6927 Y35.4560
G01 X22.6863 Y35.4548
G01 X22.6356 Y35.4420
G01 X22.5833 Y35.4232
G01 X22.5330 Y35.3995
G01 X22.4881 Y35.3726
G01 X22.4827 Y35.3690
G01 X22.4395 Y35.3368
G01 X22.3995 Y35.3005
G01 X21.1984 Y34.0993
G01 X21.1622 Y34.0593
G01 X21.1291 Y34.0146
G01 X21.1005 Y33.9670
G01 X21.0768 Y33.9167
G01 X21.0580 Y33.8644
G01 X21.0445 Y33.8105
G01 X21.0364 Y33.7555
G01 X21.0337 Y33.7032
G00 Z2.0000
G00 X35.5731 Y48.3007
G01 F20.00
G01 Z-0.0601
G01 F20.00
G01 X35.5782 Y48.2528
G01 X35.6223 Y48.1347
G01 X35.6972 Y48.0347
G01 X35.7972 Y47.9598
G01 X35.9153 Y47.9157
G01 X35.9632 Y47.9106
G01 X37.9568 Y47.9106
G01 X38.0047 Y47.9157
G01 X38.1228 Y47.9598
G01 X38.2228 Y48.0347
G01 X38.2977 Y48.1347
G01 X38.3071 Y48.1598
G01 X38.3122 Y48.1694
G01 X38.3470 Y48.2211
G01 X38.3534 Y48.2285
G01 X38.3609 Y48.2349
G01 X38.3677 Y48.2393
G01 X38.4194 Y48.2682
G01 X38.4253 Y48.2710
G01 X38.4315 Y48.2731
G01 X38.4378 Y48.2747
G01 X38.4459 Y48.2757
G01 X38.5067 Y48.2783
G01 X38.5181 Y48.2775
G01 X38.5245 Y48.2762
G01 X38.5307 Y48.2742
G01 X38.5876 Y48.2485
G01 X38.5931 Y48.2457
G01 X38.6009 Y48.2405
G01 X38.7372 Y48.1343
G01 X38.7412 Y48.1317
G01 X38.9391 Y48.0247
G01 X38.9434 Y48.0227
G01 X39.1562 Y47.9497
G01 X39.1608 Y47.9485
G01 X39.1839 Y47.9447
G01 X39.1839 Y48.3300
G01 X39.1102 Y48.3564
G01 X39.0198 Y48.3992
G01 X38.9341 Y48.4506
G01 X38.8564 Y48.5081
G01 X38.8513 Y48.5122
G01 X38.7821 Y48.5750
G01 X38.7775 Y48.5796
G01 X38.7126 Y48.6513
G01 X38.6531 Y48.7316
G01 X38.6017 Y48.8173
G01 X38.5603 Y48.9047
G01 X38.5578 Y48.9107
G01 X38.5263 Y48.9987
G01 X38.5244 Y49.0049
G01 X38.5010 Y49.0988
G01 X38.4865 Y49.1960
G01 X38.4814 Y49.2959
G01 X38.4814 Y49.3925
G01 X38.4863 Y49.4923
G01 X38.5004 Y49.5880
G01 X38.5017 Y49.5944
G01 X38.5253 Y49.6882
G01 X38.5589 Y49.7823
G01 X38.6002 Y49.8698
G01 X38.6033 Y49.8755
G01 X38.6513 Y49.9557
G01 X38.6549 Y49.9611
G01 X38.7126 Y50.0387
G01 X38.7775 Y50.1104
G01 X38.7821 Y50.1150
G01 X38.8513 Y50.1778
G01 X38.8564 Y50.1819
G01 X38.9341 Y50.2394
G01 X39.0198 Y50.2908
G01 X39.1102 Y50.3336
G01 X39.1839 Y50.3600
G01 X39.1839 Y50.7453
G01 X39.1608 Y50.7415
G01 X39.1562 Y50.7403
G01 X38.9434 Y50.6673
G01 X38.9391 Y50.6653
G01 X38.7412 Y50.5583
G01 X38.7372 Y50.5557
G01 X38.6009 Y50.4495
G01 X38.5931 Y50.4443
G01 X38.5876 Y50.4415
G01 X38.5322 Y50.4164
G01 X38.5213 Y50.4131
G01 X38.5148 Y50.4121
G01 X38.5083 Y50.4117
G01 X38.4459 Y50.4143
G01 X38.4394 Y50.4150
G01 X38.4315 Y50.4169
G01 X38.4253 Y50.4190
G01 X38.4194 Y50.4218
G01 X38.3677 Y50.4507
G01 X38.3609 Y50.4551
G01 X38.3534 Y50.4615
G01 X38.3470 Y50.4689
G01 X38.3122 Y50.5206
G01 X38.3071 Y50.5302
G01 X38.2977 Y50.5553
G01 X38.2228 Y50.6553
G01 X38.1228 Y50.7302
G01 X38.0047 Y50.7743
G01 X37.9568 Y50.7794
G01 X35.9632 Y50.7794
G01 X35.9153 Y50.7743
G01 X35.7972 Y50.7302
G01 X35.6972 Y50.6553
G01 X35.6223 Y50.5553
G01 X35.5782 Y50.4372
G01 X35.5731 Y50.3893
G01 X35.5731 Y48.3007
G00 Z2.0000
G00 X36.0075 Y50.4111
G01 F20.00
G01 Z-0.0601
G01 F20.00
G01 X36.0010 Y50.4108
G01 X35.9946 Y50.4098
G01 X35.9883 Y50.4083
G01 X35.9822 Y50.4061
G01 X35.9763 Y50.4033
G01 X35.9708 Y50.4000
G01 X35.9619 Y50.3929
G01 X35.9574 Y50.3882
G01 X35.9535 Y50.3831
G01 X35.9500 Y50.3776
G01 X35.9471 Y50.3718
G01 X35.9447 Y50.3657
G01 X35.9430 Y50.3595
G01 X35.9419 Y50.3531
G01 X35.9414 Y50.3466
G01 X35.9414 Y48.3450
G01 X35.9424 Y48.3337
G01 X35.9438 Y48.3274
G01 X35.9458 Y48.3212
G01 X35.9485 Y48.3153
G01 X35.9517 Y48.3096
G01 X35.9585 Y48.3006
G01 X35.9643 Y48.2949
G01 X35.9694 Y48.2910
G01 X35.9749 Y48.2875
G01 X35.9807 Y48.2846
G01 X35.9868 Y48.2822
G01 X35.9946 Y48.2802
G01 X36.0010 Y48.2792
G01 X36.0075 Y48.2789
G01 X37.9125 Y48.2789
G01 X37.9190 Y48.2792
G01 X37.9254 Y48.2802
G01 X37.9363 Y48.2833
G01 X37.9422 Y48.2860
G01 X37.9479 Y48.2892
G01 X37.9569 Y48.2960
G01 X37.9615 Y48.3006
G01 X37.9656 Y48.3056
G01 X37.9700 Y48.3124
G01 X37.9729 Y48.3182
G01 X37.9753 Y48.3243
G01 X37.9770 Y48.3305
G01 X37.9781 Y48.3369
G01 X37.9786 Y48.3450
G01 X37.9786 Y50.3450
G01 X37.9783 Y50.3515
G01 X37.9773 Y50.3579
G01 X37.9742 Y50.3688
G01 X37.9692 Y50.3790
G01 X37.9656 Y50.3844
G01 X37.9615 Y50.3894
G01 X37.9569 Y50.3940
G01 X37.9519 Y50.3981
G01 X37.9451 Y50.4025
G01 X37.9393 Y50.4054
G01 X37.9332 Y50.4078
G01 X37.9270 Y50.4095
G01 X37.9190 Y50.4108
G01 X37.9125 Y50.4111
G01 X36.0075 Y50.4111
G00 Z2.0000
G00 X34.1839 Y54.8500
G01 F20.00
G01 Z-0.0601
G01 F20.00
G01 X34.1842 Y54.8435
G01 X34.1852 Y54.8371
G01 X34.1867 Y54.8308
G01 X34.1889 Y54.8247
G01 X34.1917 Y54.8188
G01 X34.1950 Y54.8133
G01 X34.2021 Y54.8044
G01 X34.2068 Y54.7999
G01 X34.2119 Y54.7960
G01 X34.2174 Y54.7925
G01 X34.2232 Y54.7896
G01 X34.2293 Y54.7872
G01 X34.2355 Y54.7855
G01 X34.2419 Y54.7844
G01 X34.2484 Y54.7839
G01 X38.8500 Y54.7839
G01 X38.8565 Y54.7842
G01 X38.8629 Y54.7852
G01 X38.8692 Y54.7867
G01 X38.8753 Y54.7889
G01 X38.8840 Y54.7933
G01 X38.8919 Y54.7989
G01 X38.8990 Y54.8056
G01 X38.9050 Y54.8133
G01 X38.9098 Y54.8217
G01 X38.9133 Y54.8308
G01 X38.9154 Y54.8403
G01 X38.9161 Y54.8484
G01 X38.9161 Y56.8500
G01 X38.9158 Y56.8565
G01 X38.9148 Y56.8629
G01 X38.9133 Y56.8692
G01 X38.9111 Y56.8753
G01 X38.9067 Y56.8840
G01 X38.9011 Y56.8919
G01 X38.8944 Y56.8990
G01 X38.8867 Y56.9050
G01 X38.8783 Y56.9098
G01 X38.8692 Y56.9133
G01 X38.8597 Y56.9154
G01 X38.8500 Y56.9161
G01 X34.2500 Y56.9161
G01 X34.2435 Y56.9158
G01 X34.2371 Y56.9148
G01 X34.2308 Y56.9133
G01 X34.2247 Y56.9111
G01 X34.2160 Y56.9067
G01 X34.2081 Y56.9011
G01 X34.2010 Y56.8944
G01 X34.1950 Y56.8867
G01 X34.1902 Y56.8783
G01 X34.1867 Y56.8692
G01 X34.1849 Y56.8613
G01 X34.1839 Y56.8516
G01 X34.1839 Y54.8500
G00 Z2.0000
G00 X33.8156 Y54.8057
G01 F20.00
G01 Z-0.0601
G01 F20.00
G01 X33.8207 Y54.7578
G01 X33.8648 Y54.6397
G01 X33.9397 Y54.5397
G01 X34.0397 Y54.4648
G01 X34.1578 Y54.4207
G01 X34.2057 Y54.4156
G01 X38.8943 Y54.4156
G01 X38.9422 Y54.4207
G01 X39.0603 Y54.4648
G01 X39.1603 Y54.5397
G01 X39.2352 Y54.6397
G01 X39.2793 Y54.7578
G01 X39.2844 Y54.8057
G01 X39.2844 Y56.8943
G01 X39.2793 Y56.9422
G01 X39.2352 Y57.0603
G01 X39.1603 Y57.1603
G01 X39.0603 Y57.2352
G01 X38.9422 Y57.2793
G01 X38.8943 Y57.2844
G01 X34.2057 Y57.2844
G01 X34.1578 Y57.2793
G01 X34.0397 Y57.2352
G01 X33.9397 Y57.1603
G01 X33.8648 Y57.0603
G01 X33.8207 Y56.9422
G01 X33.8156 Y56.8943
G01 X33.8156 Y54.8057
G00 Z2.0000
G00 X36.8661 Y61.0839
G01 F20.00
G01 Z-0.0601
G01 F20.00
G01 X36.8661 Y60.7161
G01 X37.7105 Y60.7162
G01 X37.8844 Y60.7306
G01 X37.8891 Y60.7314
G01 X38.1149 Y60.7886
G01 X38.1194 Y60.7901
G01 X38.3326 Y60.8836
G01 X38.3368 Y60.8859
G01 X38.5317 Y61.0133
G01 X38.5355 Y61.0162
G01 X38.7068 Y61.1739
G01 X38.7100 Y61.1774
G01 X38.8531 Y61.3612
G01 X38.8557 Y61.3651
G01 X38.9665 Y61.5699
G01 X38.9684 Y61.5743
G01 X39.0440 Y61.7945
G01 X39.0452 Y61.7991
G01 X39.0510 Y61.8339
G01 X38.6679 Y61.8339
G01 X38.6349 Y61.7420
G01 X38.5917 Y61.6503
G01 X38.5886 Y61.6446
G01 X38.5382 Y61.5604
G01 X38.5346 Y61.5551
G01 X38.4741 Y61.4737
G01 X38.4038 Y61.3962
G01 X38.3263 Y61.3259
G01 X38.2449 Y61.2654
G01 X38.2396 Y61.2618
G01 X38.1526 Y61.2098
G01 X38.0609 Y61.1664
G01 X38.0550 Y61.1639
G01 X37.9610 Y61.1303
G01 X37.8612 Y61.1051
G01 X37.8548 Y61.1038
G01 X37.7545 Y61.0890
G01 X37.6532 Y61.0840
G01 X36.8661 Y61.0839
G00 Z2.0000
G00 X36.8661 Y63.5839
G01 F20.00
G01 Z-0.0601
G01 F20.00
G01 X36.8661 Y63.2161
G01 X37.6532 Y63.2160
G01 X37.7545 Y63.2110
G01 X37.8548 Y63.1962
G01 X37.8612 Y63.1949
G01 X37.9610 Y63.1697
G01 X38.0550 Y63.1361
G01 X38.0609 Y63.1336
G01 X38.1526 Y63.0902
G01 X38.2396 Y63.0382
G01 X38.2449 Y63.0346
G01 X38.3263 Y62.9741
G01 X38.4038 Y62.9038
G01 X38.4741 Y62.8263
G01 X38.5346 Y62.7449
G01 X38.5382 Y62.7396
G01 X38.5886 Y62.6554
G01 X38.5917 Y62.6497
G01 X38.6349 Y62.5580
G01 X38.6679 Y62.4661
G01 X39.0510 Y62.4661
G01 X39.0452 Y62.5009
G01 X39.0440 Y62.5055
G01 X38.9684 Y62.7257
G01 X38.9665 Y62.7301
G01 X38.8557 Y62.9349
G01 X38.8531 Y62.9388
G01 X38.7100 Y63.1226
G01 X38.7068 Y63.1261
G01 X38.5355 Y63.2838
G01 X38.5317 Y63.2867
G01 X38.3368 Y63.4141
G01 X38.3326 Y63.4164
G01 X38.1194 Y63.5099
G01 X38.1149 Y63.5114
G01 X37.8891 Y63.5686
G01 X37.8844 Y63.5694
G01 X37.7081 Y63.5839
G01 X36.8661 Y63.5839
G00 Z2.0000
G00 X34.0490 Y62.4661
G01 F20.00
G01 Z-0.0601
G01 F20.00
G01 X34.4321 Y62.4661
G01 X34.4651 Y62.5580
G01 X34.5083 Y62.6497
G01 X34.5114 Y62.6554
G01 X34.5618 Y62.7396
G01 X34.5654 Y62.7449
G01 X34.6259 Y62.8263
G01 X34.6962 Y62.9038
G01 X34.7737 Y62.9741
G01 X34.8551 Y63.0346
G01 X34.8604 Y63.0382
G01 X34.9474 Y63.0902
G01 X35.0391 Y63.1336
G01 X35.0450 Y63.1361
G01 X35.1390 Y63.1697
G01 X35.2388 Y63.1949
G01 X35.2452 Y63.1962
G01 X35.3455 Y63.2110
G01 X35.4468 Y63.2160
G01 X36.2339 Y63.2161
G01 X36.2339 Y63.5839
G01 X35.3919 Y63.5839
G01 X35.2156 Y63.5694
G01 X35.2109 Y63.5686
G01 X34.9851 Y63.5114
G01 X34.9806 Y63.5099
G01 X34.7674 Y63.4164
G01 X34.7632 Y63.4141
G01 X34.5683 Y63.2867
G01 X34.5645 Y63.2838
G01 X34.3932 Y63.1261
G01 X34.3900 Y63.1226
G01 X34.2469 Y62.9388
G01 X34.2443 Y62.9349
G01 X34.1335 Y62.7301
G01 X34.1316 Y62.7257
G01 X34.0560 Y62.5055
G01 X34.0548 Y62.5009
G01 X34.0490 Y62.4661
G00 Z2.0000
G00 X34.0490 Y61.8339
G01 F20.00
G01 Z-0.0601
G01 F20.00
G01 X34.0548 Y61.7991
G01 X34.0560 Y61.7945
G01 X34.1316 Y61.5743
G01 X34.1335 Y61.5699
G01 X34.2443 Y61.3651
G01 X34.2469 Y61.3612
G01 X34.3900 Y61.1774
G01 X34.3932 Y61.1739
G01 X34.5645 Y61.0162
G01 X34.5683 Y61.0133
G01 X34.7632 Y60.8859
G01 X34.7674 Y60.8836
G01 X34.9806 Y60.7901
G01 X34.9851 Y60.7886
G01 X35.2109 Y60.7314
G01 X35.2156 Y60.7306
G01 X35.3919 Y60.7161
G01 X36.2339 Y60.7161
G01 X36.2339 Y61.0839
G01 X35.4468 Y61.0840
G01 X35.3455 Y61.0890
G01 X35.2452 Y61.1038
G01 X35.2388 Y61.1051
G01 X35.1390 Y61.1303
G01 X35.0450 Y61.1639
G01 X35.0391 Y61.1664
G01 X34.9474 Y61.2098
G01 X34.8604 Y61.2618
G01 X34.8551 Y61.2654
G01 X34.7737 Y61.3259
G01 X34.6962 Y61.3962
G01 X34.6259 Y61.4737
G01 X34.5654 Y61.5551
G01 X34.5618 Y61.5604
G01 X34.5114 Y61.6446
G01 X34.5083 Y61.6503
G01 X34.4651 Y61.7420
G01 X34.4321 Y61.8339
G01 X34.0490 Y61.8339
G00 Z2.0000
G00 X39.9161 Y59.9081
G01 F20.00
G01 Z-0.0601
G01 F20.00
G01 X39.9161 Y59.0661
G01 X40.2839 Y59.0661
G01 X40.2840 Y59.8532
G01 X40.2890 Y59.9545
G01 X40.3038 Y60.0548
G01 X40.3051 Y60.0612
G01 X40.3303 Y60.1610
G01 X40.3639 Y60.2550
G01 X40.3664 Y60.2609
G01 X40.4098 Y60.3526
G01 X40.4618 Y60.4396
G01 X40.4654 Y60.4449
G01 X40.5259 Y60.5263
G01 X40.5962 Y60.6038
G01 X40.6737 Y60.6741
G01 X40.7551 Y60.7346
G01 X40.7604 Y60.7382
G01 X40.8446 Y60.7886
G01 X40.8503 Y60.7917
G01 X40.9420 Y60.8349
G01 X41.0339 Y60.8679
G01 X41.0339 Y61.2510
G01 X40.9991 Y61.2452
G01 X40.9945 Y61.2440
G01 X40.7743 Y61.1684
G01 X40.7699 Y61.1665
G01 X40.5651 Y61.0557
G01 X40.5612 Y61.0531
G01 X40.3774 Y60.9100
G01 X40.3739 Y60.9068
G01 X40.2162 Y60.7355
G01 X40.2133 Y60.7317
G01 X40.0859 Y60.5368
G01 X40.0836 Y60.5326
G01 X39.9901 Y60.3194
G01 X39.9886 Y60.3149
G01 X39.9314 Y60.0891
G01 X39.9306 Y60.0844
G01 X39.9161 Y59.9081
G00 Z2.0000
G00 X39.9161 Y58.4339
G01 F20.00
G01 Z-0.0601
G01 F20.00
G01 X39.9161 Y57.5919
G01 X39.9306 Y57.4156
G01 X39.9314 Y57.4109
G01 X39.9886 Y57.1851
G01 X39.9901 Y57.1806
G01 X40.0836 Y56.9674
G01 X40.0859 Y56.9632
G01 X40.2133 Y56.7683
G01 X40.2162 Y56.7645
G01 X40.3739 Y56.5932
G01 X40.3774 Y56.5900
G01 X40.5612 Y56.4469
G01 X40.5651 Y56.4443
G01 X40.7699 Y56.3335
G01 X40.7743 Y56.3316
G01 X40.9945 Y56.2560
G01 X40.9991 Y56.2548
G01 X41.0339 Y56.2490
G01 X41.0339 Y56.6321
G01 X40.9420 Y56.6651
G01 X40.8503 Y56.7083
G01 X40.8446 Y56.7114
G01 X40.7604 Y56.7618
G01 X40.7551 Y56.7654
G01 X40.6737 Y56.8259
G01 X40.5962 Y56.8962
G01 X40.5259 Y56.9737
G01 X40.4654 Y57.0551
G01 X40.4618 Y57.0604
G01 X40.4098 Y57.1474
G01 X40.3664 Y57.2391
G01 X40.3639 Y57.2450
G01 X40.3303 Y57.3390
G01 X40.3051 Y57.4388
G01 X40.3038 Y57.4452
G01 X40.2890 Y57.5455
G01 X40.2840 Y57.6468
G01 X40.2839 Y58.4339
G01 X39.9161 Y58.4339
G00 Z2.0000
G00 X41.6661 Y56.6321
G01 F20.00
G01 Z-0.0601
G01 F20.00
G01 X41.6661 Y56.2490
G01 X41.7009 Y56.2548
G01 X41.7055 Y56.2560
G01 X41.9257 Y56.3316
G01 X41.9301 Y56.3335
G01 X42.1349 Y56.4443
G01 X42.1388 Y56.4469
G01 X42.3226 Y56.5900
G01 X42.3261 Y56.5932
G01 X42.4838 Y56.7645
G01 X42.4867 Y56.7683
G01 X42.6141 Y56.9632
G01 X42.6164 Y56.9674
G01 X42.7099 Y57.1806
G01 X42.7114 Y57.1851
G01 X42.7686 Y57.4109
G01 X42.7694 Y57.4156
G01 X42.7839 Y57.5919
G01 X42.7839 Y58.4339
G01 X42.4161 Y58.4339
G01 X42.4161 Y57.6500
G01 X42.4111 Y57.5471
G01 X42.3962 Y57.4452
G01 X42.3949 Y57.4388
G01 X42.3702 Y57.3405
G01 X42.3349 Y57.2420
G01 X42.2902 Y57.1474
G01 X42.2364 Y57.0577
G01 X42.1741 Y56.9737
G01 X42.1061 Y56.8985
G01 X42.1015 Y56.8939
G01 X42.0263 Y56.8259
G01 X41.9449 Y56.7654
G01 X41.9396 Y56.7618
G01 X41.8554 Y56.7114
G01 X41.8497 Y56.7083
G01 X41.7580 Y56.6651
G01 X41.6661 Y56.6321
G00 Z2.0000
G00 X41.6661 Y60.8679
G01 F20.00
G01 Z-0.0601
G01 F20.00
G01 X41.7580 Y60.8349
G01 X41.8497 Y60.7917
G01 X41.8554 Y60.7886
G01 X41.9396 Y60.7382
G01 X41.9449 Y60.7346
G01 X42.0263 Y60.6741
G01 X42.1015 Y60.6061
G01 X42.1061 Y60.6015
G01 X42.1741 Y60.5263
G01 X42.2364 Y60.4423
G01 X42.2902 Y60.3526
G01 X42.3349 Y60.2580
G01 X42.3702 Y60.1595
G01 X42.3949 Y60.0612
G01 X42.3962 Y60.0548
G01 X42.4111 Y59.9529
G01 X42.4161 Y59.8500
G01 X42.4161 Y59.0661
G01 X42.7839 Y59.0661
G01 X42.7839 Y59.9081
G01 X42.7694 Y60.0844
G01 X42.7686 Y60.0891
G01 X42.7114 Y60.3149
G01 X42.7099 Y60.3194
G01 X42.6164 Y60.5326
G01 X42.6141 Y60.5368
G01 X42.4867 Y60.7317
G01 X42.4838 Y60.7355
G01 X42.3261 Y60.9068
G01 X42.3226 Y60.9100
G01 X42.1388 Y61.0531
G01 X42.1349 Y61.0557
G01 X41.9301 Y61.1665
G01 X41.9257 Y61.1684
G01 X41.7055 Y61.2440
G01 X41.7009 Y61.2452
G01 X41.6661 Y61.2510
G01 X41.6661 Y60.8679
G00 Z2.0000
G00 X48.3271 Y49.6062
G01 F20.00
G01 Z-0.0601
G01 F20.00
G01 X48.3265 Y49.5997
G01 X48.3239 Y49.5450
G01 X48.3267 Y49.4871
G01 X48.3353 Y49.4297
G01 X48.3494 Y49.3734
G01 X48.3689 Y49.3188
G01 X48.3937 Y49.2664
G01 X48.4235 Y49.2166
G01 X48.4581 Y49.1700
G01 X48.4970 Y49.1270
G01 X48.5400 Y49.0881
G01 X48.5866 Y49.0535
G01 X48.6364 Y49.0237
G01 X48.6888 Y48.9989
G01 X48.7434 Y48.9794
G01 X48.7997 Y48.9653
G01 X48.8587 Y48.9566
G01 X48.9150 Y48.9539
G01 X49.3666 Y48.9539
G01 X49.4197 Y48.9565
G01 X49.4262 Y48.9571
G01 X49.4803 Y48.9653
G01 X49.5341 Y48.9786
G01 X57.2204 Y48.9786
G01 X59.0336 Y47.1654
G01 X59.0336 Y9.7869
G01 X59.0218 Y9.7759
G01 X58.9691 Y9.7177
G01 X58.9214 Y9.6534
G01 X58.8803 Y9.5847
G01 X58.8460 Y9.5123
G01 X58.8190 Y9.4369
G01 X58.7996 Y9.3592
G01 X58.7878 Y9.2800
G01 X58.7839 Y9.1984
G01 X58.7878 Y9.1200
G01 X58.7996 Y9.0408
G01 X58.8190 Y8.9631
G01 X58.8460 Y8.8877
G01 X58.8803 Y8.8153
G01 X58.9214 Y8.7466
G01 X58.9691 Y8.6823
G01 X59.0218 Y8.6241
G01 X59.0336 Y8.6131
G01 X59.0336 Y7.9000
G01 X59.0362 Y7.8461
G01 X59.0445 Y7.7895
G01 X59.0580 Y7.7356
G01 X59.0768 Y7.6833
G01 X59.0991 Y7.6359
G01 X59.1021 Y7.6302
G01 X59.1274 Y7.5881
G01 X59.1310 Y7.5827
G01 X59.1622 Y7.5407
G01 X59.1984 Y7.5007
G01 X60.0019 Y6.6973
G01 X60.0407 Y6.6622
G01 X60.0854 Y6.6291
G01 X60.1330 Y6.6005
G01 X60.1833 Y6.5768
G01 X60.2356 Y6.5580
G01 X60.2895 Y6.5445
G01 X60.3445 Y6.5364
G01 X60.4000 Y6.5336
G01 X92.6016 Y6.5337
G01 X92.6555 Y6.5364
G01 X92.7105 Y6.5445
G01 X92.7644 Y6.5580
G01 X92.8137 Y6.5756
G01 X92.8197 Y6.5781
G01 X92.8641 Y6.5991
G01 X92.8698 Y6.6021
G01 X92.9146 Y6.6291
G01 X92.9605 Y6.6632
G01 X93.0005 Y6.6995
G01 X94.2027 Y7.9019
G01 X94.2378 Y7.9407
G01 X94.2709 Y7.9854
G01 X94.2995 Y8.0330
G01 X94.3219 Y8.0803
G01 X94.3244 Y8.0863
G01 X94.3409 Y8.1325
G01 X94.3428 Y8.1387
G01 X94.3555 Y8.1895
G01 X94.3636 Y8.2445
G01 X94.3664 Y8.3000
G01 X94.3664 Y9.3000
G01 X94.3636 Y9.3555
G01 X94.3555 Y9.4105
G01 X94.3420 Y9.4644
G01 X94.3232 Y9.5167
G01 X94.2995 Y9.5670
G01 X94.2726 Y9.6119
G01 X94.2690 Y9.6173
G01 X94.2398 Y9.6567
G01 X94.2357 Y9.6617
G01 X94.2005 Y9.7005
G01 X94.1593 Y9.7378
G01 X94.1146 Y9.7709
G01 X94.0698 Y9.7979
G01 X94.0641 Y9.8009
G01 X94.0197 Y9.8219
G01 X94.0137 Y9.8244
G01 X93.9644 Y9.8420
G01 X93.9105 Y9.8555
G01 X93.8555 Y9.8636
G01 X93.8000 Y9.8664
G01 X93.7477 Y9.8639
G01 X93.7413 Y9.8632
G01 X93.6895 Y9.8555
G01 X93.6387 Y9.8428
G01 X93.6325 Y9.8409
G01 X93.5833 Y9.8232
G01 X93.5330 Y9.7995
G01 X93.4881 Y9.7726
G01 X93.4827 Y9.7690
G01 X93.4407 Y9.7378
G01 X93.4019 Y9.7027
G01 X93.3973 Y9.6981
G01 X93.3622 Y9.6593
G01 X93.3291 Y9.6146
G01 X93.3021 Y9.5698
G01 X93.2991 Y9.5641
G01 X93.2768 Y9.5167
G01 X93.2591 Y9.4675
G01 X93.2572 Y9.4613
G01 X93.2445 Y9.4105
G01 X93.2364 Y9.3555
G01 X93.2336 Y9.3000
G01 X93.2336 Y8.5346
G01 X92.3654 Y7.6664
G01 X60.6346 Y7.6664
G01 X60.1664 Y8.1346
G01 X60.1664 Y8.6131
G01 X60.1782 Y8.6241
G01 X60.2309 Y8.6823
G01 X60.2786 Y8.7466
G01 X60.3197 Y8.8153
G01 X60.3540 Y8.8877
G01 X60.3810 Y8.9631
G01 X60.4004 Y9.0408
G01 X60.4122 Y9.1200
G01 X60.4161 Y9.2000
G01 X60.4122 Y9.2800
G01 X60.4004 Y9.3592
G01 X60.3810 Y9.4369
G01 X60.3540 Y9.5123
G01 X60.3197 Y9.5847
G01 X60.2786 Y9.6534
G01 X60.2309 Y9.7177
G01 X60.1782 Y9.7759
G01 X60.1664 Y9.7869
G01 X60.1664 Y47.4000
G01 X60.1639 Y47.4523
G01 X60.1632 Y47.4587
G01 X60.1555 Y47.5105
G01 X60.1428 Y47.5613
G01 X60.1409 Y47.5675
G01 X60.1244 Y47.6137
G01 X60.1219 Y47.6197
G01 X60.0995 Y47.6670
G01 X60.0709 Y47.7146
G01 X60.0378 Y47.7593
G01 X60.0027 Y47.7981
G01 X58.3509 Y49.4500
G01 X59.9346 Y51.0336
G01 X67.3654 Y51.0336
G01 X68.9336 Y49.4654
G01 X68.9337 Y47.2984
G01 X68.9361 Y47.2477
G01 X68.9368 Y47.2413
G01 X68.9445 Y47.1895
G01 X68.9572 Y47.1387
G01 X68.9591 Y47.1325
G01 X68.9768 Y47.0833
G01 X69.0013 Y47.0316
G01 X69.0291 Y46.9854
G01 X69.0602 Y46.9433
G01 X69.0643 Y46.9383
G01 X69.0995 Y46.8995
G01 X70.5995 Y45.3995
G01 X70.6420 Y45.3612
G01 X70.6854 Y45.3291
G01 X70.7330 Y45.3005
G01 X70.7833 Y45.2768
G01 X70.8325 Y45.2591
G01 X70.8387 Y45.2572
G01 X70.8863 Y45.2452
G01 X70.8927 Y45.2440
G01 X70.9445 Y45.2364
G01 X70.9984 Y45.2337
G01 X74.9016 Y45.2337
G01 X74.9555 Y45.2364
G01 X75.0105 Y45.2445
G01 X75.0644 Y45.2580
G01 X75.1137 Y45.2756
G01 X75.1197 Y45.2781
G01 X75.1641 Y45.2991
G01 X75.1698 Y45.3021
G01 X75.2146 Y45.3291
G01 X75.2605 Y45.3632
G01 X75.3005 Y45.3995
G01 X76.4629 Y46.5620
G01 X76.4760 Y46.5700
G01 X76.5180 Y46.6012
G01 X76.5605 Y46.6395
G01 X76.5978 Y46.6807
G01 X76.6290 Y46.7227
G01 X76.6326 Y46.7281
G01 X76.6602 Y46.7745
G01 X76.6832 Y46.8233
G01 X76.7009 Y46.8725
G01 X76.7028 Y46.8787
G01 X76.7155 Y46.9295
G01 X76.7232 Y46.9813
G01 X76.7239 Y46.9877
G01 X76.7263 Y47.0368
G01 X76.7264 Y48.4979
G01 X76.7536 Y48.5145
G01 X76.8376 Y48.5769
G01 X76.9138 Y48.6462
G01 X76.9831 Y48.7224
G01 X77.0446 Y48.8051
G01 X77.0482 Y48.8104
G01 X77.1002 Y48.8974
G01 X77.1456 Y48.9935
G01 X77.1802 Y49.0905
G01 X77.2056 Y49.1920
G01 X77.2210 Y49.2955
G01 X77.2260 Y49.3968
G01 X77.2260 Y49.4032
G01 X77.2212 Y49.5013
G01 X77.2206 Y49.5077
G01 X77.2056 Y49.6080
G01 X77.1802 Y49.7095
G01 X77.1461 Y49.8050
G01 X77.1436 Y49.8109
G01 X77.1002 Y49.9026
G01 X77.0482 Y49.9896
G01 X77.0446 Y49.9949
G01 X76.9841 Y50.0763
G01 X76.9161 Y50.1515
G01 X76.9115 Y50.1561
G01 X76.8363 Y50.2241
G01 X76.7549 Y50.2846
G01 X76.7496 Y50.2882
G01 X76.6626 Y50.3402
G01 X76.5709 Y50.3836
G01 X76.5650 Y50.3861
G01 X76.4695 Y50.4202
G01 X76.3680 Y50.4456
G01 X76.2677 Y50.4606
G01 X76.2613 Y50.4612
G01 X76.1600 Y50.4661
G01 X76.0555 Y50.4610
G01 X75.9552 Y50.4462
G01 X75.9488 Y50.4449
G01 X75.8505 Y50.4202
G01 X75.7550 Y50.3861
G01 X75.7491 Y50.3836
G01 X75.6574 Y50.3402
G01 X75.5704 Y50.2882
G01 X75.5651 Y50.2846
G01 X75.4837 Y50.2241
G01 X75.4085 Y50.1561
G01 X75.4039 Y50.1515
G01 X75.3380 Y50.0788
G01 X75.3339 Y50.0738
G01 X75.2736 Y49.9923
G01 X75.2198 Y49.9026
G01 X75.1751 Y49.8080
G01 X75.1398 Y49.7095
G01 X75.1144 Y49.6080
G01 X75.0990 Y49.5045
G01 X75.0939 Y49.4000
G01 X75.0990 Y49.2955
G01 X75.1144 Y49.1920
G01 X75.1389 Y49.0937
G01 X75.1408 Y49.0874
G01 X75.1751 Y48.9920
G01 X75.2183 Y48.9003
G01 X75.2214 Y48.8946
G01 X75.2727 Y48.8091
G01 X75.3359 Y48.7237
G01 X75.4073 Y48.6450
G01 X75.4849 Y48.5749
G01 X75.5664 Y48.5145
G01 X75.5936 Y48.4979
G01 X75.5936 Y47.2946
G01 X74.6654 Y46.3664
G01 X71.2346 Y46.3664
G01 X70.0664 Y47.5346
G01 X70.0663 Y49.7032
G01 X70.0636 Y49.7555
G01 X70.0560 Y49.8073
G01 X70.0548 Y49.8137
G01 X70.0420 Y49.8644
G01 X70.0244 Y49.9137
G01 X70.0219 Y49.9197
G01 X69.9995 Y49.9670
G01 X69.9718 Y50.0133
G01 X69.9378 Y50.0593
G01 X69.9005 Y50.1005
G01 X67.9981 Y52.0027
G01 X67.9593 Y52.0378
G01 X67.9146 Y52.0709
G01 X67.8670 Y52.0995
G01 X67.8197 Y52.1219
G01 X67.8137 Y52.1244
G01 X67.7675 Y52.1409
G01 X67.7613 Y52.1428
G01 X67.7105 Y52.1555
G01 X67.6571 Y52.1634
G01 X67.6000 Y52.1664
G01 X59.7000 Y52.1664
G01 X59.6429 Y52.1634
G01 X59.5895 Y52.1555
G01 X59.5387 Y52.1428
G01 X59.5325 Y52.1409
G01 X59.4863 Y52.1244
G01 X59.4803 Y52.1219
G01 X59.4330 Y52.0995
G01 X59.3854 Y52.0709
G01 X59.3407 Y52.0378
G01 X59.3019 Y52.0027
G01 X57.4104 Y50.1114
G01 X49.5341 Y50.1114
G01 X49.4803 Y50.1247
G01 X49.4262 Y50.1329
G01 X49.4197 Y50.1335
G01 X49.3666 Y50.1361
G01 X48.9150 Y50.1361
G01 X48.8603 Y50.1335
G01 X48.8538 Y50.1329
G01 X48.7997 Y50.1247
G01 X48.7465 Y50.1115
G01 X48.7403 Y50.1096
G01 X48.6918 Y50.0923
G01 X48.6858 Y50.0898
G01 X48.6364 Y50.0663
G01 X48.5866 Y50.0365
G01 X48.5400 Y50.0019
G01 X48.4970 Y49.9630
G01 X48.4581 Y49.9200
G01 X48.4254 Y49.8761
G01 X48.4218 Y49.8707
G01 X48.3953 Y49.8265
G01 X48.3922 Y49.8207
G01 X48.3689 Y49.7712
G01 X48.3494 Y49.7166
G01 X48.3353 Y49.6603
G01 X48.3271 Y49.6062
G00 Z2.0000
G00 X47.9561 Y47.9589
G01 F20.00
G01 Z-0.0601
G01 F20.00
G01 X47.9561 Y47.7072
G01 X47.9609 Y47.6615
G01 X47.9625 Y47.6546
G01 X48.0038 Y47.5438
G01 X48.0077 Y47.5366
G01 X48.0776 Y47.4433
G01 X48.0833 Y47.4376
G01 X48.1766 Y47.3677
G01 X48.1838 Y47.3638
G01 X48.2946 Y47.3225
G01 X48.3015 Y47.3209
G01 X48.3442 Y47.3163
G01 X48.8239 Y47.3161
G01 X48.8239 Y47.6839
G01 X48.3900 Y47.6839
G01 X48.3787 Y47.6849
G01 X48.3693 Y47.6872
G01 X48.3603 Y47.6910
G01 X48.3533 Y47.6950
G01 X48.3456 Y47.7010
G01 X48.3399 Y47.7068
G01 X48.3342 Y47.7146
G01 X48.3302 Y47.7217
G01 X48.3272 Y47.7293
G01 X48.3249 Y47.7387
G01 X48.3239 Y47.7500
G01 X48.3239 Y47.9589
G01 X47.9561 Y47.9589
G00 Z2.0000
G00 X49.4561 Y47.6839
G01 F20.00
G01 Z-0.0601
G01 F20.00
G01 X49.4561 Y47.3161
G01 X49.9328 Y47.3161
G01 X49.9785 Y47.3209
G01 X49.9854 Y47.3225
G01 X50.0962 Y47.3638
G01 X50.1034 Y47.3677
G01 X50.1967 Y47.4376
G01 X50.2024 Y47.4433
G01 X50.2723 Y47.5366
G01 X50.2762 Y47.5438
G01 X50.3175 Y47.6546
G01 X50.3191 Y47.6615
G01 X50.3239 Y47.7073
G01 X50.3239 Y47.9589
G01 X49.9561 Y47.9589
G01 X49.9561 Y47.7500
G01 X49.9551 Y47.7387
G01 X49.9528 Y47.7293
G01 X49.9498 Y47.7217
