(G-CODE GENERATED BY FLATCAM v8.994 - www.flatcam.org - Version Date: 2020/11/7)

(Name: Sensorbox-Edge_Cuts.gbr_cutout_cnc)
(Type: G-code from Geometry)
(Units: MM)

(Created on Monday, 19 February 2024 at 14:24)

(This preprocessor is the default preprocessor used by FlatCAM.)
(It is made to work with MACH3 compatible motion controllers.)

(TOOL DIAMETER: 2.0 mm)
(Feedrate_XY: 80.0 mm/min)
(Feedrate_Z: 40.0 mm/min)
(Feedrate rapids 1500.0 mm/min)

(Z_Cut: -1.8 mm)
(DepthPerCut: 0.4 mm <=>5 passes)
(Z_Move: 2.0 mm)
(Z Start: None mm)
(Z End: 15.0 mm)
(X,Y End: None mm)
(Steps per circle: 64)
(Preprocessor Geometry: default)

(X range:   -1.1500 ...  111.1500  mm)
(Y range:   -1.1500 ...   71.1500  mm)

(Spindle Speed: 20000.0 RPM)
G21
G90
G94

G01 F80.00

M5
G00 Z15.0000
G00 X0.0000 Y0.0000
T1
M6    
(MSG, Change to Tool Dia = 2.0000)
M0
G00 Z15.0000

M03 S20000.0
G01 F80.00
G00 X-1.1500 Y33.6000
G01 F40.00
G01 Z-0.4000
G01 F80.00
G01 X-1.1500 Y-0.0500
G01 X-1.1447 Y-0.1578
G01 X-1.1289 Y-0.2646
G01 X-1.1027 Y-0.3693
G01 X-1.0663 Y-0.4710
G01 X-1.0201 Y-0.5686
G01 X-0.9646 Y-0.6612
G01 X-0.9003 Y-0.7479
G01 X-0.8278 Y-0.8278
G01 X-0.7479 Y-0.9003
G01 X-0.6612 Y-0.9646
G01 X-0.5686 Y-1.0201
G01 X-0.4710 Y-1.0663
G01 X-0.3693 Y-1.1027
G01 X-0.2646 Y-1.1289
G01 X-0.1578 Y-1.1447
G01 X-0.0500 Y-1.1500
G01 X53.6000 Y-1.1500
G00 X53.6000 Y-1.1500
G01 F40.00
G01 Z-0.8000
G01 F80.00
G01 X-0.0500 Y-1.1500
G01 X-0.1578 Y-1.1447
G01 X-0.2646 Y-1.1289
G01 X-0.3693 Y-1.1027
G01 X-0.4710 Y-1.0663
G01 X-0.5686 Y-1.0201
G01 X-0.6612 Y-0.9646
G01 X-0.7479 Y-0.9003
G01 X-0.8278 Y-0.8278
G01 X-0.9003 Y-0.7479
G01 X-0.9646 Y-0.6612
G01 X-1.0201 Y-0.5686
G01 X-1.0663 Y-0.4710
G01 X-1.1027 Y-0.3693
G01 X-1.1289 Y-0.2646
G01 X-1.1447 Y-0.1578
G01 X-1.1500 Y-0.0500
G01 X-1.1500 Y33.6000
G00 X-1.1500 Y33.6000
G01 F40.00
G01 Z-1.2000
G01 F80.00
G01 X-1.1500 Y-0.0500
G01 X-1.1447 Y-0.1578
G01 X-1.1289 Y-0.2646
G01 X-1.1027 Y-0.3693
G01 X-1.0663 Y-0.4710
G01 X-1.0201 Y-0.5686
G01 X-0.9646 Y-0.6612
G01 X-0.9003 Y-0.7479
G01 X-0.8278 Y-0.8278
G01 X-0.7479 Y-0.9003
G01 X-0.6612 Y-0.9646
G01 X-0.5686 Y-1.0201
G01 X-0.4710 Y-1.0663
G01 X-0.3693 Y-1.1027
G01 X-0.2646 Y-1.1289
G01 X-0.1578 Y-1.1447
G01 X-0.0500 Y-1.1500
G01 X53.6000 Y-1.1500
G00 X53.6000 Y-1.1500
G01 F40.00
G01 Z-1.6000
G01 F80.00
G01 X-0.0500 Y-1.1500
G01 X-0.1578 Y-1.1447
G01 X-0.2646 Y-1.1289
G01 X-0.3693 Y-1.1027
G01 X-0.4710 Y-1.0663
G01 X-0.5686 Y-1.0201
G01 X-0.6612 Y-0.9646
G01 X-0.7479 Y-0.9003
G01 X-0.8278 Y-0.8278
G01 X-0.9003 Y-0.7479
G01 X-0.9646 Y-0.6612
G01 X-1.0201 Y-0.5686
G01 X-1.0663 Y-0.4710
G01 X-1.1027 Y-0.3693
G01 X-1.1289 Y-0.2646
G01 X-1.1447 Y-0.1578
G01 X-1.1500 Y-0.0500
G01 X-1.1500 Y33.6000
G00 X-1.1500 Y33.6000
G01 F40.00
G01 Z-1.8000
G01 F80.00
G01 X-1.1500 Y-0.0500
G01 X-1.1447 Y-0.1578
G01 X-1.1289 Y-0.2646
G01 X-1.1027 Y-0.3693
G01 X-1.0663 Y-0.4710
G01 X-1.0201 Y-0.5686
G01 X-0.9646 Y-0.6612
G01 X-0.9003 Y-0.7479
G01 X-0.8278 Y-0.8278
G01 X-0.7479 Y-0.9003
G01 X-0.6612 Y-0.9646
G01 X-0.5686 Y-1.0201
G01 X-0.4710 Y-1.0663
G01 X-0.3693 Y-1.1027
G01 X-0.2646 Y-1.1289
G01 X-0.1578 Y-1.1447
G01 X-0.0500 Y-1.1500
G01 X53.6000 Y-1.1500
G00 Z2.0000
G00 X-1.1500 Y36.6000
G01 F40.00
G01 Z-0.4000
G01 F80.00
G01 X-1.1500 Y70.0500
G01 X-1.1447 Y70.1578
G01 X-1.1289 Y70.2646
G01 X-1.1027 Y70.3693
G01 X-1.0663 Y70.4710
G01 X-1.0201 Y70.5686
G01 X-0.9646 Y70.6612
G01 X-0.9003 Y70.7479
G01 X-0.8278 Y70.8278
G01 X-0.7479 Y70.9003
G01 X-0.6612 Y70.9646
G01 X-0.5686 Y71.0201
G01 X-0.4710 Y71.0663
G01 X-0.3693 Y71.1027
G01 X-0.2646 Y71.1289
G01 X-0.1578 Y71.1447
G01 X-0.0500 Y71.1500
G01 X53.6000 Y71.1500
G00 X53.6000 Y71.1500
G01 F40.00
G01 Z-0.8000
G01 F80.00
G01 X-0.0500 Y71.1500
G01 X-0.1578 Y71.1447
G01 X-0.2646 Y71.1289
G01 X-0.3693 Y71.1027
G01 X-0.4710 Y71.0663
G01 X-0.5686 Y71.0201
G01 X-0.6612 Y70.9646
G01 X-0.7479 Y70.9003
G01 X-0.8278 Y70.8278
G01 X-0.9003 Y70.7479
G01 X-0.9646 Y70.6612
G01 X-1.0201 Y70.5686
G01 X-1.0663 Y70.4710
G01 X-1.1027 Y70.3693
G01 X-1.1289 Y70.2646
G01 X-1.1447 Y70.1578
G01 X-1.1500 Y70.0500
G01 X-1.1500 Y36.6000
G00 X-1.1500 Y36.6000
G01 F40.00
G01 Z-1.2000
G01 F80.00
G01 X-1.1500 Y70.0500
G01 X-1.1447 Y70.1578
G01 X-1.1289 Y70.2646
G01 X-1.1027 Y70.3693
G01 X-1.0663 Y70.4710
G01 X-1.0201 Y70.5686
G01 X-0.9646 Y70.6612
G01 X-0.9003 Y70.7479
G01 X-0.8278 Y70.8278
G01 X-0.7479 Y70.9003
G01 X-0.6612 Y70.9646
G01 X-0.5686 Y71.0201
G01 X-0.4710 Y71.0663
G01 X-0.3693 Y71.1027
G01 X-0.2646 Y71.1289
G01 X-0.1578 Y71.1447
G01 X-0.0500 Y71.1500
G01 X53.6000 Y71.1500
G00 X53.6000 Y71.1500
G01 F40.00
G01 Z-1.6000
G01 F80.00
G01 X-0.0500 Y71.1500
G01 X-0.1578 Y71.1447
G01 X-0.2646 Y71.1289
G01 X-0.3693 Y71.1027
G01 X-0.4710 Y71.0663
G01 X-0.5686 Y71.0201
G01 X-0.6612 Y70.9646
G01 X-0.7479 Y70.9003
G01 X-0.8278 Y70.8278
G01 X-0.9003 Y70.7479
G01 X-0.9646 Y70.6612
G01 X-1.0201 Y70.5686
G01 X-1.0663 Y70.4710
G01 X-1.1027 Y70.3693
G01 X-1.1289 Y70.2646
G01 X-1.1447 Y70.1578
G01 X-1.1500 Y70.0500
G01 X-1.1500 Y36.6000
G00 X-1.1500 Y36.6000
G01 F40.00
G01 Z-1.8000
G01 F80.00
G01 X-1.1500 Y70.0500
G01 X-1.1447 Y70.1578
G01 X-1.1289 Y70.2646
G01 X-1.1027 Y70.3693
G01 X-1.0663 Y70.4710
G01 X-1.0201 Y70.5686
G01 X-0.9646 Y70.6612
G01 X-0.9003 Y70.7479
G01 X-0.8278 Y70.8278
G01 X-0.7479 Y70.9003
G01 X-0.6612 Y70.9646
G01 X-0.5686 Y71.0201
G01 X-0.4710 Y71.0663
G01 X-0.3693 Y71.1027
G01 X-0.2646 Y71.1289
G01 X-0.1578 Y71.1447
G01 X-0.0500 Y71.1500
G01 X53.6000 Y71.1500
G00 Z2.0000
G00 X56.6000 Y71.1500
G01 F40.00
G01 Z-0.4000
G01 F80.00
G01 X110.0500 Y71.1500
G01 X110.1578 Y71.1447
G01 X110.2646 Y71.1289
G01 X110.3693 Y71.1027
G01 X110.4710 Y71.0663
G01 X110.5686 Y71.0201
G01 X110.6612 Y70.9646
G01 X110.7479 Y70.9003
G01 X110.8278 Y70.8278
G01 X110.9003 Y70.7479
G01 X110.9646 Y70.6612
G01 X111.0201 Y70.5686
G01 X111.0663 Y70.4710
G01 X111.1027 Y70.3693
G01 X111.1289 Y70.2646
G01 X111.1447 Y70.1578
G01 X111.1500 Y70.0500
G01 X111.1500 Y36.6000
G00 X111.1500 Y36.6000
G01 F40.00
G01 Z-0.8000
G01 F80.00
G01 X111.1500 Y70.0500
G01 X111.1447 Y70.1578
G01 X111.1289 Y70.2646
G01 X111.1027 Y70.3693
G01 X111.0663 Y70.4710
G01 X111.0201 Y70.5686
G01 X110.9646 Y70.6612
G01 X110.9003 Y70.7479
G01 X110.8278 Y70.8278
G01 X110.7479 Y70.9003
G01 X110.6612 Y70.9646
G01 X110.5686 Y71.0201
G01 X110.4710 Y71.0663
G01 X110.3693 Y71.1027
G01 X110.2646 Y71.1289
G01 X110.1578 Y71.1447
G01 X110.0500 Y71.1500
G01 X56.6000 Y71.1500
G00 X56.6000 Y71.1500
G01 F40.00
G01 Z-1.2000
G01 F80.00
G01 X110.0500 Y71.1500
G01 X110.1578 Y71.1447
G01 X110.2646 Y71.1289
G01 X110.3693 Y71.1027
G01 X110.4710 Y71.0663
G01 X110.5686 Y71.0201
G01 X110.6612 Y70.9646
G01 X110.7479 Y70.9003
G01 X110.8278 Y70.8278
G01 X110.9003 Y70.7479
G01 X110.9646 Y70.6612
G01 X111.0201 Y70.5686
G01 X111.0663 Y70.4710
G01 X111.1027 Y70.3693
G01 X111.1289 Y70.2646
G01 X111.1447 Y70.1578
G01 X111.1500 Y70.0500
G01 X111.1500 Y36.6000
G00 X111.1500 Y36.6000
G01 F40.00
G01 Z-1.6000
G01 F80.00
G01 X111.1500 Y70.0500
G01 X111.1447 Y70.1578
G01 X111.1289 Y70.2646
G01 X111.1027 Y70.3693
G01 X111.0663 Y70.4710
G01 X111.0201 Y70.5686
G01 X110.9646 Y70.6612
G01 X110.9003 Y70.7479
G01 X110.8278 Y70.8278
G01 X110.7479 Y70.9003
G01 X110.6612 Y70.9646
G01 X110.5686 Y71.0201
G01 X110.4710 Y71.0663
G01 X110.3693 Y71.1027
G01 X110.2646 Y71.1289
G01 X110.1578 Y71.1447
G01 X110.0500 Y71.1500
G01 X56.6000 Y71.1500
G00 X56.6000 Y71.1500
G01 F40.00
G01 Z-1.8000
G01 F80.00
G01 X110.0500 Y71.1500
G01 X110.1578 Y71.1447
G01 X110.2646 Y71.1289
G01 X110.3693 Y71.1027
G01 X110.4710 Y71.0663
G01 X110.5686 Y71.0201
G01 X110.6612 Y70.9646
G01 X110.7479 Y70.9003
G01 X110.8278 Y70.8278
G01 X110.9003 Y70.7479
G01 X110.9646 Y70.6612
G01 X111.0201 Y70.5686
G01 X111.0663 Y70.4710
G01 X111.1027 Y70.3693
G01 X111.1289 Y70.2646
G01 X111.1447 Y70.1578
G01 X111.1500 Y70.0500
G01 X111.1500 Y36.6000
G00 Z2.0000
G00 X111.1500 Y33.6000
G01 F40.00
G01 Z-0.4000
G01 F80.00
G01 X111.1500 Y-0.0500
G01 X111.1447 Y-0.1578
G01 X111.1289 Y-0.2646
G01 X111.1027 Y-0.3693
G01 X111.0663 Y-0.4710
G01 X111.0201 Y-0.5686
G01 X110.9646 Y-0.6612
G01 X110.9003 Y-0.7479
G01 X110.8278 Y-0.8278
G01 X110.7479 Y-0.9003
G01 X110.6612 Y-0.9646
G01 X110.5686 Y-1.0201
G01 X110.4710 Y-1.0663
G01 X110.3693 Y-1.1027
G01 X110.2646 Y-1.1289
G01 X110.1578 Y-1.1447
G01 X110.0500 Y-1.1500
G01 X56.6000 Y-1.1500
G00 X56.6000 Y-1.1500
G01 F40.00
G01 Z-0.8000
G01 F80.00
G01 X110.0500 Y-1.1500
G01 X110.1578 Y-1.1447
G01 X110.2646 Y-1.1289
G01 X110.3693 Y-1.1027
G01 X110.4710 Y-1.0663
G01 X110.5686 Y-1.0201
G01 X110.6612 Y-0.9646
G01 X110.7479 Y-0.9003
G01 X110.8278 Y-0.8278
G01 X110.9003 Y-0.7479
G01 X110.9646 Y-0.6612
G01 X111.0201 Y-0.5686
G01 X111.0663 Y-0.4710
G01 X111.1027 Y-0.3693
G01 X111.1289 Y-0.2646
G01 X111.1447 Y-0.1578
G01 X111.1500 Y-0.0500
G01 X111.1500 Y33.6000
G00 X111.1500 Y33.6000
G01 F40.00
G01 Z-1.2000
G01 F80.00
G01 X111.1500 Y-0.0500
G01 X111.1447 Y-0.1578
G01 X111.1289 Y-0.2646
G01 X111.1027 Y-0.3693
G01 X111.0663 Y-0.4710
G01 X111.0201 Y-0.5686
G01 X110.9646 Y-0.6612
G01 X110.9003 Y-0.7479
G01 X110.8278 Y-0.8278
G01 X110.7479 Y-0.9003
G01 X110.6612 Y-0.9646
G01 X110.5686 Y-1.0201
G01 X110.4710 Y-1.0663
G01 X110.3693 Y-1.1027
G01 X110.2646 Y-1.1289
G01 X110.1578 Y-1.1447
G01 X110.0500 Y-1.1500
G01 X56.6000 Y-1.1500
G00 X56.6000 Y-1.1500
G01 F40.00
G01 Z-1.6000
G01 F80.00
G01 X110.0500 Y-1.1500
G01 X110.1578 Y-1.1447
G01 X110.2646 Y-1.1289
G01 X110.3693 Y-1.1027
G01 X110.4710 Y-1.0663
G01 X110.5686 Y-1.0201
G01 X110.6612 Y-0.9646
G01 X110.7479 Y-0.9003
G01 X110.8278 Y-0.8278
G01 X110.9003 Y-0.7479
G01 X110.9646 Y-0.6612
G01 X111.0201 Y-0.5686
G01 X111.0663 Y-0.4710
G01 X111.1027 Y-0.3693
G01 X111.1289 Y-0.2646
G01 X111.1447 Y-0.1578
G01 X111.1500 Y-0.0500
G01 X111.1500 Y33.6000
G00 X111.1500 Y33.6000
G01 F40.00
G01 Z-1.8000
G01 F80.00
G01 X111.1500 Y-0.0500
G01 X111.1447 Y-0.1578
G01 X111.1289 Y-0.2646
G01 X111.1027 Y-0.3693
G01 X111.0663 Y-0.4710
G01 X111.0201 Y-0.5686
G01 X110.9646 Y-0.6612
G01 X110.9003 Y-0.7479
G01 X110.8278 Y-0.8278
G01 X110.7479 Y-0.9003
G01 X110.6612 Y-0.9646
G01 X110.5686 Y-1.0201
G01 X110.4710 Y-1.0663
G01 X110.3693 Y-1.1027
G01 X110.2646 Y-1.1289
G01 X110.1578 Y-1.1447
G01 X110.0500 Y-1.1500
G01 X56.6000 Y-1.1500
G00 Z2.0000
M05
G00 Z2.0000
G00 Z15.00


