(G-CODE GENERATED BY FLATCAM v8.994 - www.flatcam.org - Version Date: 2020/11/7)

(Name: Sensorbox-User_1.gbr_ncc_cnc)
(Type: G-code from Geometry)
(Units: MM)

(Created on Tuesday, 06 February 2024 at 14:12)

(This preprocessor is the default preprocessor used by FlatCAM.)
(It is made to work with MACH3 compatible motion controllers.)

(TOOL DIAMETER: 1.2 mm)
(Feedrate_XY: 80.0 mm/min)
(Feedrate_Z: 40.0 mm/min)
(Feedrate rapids 1500.0 mm/min)

(Z_Cut: -1.8999999999999995 mm)
(DepthPerCut: 0.20000000000000015 mm <=>10 passes)
(Z_Move: 2.0 mm)
(Z Start: None mm)
(Z End: 15.0 mm)
(X,Y End: None mm)
(Steps per circle: 64)
(Preprocessor Geometry: default)

(X range:   98.3050 ...  104.6250  mm)
(Y range:   31.0050 ...   37.3150  mm)

(Spindle Speed: 20000.0 RPM)
G21
G90
G94

G01 F80.00

M5
G00 Z15.0000
G00 X0.0000 Y0.0000
T1
M6    
(MSG, Change to Tool Dia = 1.2000)
M0
G00 Z15.0000

M03 S20000.0
G01 F80.00
G00 X99.0722 Y31.0050
G01 F40.00
G01 Z-0.2000
G01 F80.00
G01 X99.0287 Y31.0381
G01 X98.9528 Y31.0989
G01 X98.8784 Y31.1615
G01 X98.8056 Y31.2258
G01 X98.7344 Y31.2920
G01 X98.6649 Y31.3599
G01 X98.5970 Y31.4294
G01 X98.5308 Y31.5006
G01 X98.4665 Y31.5734
G01 X98.4039 Y31.6478
G01 X98.3431 Y31.7237
G01 X98.3050 Y31.7738
G01 X98.3050 Y33.4447
G01 X98.3221 Y33.3727
G01 X98.3424 Y33.2959
G01 X98.3645 Y33.2195
G01 X98.3885 Y33.1437
G01 X98.4144 Y33.0685
G01 X98.4421 Y32.9939
G01 X98.4716 Y32.9201
G01 X98.5030 Y32.8470
G01 X98.5361 Y32.7747
G01 X98.5710 Y32.7033
G01 X98.6076 Y32.6327
G01 X98.6459 Y32.5630
G01 X98.6860 Y32.4943
G01 X98.7277 Y32.4266
G01 X98.7710 Y32.3600
G01 X98.8160 Y32.2944
G01 X98.8626 Y32.2299
G01 X98.9108 Y32.1666
G01 X98.9604 Y32.1046
G01 X99.0116 Y32.0437
G01 X99.0643 Y31.9841
G01 X99.1184 Y31.9259
G01 X99.1740 Y31.8690
G01 X99.2309 Y31.8134
G01 X99.2891 Y31.7593
G01 X99.3487 Y31.7066
G01 X99.4096 Y31.6554
G01 X99.4716 Y31.6058
G01 X99.5349 Y31.5576
G01 X99.5994 Y31.5110
G01 X99.6650 Y31.4660
G01 X99.7316 Y31.4227
G01 X99.7993 Y31.3810
G01 X99.8680 Y31.3409
G01 X99.9377 Y31.3026
G01 X100.0083 Y31.2660
G01 X100.0797 Y31.2311
G01 X100.1520 Y31.1980
G01 X100.2251 Y31.1666
G01 X100.2989 Y31.1371
G01 X100.3735 Y31.1094
G01 X100.4487 Y31.0835
G01 X100.5245 Y31.0595
G01 X100.6009 Y31.0374
G01 X100.6777 Y31.0171
G01 X100.7286 Y31.0050
G01 X102.2014 Y31.0050
G01 X102.2523 Y31.0171
G01 X102.3291 Y31.0374
G01 X102.4055 Y31.0595
G01 X102.4813 Y31.0835
G01 X102.5565 Y31.1094
G01 X102.6311 Y31.1371
G01 X102.7049 Y31.1666
G01 X102.7780 Y31.1980
G01 X102.8503 Y31.2311
G01 X102.9217 Y31.2660
G01 X102.9923 Y31.3026
G01 X103.0620 Y31.3409
G01 X103.1307 Y31.3810
G01 X103.1984 Y31.4227
G01 X103.2650 Y31.4660
G01 X103.3306 Y31.5110
G01 X103.3951 Y31.5576
G01 X103.4584 Y31.6058
G01 X103.5204 Y31.6554
G01 X103.5813 Y31.7066
G01 X103.6409 Y31.7593
G01 X103.6991 Y31.8134
G01 X103.7560 Y31.8690
G01 X103.8116 Y31.9259
G01 X103.8657 Y31.9841
G01 X103.9184 Y32.0437
G01 X103.9696 Y32.1046
G01 X104.0192 Y32.1666
G01 X104.0674 Y32.2299
G01 X104.1140 Y32.2944
G01 X104.1590 Y32.3600
G01 X104.2023 Y32.4266
G01 X104.2440 Y32.4943
G01 X104.2841 Y32.5630
G01 X104.3224 Y32.6327
G01 X104.3590 Y32.7033
G01 X104.3939 Y32.7747
G01 X104.4270 Y32.8470
G01 X104.4584 Y32.9201
G01 X104.4879 Y32.9939
G01 X104.5156 Y33.0685
G01 X104.5415 Y33.1437
G01 X104.5655 Y33.2195
G01 X104.5876 Y33.2959
G01 X104.6079 Y33.3727
G01 X104.6250 Y33.4447
G01 X103.9850 Y34.1600
G01 X103.9842 Y34.0982
G01 X103.9820 Y34.0363
G01 X103.9782 Y33.9746
G01 X103.9729 Y33.9130
G01 X103.9660 Y33.8515
G01 X103.9577 Y33.7902
G01 X103.9479 Y33.7292
G01 X103.9366 Y33.6684
G01 X103.9238 Y33.6079
G01 X103.9095 Y33.5477
G01 X103.8937 Y33.4879
G01 X103.8765 Y33.4285
G01 X103.8578 Y33.3695
G01 X103.8377 Y33.3110
G01 X103.8161 Y33.2531
G01 X103.7932 Y33.1956
G01 X103.7688 Y33.1388
G01 X103.7431 Y33.0826
G01 X103.7159 Y33.0270
G01 X103.6874 Y32.9721
G01 X103.6576 Y32.9179
G01 X103.6265 Y32.8645
G01 X103.5940 Y32.8118
G01 X103.5603 Y32.7600
G01 X103.5253 Y32.7090
G01 X103.4891 Y32.6588
G01 X103.4516 Y32.6096
G01 X103.4130 Y32.5613
G01 X103.3732 Y32.5140
G01 X103.3322 Y32.4677
G01 X103.2901 Y32.4224
G01 X103.2469 Y32.3781
G01 X103.2026 Y32.3349
G01 X103.1573 Y32.2928
G01 X103.1110 Y32.2518
G01 X103.0637 Y32.2120
G01 X103.0154 Y32.1734
G01 X102.9662 Y32.1359
G01 X102.9160 Y32.0997
G01 X102.8650 Y32.0647
G01 X102.8132 Y32.0310
G01 X102.7605 Y31.9985
G01 X102.7071 Y31.9674
G01 X102.6529 Y31.9376
G01 X102.5980 Y31.9091
G01 X102.5424 Y31.8819
G01 X102.4862 Y31.8562
G01 X102.4294 Y31.8318
G01 X102.3719 Y31.8089
G01 X102.3140 Y31.7873
G01 X102.2555 Y31.7672
G01 X102.1965 Y31.7485
G01 X102.1371 Y31.7313
G01 X102.0773 Y31.7155
G01 X102.0171 Y31.7012
G01 X101.9566 Y31.6884
G01 X101.8958 Y31.6771
G01 X101.8348 Y31.6673
G01 X101.7735 Y31.6590
G01 X101.7120 Y31.6521
G01 X101.6504 Y31.6468
G01 X101.5887 Y31.6430
G01 X101.5268 Y31.6408
G01 X101.4650 Y31.6400
G01 X101.4032 Y31.6408
G01 X101.3413 Y31.6430
G01 X101.2796 Y31.6468
G01 X101.2180 Y31.6521
G01 X101.1565 Y31.6590
G01 X101.0952 Y31.6673
G01 X101.0342 Y31.6771
G01 X100.9734 Y31.6884
G01 X100.9129 Y31.7012
G01 X100.8527 Y31.7155
G01 X100.7929 Y31.7313
G01 X100.7335 Y31.7485
G01 X100.6745 Y31.7672
G01 X100.6160 Y31.7873
G01 X100.5581 Y31.8089
G01 X100.5006 Y31.8318
G01 X100.4438 Y31.8562
G01 X100.3876 Y31.8819
G01 X100.3320 Y31.9091
G01 X100.2771 Y31.9376
G01 X100.2229 Y31.9674
G01 X100.1695 Y31.9985
G01 X100.1168 Y32.0310
G01 X100.0650 Y32.0647
G01 X100.0140 Y32.0997
G01 X99.9638 Y32.1359
G01 X99.9146 Y32.1734
G01 X99.8663 Y32.2120
G01 X99.8190 Y32.2518
G01 X99.7727 Y32.2928
G01 X99.7274 Y32.3349
G01 X99.6831 Y32.3781
G01 X99.6399 Y32.4224
G01 X99.5978 Y32.4677
G01 X99.5568 Y32.5140
G01 X99.5170 Y32.5613
G01 X99.4784 Y32.6096
G01 X99.4409 Y32.6588
G01 X99.4047 Y32.7090
G01 X99.3697 Y32.7600
G01 X99.3360 Y32.8118
G01 X99.3035 Y32.8645
G01 X99.2724 Y32.9179
G01 X99.2426 Y32.9721
G01 X99.2141 Y33.0270
G01 X99.1869 Y33.0826
G01 X99.1612 Y33.1388
G01 X99.1368 Y33.1956
G01 X99.1139 Y33.2531
G01 X99.0923 Y33.3110
G01 X99.0722 Y33.3695
G01 X99.0535 Y33.4285
G01 X99.0363 Y33.4879
G01 X99.0205 Y33.5477
G01 X99.0062 Y33.6079
G01 X98.9934 Y33.6684
G01 X98.9821 Y33.7292
G01 X98.9723 Y33.7902
G01 X98.9640 Y33.8515
G01 X98.9571 Y33.9130
G01 X98.9518 Y33.9746
G01 X98.9480 Y34.0363
G01 X98.9458 Y34.0982
G01 X98.9450 Y34.1600
G01 X98.9458 Y34.2218
G01 X98.9480 Y34.2837
G01 X98.9518 Y34.3454
G01 X98.9571 Y34.4070
G01 X98.9640 Y34.4685
G01 X98.9723 Y34.5298
G01 X98.9821 Y34.5908
G01 X98.9934 Y34.6516
G01 X99.0062 Y34.7121
G01 X99.0205 Y34.7723
G01 X99.0363 Y34.8321
G01 X99.0535 Y34.8915
G01 X99.0722 Y34.9505
G01 X99.0923 Y35.0090
G01 X99.1139 Y35.0669
G01 X99.1368 Y35.1244
G01 X99.1612 Y35.1812
G01 X99.1869 Y35.2374
G01 X99.2141 Y35.2930
G01 X99.2426 Y35.3479
G01 X99.2724 Y35.4021
G01 X99.3035 Y35.4555
G01 X99.3360 Y35.5082
G01 X99.3697 Y35.5600
G01 X99.4047 Y35.6110
G01 X99.4409 Y35.6612
G01 X99.4784 Y35.7104
G01 X99.5170 Y35.7587
G01 X99.5568 Y35.8060
G01 X99.5978 Y35.8523
G01 X99.6399 Y35.8976
G01 X99.6831 Y35.9419
G01 X99.7274 Y35.9851
G01 X99.7727 Y36.0272
G01 X99.8190 Y36.0682
G01 X99.8663 Y36.1080
G01 X99.9146 Y36.1466
G01 X99.9638 Y36.1841
G01 X100.0140 Y36.2203
G01 X100.0650 Y36.2553
G01 X100.1168 Y36.2890
G01 X100.1695 Y36.3215
G01 X100.2229 Y36.3526
G01 X100.2771 Y36.3824
G01 X100.3320 Y36.4109
G01 X100.3876 Y36.4381
G01 X100.4438 Y36.4638
G01 X100.5006 Y36.4882
G01 X100.5581 Y36.5111
G01 X100.6160 Y36.5327
G01 X100.6745 Y36.5528
G01 X100.7335 Y36.5715
G01 X100.7929 Y36.5887
G01 X100.8527 Y36.6045
G01 X100.9129 Y36.6188
G01 X100.9734 Y36.6316
G01 X101.0342 Y36.6429
G01 X101.0952 Y36.6527
G01 X101.1565 Y36.6610
G01 X101.2180 Y36.6679
G01 X101.2796 Y36.6732
G01 X101.3413 Y36.6770
G01 X101.4032 Y36.6792
G01 X101.4650 Y36.6800
G01 X101.5268 Y36.6792
G01 X101.5887 Y36.6770
G01 X101.6504 Y36.6732
G01 X101.7120 Y36.6679
G01 X101.7735 Y36.6610
G01 X101.8348 Y36.6527
G01 X101.8958 Y36.6429
G01 X101.9566 Y36.6316
G01 X102.0171 Y36.6188
G01 X102.0773 Y36.6045
G01 X102.1371 Y36.5887
G01 X102.1965 Y36.5715
G01 X102.2555 Y36.5528
G01 X102.3140 Y36.5327
G01 X102.3719 Y36.5111
G01 X102.4294 Y36.4882
G01 X102.4862 Y36.4638
G01 X102.5424 Y36.4381
G01 X102.5980 Y36.4109
G01 X102.6529 Y36.3824
G01 X102.7071 Y36.3526
G01 X102.7605 Y36.3215
G01 X102.8132 Y36.2890
G01 X102.8650 Y36.2553
G01 X102.9160 Y36.2203
G01 X102.9662 Y36.1841
G01 X103.0154 Y36.1466
G01 X103.0637 Y36.1080
G01 X103.1110 Y36.0682
G01 X103.1573 Y36.0272
G01 X103.2026 Y35.9851
G01 X103.2469 Y35.9419
G01 X103.2901 Y35.8976
G01 X103.3322 Y35.8523
G01 X103.3732 Y35.8060
G01 X103.4130 Y35.7587
G01 X103.4516 Y35.7104
G01 X103.4891 Y35.6612
G01 X103.5253 Y35.6110
G01 X103.5603 Y35.5600
G01 X103.5940 Y35.5082
G01 X103.6265 Y35.4555
G01 X103.6576 Y35.4021
G01 X103.6874 Y35.3479
G01 X103.7159 Y35.2930
G01 X103.7431 Y35.2374
G01 X103.7688 Y35.1812
G01 X103.7932 Y35.1244
G01 X103.8161 Y35.0669
G01 X103.8377 Y35.0090
G01 X103.8578 Y34.9505
G01 X103.8765 Y34.8915
G01 X103.8937 Y34.8321
G01 X103.9095 Y34.7723
G01 X103.9238 Y34.7121
G01 X103.9366 Y34.6516
G01 X103.9479 Y34.5908
G01 X103.9577 Y34.5298
G01 X103.9660 Y34.4685
G01 X103.9729 Y34.4070
G01 X103.9782 Y34.3454
G01 X103.9820 Y34.2837
G01 X103.9842 Y34.2218
G01 X103.9850 Y34.1600
G01 X103.2650 Y34.1600
G01 X103.2645 Y34.1158
G01 X103.2628 Y34.0717
G01 X103.2601 Y34.0276
G01 X103.2563 Y33.9836
G01 X103.2515 Y33.9397
G01 X103.2455 Y33.8959
G01 X103.2385 Y33.8523
G01 X103.2304 Y33.8088
G01 X103.2213 Y33.7656
G01 X103.2111 Y33.7226
G01 X103.1998 Y33.6799
G01 X103.1875 Y33.6375
G01 X103.1742 Y33.5954
G01 X103.1598 Y33.5536
G01 X103.1444 Y33.5122
G01 X103.1280 Y33.4712
G01 X103.1106 Y33.4306
G01 X103.0922 Y33.3904
G01 X103.0728 Y33.3507
G01 X103.0525 Y33.3115
G01 X103.0312 Y33.2728
G01 X103.0089 Y33.2346
G01 X102.9857 Y33.1970
G01 X102.9616 Y33.1600
G01 X102.9367 Y33.1235
G01 X102.9108 Y33.0877
G01 X102.8840 Y33.0526
G01 X102.8564 Y33.0181
G01 X102.8280 Y32.9843
G01 X102.7987 Y32.9512
G01 X102.7686 Y32.9188
G01 X102.7378 Y32.8872
G01 X102.7062 Y32.8564
G01 X102.6738 Y32.8263
G01 X102.6407 Y32.7970
G01 X102.6069 Y32.7686
G01 X102.5724 Y32.7410
G01 X102.5373 Y32.7142
G01 X102.5015 Y32.6883
G01 X102.4650 Y32.6634
G01 X102.4280 Y32.6393
G01 X102.3904 Y32.6161
G01 X102.3522 Y32.5938
G01 X102.3135 Y32.5725
G01 X102.2743 Y32.5522
G01 X102.2346 Y32.5328
G01 X102.1944 Y32.5144
G01 X102.1538 Y32.4970
G01 X102.1128 Y32.4806
G01 X102.0714 Y32.4652
G01 X102.0296 Y32.4508
G01 X101.9875 Y32.4375
G01 X101.9451 Y32.4252
G01 X101.9024 Y32.4139
G01 X101.8594 Y32.4037
G01 X101.8162 Y32.3946
G01 X101.7727 Y32.3865
G01 X101.7291 Y32.3795
G01 X101.6853 Y32.3735
G01 X101.6414 Y32.3687
G01 X101.5974 Y32.3649
G01 X101.5533 Y32.3622
G01 X101.5092 Y32.3605
G01 X101.4650 Y32.3600
G01 X101.4208 Y32.3605
G01 X101.3767 Y32.3622
G01 X101.3326 Y32.3649
G01 X101.2886 Y32.3687
G01 X101.2447 Y32.3735
G01 X101.2009 Y32.3795
G01 X101.1573 Y32.3865
G01 X101.1138 Y32.3946
G01 X101.0706 Y32.4037
G01 X101.0276 Y32.4139
G01 X100.9849 Y32.4252
G01 X100.9425 Y32.4375
G01 X100.9004 Y32.4508
G01 X100.8586 Y32.4652
G01 X100.8172 Y32.4806
G01 X100.7762 Y32.4970
G01 X100.7356 Y32.5144
G01 X100.6954 Y32.5328
G01 X100.6557 Y32.5522
G01 X100.6165 Y32.5725
G01 X100.5778 Y32.5938
G01 X100.5396 Y32.6161
G01 X100.5020 Y32.6393
G01 X100.4650 Y32.6634
G01 X100.4285 Y32.6883
G01 X100.3927 Y32.7142
G01 X100.3576 Y32.7410
G01 X100.3231 Y32.7686
G01 X100.2893 Y32.7970
G01 X100.2562 Y32.8263
G01 X100.2238 Y32.8564
G01 X100.1922 Y32.8872
G01 X100.1614 Y32.9188
G01 X100.1313 Y32.9512
G01 X100.1020 Y32.9843
G01 X100.0736 Y33.0181
G01 X100.0460 Y33.0526
G01 X100.0192 Y33.0877
G01 X99.9933 Y33.1235
G01 X99.9684 Y33.1600
G01 X99.9443 Y33.1970
G01 X99.9211 Y33.2346
G01 X99.8988 Y33.2728
G01 X99.8775 Y33.3115
G01 X99.8572 Y33.3507
G01 X99.8378 Y33.3904
G01 X99.8194 Y33.4306
G01 X99.8020 Y33.4712
G01 X99.7856 Y33.5122
G01 X99.7702 Y33.5536
G01 X99.7558 Y33.5954
G01 X99.7425 Y33.6375
G01 X99.7302 Y33.6799
G01 X99.7189 Y33.7226
G01 X99.7087 Y33.7656
G01 X99.6996 Y33.8088
G01 X99.6915 Y33.8523
G01 X99.6845 Y33.8959
G01 X99.6785 Y33.9397
G01 X99.6737 Y33.9836
G01 X99.6699 Y34.0276
G01 X99.6672 Y34.0717
G01 X99.6655 Y34.1158
G01 X99.6650 Y34.1600
G01 X99.6655 Y34.2042
G01 X99.6672 Y34.2483
G01 X99.6699 Y34.2924
G01 X99.6737 Y34.3364
G01 X99.6785 Y34.3803
G01 X99.6845 Y34.4241
G01 X99.6915 Y34.4677
G01 X99.6996 Y34.5112
G01 X99.7087 Y34.5544
G01 X99.7189 Y34.5974
G01 X99.7302 Y34.6401
G01 X99.7425 Y34.6825
G01 X99.7558 Y34.7246
G01 X99.7702 Y34.7664
G01 X99.7856 Y34.8078
G01 X99.8020 Y34.8488
G01 X99.8194 Y34.8894
G01 X99.8378 Y34.9296
G01 X99.8572 Y34.9693
G01 X99.8775 Y35.0085
G01 X99.8988 Y35.0472
G01 X99.9211 Y35.0854
G01 X99.9443 Y35.1230
G01 X99.9684 Y35.1600
G01 X99.9933 Y35.1965
G01 X100.0192 Y35.2323
G01 X100.0460 Y35.2674
G01 X100.0736 Y35.3019
G01 X100.1020 Y35.3357
G01 X100.1313 Y35.3688
G01 X100.1614 Y35.4012
G01 X100.1922 Y35.4328
G01 X100.2238 Y35.4636
G01 X100.2562 Y35.4937
G01 X100.2893 Y35.5230
G01 X100.3231 Y35.5514
G01 X100.3576 Y35.5790
G01 X100.3927 Y35.6058
G01 X100.4285 Y35.6317
G01 X100.4650 Y35.6566
G01 X100.5020 Y35.6807
G01 X100.5396 Y35.7039
G01 X100.5778 Y35.7262
G01 X100.6165 Y35.7475
G01 X100.6557 Y35.7678
G01 X100.6954 Y35.7872
G01 X100.7356 Y35.8056
G01 X100.7762 Y35.8230
G01 X100.8172 Y35.8394
G01 X100.8586 Y35.8548
G01 X100.9004 Y35.8692
G01 X100.9425 Y35.8825
G01 X100.9849 Y35.8948
G01 X101.0276 Y35.9061
G01 X101.0706 Y35.9163
G01 X101.1138 Y35.9254
G01 X101.1573 Y35.9335
G01 X101.2009 Y35.9405
G01 X101.2447 Y35.9465
G01 X101.2886 Y35.9513
G01 X101.3326 Y35.9551
G01 X101.3767 Y35.9578
G01 X101.4208 Y35.9595
G01 X101.4650 Y35.9600
G01 X101.5092 Y35.9595
G01 X101.5533 Y35.9578
G01 X101.5974 Y35.9551
G01 X101.6414 Y35.9513
G01 X101.6853 Y35.9465
G01 X101.7291 Y35.9405
G01 X101.7727 Y35.9335
G01 X101.8162 Y35.9254
G01 X101.8594 Y35.9163
G01 X101.9024 Y35.9061
G01 X101.9451 Y35.8948
G01 X101.9875 Y35.8825
G01 X102.0296 Y35.8692
G01 X102.0714 Y35.8548
G01 X102.1128 Y35.8394
G01 X102.1538 Y35.8230
G01 X102.1944 Y35.8056
G01 X102.2346 Y35.7872
G01 X102.2743 Y35.7678
G01 X102.3135 Y35.7475
G01 X102.3522 Y35.7262
G01 X102.3904 Y35.7039
G01 X102.4280 Y35.6807
G01 X102.4650 Y35.6566
G01 X102.5015 Y35.6317
G01 X102.5373 Y35.6058
G01 X102.5724 Y35.5790
G01 X102.6069 Y35.5514
G01 X102.6407 Y35.5230
G01 X102.6738 Y35.4937
G01 X102.7062 Y35.4636
G01 X102.7378 Y35.4328
G01 X102.7686 Y35.4012
G01 X102.7987 Y35.3688
G01 X102.8280 Y35.3357
G01 X102.8564 Y35.3019
G01 X102.8840 Y35.2674
G01 X102.9108 Y35.2323
G01 X102.9367 Y35.1965
G01 X102.9616 Y35.1600
G01 X102.9857 Y35.1230
G01 X103.0089 Y35.0854
G01 X103.0312 Y35.0472
G01 X103.0525 Y35.0085
G01 X103.0728 Y34.9693
G01 X103.0922 Y34.9296
G01 X103.1106 Y34.8894
G01 X103.1280 Y34.8488
G01 X103.1444 Y34.8078
G01 X103.1598 Y34.7664
G01 X103.1742 Y34.7246
G01 X103.1875 Y34.6825
G01 X103.1998 Y34.6401
G01 X103.2111 Y34.5974
G01 X103.2213 Y34.5544
G01 X103.2304 Y34.5112
G01 X103.2385 Y34.4677
G01 X103.2455 Y34.4241
G01 X103.2515 Y34.3803
G01 X103.2563 Y34.3364
G01 X103.2601 Y34.2924
G01 X103.2628 Y34.2483
G01 X103.2645 Y34.2042
G01 X103.2650 Y34.1600
G01 X102.5450 Y34.1600
G01 X102.5447 Y34.1335
G01 X102.5437 Y34.1070
G01 X102.5421 Y34.0806
G01 X102.5398 Y34.0541
G01 X102.5369 Y34.0278
G01 X102.5333 Y34.0015
G01 X102.5291 Y33.9754
G01 X102.5242 Y33.9493
G01 X102.5188 Y33.9234
G01 X102.5126 Y33.8976
G01 X102.5059 Y33.8720
G01 X102.4985 Y33.8465
G01 X102.4905 Y33.8212
G01 X102.4819 Y33.7962
G01 X102.4726 Y33.7713
G01 X102.4628 Y33.7467
G01 X102.4523 Y33.7223
G01 X102.4413 Y33.6982
G01 X102.4297 Y33.6744
G01 X102.4175 Y33.6509
G01 X102.4047 Y33.6277
G01 X102.3913 Y33.6048
G01 X102.3774 Y33.5822
G01 X102.3630 Y33.5600
G01 X102.3480 Y33.5381
G01 X102.3325 Y33.5166
G01 X102.3164 Y33.4955
G01 X102.2999 Y33.4749
G01 X102.2828 Y33.4546
G01 X102.2652 Y33.4347
G01 X102.2472 Y33.4153
G01 X102.2287 Y33.3963
G01 X102.2097 Y33.3778
G01 X102.1903 Y33.3598
G01 X102.1704 Y33.3422
G01 X102.1501 Y33.3251
G01 X102.1295 Y33.3086
G01 X102.1084 Y33.2925
G01 X102.0869 Y33.2770
G01 X102.0650 Y33.2620
G01 X102.0428 Y33.2476
G01 X102.0202 Y33.2337
G01 X101.9973 Y33.2203
G01 X101.9741 Y33.2075
G01 X101.9506 Y33.1953
G01 X101.9268 Y33.1837
G01 X101.9027 Y33.1727
G01 X101.8783 Y33.1622
G01 X101.8537 Y33.1524
G01 X101.8288 Y33.1431
G01 X101.8038 Y33.1345
G01 X101.7785 Y33.1265
G01 X101.7530 Y33.1191
G01 X101.7274 Y33.1124
G01 X101.7016 Y33.1062
G01 X101.6757 Y33.1008
G01 X101.6496 Y33.0959
G01 X101.6235 Y33.0917
G01 X101.5972 Y33.0881
G01 X101.5709 Y33.0852
G01 X101.5444 Y33.0829
G01 X101.5180 Y33.0813
G01 X101.4915 Y33.0803
G01 X101.4650 Y33.0800
G01 X101.4385 Y33.0803
G01 X101.4120 Y33.0813
G01 X101.3856 Y33.0829
G01 X101.3591 Y33.0852
G01 X101.3328 Y33.0881
G01 X101.3065 Y33.0917
G01 X101.2804 Y33.0959
G01 X101.2543 Y33.1008
G01 X101.2284 Y33.1062
G01 X101.2026 Y33.1124
G01 X101.1770 Y33.1191
G01 X101.1515 Y33.1265
G01 X101.1262 Y33.1345
G01 X101.1012 Y33.1431
G01 X101.0763 Y33.1524
G01 X101.0517 Y33.1622
G01 X101.0273 Y33.1727
G01 X101.0032 Y33.1837
G01 X100.9794 Y33.1953
G01 X100.9559 Y33.2075
G01 X100.9327 Y33.2203
G01 X100.9098 Y33.2337
G01 X100.8872 Y33.2476
G01 X100.8650 Y33.2620
G01 X100.8431 Y33.2770
G01 X100.8216 Y33.2925
G01 X100.8005 Y33.3086
G01 X100.7799 Y33.3251
G01 X100.7596 Y33.3422
G01 X100.7397 Y33.3598
G01 X100.7203 Y33.3778
G01 X100.7013 Y33.3963
G01 X100.6828 Y33.4153
G01 X100.6648 Y33.4347
G01 X100.6472 Y33.4546
G01 X100.6301 Y33.4749
G01 X100.6136 Y33.4955
G01 X100.5975 Y33.5166
G01 X100.5820 Y33.5381
G01 X100.5670 Y33.5600
G01 X100.5526 Y33.5822
G01 X100.5387 Y33.6048
G01 X100.5253 Y33.6277
G01 X100.5125 Y33.6509
G01 X100.5003 Y33.6744
G01 X100.4887 Y33.6982
G01 X100.4777 Y33.7223
G01 X100.4672 Y33.7467
G01 X100.4574 Y33.7713
G01 X100.4481 Y33.7962
G01 X100.4395 Y33.8212
G01 X100.4315 Y33.8465
G01 X100.4241 Y33.8720
G01 X100.4174 Y33.8976
G01 X100.4112 Y33.9234
G01 X100.4058 Y33.9493
G01 X100.4009 Y33.9754
G01 X100.3967 Y34.0015
G01 X100.3931 Y34.0278
G01 X100.3902 Y34.0541
G01 X100.3879 Y34.0806
G01 X100.3863 Y34.1070
G01 X100.3853 Y34.1335
G01 X100.3850 Y34.1600
G01 X100.3853 Y34.1865
G01 X100.3863 Y34.2130
G01 X100.3879 Y34.2394
G01 X100.3902 Y34.2659
G01 X100.3931 Y34.2922
G01 X100.3967 Y34.3185
G01 X100.4009 Y34.3446
G01 X100.4058 Y34.3707
G01 X100.4112 Y34.3966
G01 X100.4174 Y34.4224
G01 X100.4241 Y34.4480
G01 X100.4315 Y34.4735
G01 X100.4395 Y34.4988
G01 X100.4481 Y34.5238
G01 X100.4574 Y34.5487
G01 X100.4672 Y34.5733
G01 X100.4777 Y34.5977
G01 X100.4887 Y34.6218
G01 X100.5003 Y34.6456
G01 X100.5125 Y34.6691
G01 X100.5253 Y34.6923
G01 X100.5387 Y34.7152
G01 X100.5526 Y34.7378
G01 X100.5670 Y34.7600
G01 X100.5820 Y34.7819
G01 X100.5975 Y34.8034
G01 X100.6136 Y34.8245
G01 X100.6301 Y34.8451
G01 X100.6472 Y34.8654
G01 X100.6648 Y34.8853
G01 X100.6828 Y34.9047
G01 X100.7013 Y34.9237
G01 X100.7203 Y34.9422
G01 X100.7397 Y34.9602
G01 X100.7596 Y34.9778
G01 X100.7799 Y34.9949
G01 X100.8005 Y35.0114
G01 X100.8216 Y35.0275
G01 X100.8431 Y35.0430
G01 X100.8650 Y35.0580
G01 X100.8872 Y35.0724
G01 X100.9098 Y35.0863
G01 X100.9327 Y35.0997
G01 X100.9559 Y35.1125
G01 X100.9794 Y35.1247
G01 X101.0032 Y35.1363
G01 X101.0273 Y35.1473
G01 X101.0517 Y35.1578
G01 X101.0763 Y35.1676
G01 X101.1012 Y35.1769
G01 X101.1262 Y35.1855
G01 X101.1515 Y35.1935
G01 X101.1770 Y35.2009
G01 X101.2026 Y35.2076
G01 X101.2284 Y35.2138
G01 X101.2543 Y35.2192
G01 X101.2804 Y35.2241
G01 X101.3065 Y35.2283
G01 X101.3328 Y35.2319
G01 X101.3591 Y35.2348
G01 X101.3856 Y35.2371
G01 X101.4120 Y35.2387
G01 X101.4385 Y35.2397
G01 X101.4650 Y35.2400
G01 X101.4915 Y35.2397
G01 X101.5180 Y35.2387
G01 X101.5444 Y35.2371
G01 X101.5709 Y35.2348
G01 X101.5972 Y35.2319
G01 X101.6235 Y35.2283
G01 X101.6496 Y35.2241
G01 X101.6757 Y35.2192
G01 X101.7016 Y35.2138
G01 X101.7274 Y35.2076
G01 X101.7530 Y35.2009
G01 X101.7785 Y35.1935
G01 X101.8038 Y35.1855
G01 X101.8288 Y35.1769
G01 X101.8537 Y35.1676
G01 X101.8783 Y35.1578
G01 X101.9027 Y35.1473
G01 X101.9268 Y35.1363
G01 X101.9506 Y35.1247
G01 X101.9741 Y35.1125
G01 X101.9973 Y35.0997
G01 X102.0202 Y35.0863
G01 X102.0428 Y35.0724
G01 X102.0650 Y35.0580
G01 X102.0869 Y35.0430
G01 X102.1084 Y35.0275
G01 X102.1295 Y35.0114
G01 X102.1501 Y34.9949
G01 X102.1704 Y34.9778
G01 X102.1903 Y34.9602
G01 X102.2097 Y34.9422
G01 X102.2287 Y34.9237
G01 X102.2472 Y34.9047
G01 X102.2652 Y34.8853
G01 X102.2828 Y34.8654
G01 X102.2999 Y34.8451
G01 X102.3164 Y34.8245
G01 X102.3325 Y34.8034
G01 X102.3480 Y34.7819
G01 X102.3630 Y34.7600
G01 X102.3774 Y34.7378
G01 X102.3913 Y34.7152
G01 X102.4047 Y34.6923
G01 X102.4175 Y34.6691
G01 X102.4297 Y34.6456
G01 X102.4413 Y34.6218
G01 X102.4523 Y34.5977
G01 X102.4628 Y34.5733
G01 X102.4726 Y34.5487
G01 X102.4819 Y34.5238
G01 X102.4905 Y34.4988
G01 X102.4985 Y34.4735
G01 X102.5059 Y34.4480
G01 X102.5126 Y34.4224
G01 X102.5188 Y34.3966
G01 X102.5242 Y34.3707
G01 X102.5291 Y34.3446
G01 X102.5333 Y34.3185
G01 X102.5369 Y34.2922
G01 X102.5398 Y34.2659
G01 X102.5421 Y34.2394
G01 X102.5437 Y34.2130
G01 X102.5447 Y34.1865
G01 X102.5450 Y34.1600
G01 X101.8250 Y34.1600
G01 X101.8246 Y34.1423
G01 X101.8233 Y34.1247
G01 X101.8211 Y34.1072
G01 X101.8181 Y34.0898
G01 X101.8142 Y34.0725
G01 X101.8095 Y34.0555
G01 X101.8009 Y34.0304
G01 X101.7941 Y34.0141
G01 X101.7866 Y33.9981
G01 X101.7782 Y33.9826
G01 X101.7691 Y33.9674
G01 X101.7593 Y33.9527
G01 X101.7488 Y33.9385
G01 X101.7317 Y33.9182
G01 X101.7196 Y33.9054
G01 X101.7068 Y33.8933
G01 X101.6934 Y33.8817
G01 X101.6795 Y33.8708
G01 X101.6650 Y33.8607
G01 X101.6501 Y33.8512
G01 X101.6347 Y33.8425
G01 X101.6189 Y33.8346
G01 X101.6028 Y33.8274
G01 X101.5779 Y33.8182
G01 X101.5610 Y33.8130
G01 X101.5439 Y33.8087
G01 X101.5265 Y33.8053
G01 X101.5091 Y33.8027
G01 X101.4915 Y33.8010
G01 X101.4738 Y33.8001
G01 X101.4562 Y33.8001
G01 X101.4385 Y33.8010
G01 X101.4122 Y33.8039
G01 X101.3948 Y33.8069
G01 X101.3775 Y33.8108
G01 X101.3605 Y33.8155
G01 X101.3437 Y33.8210
G01 X101.3191 Y33.8309
G01 X101.3031 Y33.8384
G01 X101.2876 Y33.8468
G01 X101.2650 Y33.8607
G01 X101.2435 Y33.8762
G01 X101.2299 Y33.8874
G01 X101.2168 Y33.8993
G01 X101.1983 Y33.9182
G01 X101.1867 Y33.9316
G01 X101.1758 Y33.9455
G01 X101.1609 Y33.9674
G01 X101.1518 Y33.9826
G01 X101.1434 Y33.9981
G01 X101.1359 Y34.0141
G01 X101.1291 Y34.0304
G01 X101.1205 Y34.0555
G01 X101.1158 Y34.0725
G01 X101.1119 Y34.0898
G01 X101.1077 Y34.1159
G01 X101.1060 Y34.1335
G01 X101.1051 Y34.1512
G01 X101.1054 Y34.1777
G01 X101.1077 Y34.2041
G01 X101.1103 Y34.2215
G01 X101.1137 Y34.2389
G01 X101.1205 Y34.2645
G01 X101.1260 Y34.2813
G01 X101.1324 Y34.2978
G01 X101.1396 Y34.3139
G01 X101.1475 Y34.3297
G01 X101.1609 Y34.3526
G01 X101.1758 Y34.3745
G01 X101.1867 Y34.3884
G01 X101.1983 Y34.4018
G01 X101.2104 Y34.4146
G01 X101.2232 Y34.4267
G01 X101.2435 Y34.4438
G01 X101.2650 Y34.4593
G01 X101.2799 Y34.4688
G01 X101.2953 Y34.4775
G01 X101.3111 Y34.4854
G01 X101.3272 Y34.4926
G01 X101.3521 Y34.5018
G01 X101.3775 Y34.5092
G01 X101.3948 Y34.5131
G01 X101.4122 Y34.5161
G01 X101.4385 Y34.5190
G01 X101.4650 Y34.5200
G01 X101.4827 Y34.5196
G01 X101.5003 Y34.5183
G01 X101.5178 Y34.5161
G01 X101.5352 Y34.5131
G01 X101.5525 Y34.5092
G01 X101.5779 Y34.5018
G01 X101.5946 Y34.4959
G01 X101.6189 Y34.4854
G01 X101.6347 Y34.4775
G01 X101.6576 Y34.4641
G01 X101.6723 Y34.4543
G01 X101.6865 Y34.4438
G01 X101.7001 Y34.4326
G01 X101.7132 Y34.4207
G01 X101.7317 Y34.4018
G01 X101.7433 Y34.3884
G01 X101.7593 Y34.3673
G01 X101.7691 Y34.3526
G01 X101.7825 Y34.3297
G01 X101.7904 Y34.3139
G01 X101.8009 Y34.2896
G01 X101.8095 Y34.2645
G01 X101.8142 Y34.2475
G01 X101.8181 Y34.2302
G01 X101.8223 Y34.2041
G01 X101.8246 Y34.1777
G01 X101.8250 Y34.1600
G01 X104.6250 Y34.8753
G01 X104.6079 Y34.9473
G01 X104.5876 Y35.0241
G01 X104.5655 Y35.1005
G01 X104.5415 Y35.1763
G01 X104.5156 Y35.2515
G01 X104.4879 Y35.3261
G01 X104.4584 Y35.3999
G01 X104.4270 Y35.4730
G01 X104.3939 Y35.5453
G01 X104.3590 Y35.6167
G01 X104.3224 Y35.6873
G01 X104.2841 Y35.7570
G01 X104.2440 Y35.8257
G01 X104.2023 Y35.8934
G01 X104.1590 Y35.9600
G01 X104.1140 Y36.0256
G01 X104.0674 Y36.0901
G01 X104.0192 Y36.1534
G01 X103.9696 Y36.2154
G01 X103.9184 Y36.2763
G01 X103.8657 Y36.3359
G01 X103.8116 Y36.3941
G01 X103.7560 Y36.4510
G01 X103.6991 Y36.5066
G01 X103.6409 Y36.5607
G01 X103.5813 Y36.6134
G01 X103.5204 Y36.6646
G01 X103.4584 Y36.7142
G01 X103.3951 Y36.7624
G01 X103.3306 Y36.8090
G01 X103.2650 Y36.8540
G01 X103.1984 Y36.8973
G01 X103.1307 Y36.9390
G01 X103.0620 Y36.9791
G01 X102.9923 Y37.0174
G01 X102.9217 Y37.0540
G01 X102.8503 Y37.0889
G01 X102.7780 Y37.1220
G01 X102.7049 Y37.1534
G01 X102.6311 Y37.1829
G01 X102.5565 Y37.2106
G01 X102.4813 Y37.2365
G01 X102.4055 Y37.2605
G01 X102.3291 Y37.2826
G01 X102.2523 Y37.3029
G01 X102.2014 Y37.3150
G01 X100.7286 Y37.3150
G01 X100.6777 Y37.3029
G01 X100.6009 Y37.2826
G01 X100.5245 Y37.2605
G01 X100.4487 Y37.2365
G01 X100.3735 Y37.2106
G01 X100.2989 Y37.1829
G01 X100.2251 Y37.1534
G01 X100.1520 Y37.1220
G01 X100.0797 Y37.0889
G01 X100.0083 Y37.0540
G01 X99.9377 Y37.0174
G01 X99.8680 Y36.9791
G01 X99.7993 Y36.9390
G01 X99.7316 Y36.8973
G01 X99.6650 Y36.8540
G01 X99.5994 Y36.8090
G01 X99.5349 Y36.7624
G01 X99.4716 Y36.7142
G01 X99.4096 Y36.6646
G01 X99.3487 Y36.6134
G01 X99.2891 Y36.5607
G01 X99.2309 Y36.5066
G01 X99.1740 Y36.4510
G01 X99.1184 Y36.3941
G01 X99.0643 Y36.3359
G01 X99.0116 Y36.2763
G01 X98.9604 Y36.2154
G01 X98.9108 Y36.1534
G01 X98.8626 Y36.0901
G01 X98.8160 Y36.0256
G01 X98.7710 Y35.9600
G01 X98.7277 Y35.8934
G01 X98.6860 Y35.8257
G01 X98.6459 Y35.7570
G01 X98.6076 Y35.6873
G01 X98.5710 Y35.6167
G01 X98.5361 Y35.5453
G01 X98.5030 Y35.4730
G01 X98.4716 Y35.3999
G01 X98.4421 Y35.3261
G01 X98.4144 Y35.2515
G01 X98.3885 Y35.1763
G01 X98.3645 Y35.1005
G01 X98.3424 Y35.0241
G01 X98.3221 Y34.9473
G01 X98.3050 Y34.8753
G01 X98.3050 Y36.5462
G01 X98.3431 Y36.5963
G01 X98.4039 Y36.6722
G01 X98.4665 Y36.7466
G01 X98.5308 Y36.8194
G01 X98.5970 Y36.8906
G01 X98.6649 Y36.9601
G01 X98.7344 Y37.0280
G01 X98.8056 Y37.0942
G01 X98.8784 Y37.1585
G01 X98.9528 Y37.2211
G01 X99.0287 Y37.2819
G01 X99.0722 Y37.3150
G01 X103.8578 Y37.3150
G01 X103.9013 Y37.2819
G01 X103.9772 Y37.2211
G01 X104.0516 Y37.1585
G01 X104.1244 Y37.0942
G01 X104.1956 Y37.0280
G01 X104.2651 Y36.9601
G01 X104.3330 Y36.8906
G01 X104.3992 Y36.8194
G01 X104.4635 Y36.7466
G01 X104.5261 Y36.6722
G01 X104.5869 Y36.5963
G01 X104.6250 Y36.5462
G01 X104.6250 Y31.7738
G01 X104.5869 Y31.7237
G01 X104.5261 Y31.6478
G01 X104.4635 Y31.5734
G01 X104.3992 Y31.5006
G01 X104.3330 Y31.4294
G01 X104.2651 Y31.3599
G01 X104.1956 Y31.2920
G01 X104.1244 Y31.2258
G01 X104.0516 Y31.1615
G01 X103.9772 Y31.0989
G01 X103.9013 Y31.0381
G01 X103.8578 Y31.0050
G01 X104.6250 Y31.0050
G01 X98.3050 Y31.0050
G01 X98.3050 Y37.3150
G01 X104.6250 Y37.3150
G01 X104.6250 Y31.0050
G00 X104.6250 Y31.0050
G01 F40.00
G01 Z-0.4000
G01 F80.00
G01 X104.6250 Y37.3150
G01 X98.3050 Y37.3150
G01 X98.3050 Y31.0050
G01 X104.6250 Y31.0050
G01 X103.8578 Y31.0050
G01 X103.9013 Y31.0381
G01 X103.9772 Y31.0989
G01 X104.0516 Y31.1615
G01 X104.1244 Y31.2258
G01 X104.1956 Y31.2920
G01 X104.2651 Y31.3599
G01 X104.3330 Y31.4294
G01 X104.3992 Y31.5006
G01 X104.4635 Y31.5734
G01 X104.5261 Y31.6478
G01 X104.5869 Y31.7237
G01 X104.6250 Y31.7738
G01 X104.6250 Y36.5462
G01 X104.5869 Y36.5963
G01 X104.5261 Y36.6722
G01 X104.4635 Y36.7466
G01 X104.3992 Y36.8194
G01 X104.3330 Y36.8906
G01 X104.2651 Y36.9601
G01 X104.1956 Y37.0280
G01 X104.1244 Y37.0942
G01 X104.0516 Y37.1585
G01 X103.9772 Y37.2211
G01 X103.9013 Y37.2819
G01 X103.8578 Y37.3150
G01 X99.0722 Y37.3150
G01 X99.0287 Y37.2819
G01 X98.9528 Y37.2211
G01 X98.8784 Y37.1585
G01 X98.8056 Y37.0942
G01 X98.7344 Y37.0280
G01 X98.6649 Y36.9601
G01 X98.5970 Y36.8906
G01 X98.5308 Y36.8194
G01 X98.4665 Y36.7466
G01 X98.4039 Y36.6722
G01 X98.3431 Y36.5963
G01 X98.3050 Y36.5462
G01 X98.3050 Y34.8753
G01 X98.3221 Y34.9473
G01 X98.3424 Y35.0241
G01 X98.3645 Y35.1005
G01 X98.3885 Y35.1763
G01 X98.4144 Y35.2515
G01 X98.4421 Y35.3261
G01 X98.4716 Y35.3999
G01 X98.5030 Y35.4730
G01 X98.5361 Y35.5453
G01 X98.5710 Y35.6167
G01 X98.6076 Y35.6873
G01 X98.6459 Y35.7570
G01 X98.6860 Y35.8257
G01 X98.7277 Y35.8934
G01 X98.7710 Y35.9600
G01 X98.8160 Y36.0256
G01 X98.8626 Y36.0901
G01 X98.9108 Y36.1534
G01 X98.9604 Y36.2154
G01 X99.0116 Y36.2763
G01 X99.0643 Y36.3359
G01 X99.1184 Y36.3941
G01 X99.1740 Y36.4510
G01 X99.2309 Y36.5066
G01 X99.2891 Y36.5607
G01 X99.3487 Y36.6134
G01 X99.4096 Y36.6646
G01 X99.4716 Y36.7142
G01 X99.5349 Y36.7624
G01 X99.5994 Y36.8090
G01 X99.6650 Y36.8540
G01 X99.7316 Y36.8973
G01 X99.7993 Y36.9390
G01 X99.8680 Y36.9791
G01 X99.9377 Y37.0174
G01 X100.0083 Y37.0540
G01 X100.0797 Y37.0889
G01 X100.1520 Y37.1220
G01 X100.2251 Y37.1534
G01 X100.2989 Y37.1829
G01 X100.3735 Y37.2106
G01 X100.4487 Y37.2365
G01 X100.5245 Y37.2605
G01 X100.6009 Y37.2826
G01 X100.6777 Y37.3029
G01 X100.7286 Y37.3150
G01 X102.2014 Y37.3150
G01 X102.2523 Y37.3029
G01 X102.3291 Y37.2826
G01 X102.4055 Y37.2605
G01 X102.4813 Y37.2365
G01 X102.5565 Y37.2106
G01 X102.6311 Y37.1829
G01 X102.7049 Y37.1534
G01 X102.7780 Y37.1220
G01 X102.8503 Y37.0889
G01 X102.9217 Y37.0540
G01 X102.9923 Y37.0174
G01 X103.0620 Y36.9791
G01 X103.1307 Y36.9390
G01 X103.1984 Y36.8973
G01 X103.2650 Y36.8540
G01 X103.3306 Y36.8090
G01 X103.3951 Y36.7624
G01 X103.4584 Y36.7142
G01 X103.5204 Y36.6646
G01 X103.5813 Y36.6134
G01 X103.6409 Y36.5607
G01 X103.6991 Y36.5066
G01 X103.7560 Y36.4510
G01 X103.8116 Y36.3941
G01 X103.8657 Y36.3359
G01 X103.9184 Y36.2763
G01 X103.9696 Y36.2154
G01 X104.0192 Y36.1534
G01 X104.0674 Y36.0901
G01 X104.1140 Y36.0256
G01 X104.1590 Y35.9600
G01 X104.2023 Y35.8934
G01 X104.2440 Y35.8257
G01 X104.2841 Y35.7570
G01 X104.3224 Y35.6873
G01 X104.3590 Y35.6167
G01 X104.3939 Y35.5453
G01 X104.4270 Y35.4730
G01 X104.4584 Y35.3999
G01 X104.4879 Y35.3261
G01 X104.5156 Y35.2515
G01 X104.5415 Y35.1763
G01 X104.5655 Y35.1005
G01 X104.5876 Y35.0241
G01 X104.6079 Y34.9473
G01 X104.6250 Y34.8753
G01 X101.8250 Y34.1600
G01 X101.8246 Y34.1777
G01 X101.8223 Y34.2041
G01 X101.8181 Y34.2302
G01 X101.8142 Y34.2475
G01 X101.8095 Y34.2645
G01 X101.8009 Y34.2896
G01 X101.7904 Y34.3139
G01 X101.7825 Y34.3297
G01 X101.7691 Y34.3526
G01 X101.7593 Y34.3673
G01 X101.7433 Y34.3884
G01 X101.7317 Y34.4018
G01 X101.7132 Y34.4207
G01 X101.7001 Y34.4326
G01 X101.6865 Y34.4438
G01 X101.6723 Y34.4543
G01 X101.6576 Y34.4641
G01 X101.6347 Y34.4775
G01 X101.6189 Y34.4854
G01 X101.5946 Y34.4959
G01 X101.5779 Y34.5018
G01 X101.5525 Y34.5092
G01 X101.5352 Y34.5131
G01 X101.5178 Y34.5161
G01 X101.5003 Y34.5183
G01 X101.4827 Y34.5196
G01 X101.4650 Y34.5200
G01 X101.4385 Y34.5190
G01 X101.4122 Y34.5161
G01 X101.3948 Y34.5131
G01 X101.3775 Y34.5092
G01 X101.3521 Y34.5018
G01 X101.3272 Y34.4926
G01 X101.3111 Y34.4854
G01 X101.2953 Y34.4775
G01 X101.2799 Y34.4688
G01 X101.2650 Y34.4593
G01 X101.2435 Y34.4438
G01 X101.2232 Y34.4267
G01 X101.2104 Y34.4146
G01 X101.1983 Y34.4018
G01 X101.1867 Y34.3884
G01 X101.1758 Y34.3745
G01 X101.1609 Y34.3526
G01 X101.1475 Y34.3297
G01 X101.1396 Y34.3139
G01 X101.1324 Y34.2978
G01 X101.1260 Y34.2813
G01 X101.1205 Y34.2645
G01 X101.1137 Y34.2389
G01 X101.1103 Y34.2215
G01 X101.1077 Y34.2041
G01 X101.1054 Y34.1777
G01 X101.1051 Y34.1512
G01 X101.1060 Y34.1335
G01 X101.1077 Y34.1159
G01 X101.1119 Y34.0898
G01 X101.1158 Y34.0725
G01 X101.1205 Y34.0555
G01 X101.1291 Y34.0304
G01 X101.1359 Y34.0141
G01 X101.1434 Y33.9981
G01 X101.1518 Y33.9826
G01 X101.1609 Y33.9674
G01 X101.1758 Y33.9455
G01 X101.1867 Y33.9316
G01 X101.1983 Y33.9182
G01 X101.2168 Y33.8993
G01 X101.2299 Y33.8874
G01 X101.2435 Y33.8762
G01 X101.2650 Y33.8607
G01 X101.2876 Y33.8468
G01 X101.3031 Y33.8384
G01 X101.3191 Y33.8309
G01 X101.3437 Y33.8210
G01 X101.3605 Y33.8155
G01 X101.3775 Y33.8108
G01 X101.3948 Y33.8069
G01 X101.4122 Y33.8039
G01 X101.4385 Y33.8010
G01 X101.4562 Y33.8001
G01 X101.4738 Y33.8001
G01 X101.4915 Y33.8010
G01 X101.5091 Y33.8027
G01 X101.5265 Y33.8053
G01 X101.5439 Y33.8087
G01 X101.5610 Y33.8130
G01 X101.5779 Y33.8182
G01 X101.6028 Y33.8274
G01 X101.6189 Y33.8346
G01 X101.6347 Y33.8425
G01 X101.6501 Y33.8512
G01 X101.6650 Y33.8607
G01 X101.6795 Y33.8708
G01 X101.6934 Y33.8817
G01 X101.7068 Y33.8933
G01 X101.7196 Y33.9054
G01 X101.7317 Y33.9182
G01 X101.7488 Y33.9385
G01 X101.7593 Y33.9527
G01 X101.7691 Y33.9674
G01 X101.7782 Y33.9826
G01 X101.7866 Y33.9981
G01 X101.7941 Y34.0141
G01 X101.8009 Y34.0304
G01 X101.8095 Y34.0555
G01 X101.8142 Y34.0725
G01 X101.8181 Y34.0898
G01 X101.8211 Y34.1072
G01 X101.8233 Y34.1247
G01 X101.8246 Y34.1423
G01 X101.8250 Y34.1600
G01 X102.5450 Y34.1600
G01 X102.5447 Y34.1865
G01 X102.5437 Y34.2130
G01 X102.5421 Y34.2394
G01 X102.5398 Y34.2659
G01 X102.5369 Y34.2922
G01 X102.5333 Y34.3185
G01 X102.5291 Y34.3446
G01 X102.5242 Y34.3707
G01 X102.5188 Y34.3966
G01 X102.5126 Y34.4224
G01 X102.5059 Y34.4480
G01 X102.4985 Y34.4735
G01 X102.4905 Y34.4988
G01 X102.4819 Y34.5238
G01 X102.4726 Y34.5487
G01 X102.4628 Y34.5733
G01 X102.4523 Y34.5977
G01 X102.4413 Y34.6218
G01 X102.4297 Y34.6456
G01 X102.4175 Y34.6691
G01 X102.4047 Y34.6923
G01 X102.3913 Y34.7152
G01 X102.3774 Y34.7378
G01 X102.3630 Y34.7600
G01 X102.3480 Y34.7819
G01 X102.3325 Y34.8034
G01 X102.3164 Y34.8245
G01 X102.2999 Y34.8451
G01 X102.2828 Y34.8654
G01 X102.2652 Y34.8853
G01 X102.2472 Y34.9047
G01 X102.2287 Y34.9237
G01 X102.2097 Y34.9422
G01 X102.1903 Y34.9602
G01 X102.1704 Y34.9778
G01 X102.1501 Y34.9949
G01 X102.1295 Y35.0114
G01 X102.1084 Y35.0275
G01 X102.0869 Y35.0430
G01 X102.0650 Y35.0580
G01 X102.0428 Y35.0724
G01 X102.0202 Y35.0863
G01 X101.9973 Y35.0997
G01 X101.9741 Y35.1125
G01 X101.9506 Y35.1247
G01 X101.9268 Y35.1363
G01 X101.9027 Y35.1473
G01 X101.8783 Y35.1578
G01 X101.8537 Y35.1676
G01 X101.8288 Y35.1769
G01 X101.8038 Y35.1855
G01 X101.7785 Y35.1935
G01 X101.7530 Y35.2009
G01 X101.7274 Y35.2076
G01 X101.7016 Y35.2138
G01 X101.6757 Y35.2192
G01 X101.6496 Y35.2241
G01 X101.6235 Y35.2283
G01 X101.5972 Y35.2319
G01 X101.5709 Y35.2348
G01 X101.5444 Y35.2371
G01 X101.5180 Y35.2387
G01 X101.4915 Y35.2397
G01 X101.4650 Y35.2400
G01 X101.4385 Y35.2397
G01 X101.4120 Y35.2387
G01 X101.3856 Y35.2371
G01 X101.3591 Y35.2348
G01 X101.3328 Y35.2319
G01 X101.3065 Y35.2283
G01 X101.2804 Y35.2241
G01 X101.2543 Y35.2192
G01 X101.2284 Y35.2138
G01 X101.2026 Y35.2076
G01 X101.1770 Y35.2009
G01 X101.1515 Y35.1935
G01 X101.1262 Y35.1855
G01 X101.1012 Y35.1769
G01 X101.0763 Y35.1676
G01 X101.0517 Y35.1578
G01 X101.0273 Y35.1473
G01 X101.0032 Y35.1363
G01 X100.9794 Y35.1247
G01 X100.9559 Y35.1125
G01 X100.9327 Y35.0997
G01 X100.9098 Y35.0863
G01 X100.8872 Y35.0724
G01 X100.8650 Y35.0580
G01 X100.8431 Y35.0430
G01 X100.8216 Y35.0275
G01 X100.8005 Y35.0114
G01 X100.7799 Y34.9949
G01 X100.7596 Y34.9778
G01 X100.7397 Y34.9602
G01 X100.7203 Y34.9422
G01 X100.7013 Y34.9237
G01 X100.6828 Y34.9047
G01 X100.6648 Y34.8853
G01 X100.6472 Y34.8654
G01 X100.6301 Y34.8451
G01 X100.6136 Y34.8245
G01 X100.5975 Y34.8034
G01 X100.5820 Y34.7819
G01 X100.5670 Y34.7600
G01 X100.5526 Y34.7378
G01 X100.5387 Y34.7152
G01 X100.5253 Y34.6923
G01 X100.5125 Y34.6691
G01 X100.5003 Y34.6456
G01 X100.4887 Y34.6218
G01 X100.4777 Y34.5977
G01 X100.4672 Y34.5733
G01 X100.4574 Y34.5487
G01 X100.4481 Y34.5238
G01 X100.4395 Y34.4988
G01 X100.4315 Y34.4735
G01 X100.4241 Y34.4480
G01 X100.4174 Y34.4224
G01 X100.4112 Y34.3966
G01 X100.4058 Y34.3707
G01 X100.4009 Y34.3446
G01 X100.3967 Y34.3185
G01 X100.3931 Y34.2922
G01 X100.3902 Y34.2659
G01 X100.3879 Y34.2394
G01 X100.3863 Y34.2130
G01 X100.3853 Y34.1865
G01 X100.3850 Y34.1600
G01 X100.3853 Y34.1335
G01 X100.3863 Y34.1070
G01 X100.3879 Y34.0806
G01 X100.3902 Y34.0541
G01 X100.3931 Y34.0278
G01 X100.3967 Y34.0015
G01 X100.4009 Y33.9754
G01 X100.4058 Y33.9493
G01 X100.4112 Y33.9234
G01 X100.4174 Y33.8976
G01 X100.4241 Y33.8720
G01 X100.4315 Y33.8465
G01 X100.4395 Y33.8212
G01 X100.4481 Y33.7962
G01 X100.4574 Y33.7713
G01 X100.4672 Y33.7467
G01 X100.4777 Y33.7223
G01 X100.4887 Y33.6982
G01 X100.5003 Y33.6744
G01 X100.5125 Y33.6509
G01 X100.5253 Y33.6277
G01 X100.5387 Y33.6048
G01 X100.5526 Y33.5822
G01 X100.5670 Y33.5600
G01 X100.5820 Y33.5381
G01 X100.5975 Y33.5166
G01 X100.6136 Y33.4955
G01 X100.6301 Y33.4749
G01 X100.6472 Y33.4546
G01 X100.6648 Y33.4347
G01 X100.6828 Y33.4153
G01 X100.7013 Y33.3963
G01 X100.7203 Y33.3778
G01 X100.7397 Y33.3598
G01 X100.7596 Y33.3422
G01 X100.7799 Y33.3251
G01 X100.8005 Y33.3086
G01 X100.8216 Y33.2925
G01 X100.8431 Y33.2770
G01 X100.8650 Y33.2620
G01 X100.8872 Y33.2476
G01 X100.9098 Y33.2337
G01 X100.9327 Y33.2203
G01 X100.9559 Y33.2075
G01 X100.9794 Y33.1953
G01 X101.0032 Y33.1837
G01 X101.0273 Y33.1727
G01 X101.0517 Y33.1622
G01 X101.0763 Y33.1524
G01 X101.1012 Y33.1431
G01 X101.1262 Y33.1345
G01 X101.1515 Y33.1265
G01 X101.1770 Y33.1191
G01 X101.2026 Y33.1124
G01 X101.2284 Y33.1062
G01 X101.2543 Y33.1008
G01 X101.2804 Y33.0959
G01 X101.3065 Y33.0917
G01 X101.3328 Y33.0881
G01 X101.3591 Y33.0852
G01 X101.3856 Y33.0829
G01 X101.4120 Y33.0813
G01 X101.4385 Y33.0803
G01 X101.4650 Y33.0800
G01 X101.4915 Y33.0803
G01 X101.5180 Y33.0813
G01 X101.5444 Y33.0829
G01 X101.5709 Y33.0852
G01 X101.5972 Y33.0881
G01 X101.6235 Y33.0917
G01 X101.6496 Y33.0959
G01 X101.6757 Y33.1008
G01 X101.7016 Y33.1062
G01 X101.7274 Y33.1124
G01 X101.7530 Y33.1191
G01 X101.7785 Y33.1265
G01 X101.8038 Y33.1345
G01 X101.8288 Y33.1431
G01 X101.8537 Y33.1524
G01 X101.8783 Y33.1622
G01 X101.9027 Y33.1727
G01 X101.9268 Y33.1837
G01 X101.9506 Y33.1953
G01 X101.9741 Y33.2075
G01 X101.9973 Y33.2203
G01 X102.0202 Y33.2337
G01 X102.0428 Y33.2476
G01 X102.0650 Y33.2620
G01 X102.0869 Y33.2770
G01 X102.1084 Y33.2925
G01 X102.1295 Y33.3086
G01 X102.1501 Y33.3251
G01 X102.1704 Y33.3422
G01 X102.1903 Y33.3598
G01 X102.2097 Y33.3778
G01 X102.2287 Y33.3963
G01 X102.2472 Y33.4153
G01 X102.2652 Y33.4347
G01 X102.2828 Y33.4546
G01 X102.2999 Y33.4749
G01 X102.3164 Y33.4955
G01 X102.3325 Y33.5166
G01 X102.3480 Y33.5381
G01 X102.3630 Y33.5600
G01 X102.3774 Y33.5822
G01 X102.3913 Y33.6048
G01 X102.4047 Y33.6277
G01 X102.4175 Y33.6509
G01 X102.4297 Y33.6744
G01 X102.4413 Y33.6982
G01 X102.4523 Y33.7223
G01 X102.4628 Y33.7467
G01 X102.4726 Y33.7713
G01 X102.4819 Y33.7962
G01 X102.4905 Y33.8212
G01 X102.4985 Y33.8465
G01 X102.5059 Y33.8720
G01 X102.5126 Y33.8976
G01 X102.5188 Y33.9234
G01 X102.5242 Y33.9493
G01 X102.5291 Y33.9754
G01 X102.5333 Y34.0015
G01 X102.5369 Y34.0278
G01 X102.5398 Y34.0541
G01 X102.5421 Y34.0806
G01 X102.5437 Y34.1070
G01 X102.5447 Y34.1335
G01 X102.5450 Y34.1600
G01 X103.2650 Y34.1600
G01 X103.2645 Y34.2042
G01 X103.2628 Y34.2483
G01 X103.2601 Y34.2924
G01 X103.2563 Y34.3364
G01 X103.2515 Y34.3803
G01 X103.2455 Y34.4241
G01 X103.2385 Y34.4677
G01 X103.2304 Y34.5112
G01 X103.2213 Y34.5544
G01 X103.2111 Y34.5974
G01 X103.1998 Y34.6401
G01 X103.1875 Y34.6825
G01 X103.1742 Y34.7246
G01 X103.1598 Y34.7664
G01 X103.1444 Y34.8078
G01 X103.1280 Y34.8488
G01 X103.1106 Y34.8894
G01 X103.0922 Y34.9296
G01 X103.0728 Y34.9693
G01 X103.0525 Y35.0085
G01 X103.0312 Y35.0472
G01 X103.0089 Y35.0854
G01 X102.9857 Y35.1230
G01 X102.9616 Y35.1600
G01 X102.9367 Y35.1965
G01 X102.9108 Y35.2323
G01 X102.8840 Y35.2674
G01 X102.8564 Y35.3019
G01 X102.8280 Y35.3357
G01 X102.7987 Y35.3688
G01 X102.7686 Y35.4012
G01 X102.7378 Y35.4328
G01 X102.7062 Y35.4636
G01 X102.6738 Y35.4937
G01 X102.6407 Y35.5230
G01 X102.6069 Y35.5514
G01 X102.5724 Y35.5790
G01 X102.5373 Y35.6058
G01 X102.5015 Y35.6317
G01 X102.4650 Y35.6566
G01 X102.4280 Y35.6807
G01 X102.3904 Y35.7039
G01 X102.3522 Y35.7262
G01 X102.3135 Y35.7475
G01 X102.2743 Y35.7678
G01 X102.2346 Y35.7872
G01 X102.1944 Y35.8056
G01 X102.1538 Y35.8230
G01 X102.1128 Y35.8394
G01 X102.0714 Y35.8548
G01 X102.0296 Y35.8692
G01 X101.9875 Y35.8825
G01 X101.9451 Y35.8948
G01 X101.9024 Y35.9061
G01 X101.8594 Y35.9163
G01 X101.8162 Y35.9254
G01 X101.7727 Y35.9335
G01 X101.7291 Y35.9405
G01 X101.6853 Y35.9465
G01 X101.6414 Y35.9513
G01 X101.5974 Y35.9551
G01 X101.5533 Y35.9578
G01 X101.5092 Y35.9595
G01 X101.4650 Y35.9600
G01 X101.4208 Y35.9595
G01 X101.3767 Y35.9578
G01 X101.3326 Y35.9551
G01 X101.2886 Y35.9513
G01 X101.2447 Y35.9465
G01 X101.2009 Y35.9405
G01 X101.1573 Y35.9335
G01 X101.1138 Y35.9254
G01 X101.0706 Y35.9163
G01 X101.0276 Y35.9061
G01 X100.9849 Y35.8948
G01 X100.9425 Y35.8825
G01 X100.9004 Y35.8692
G01 X100.8586 Y35.8548
G01 X100.8172 Y35.8394
G01 X100.7762 Y35.8230
G01 X100.7356 Y35.8056
G01 X100.6954 Y35.7872
G01 X100.6557 Y35.7678
G01 X100.6165 Y35.7475
G01 X100.5778 Y35.7262
G01 X100.5396 Y35.7039
G01 X100.5020 Y35.6807
G01 X100.4650 Y35.6566
G01 X100.4285 Y35.6317
G01 X100.3927 Y35.6058
G01 X100.3576 Y35.5790
G01 X100.3231 Y35.5514
G01 X100.2893 Y35.5230
G01 X100.2562 Y35.4937
G01 X100.2238 Y35.4636
G01 X100.1922 Y35.4328
G01 X100.1614 Y35.4012
G01 X100.1313 Y35.3688
G01 X100.1020 Y35.3357
G01 X100.0736 Y35.3019
G01 X100.0460 Y35.2674
G01 X100.0192 Y35.2323
G01 X99.9933 Y35.1965
G01 X99.9684 Y35.1600
G01 X99.9443 Y35.1230
G01 X99.9211 Y35.0854
G01 X99.8988 Y35.0472
G01 X99.8775 Y35.0085
G01 X99.8572 Y34.9693
G01 X99.8378 Y34.9296
G01 X99.8194 Y34.8894
G01 X99.8020 Y34.8488
G01 X99.7856 Y34.8078
G01 X99.7702 Y34.7664
G01 X99.7558 Y34.7246
G01 X99.7425 Y34.6825
G01 X99.7302 Y34.6401
G01 X99.7189 Y34.5974
G01 X99.7087 Y34.5544
G01 X99.6996 Y34.5112
G01 X99.6915 Y34.4677
G01 X99.6845 Y34.4241
G01 X99.6785 Y34.3803
G01 X99.6737 Y34.3364
G01 X99.6699 Y34.2924
G01 X99.6672 Y34.2483
G01 X99.6655 Y34.2042
G01 X99.6650 Y34.1600
G01 X99.6655 Y34.1158
G01 X99.6672 Y34.0717
G01 X99.6699 Y34.0276
G01 X99.6737 Y33.9836
G01 X99.6785 Y33.9397
G01 X99.6845 Y33.8959
G01 X99.6915 Y33.8523
G01 X99.6996 Y33.8088
G01 X99.7087 Y33.7656
G01 X99.7189 Y33.7226
G01 X99.7302 Y33.6799
G01 X99.7425 Y33.6375
G01 X99.7558 Y33.5954
G01 X99.7702 Y33.5536
G01 X99.7856 Y33.5122
G01 X99.8020 Y33.4712
G01 X99.8194 Y33.4306
G01 X99.8378 Y33.3904
G01 X99.8572 Y33.3507
G01 X99.8775 Y33.3115
G01 X99.8988 Y33.2728
G01 X99.9211 Y33.2346
G01 X99.9443 Y33.1970
G01 X99.9684 Y33.1600
G01 X99.9933 Y33.1235
G01 X100.0192 Y33.0877
G01 X100.0460 Y33.0526
G01 X100.0736 Y33.0181
G01 X100.1020 Y32.9843
G01 X100.1313 Y32.9512
G01 X100.1614 Y32.9188
G01 X100.1922 Y32.8872
G01 X100.2238 Y32.8564
G01 X100.2562 Y32.8263
G01 X100.2893 Y32.7970
G01 X100.3231 Y32.7686
G01 X100.3576 Y32.7410
G01 X100.3927 Y32.7142
G01 X100.4285 Y32.6883
G01 X100.4650 Y32.6634
G01 X100.5020 Y32.6393
G01 X100.5396 Y32.6161
G01 X100.5778 Y32.5938
G01 X100.6165 Y32.5725
G01 X100.6557 Y32.5522
G01 X100.6954 Y32.5328
G01 X100.7356 Y32.5144
G01 X100.7762 Y32.4970
G01 X100.8172 Y32.4806
G01 X100.8586 Y32.4652
G01 X100.9004 Y32.4508
G01 X100.9425 Y32.4375
G01 X100.9849 Y32.4252
G01 X101.0276 Y32.4139
G01 X101.0706 Y32.4037
G01 X101.1138 Y32.3946
G01 X101.1573 Y32.3865
G01 X101.2009 Y32.3795
G01 X101.2447 Y32.3735
G01 X101.2886 Y32.3687
G01 X101.3326 Y32.3649
G01 X101.3767 Y32.3622
G01 X101.4208 Y32.3605
G01 X101.4650 Y32.3600
G01 X101.5092 Y32.3605
G01 X101.5533 Y32.3622
G01 X101.5974 Y32.3649
G01 X101.6414 Y32.3687
G01 X101.6853 Y32.3735
G01 X101.7291 Y32.3795
G01 X101.7727 Y32.3865
G01 X101.8162 Y32.3946
G01 X101.8594 Y32.4037
G01 X101.9024 Y32.4139
G01 X101.9451 Y32.4252
G01 X101.9875 Y32.4375
G01 X102.0296 Y32.4508
G01 X102.0714 Y32.4652
G01 X102.1128 Y32.4806
G01 X102.1538 Y32.4970
G01 X102.1944 Y32.5144
G01 X102.2346 Y32.5328
G01 X102.2743 Y32.5522
G01 X102.3135 Y32.5725
G01 X102.3522 Y32.5938
G01 X102.3904 Y32.6161
G01 X102.4280 Y32.6393
G01 X102.4650 Y32.6634
G01 X102.5015 Y32.6883
G01 X102.5373 Y32.7142
G01 X102.5724 Y32.7410
G01 X102.6069 Y32.7686
G01 X102.6407 Y32.7970
G01 X102.6738 Y32.8263
G01 X102.7062 Y32.8564
G01 X102.7378 Y32.8872
G01 X102.7686 Y32.9188
G01 X102.7987 Y32.9512
G01 X102.8280 Y32.9843
G01 X102.8564 Y33.0181
G01 X102.8840 Y33.0526
G01 X102.9108 Y33.0877
G01 X102.9367 Y33.1235
G01 X102.9616 Y33.1600
G01 X102.9857 Y33.1970
G01 X103.0089 Y33.2346
G01 X103.0312 Y33.2728
G01 X103.0525 Y33.3115
G01 X103.0728 Y33.3507
G01 X103.0922 Y33.3904
G01 X103.1106 Y33.4306
G01 X103.1280 Y33.4712
G01 X103.1444 Y33.5122
G01 X103.1598 Y33.5536
G01 X103.1742 Y33.5954
G01 X103.1875 Y33.6375
G01 X103.1998 Y33.6799
G01 X103.2111 Y33.7226
G01 X103.2213 Y33.7656
G01 X103.2304 Y33.8088
G01 X103.2385 Y33.8523
G01 X103.2455 Y33.8959
G01 X103.2515 Y33.9397
G01 X103.2563 Y33.9836
G01 X103.2601 Y34.0276
G01 X103.2628 Y34.0717
G01 X103.2645 Y34.1158
G01 X103.2650 Y34.1600
G01 X103.9850 Y34.1600
G01 X103.9842 Y34.2218
G01 X103.9820 Y34.2837
G01 X103.9782 Y34.3454
G01 X103.9729 Y34.4070
G01 X103.9660 Y34.4685
G01 X103.9577 Y34.5298
G01 X103.9479 Y34.5908
G01 X103.9366 Y34.6516
G01 X103.9238 Y34.7121
G01 X103.9095 Y34.7723
G01 X103.8937 Y34.8321
G01 X103.8765 Y34.8915
G01 X103.8578 Y34.9505
G01 X103.8377 Y35.0090
G01 X103.8161 Y35.0669
G01 X103.7932 Y35.1244
G01 X103.7688 Y35.1812
G01 X103.7431 Y35.2374
G01 X103.7159 Y35.2930
G01 X103.6874 Y35.3479
G01 X103.6576 Y35.4021
G01 X103.6265 Y35.4555
G01 X103.5940 Y35.5082
G01 X103.5603 Y35.5600
G01 X103.5253 Y35.6110
G01 X103.4891 Y35.6612
G01 X103.4516 Y35.7104
G01 X103.4130 Y35.7587
G01 X103.3732 Y35.8060
G01 X103.3322 Y35.8523
G01 X103.2901 Y35.8976
G01 X103.2469 Y35.9419
G01 X103.2026 Y35.9851
G01 X103.1573 Y36.0272
G01 X103.1110 Y36.0682
G01 X103.0637 Y36.1080
G01 X103.0154 Y36.1466
G01 X102.9662 Y36.1841
G01 X102.9160 Y36.2203
G01 X102.8650 Y36.2553
G01 X102.8132 Y36.2890
G01 X102.7605 Y36.3215
G01 X102.7071 Y36.3526
G01 X102.6529 Y36.3824
G01 X102.5980 Y36.4109
G01 X102.5424 Y36.4381
G01 X102.4862 Y36.4638
G01 X102.4294 Y36.4882
G01 X102.3719 Y36.5111
G01 X102.3140 Y36.5327
G01 X102.2555 Y36.5528
G01 X102.1965 Y36.5715
G01 X102.1371 Y36.5887
G01 X102.0773 Y36.6045
G01 X102.0171 Y36.6188
G01 X101.9566 Y36.6316
G01 X101.8958 Y36.6429
G01 X101.8348 Y36.6527
G01 X101.7735 Y36.6610
G01 X101.7120 Y36.6679
G01 X101.6504 Y36.6732
G01 X101.5887 Y36.6770
G01 X101.5268 Y36.6792
G01 X101.4650 Y36.6800
G01 X101.4032 Y36.6792
G01 X101.3413 Y36.6770
G01 X101.2796 Y36.6732
G01 X101.2180 Y36.6679
G01 X101.1565 Y36.6610
G01 X101.0952 Y36.6527
G01 X101.0342 Y36.6429
G01 X100.9734 Y36.6316
G01 X100.9129 Y36.6188
G01 X100.8527 Y36.6045
G01 X100.7929 Y36.5887
G01 X100.7335 Y36.5715
G01 X100.6745 Y36.5528
G01 X100.6160 Y36.5327
G01 X100.5581 Y36.5111
G01 X100.5006 Y36.4882
G01 X100.4438 Y36.4638
G01 X100.3876 Y36.4381
G01 X100.3320 Y36.4109
G01 X100.2771 Y36.3824
G01 X100.2229 Y36.3526
G01 X100.1695 Y36.3215
G01 X100.1168 Y36.2890
G01 X100.0650 Y36.2553
G01 X100.0140 Y36.2203
G01 X99.9638 Y36.1841
G01 X99.9146 Y36.1466
G01 X99.8663 Y36.1080
G01 X99.8190 Y36.0682
G01 X99.7727 Y36.0272
G01 X99.7274 Y35.9851
G01 X99.6831 Y35.9419
G01 X99.6399 Y35.8976
G01 X99.5978 Y35.8523
G01 X99.5568 Y35.8060
G01 X99.5170 Y35.7587
G01 X99.4784 Y35.7104
G01 X99.4409 Y35.6612
G01 X99.4047 Y35.6110
G01 X99.3697 Y35.5600
G01 X99.3360 Y35.5082
G01 X99.3035 Y35.4555
G01 X99.2724 Y35.4021
G01 X99.2426 Y35.3479
G01 X99.2141 Y35.2930
G01 X99.1869 Y35.2374
G01 X99.1612 Y35.1812
G01 X99.1368 Y35.1244
G01 X99.1139 Y35.0669
G01 X99.0923 Y35.0090
G01 X99.0722 Y34.9505
G01 X99.0535 Y34.8915
G01 X99.0363 Y34.8321
G01 X99.0205 Y34.7723
G01 X99.0062 Y34.7121
G01 X98.9934 Y34.6516
G01 X98.9821 Y34.5908
G01 X98.9723 Y34.5298
G01 X98.9640 Y34.4685
G01 X98.9571 Y34.4070
G01 X98.9518 Y34.3454
G01 X98.9480 Y34.2837
G01 X98.9458 Y34.2218
G01 X98.9450 Y34.1600
G01 X98.9458 Y34.0982
G01 X98.9480 Y34.0363
G01 X98.9518 Y33.9746
G01 X98.9571 Y33.9130
G01 X98.9640 Y33.8515
G01 X98.9723 Y33.7902
G01 X98.9821 Y33.7292
G01 X98.9934 Y33.6684
G01 X99.0062 Y33.6079
G01 X99.0205 Y33.5477
G01 X99.0363 Y33.4879
G01 X99.0535 Y33.4285
G01 X99.0722 Y33.3695
G01 X99.0923 Y33.3110
G01 X99.1139 Y33.2531
G01 X99.1368 Y33.1956
G01 X99.1612 Y33.1388
G01 X99.1869 Y33.0826
G01 X99.2141 Y33.0270
G01 X99.2426 Y32.9721
G01 X99.2724 Y32.9179
G01 X99.3035 Y32.8645
G01 X99.3360 Y32.8118
G01 X99.3697 Y32.7600
G01 X99.4047 Y32.7090
G01 X99.4409 Y32.6588
G01 X99.4784 Y32.6096
G01 X99.5170 Y32.5613
G01 X99.5568 Y32.5140
G01 X99.5978 Y32.4677
G01 X99.6399 Y32.4224
G01 X99.6831 Y32.3781
G01 X99.7274 Y32.3349
G01 X99.7727 Y32.2928
G01 X99.8190 Y32.2518
G01 X99.8663 Y32.2120
G01 X99.9146 Y32.1734
G01 X99.9638 Y32.1359
G01 X100.0140 Y32.0997
G01 X100.0650 Y32.0647
G01 X100.1168 Y32.0310
G01 X100.1695 Y31.9985
G01 X100.2229 Y31.9674
G01 X100.2771 Y31.9376
G01 X100.3320 Y31.9091
G01 X100.3876 Y31.8819
G01 X100.4438 Y31.8562
G01 X100.5006 Y31.8318
G01 X100.5581 Y31.8089
G01 X100.6160 Y31.7873
G01 X100.6745 Y31.7672
G01 X100.7335 Y31.7485
G01 X100.7929 Y31.7313
G01 X100.8527 Y31.7155
G01 X100.9129 Y31.7012
G01 X100.9734 Y31.6884
G01 X101.0342 Y31.6771
G01 X101.0952 Y31.6673
G01 X101.1565 Y31.6590
G01 X101.2180 Y31.6521
G01 X101.2796 Y31.6468
G01 X101.3413 Y31.6430
G01 X101.4032 Y31.6408
G01 X101.4650 Y31.6400
G01 X101.5268 Y31.6408
G01 X101.5887 Y31.6430
G01 X101.6504 Y31.6468
G01 X101.7120 Y31.6521
G01 X101.7735 Y31.6590
G01 X101.8348 Y31.6673
G01 X101.8958 Y31.6771
G01 X101.9566 Y31.6884
G01 X102.0171 Y31.7012
G01 X102.0773 Y31.7155
G01 X102.1371 Y31.7313
G01 X102.1965 Y31.7485
G01 X102.2555 Y31.7672
G01 X102.3140 Y31.7873
G01 X102.3719 Y31.8089
G01 X102.4294 Y31.8318
G01 X102.4862 Y31.8562
G01 X102.5424 Y31.8819
G01 X102.5980 Y31.9091
G01 X102.6529 Y31.9376
G01 X102.7071 Y31.9674
G01 X102.7605 Y31.9985
G01 X102.8132 Y32.0310
G01 X102.8650 Y32.0647
G01 X102.9160 Y32.0997
G01 X102.9662 Y32.1359
G01 X103.0154 Y32.1734
G01 X103.0637 Y32.2120
G01 X103.1110 Y32.2518
G01 X103.1573 Y32.2928
G01 X103.2026 Y32.3349
G01 X103.2469 Y32.3781
G01 X103.2901 Y32.4224
G01 X103.3322 Y32.4677
G01 X103.3732 Y32.5140
G01 X103.4130 Y32.5613
G01 X103.4516 Y32.6096
G01 X103.4891 Y32.6588
G01 X103.5253 Y32.7090
G01 X103.5603 Y32.7600
G01 X103.5940 Y32.8118
G01 X103.6265 Y32.8645
G01 X103.6576 Y32.9179
G01 X103.6874 Y32.9721
G01 X103.7159 Y33.0270
G01 X103.7431 Y33.0826
G01 X103.7688 Y33.1388
G01 X103.7932 Y33.1956
G01 X103.8161 Y33.2531
G01 X103.8377 Y33.3110
G01 X103.8578 Y33.3695
G01 X103.8765 Y33.4285
G01 X103.8937 Y33.4879
G01 X103.9095 Y33.5477
G01 X103.9238 Y33.6079
G01 X103.9366 Y33.6684
G01 X103.9479 Y33.7292
G01 X103.9577 Y33.7902
G01 X103.9660 Y33.8515
G01 X103.9729 Y33.9130
G01 X103.9782 Y33.9746
G01 X103.9820 Y34.0363
G01 X103.9842 Y34.0982
G01 X103.9850 Y34.1600
G01 X104.6250 Y33.4447
G01 X104.6079 Y33.3727
G01 X104.5876 Y33.2959
G01 X104.5655 Y33.2195
G01 X104.5415 Y33.1437
G01 X104.5156 Y33.0685
G01 X104.4879 Y32.9939
G01 X104.4584 Y32.9201
G01 X104.4270 Y32.8470
G01 X104.3939 Y32.7747
G01 X104.3590 Y32.7033
G01 X104.3224 Y32.6327
G01 X104.2841 Y32.5630
G01 X104.2440 Y32.4943
G01 X104.2023 Y32.4266
G01 X104.1590 Y32.3600
G01 X104.1140 Y32.2944
G01 X104.0674 Y32.2299
G01 X104.0192 Y32.1666
G01 X103.9696 Y32.1046
G01 X103.9184 Y32.0437
G01 X103.8657 Y31.9841
G01 X103.8116 Y31.9259
G01 X103.7560 Y31.8690
G01 X103.6991 Y31.8134
G01 X103.6409 Y31.7593
G01 X103.5813 Y31.7066
G01 X103.5204 Y31.6554
G01 X103.4584 Y31.6058
G01 X103.3951 Y31.5576
G01 X103.3306 Y31.5110
G01 X103.2650 Y31.4660
G01 X103.1984 Y31.4227
G01 X103.1307 Y31.3810
G01 X103.0620 Y31.3409
G01 X102.9923 Y31.3026
G01 X102.9217 Y31.2660
G01 X102.8503 Y31.2311
G01 X102.7780 Y31.1980
G01 X102.7049 Y31.1666
G01 X102.6311 Y31.1371
G01 X102.5565 Y31.1094
G01 X102.4813 Y31.0835
G01 X102.4055 Y31.0595
G01 X102.3291 Y31.0374
G01 X102.2523 Y31.0171
G01 X102.2014 Y31.0050
G01 X100.7286 Y31.0050
G01 X100.6777 Y31.0171
G01 X100.6009 Y31.0374
G01 X100.5245 Y31.0595
G01 X100.4487 Y31.0835
G01 X100.3735 Y31.1094
G01 X100.2989 Y31.1371
G01 X100.2251 Y31.1666
G01 X100.1520 Y31.1980
G01 X100.0797 Y31.2311
G01 X100.0083 Y31.2660
G01 X99.9377 Y31.3026
G01 X99.8680 Y31.3409
G01 X99.7993 Y31.3810
G01 X99.7316 Y31.4227
G01 X99.6650 Y31.4660
G01 X99.5994 Y31.5110
G01 X99.5349 Y31.5576
G01 X99.4716 Y31.6058
G01 X99.4096 Y31.6554
G01 X99.3487 Y31.7066
G01 X99.2891 Y31.7593
G01 X99.2309 Y31.8134
G01 X99.1740 Y31.8690
G01 X99.1184 Y31.9259
G01 X99.0643 Y31.9841
G01 X99.0116 Y32.0437
G01 X98.9604 Y32.1046
G01 X98.9108 Y32.1666
G01 X98.8626 Y32.2299
G01 X98.8160 Y32.2944
G01 X98.7710 Y32.3600
G01 X98.7277 Y32.4266
G01 X98.6860 Y32.4943
G01 X98.6459 Y32.5630
G01 X98.6076 Y32.6327
G01 X98.5710 Y32.7033
G01 X98.5361 Y32.7747
G01 X98.5030 Y32.8470
G01 X98.4716 Y32.9201
G01 X98.4421 Y32.9939
G01 X98.4144 Y33.0685
G01 X98.3885 Y33.1437
G01 X98.3645 Y33.2195
G01 X98.3424 Y33.2959
G01 X98.3221 Y33.3727
G01 X98.3050 Y33.4447
G01 X98.3050 Y31.7738
G01 X98.3431 Y31.7237
G01 X98.4039 Y31.6478
G01 X98.4665 Y31.5734
G01 X98.5308 Y31.5006
G01 X98.5970 Y31.4294
G01 X98.6649 Y31.3599
G01 X98.7344 Y31.2920
G01 X98.8056 Y31.2258
G01 X98.8784 Y31.1615
G01 X98.9528 Y31.0989
G01 X99.0287 Y31.0381
G01 X99.0722 Y31.0050
G00 X99.0722 Y31.0050
G01 F40.00
G01 Z-0.6000
G01 F80.00
G01 X99.0287 Y31.0381
G01 X98.9528 Y31.0989
G01 X98.8784 Y31.1615
G01 X98.8056 Y31.2258
G01 X98.7344 Y31.2920
G01 X98.6649 Y31.3599
G01 X98.5970 Y31.4294
G01 X98.5308 Y31.5006
G01 X98.4665 Y31.5734
G01 X98.4039 Y31.6478
G01 X98.3431 Y31.7237
G01 X98.3050 Y31.7738
G01 X98.3050 Y33.4447
G01 X98.3221 Y33.3727
G01 X98.3424 Y33.2959
G01 X98.3645 Y33.2195
G01 X98.3885 Y33.1437
G01 X98.4144 Y33.0685
G01 X98.4421 Y32.9939
G01 X98.4716 Y32.9201
G01 X98.5030 Y32.8470
G01 X98.5361 Y32.7747
G01 X98.5710 Y32.7033
G01 X98.6076 Y32.6327
G01 X98.6459 Y32.5630
G01 X98.6860 Y32.4943
G01 X98.7277 Y32.4266
G01 X98.7710 Y32.3600
G01 X98.8160 Y32.2944
G01 X98.8626 Y32.2299
G01 X98.9108 Y32.1666
G01 X98.9604 Y32.1046
G01 X99.0116 Y32.0437
G01 X99.0643 Y31.9841
G01 X99.1184 Y31.9259
G01 X99.1740 Y31.8690
G01 X99.2309 Y31.8134
G01 X99.2891 Y31.7593
G01 X99.3487 Y31.7066
G01 X99.4096 Y31.6554
G01 X99.4716 Y31.6058
G01 X99.5349 Y31.5576
G01 X99.5994 Y31.5110
G01 X99.6650 Y31.4660
G01 X99.7316 Y31.4227
G01 X99.7993 Y31.3810
G01 X99.8680 Y31.3409
G01 X99.9377 Y31.3026
G01 X100.0083 Y31.2660
G01 X100.0797 Y31.2311
G01 X100.1520 Y31.1980
G01 X100.2251 Y31.1666
G01 X100.2989 Y31.1371
G01 X100.3735 Y31.1094
G01 X100.4487 Y31.0835
G01 X100.5245 Y31.0595
G01 X100.6009 Y31.0374
G01 X100.6777 Y31.0171
G01 X100.7286 Y31.0050
G01 X102.2014 Y31.0050
G01 X102.2523 Y31.0171
G01 X102.3291 Y31.0374
G01 X102.4055 Y31.0595
G01 X102.4813 Y31.0835
G01 X102.5565 Y31.1094
G01 X102.6311 Y31.1371
G01 X102.7049 Y31.1666
G01 X102.7780 Y31.1980
G01 X102.8503 Y31.2311
G01 X102.9217 Y31.2660
G01 X102.9923 Y31.3026
G01 X103.0620 Y31.3409
G01 X103.1307 Y31.3810
G01 X103.1984 Y31.4227
G01 X103.2650 Y31.4660
G01 X103.3306 Y31.5110
G01 X103.3951 Y31.5576
G01 X103.4584 Y31.6058
G01 X103.5204 Y31.6554
G01 X103.5813 Y31.7066
G01 X103.6409 Y31.7593
G01 X103.6991 Y31.8134
G01 X103.7560 Y31.8690
G01 X103.8116 Y31.9259
G01 X103.8657 Y31.9841
G01 X103.9184 Y32.0437
G01 X103.9696 Y32.1046
G01 X104.0192 Y32.1666
G01 X104.0674 Y32.2299
G01 X104.1140 Y32.2944
G01 X104.1590 Y32.3600
G01 X104.2023 Y32.4266
G01 X104.2440 Y32.4943
G01 X104.2841 Y32.5630
G01 X104.3224 Y32.6327
G01 X104.3590 Y32.7033
G01 X104.3939 Y32.7747
G01 X104.4270 Y32.8470
G01 X104.4584 Y32.9201
G01 X104.4879 Y32.9939
G01 X104.5156 Y33.0685
G01 X104.5415 Y33.1437
G01 X104.5655 Y33.2195
G01 X104.5876 Y33.2959
G01 X104.6079 Y33.3727
G01 X104.6250 Y33.4447
G01 X103.9850 Y34.1600
G01 X103.9842 Y34.0982
G01 X103.9820 Y34.0363
G01 X103.9782 Y33.9746
G01 X103.9729 Y33.9130
G01 X103.9660 Y33.8515
G01 X103.9577 Y33.7902
G01 X103.9479 Y33.7292
G01 X103.9366 Y33.6684
G01 X103.9238 Y33.6079
G01 X103.9095 Y33.5477
G01 X103.8937 Y33.4879
G01 X103.8765 Y33.4285
G01 X103.8578 Y33.3695
G01 X103.8377 Y33.3110
G01 X103.8161 Y33.2531
G01 X103.7932 Y33.1956
G01 X103.7688 Y33.1388
G01 X103.7431 Y33.0826
G01 X103.7159 Y33.0270
G01 X103.6874 Y32.9721
G01 X103.6576 Y32.9179
G01 X103.6265 Y32.8645
G01 X103.5940 Y32.8118
G01 X103.5603 Y32.7600
G01 X103.5253 Y32.7090
G01 X103.4891 Y32.6588
G01 X103.4516 Y32.6096
G01 X103.4130 Y32.5613
G01 X103.3732 Y32.5140
G01 X103.3322 Y32.4677
G01 X103.2901 Y32.4224
G01 X103.2469 Y32.3781
G01 X103.2026 Y32.3349
G01 X103.1573 Y32.2928
G01 X103.1110 Y32.2518
G01 X103.0637 Y32.2120
G01 X103.0154 Y32.1734
G01 X102.9662 Y32.1359
G01 X102.9160 Y32.0997
G01 X102.8650 Y32.0647
G01 X102.8132 Y32.0310
G01 X102.7605 Y31.9985
G01 X102.7071 Y31.9674
G01 X102.6529 Y31.9376
G01 X102.5980 Y31.9091
G01 X102.5424 Y31.8819
G01 X102.4862 Y31.8562
G01 X102.4294 Y31.8318
G01 X102.3719 Y31.8089
G01 X102.3140 Y31.7873
G01 X102.2555 Y31.7672
G01 X102.1965 Y31.7485
G01 X102.1371 Y31.7313
G01 X102.0773 Y31.7155
G01 X102.0171 Y31.7012
G01 X101.9566 Y31.6884
G01 X101.8958 Y31.6771
G01 X101.8348 Y31.6673
G01 X101.7735 Y31.6590
G01 X101.7120 Y31.6521
G01 X101.6504 Y31.6468
G01 X101.5887 Y31.6430
G01 X101.5268 Y31.6408
G01 X101.4650 Y31.6400
G01 X101.4032 Y31.6408
G01 X101.3413 Y31.6430
G01 X101.2796 Y31.6468
G01 X101.2180 Y31.6521
G01 X101.1565 Y31.6590
G01 X101.0952 Y31.6673
G01 X101.0342 Y31.6771
G01 X100.9734 Y31.6884
G01 X100.9129 Y31.7012
G01 X100.8527 Y31.7155
G01 X100.7929 Y31.7313
G01 X100.7335 Y31.7485
G01 X100.6745 Y31.7672
G01 X100.6160 Y31.7873
G01 X100.5581 Y31.8089
G01 X100.5006 Y31.8318
G01 X100.4438 Y31.8562
G01 X100.3876 Y31.8819
G01 X100.3320 Y31.9091
G01 X100.2771 Y31.9376
G01 X100.2229 Y31.9674
G01 X100.1695 Y31.9985
G01 X100.1168 Y32.0310
G01 X100.0650 Y32.0647
G01 X100.0140 Y32.0997
G01 X99.9638 Y32.1359
G01 X99.9146 Y32.1734
G01 X99.8663 Y32.2120
G01 X99.8190 Y32.2518
G01 X99.7727 Y32.2928
G01 X99.7274 Y32.3349
G01 X99.6831 Y32.3781
G01 X99.6399 Y32.4224
G01 X99.5978 Y32.4677
G01 X99.5568 Y32.5140
G01 X99.5170 Y32.5613
G01 X99.4784 Y32.6096
G01 X99.4409 Y32.6588
G01 X99.4047 Y32.7090
G01 X99.3697 Y32.7600
G01 X99.3360 Y32.8118
G01 X99.3035 Y32.8645
G01 X99.2724 Y32.9179
G01 X99.2426 Y32.9721
G01 X99.2141 Y33.0270
G01 X99.1869 Y33.0826
G01 X99.1612 Y33.1388
G01 X99.1368 Y33.1956
G01 X99.1139 Y33.2531
G01 X99.0923 Y33.3110
G01 X99.0722 Y33.3695
G01 X99.0535 Y33.4285
G01 X99.0363 Y33.4879
G01 X99.0205 Y33.5477
G01 X99.0062 Y33.6079
G01 X98.9934 Y33.6684
G01 X98.9821 Y33.7292
G01 X98.9723 Y33.7902
G01 X98.9640 Y33.8515
G01 X98.9571 Y33.9130
G01 X98.9518 Y33.9746
G01 X98.9480 Y34.0363
G01 X98.9458 Y34.0982
G01 X98.9450 Y34.1600
G01 X98.9458 Y34.2218
G01 X98.9480 Y34.2837
G01 X98.9518 Y34.3454
G01 X98.9571 Y34.4070
G01 X98.9640 Y34.4685
G01 X98.9723 Y34.5298
G01 X98.9821 Y34.5908
G01 X98.9934 Y34.6516
G01 X99.0062 Y34.7121
G01 X99.0205 Y34.7723
G01 X99.0363 Y34.8321
G01 X99.0535 Y34.8915
G01 X99.0722 Y34.9505
G01 X99.0923 Y35.0090
G01 X99.1139 Y35.0669
G01 X99.1368 Y35.1244
G01 X99.1612 Y35.1812
G01 X99.1869 Y35.2374
G01 X99.2141 Y35.2930
G01 X99.2426 Y35.3479
G01 X99.2724 Y35.4021
G01 X99.3035 Y35.4555
G01 X99.3360 Y35.5082
G01 X99.3697 Y35.5600
G01 X99.4047 Y35.6110
G01 X99.4409 Y35.6612
G01 X99.4784 Y35.7104
G01 X99.5170 Y35.7587
G01 X99.5568 Y35.8060
G01 X99.5978 Y35.8523
G01 X99.6399 Y35.8976
G01 X99.6831 Y35.9419
G01 X99.7274 Y35.9851
G01 X99.7727 Y36.0272
G01 X99.8190 Y36.0682
G01 X99.8663 Y36.1080
G01 X99.9146 Y36.1466
G01 X99.9638 Y36.1841
G01 X100.0140 Y36.2203
G01 X100.0650 Y36.2553
G01 X100.1168 Y36.2890
G01 X100.1695 Y36.3215
G01 X100.2229 Y36.3526
G01 X100.2771 Y36.3824
G01 X100.3320 Y36.4109
G01 X100.3876 Y36.4381
G01 X100.4438 Y36.4638
G01 X100.5006 Y36.4882
G01 X100.5581 Y36.5111
G01 X100.6160 Y36.5327
G01 X100.6745 Y36.5528
G01 X100.7335 Y36.5715
G01 X100.7929 Y36.5887
G01 X100.8527 Y36.6045
G01 X100.9129 Y36.6188
G01 X100.9734 Y36.6316
G01 X101.0342 Y36.6429
G01 X101.0952 Y36.6527
G01 X101.1565 Y36.6610
G01 X101.2180 Y36.6679
G01 X101.2796 Y36.6732
G01 X101.3413 Y36.6770
G01 X101.4032 Y36.6792
G01 X101.4650 Y36.6800
G01 X101.5268 Y36.6792
G01 X101.5887 Y36.6770
G01 X101.6504 Y36.6732
G01 X101.7120 Y36.6679
G01 X101.7735 Y36.6610
G01 X101.8348 Y36.6527
G01 X101.8958 Y36.6429
G01 X101.9566 Y36.6316
G01 X102.0171 Y36.6188
G01 X102.0773 Y36.6045
G01 X102.1371 Y36.5887
G01 X102.1965 Y36.5715
G01 X102.2555 Y36.5528
G01 X102.3140 Y36.5327
G01 X102.3719 Y36.5111
G01 X102.4294 Y36.4882
G01 X102.4862 Y36.4638
G01 X102.5424 Y36.4381
G01 X102.5980 Y36.4109
G01 X102.6529 Y36.3824
G01 X102.7071 Y36.3526
G01 X102.7605 Y36.3215
G01 X102.8132 Y36.2890
G01 X102.8650 Y36.2553
G01 X102.9160 Y36.2203
G01 X102.9662 Y36.1841
G01 X103.0154 Y36.1466
G01 X103.0637 Y36.1080
G01 X103.1110 Y36.0682
G01 X103.1573 Y36.0272
G01 X103.2026 Y35.9851
G01 X103.2469 Y35.9419
G01 X103.2901 Y35.8976
G01 X103.3322 Y35.8523
G01 X103.3732 Y35.8060
G01 X103.4130 Y35.7587
G01 X103.4516 Y35.7104
G01 X103.4891 Y35.6612
G01 X103.5253 Y35.6110
G01 X103.5603 Y35.5600
G01 X103.5940 Y35.5082
G01 X103.6265 Y35.4555
G01 X103.6576 Y35.4021
G01 X103.6874 Y35.3479
G01 X103.7159 Y35.2930
G01 X103.7431 Y35.2374
G01 X103.7688 Y35.1812
G01 X103.7932 Y35.1244
G01 X103.8161 Y35.0669
G01 X103.8377 Y35.0090
G01 X103.8578 Y34.9505
G01 X103.8765 Y34.8915
G01 X103.8937 Y34.8321
G01 X103.9095 Y34.7723
G01 X103.9238 Y34.7121
G01 X103.9366 Y34.6516
G01 X103.9479 Y34.5908
G01 X103.9577 Y34.5298
G01 X103.9660 Y34.4685
G01 X103.9729 Y34.4070
G01 X103.9782 Y34.3454
G01 X103.9820 Y34.2837
G01 X103.9842 Y34.2218
G01 X103.9850 Y34.1600
G01 X103.2650 Y34.1600
G01 X103.2645 Y34.1158
G01 X103.2628 Y34.0717
G01 X103.2601 Y34.0276
G01 X103.2563 Y33.9836
G01 X103.2515 Y33.9397
G01 X103.2455 Y33.8959
G01 X103.2385 Y33.8523
G01 X103.2304 Y33.8088
G01 X103.2213 Y33.7656
G01 X103.2111 Y33.7226
G01 X103.1998 Y33.6799
G01 X103.1875 Y33.6375
G01 X103.1742 Y33.5954
G01 X103.1598 Y33.5536
G01 X103.1444 Y33.5122
G01 X103.1280 Y33.4712
G01 X103.1106 Y33.4306
G01 X103.0922 Y33.3904
G01 X103.0728 Y33.3507
G01 X103.0525 Y33.3115
G01 X103.0312 Y33.2728
G01 X103.0089 Y33.2346
G01 X102.9857 Y33.1970
G01 X102.9616 Y33.1600
G01 X102.9367 Y33.1235
G01 X102.9108 Y33.0877
G01 X102.8840 Y33.0526
G01 X102.8564 Y33.0181
G01 X102.8280 Y32.9843
G01 X102.7987 Y32.9512
G01 X102.7686 Y32.9188
G01 X102.7378 Y32.8872
G01 X102.7062 Y32.8564
G01 X102.6738 Y32.8263
G01 X102.6407 Y32.7970
G01 X102.6069 Y32.7686
G01 X102.5724 Y32.7410
G01 X102.5373 Y32.7142
G01 X102.5015 Y32.6883
G01 X102.4650 Y32.6634
G01 X102.4280 Y32.6393
G01 X102.3904 Y32.6161
G01 X102.3522 Y32.5938
G01 X102.3135 Y32.5725
G01 X102.2743 Y32.5522
G01 X102.2346 Y32.5328
G01 X102.1944 Y32.5144
G01 X102.1538 Y32.4970
G01 X102.1128 Y32.4806
G01 X102.0714 Y32.4652
G01 X102.0296 Y32.4508
G01 X101.9875 Y32.4375
G01 X101.9451 Y32.4252
G01 X101.9024 Y32.4139
G01 X101.8594 Y32.4037
G01 X101.8162 Y32.3946
G01 X101.7727 Y32.3865
G01 X101.7291 Y32.3795
G01 X101.6853 Y32.3735
G01 X101.6414 Y32.3687
G01 X101.5974 Y32.3649
G01 X101.5533 Y32.3622
G01 X101.5092 Y32.3605
G01 X101.4650 Y32.3600
G01 X101.4208 Y32.3605
G01 X101.3767 Y32.3622
G01 X101.3326 Y32.3649
G01 X101.2886 Y32.3687
G01 X101.2447 Y32.3735
G01 X101.2009 Y32.3795
G01 X101.1573 Y32.3865
G01 X101.1138 Y32.3946
G01 X101.0706 Y32.4037
G01 X101.0276 Y32.4139
G01 X100.9849 Y32.4252
G01 X100.9425 Y32.4375
G01 X100.9004 Y32.4508
G01 X100.8586 Y32.4652
G01 X100.8172 Y32.4806
G01 X100.7762 Y32.4970
G01 X100.7356 Y32.5144
G01 X100.6954 Y32.5328
G01 X100.6557 Y32.5522
G01 X100.6165 Y32.5725
G01 X100.5778 Y32.5938
G01 X100.5396 Y32.6161
G01 X100.5020 Y32.6393
G01 X100.4650 Y32.6634
G01 X100.4285 Y32.6883
G01 X100.3927 Y32.7142
G01 X100.3576 Y32.7410
G01 X100.3231 Y32.7686
G01 X100.2893 Y32.7970
G01 X100.2562 Y32.8263
G01 X100.2238 Y32.8564
G01 X100.1922 Y32.8872
G01 X100.1614 Y32.9188
G01 X100.1313 Y32.9512
G01 X100.1020 Y32.9843
G01 X100.0736 Y33.0181
G01 X100.0460 Y33.0526
G01 X100.0192 Y33.0877
G01 X99.9933 Y33.1235
G01 X99.9684 Y33.1600
G01 X99.9443 Y33.1970
G01 X99.9211 Y33.2346
G01 X99.8988 Y33.2728
G01 X99.8775 Y33.3115
G01 X99.8572 Y33.3507
G01 X99.8378 Y33.3904
G01 X99.8194 Y33.4306
G01 X99.8020 Y33.4712
G01 X99.7856 Y33.5122
G01 X99.7702 Y33.5536
G01 X99.7558 Y33.5954
G01 X99.7425 Y33.6375
G01 X99.7302 Y33.6799
G01 X99.7189 Y33.7226
G01 X99.7087 Y33.7656
G01 X99.6996 Y33.8088
G01 X99.6915 Y33.8523
G01 X99.6845 Y33.8959
G01 X99.6785 Y33.9397
G01 X99.6737 Y33.9836
G01 X99.6699 Y34.0276
G01 X99.6672 Y34.0717
G01 X99.6655 Y34.1158
G01 X99.6650 Y34.1600
G01 X99.6655 Y34.2042
G01 X99.6672 Y34.2483
G01 X99.6699 Y34.2924
G01 X99.6737 Y34.3364
G01 X99.6785 Y34.3803
G01 X99.6845 Y34.4241
G01 X99.6915 Y34.4677
G01 X99.6996 Y34.5112
G01 X99.7087 Y34.5544
G01 X99.7189 Y34.5974
G01 X99.7302 Y34.6401
G01 X99.7425 Y34.6825
G01 X99.7558 Y34.7246
G01 X99.7702 Y34.7664
G01 X99.7856 Y34.8078
G01 X99.8020 Y34.8488
G01 X99.8194 Y34.8894
G01 X99.8378 Y34.9296
G01 X99.8572 Y34.9693
G01 X99.8775 Y35.0085
G01 X99.8988 Y35.0472
G01 X99.9211 Y35.0854
G01 X99.9443 Y35.1230
G01 X99.9684 Y35.1600
G01 X99.9933 Y35.1965
G01 X100.0192 Y35.2323
G01 X100.0460 Y35.2674
G01 X100.0736 Y35.3019
G01 X100.1020 Y35.3357
G01 X100.1313 Y35.3688
G01 X100.1614 Y35.4012
G01 X100.1922 Y35.4328
G01 X100.2238 Y35.4636
G01 X100.2562 Y35.4937
G01 X100.2893 Y35.5230
G01 X100.3231 Y35.5514
G01 X100.3576 Y35.5790
G01 X100.3927 Y35.6058
G01 X100.4285 Y35.6317
G01 X100.4650 Y35.6566
G01 X100.5020 Y35.6807
G01 X100.5396 Y35.7039
G01 X100.5778 Y35.7262
G01 X100.6165 Y35.7475
G01 X100.6557 Y35.7678
G01 X100.6954 Y35.7872
G01 X100.7356 Y35.8056
G01 X100.7762 Y35.8230
G01 X100.8172 Y35.8394
G01 X100.8586 Y35.8548
G01 X100.9004 Y35.8692
G01 X100.9425 Y35.8825
G01 X100.9849 Y35.8948
G01 X101.0276 Y35.9061
G01 X101.0706 Y35.9163
G01 X101.1138 Y35.9254
G01 X101.1573 Y35.9335
G01 X101.2009 Y35.9405
G01 X101.2447 Y35.9465
G01 X101.2886 Y35.9513
G01 X101.3326 Y35.9551
G01 X101.3767 Y35.9578
G01 X101.4208 Y35.9595
G01 X101.4650 Y35.9600
G01 X101.5092 Y35.9595
G01 X101.5533 Y35.9578
G01 X101.5974 Y35.9551
G01 X101.6414 Y35.9513
G01 X101.6853 Y35.9465
G01 X101.7291 Y35.9405
G01 X101.7727 Y35.9335
G01 X101.8162 Y35.9254
G01 X101.8594 Y35.9163
G01 X101.9024 Y35.9061
G01 X101.9451 Y35.8948
G01 X101.9875 Y35.8825
G01 X102.0296 Y35.8692
G01 X102.0714 Y35.8548
G01 X102.1128 Y35.8394
G01 X102.1538 Y35.8230
G01 X102.1944 Y35.8056
G01 X102.2346 Y35.7872
G01 X102.2743 Y35.7678
G01 X102.3135 Y35.7475
G01 X102.3522 Y35.7262
G01 X102.3904 Y35.7039
G01 X102.4280 Y35.6807
G01 X102.4650 Y35.6566
G01 X102.5015 Y35.6317
G01 X102.5373 Y35.6058
G01 X102.5724 Y35.5790
G01 X102.6069 Y35.5514
G01 X102.6407 Y35.5230
G01 X102.6738 Y35.4937
G01 X102.7062 Y35.4636
G01 X102.7378 Y35.4328
G01 X102.7686 Y35.4012
G01 X102.7987 Y35.3688
G01 X102.8280 Y35.3357
G01 X102.8564 Y35.3019
G01 X102.8840 Y35.2674
G01 X102.9108 Y35.2323
G01 X102.9367 Y35.1965
G01 X102.9616 Y35.1600
G01 X102.9857 Y35.1230
G01 X103.0089 Y35.0854
G01 X103.0312 Y35.0472
G01 X103.0525 Y35.0085
G01 X103.0728 Y34.9693
G01 X103.0922 Y34.9296
G01 X103.1106 Y34.8894
G01 X103.1280 Y34.8488
G01 X103.1444 Y34.8078
G01 X103.1598 Y34.7664
G01 X103.1742 Y34.7246
G01 X103.1875 Y34.6825
G01 X103.1998 Y34.6401
G01 X103.2111 Y34.5974
G01 X103.2213 Y34.5544
G01 X103.2304 Y34.5112
G01 X103.2385 Y34.4677
G01 X103.2455 Y34.4241
G01 X103.2515 Y34.3803
G01 X103.2563 Y34.3364
G01 X103.2601 Y34.2924
G01 X103.2628 Y34.2483
G01 X103.2645 Y34.2042
G01 X103.2650 Y34.1600
G01 X102.5450 Y34.1600
G01 X102.5447 Y34.1335
G01 X102.5437 Y34.1070
G01 X102.5421 Y34.0806
G01 X102.5398 Y34.0541
G01 X102.5369 Y34.0278
G01 X102.5333 Y34.0015
G01 X102.5291 Y33.9754
G01 X102.5242 Y33.9493
G01 X102.5188 Y33.9234
G01 X102.5126 Y33.8976
G01 X102.5059 Y33.8720
G01 X102.4985 Y33.8465
G01 X102.4905 Y33.8212
G01 X102.4819 Y33.7962
G01 X102.4726 Y33.7713
G01 X102.4628 Y33.7467
G01 X102.4523 Y33.7223
G01 X102.4413 Y33.6982
G01 X102.4297 Y33.6744
G01 X102.4175 Y33.6509
G01 X102.4047 Y33.6277
G01 X102.3913 Y33.6048
G01 X102.3774 Y33.5822
G01 X102.3630 Y33.5600
G01 X102.3480 Y33.5381
G01 X102.3325 Y33.5166
G01 X102.3164 Y33.4955
G01 X102.2999 Y33.4749
G01 X102.2828 Y33.4546
G01 X102.2652 Y33.4347
G01 X102.2472 Y33.4153
G01 X102.2287 Y33.3963
G01 X102.2097 Y33.3778
G01 X102.1903 Y33.3598
G01 X102.1704 Y33.3422
G01 X102.1501 Y33.3251
G01 X102.1295 Y33.3086
G01 X102.1084 Y33.2925
G01 X102.0869 Y33.2770
G01 X102.0650 Y33.2620
G01 X102.0428 Y33.2476
G01 X102.0202 Y33.2337
G01 X101.9973 Y33.2203
G01 X101.9741 Y33.2075
G01 X101.9506 Y33.1953
G01 X101.9268 Y33.1837
G01 X101.9027 Y33.1727
G01 X101.8783 Y33.1622
G01 X101.8537 Y33.1524
G01 X101.8288 Y33.1431
G01 X101.8038 Y33.1345
G01 X101.7785 Y33.1265
G01 X101.7530 Y33.1191
G01 X101.7274 Y33.1124
G01 X101.7016 Y33.1062
G01 X101.6757 Y33.1008
G01 X101.6496 Y33.0959
G01 X101.6235 Y33.0917
G01 X101.5972 Y33.0881
G01 X101.5709 Y33.0852
G01 X101.5444 Y33.0829
G01 X101.5180 Y33.0813
G01 X101.4915 Y33.0803
G01 X101.4650 Y33.0800
G01 X101.4385 Y33.0803
G01 X101.4120 Y33.0813
G01 X101.3856 Y33.0829
G01 X101.3591 Y33.0852
G01 X101.3328 Y33.0881
G01 X101.3065 Y33.0917
G01 X101.2804 Y33.0959
G01 X101.2543 Y33.1008
G01 X101.2284 Y33.1062
G01 X101.2026 Y33.1124
G01 X101.1770 Y33.1191
G01 X101.1515 Y33.1265
G01 X101.1262 Y33.1345
G01 X101.1012 Y33.1431
G01 X101.0763 Y33.1524
G01 X101.0517 Y33.1622
G01 X101.0273 Y33.1727
G01 X101.0032 Y33.1837
G01 X100.9794 Y33.1953
G01 X100.9559 Y33.2075
G01 X100.9327 Y33.2203
G01 X100.9098 Y33.2337
G01 X100.8872 Y33.2476
G01 X100.8650 Y33.2620
G01 X100.8431 Y33.2770
G01 X100.8216 Y33.2925
G01 X100.8005 Y33.3086
G01 X100.7799 Y33.3251
G01 X100.7596 Y33.3422
G01 X100.7397 Y33.3598
G01 X100.7203 Y33.3778
G01 X100.7013 Y33.3963
G01 X100.6828 Y33.4153
G01 X100.6648 Y33.4347
G01 X100.6472 Y33.4546
G01 X100.6301 Y33.4749
G01 X100.6136 Y33.4955
G01 X100.5975 Y33.5166
G01 X100.5820 Y33.5381
G01 X100.5670 Y33.5600
G01 X100.5526 Y33.5822
G01 X100.5387 Y33.6048
G01 X100.5253 Y33.6277
G01 X100.5125 Y33.6509
G01 X100.5003 Y33.6744
G01 X100.4887 Y33.6982
G01 X100.4777 Y33.7223
G01 X100.4672 Y33.7467
G01 X100.4574 Y33.7713
G01 X100.4481 Y33.7962
G01 X100.4395 Y33.8212
G01 X100.4315 Y33.8465
G01 X100.4241 Y33.8720
G01 X100.4174 Y33.8976
G01 X100.4112 Y33.9234
G01 X100.4058 Y33.9493
G01 X100.4009 Y33.9754
G01 X100.3967 Y34.0015
G01 X100.3931 Y34.0278
G01 X100.3902 Y34.0541
G01 X100.3879 Y34.0806
G01 X100.3863 Y34.1070
G01 X100.3853 Y34.1335
G01 X100.3850 Y34.1600
G01 X100.3853 Y34.1865
G01 X100.3863 Y34.2130
G01 X100.3879 Y34.2394
G01 X100.3902 Y34.2659
G01 X100.3931 Y34.2922
G01 X100.3967 Y34.3185
G01 X100.4009 Y34.3446
G01 X100.4058 Y34.3707
G01 X100.4112 Y34.3966
G01 X100.4174 Y34.4224
G01 X100.4241 Y34.4480
G01 X100.4315 Y34.4735
G01 X100.4395 Y34.4988
G01 X100.4481 Y34.5238
G01 X100.4574 Y34.5487
G01 X100.4672 Y34.5733
G01 X100.4777 Y34.5977
G01 X100.4887 Y34.6218
G01 X100.5003 Y34.6456
G01 X100.5125 Y34.6691
G01 X100.5253 Y34.6923
G01 X100.5387 Y34.7152
G01 X100.5526 Y34.7378
G01 X100.5670 Y34.7600
G01 X100.5820 Y34.7819
G01 X100.5975 Y34.8034
G01 X100.6136 Y34.8245
G01 X100.6301 Y34.8451
G01 X100.6472 Y34.8654
G01 X100.6648 Y34.8853
G01 X100.6828 Y34.9047
G01 X100.7013 Y34.9237
G01 X100.7203 Y34.9422
G01 X100.7397 Y34.9602
G01 X100.7596 Y34.9778
G01 X100.7799 Y34.9949
G01 X100.8005 Y35.0114
G01 X100.8216 Y35.0275
G01 X100.8431 Y35.0430
G01 X100.8650 Y35.0580
G01 X100.8872 Y35.0724
G01 X100.9098 Y35.0863
G01 X100.9327 Y35.0997
G01 X100.9559 Y35.1125
G01 X100.9794 Y35.1247
G01 X101.0032 Y35.1363
G01 X101.0273 Y35.1473
G01 X101.0517 Y35.1578
G01 X101.0763 Y35.1676
G01 X101.1012 Y35.1769
G01 X101.1262 Y35.1855
G01 X101.1515 Y35.1935
G01 X101.1770 Y35.2009
G01 X101.2026 Y35.2076
G01 X101.2284 Y35.2138
G01 X101.2543 Y35.2192
G01 X101.2804 Y35.2241
G01 X101.3065 Y35.2283
G01 X101.3328 Y35.2319
G01 X101.3591 Y35.2348
G01 X101.3856 Y35.2371
G01 X101.4120 Y35.2387
G01 X101.4385 Y35.2397
G01 X101.4650 Y35.2400
G01 X101.4915 Y35.2397
G01 X101.5180 Y35.2387
G01 X101.5444 Y35.2371
G01 X101.5709 Y35.2348
G01 X101.5972 Y35.2319
G01 X101.6235 Y35.2283
G01 X101.6496 Y35.2241
G01 X101.6757 Y35.2192
G01 X101.7016 Y35.2138
G01 X101.7274 Y35.2076
G01 X101.7530 Y35.2009
G01 X101.7785 Y35.1935
G01 X101.8038 Y35.1855
G01 X101.8288 Y35.1769
G01 X101.8537 Y35.1676
G01 X101.8783 Y35.1578
G01 X101.9027 Y35.1473
G01 X101.9268 Y35.1363
G01 X101.9506 Y35.1247
G01 X101.9741 Y35.1125
G01 X101.9973 Y35.0997
G01 X102.0202 Y35.0863
G01 X102.0428 Y35.0724
G01 X102.0650 Y35.0580
G01 X102.0869 Y35.0430
G01 X102.1084 Y35.0275
G01 X102.1295 Y35.0114
G01 X102.1501 Y34.9949
G01 X102.1704 Y34.9778
G01 X102.1903 Y34.9602
G01 X102.2097 Y34.9422
G01 X102.2287 Y34.9237
G01 X102.2472 Y34.9047
G01 X102.2652 Y34.8853
G01 X102.2828 Y34.8654
G01 X102.2999 Y34.8451
G01 X102.3164 Y34.8245
G01 X102.3325 Y34.8034
G01 X102.3480 Y34.7819
G01 X102.3630 Y34.7600
G01 X102.3774 Y34.7378
G01 X102.3913 Y34.7152
G01 X102.4047 Y34.6923
G01 X102.4175 Y34.6691
G01 X102.4297 Y34.6456
G01 X102.4413 Y34.6218
G01 X102.4523 Y34.5977
G01 X102.4628 Y34.5733
G01 X102.4726 Y34.5487
G01 X102.4819 Y34.5238
G01 X102.4905 Y34.4988
G01 X102.4985 Y34.4735
G01 X102.5059 Y34.4480
G01 X102.5126 Y34.4224
G01 X102.5188 Y34.3966
G01 X102.5242 Y34.3707
G01 X102.5291 Y34.3446
G01 X102.5333 Y34.3185
G01 X102.5369 Y34.2922
G01 X102.5398 Y34.2659
G01 X102.5421 Y34.2394
G01 X102.5437 Y34.2130
G01 X102.5447 Y34.1865
G01 X102.5450 Y34.1600
G01 X101.8250 Y34.1600
G01 X101.8246 Y34.1423
G01 X101.8233 Y34.1247
G01 X101.8211 Y34.1072
G01 X101.8181 Y34.0898
G01 X101.8142 Y34.0725
G01 X101.8095 Y34.0555
G01 X101.8009 Y34.0304
G01 X101.7941 Y34.0141
G01 X101.7866 Y33.9981
G01 X101.7782 Y33.9826
G01 X101.7691 Y33.9674
G01 X101.7593 Y33.9527
G01 X101.7488 Y33.9385
G01 X101.7317 Y33.9182
G01 X101.7196 Y33.9054
G01 X101.7068 Y33.8933
G01 X101.6934 Y33.8817
G01 X101.6795 Y33.8708
G01 X101.6650 Y33.8607
G01 X101.6501 Y33.8512
G01 X101.6347 Y33.8425
G01 X101.6189 Y33.8346
G01 X101.6028 Y33.8274
G01 X101.5779 Y33.8182
G01 X101.5610 Y33.8130
G01 X101.5439 Y33.8087
G01 X101.5265 Y33.8053
G01 X101.5091 Y33.8027
G01 X101.4915 Y33.8010
G01 X101.4738 Y33.8001
G01 X101.4562 Y33.8001
G01 X101.4385 Y33.8010
G01 X101.4122 Y33.8039
G01 X101.3948 Y33.8069
G01 X101.3775 Y33.8108
G01 X101.3605 Y33.8155
G01 X101.3437 Y33.8210
G01 X101.3191 Y33.8309
G01 X101.3031 Y33.8384
G01 X101.2876 Y33.8468
G01 X101.2650 Y33.8607
G01 X101.2435 Y33.8762
G01 X101.2299 Y33.8874
G01 X101.2168 Y33.8993
G01 X101.1983 Y33.9182
G01 X101.1867 Y33.9316
G01 X101.1758 Y33.9455
G01 X101.1609 Y33.9674
G01 X101.1518 Y33.9826
G01 X101.1434 Y33.9981
G01 X101.1359 Y34.0141
G01 X101.1291 Y34.0304
G01 X101.1205 Y34.0555
G01 X101.1158 Y34.0725
G01 X101.1119 Y34.0898
G01 X101.1077 Y34.1159
G01 X101.1060 Y34.1335
G01 X101.1051 Y34.1512
G01 X101.1054 Y34.1777
G01 X101.1077 Y34.2041
G01 X101.1103 Y34.2215
G01 X101.1137 Y34.2389
G01 X101.1205 Y34.2645
G01 X101.1260 Y34.2813
G01 X101.1324 Y34.2978
G01 X101.1396 Y34.3139
G01 X101.1475 Y34.3297
G01 X101.1609 Y34.3526
G01 X101.1758 Y34.3745
G01 X101.1867 Y34.3884
G01 X101.1983 Y34.4018
G01 X101.2104 Y34.4146
G01 X101.2232 Y34.4267
G01 X101.2435 Y34.4438
G01 X101.2650 Y34.4593
G01 X101.2799 Y34.4688
G01 X101.2953 Y34.4775
G01 X101.3111 Y34.4854
G01 X101.3272 Y34.4926
G01 X101.3521 Y34.5018
G01 X101.3775 Y34.5092
G01 X101.3948 Y34.5131
G01 X101.4122 Y34.5161
G01 X101.4385 Y34.5190
G01 X101.4650 Y34.5200
G01 X101.4827 Y34.5196
G01 X101.5003 Y34.5183
G01 X101.5178 Y34.5161
G01 X101.5352 Y34.5131
G01 X101.5525 Y34.5092
G01 X101.5779 Y34.5018
G01 X101.5946 Y34.4959
G01 X101.6189 Y34.4854
G01 X101.6347 Y34.4775
G01 X101.6576 Y34.4641
G01 X101.6723 Y34.4543
G01 X101.6865 Y34.4438
G01 X101.7001 Y34.4326
G01 X101.7132 Y34.4207
G01 X101.7317 Y34.4018
G01 X101.7433 Y34.3884
G01 X101.7593 Y34.3673
G01 X101.7691 Y34.3526
G01 X101.7825 Y34.3297
G01 X101.7904 Y34.3139
G01 X101.8009 Y34.2896
G01 X101.8095 Y34.2645
G01 X101.8142 Y34.2475
G01 X101.8181 Y34.2302
G01 X101.8223 Y34.2041
G01 X101.8246 Y34.1777
G01 X101.8250 Y34.1600
G01 X104.6250 Y34.8753
G01 X104.6079 Y34.9473
G01 X104.5876 Y35.0241
G01 X104.5655 Y35.1005
G01 X104.5415 Y35.1763
G01 X104.5156 Y35.2515
G01 X104.4879 Y35.3261
G01 X104.4584 Y35.3999
G01 X104.4270 Y35.4730
G01 X104.3939 Y35.5453
G01 X104.3590 Y35.6167
G01 X104.3224 Y35.6873
G01 X104.2841 Y35.7570
G01 X104.2440 Y35.8257
G01 X104.2023 Y35.8934
G01 X104.1590 Y35.9600
G01 X104.1140 Y36.0256
G01 X104.0674 Y36.0901
G01 X104.0192 Y36.1534
G01 X103.9696 Y36.2154
G01 X103.9184 Y36.2763
G01 X103.8657 Y36.3359
G01 X103.8116 Y36.3941
G01 X103.7560 Y36.4510
G01 X103.6991 Y36.5066
G01 X103.6409 Y36.5607
G01 X103.5813 Y36.6134
G01 X103.5204 Y36.6646
G01 X103.4584 Y36.7142
G01 X103.3951 Y36.7624
G01 X103.3306 Y36.8090
G01 X103.2650 Y36.8540
G01 X103.1984 Y36.8973
G01 X103.1307 Y36.9390
G01 X103.0620 Y36.9791
G01 X102.9923 Y37.0174
G01 X102.9217 Y37.0540
G01 X102.8503 Y37.0889
G01 X102.7780 Y37.1220
G01 X102.7049 Y37.1534
G01 X102.6311 Y37.1829
G01 X102.5565 Y37.2106
G01 X102.4813 Y37.2365
G01 X102.4055 Y37.2605
G01 X102.3291 Y37.2826
G01 X102.2523 Y37.3029
G01 X102.2014 Y37.3150
G01 X100.7286 Y37.3150
G01 X100.6777 Y37.3029
G01 X100.6009 Y37.2826
G01 X100.5245 Y37.2605
G01 X100.4487 Y37.2365
G01 X100.3735 Y37.2106
G01 X100.2989 Y37.1829
G01 X100.2251 Y37.1534
G01 X100.1520 Y37.1220
G01 X100.0797 Y37.0889
G01 X100.0083 Y37.0540
G01 X99.9377 Y37.0174
G01 X99.8680 Y36.9791
G01 X99.7993 Y36.9390
G01 X99.7316 Y36.8973
G01 X99.6650 Y36.8540
G01 X99.5994 Y36.8090
G01 X99.5349 Y36.7624
G01 X99.4716 Y36.7142
G01 X99.4096 Y36.6646
G01 X99.3487 Y36.6134
G01 X99.2891 Y36.5607
G01 X99.2309 Y36.5066
G01 X99.1740 Y36.4510
G01 X99.1184 Y36.3941
G01 X99.0643 Y36.3359
G01 X99.0116 Y36.2763
G01 X98.9604 Y36.2154
G01 X98.9108 Y36.1534
G01 X98.8626 Y36.0901
G01 X98.8160 Y36.0256
G01 X98.7710 Y35.9600
G01 X98.7277 Y35.8934
G01 X98.6860 Y35.8257
G01 X98.6459 Y35.7570
G01 X98.6076 Y35.6873
G01 X98.5710 Y35.6167
G01 X98.5361 Y35.5453
G01 X98.5030 Y35.4730
G01 X98.4716 Y35.3999
G01 X98.4421 Y35.3261
G01 X98.4144 Y35.2515
G01 X98.3885 Y35.1763
G01 X98.3645 Y35.1005
G01 X98.3424 Y35.0241
G01 X98.3221 Y34.9473
G01 X98.3050 Y34.8753
G01 X98.3050 Y36.5462
G01 X98.3431 Y36.5963
G01 X98.4039 Y36.6722
G01 X98.4665 Y36.7466
G01 X98.5308 Y36.8194
G01 X98.5970 Y36.8906
G01 X98.6649 Y36.9601
G01 X98.7344 Y37.0280
G01 X98.8056 Y37.0942
G01 X98.8784 Y37.1585
G01 X98.9528 Y37.2211
G01 X99.0287 Y37.2819
G01 X99.0722 Y37.3150
G01 X103.8578 Y37.3150
G01 X103.9013 Y37.2819
G01 X103.9772 Y37.2211
G01 X104.0516 Y37.1585
G01 X104.1244 Y37.0942
G01 X104.1956 Y37.0280
G01 X104.2651 Y36.9601
G01 X104.3330 Y36.8906
G01 X104.3992 Y36.8194
G01 X104.4635 Y36.7466
G01 X104.5261 Y36.6722
G01 X104.5869 Y36.5963
G01 X104.6250 Y36.5462
G01 X104.6250 Y31.7738
G01 X104.5869 Y31.7237
G01 X104.5261 Y31.6478
G01 X104.4635 Y31.5734
G01 X104.3992 Y31.5006
G01 X104.3330 Y31.4294
G01 X104.2651 Y31.3599
G01 X104.1956 Y31.2920
G01 X104.1244 Y31.2258
G01 X104.0516 Y31.1615
G01 X103.9772 Y31.0989
G01 X103.9013 Y31.0381
G01 X103.8578 Y31.0050
G01 X104.6250 Y31.0050
G01 X98.3050 Y31.0050
G01 X98.3050 Y37.3150
G01 X104.6250 Y37.3150
G01 X104.6250 Y31.0050
G00 X104.6250 Y31.0050
G01 F40.00
G01 Z-0.8000
G01 F80.00
G01 X104.6250 Y37.3150
G01 X98.3050 Y37.3150
G01 X98.3050 Y31.0050
G01 X104.6250 Y31.0050
G01 X103.8578 Y31.0050
G01 X103.9013 Y31.0381
G01 X103.9772 Y31.0989
G01 X104.0516 Y31.1615
G01 X104.1244 Y31.2258
G01 X104.1956 Y31.2920
G01 X104.2651 Y31.3599
G01 X104.3330 Y31.4294
G01 X104.3992 Y31.5006
G01 X104.4635 Y31.5734
G01 X104.5261 Y31.6478
G01 X104.5869 Y31.7237
G01 X104.6250 Y31.7738
G01 X104.6250 Y36.5462
G01 X104.5869 Y36.5963
G01 X104.5261 Y36.6722
G01 X104.4635 Y36.7466
G01 X104.3992 Y36.8194
G01 X104.3330 Y36.8906
G01 X104.2651 Y36.9601
G01 X104.1956 Y37.0280
G01 X104.1244 Y37.0942
G01 X104.0516 Y37.1585
G01 X103.9772 Y37.2211
G01 X103.9013 Y37.2819
G01 X103.8578 Y37.3150
G01 X99.0722 Y37.3150
G01 X99.0287 Y37.2819
G01 X98.9528 Y37.2211
G01 X98.8784 Y37.1585
G01 X98.8056 Y37.0942
G01 X98.7344 Y37.0280
G01 X98.6649 Y36.9601
G01 X98.5970 Y36.8906
G01 X98.5308 Y36.8194
G01 X98.4665 Y36.7466
G01 X98.4039 Y36.6722
G01 X98.3431 Y36.5963
G01 X98.3050 Y36.5462
G01 X98.3050 Y34.8753
G01 X98.3221 Y34.9473
G01 X98.3424 Y35.0241
G01 X98.3645 Y35.1005
G01 X98.3885 Y35.1763
G01 X98.4144 Y35.2515
G01 X98.4421 Y35.3261
G01 X98.4716 Y35.3999
G01 X98.5030 Y35.4730
G01 X98.5361 Y35.5453
G01 X98.5710 Y35.6167
G01 X98.6076 Y35.6873
G01 X98.6459 Y35.7570
G01 X98.6860 Y35.8257
G01 X98.7277 Y35.8934
G01 X98.7710 Y35.9600
G01 X98.8160 Y36.0256
G01 X98.8626 Y36.0901
G01 X98.9108 Y36.1534
G01 X98.9604 Y36.2154
G01 X99.0116 Y36.2763
G01 X99.0643 Y36.3359
G01 X99.1184 Y36.3941
G01 X99.1740 Y36.4510
G01 X99.2309 Y36.5066
G01 X99.2891 Y36.5607
G01 X99.3487 Y36.6134
G01 X99.4096 Y36.6646
G01 X99.4716 Y36.7142
G01 X99.5349 Y36.7624
G01 X99.5994 Y36.8090
G01 X99.6650 Y36.8540
G01 X99.7316 Y36.8973
G01 X99.7993 Y36.9390
G01 X99.8680 Y36.9791
G01 X99.9377 Y37.0174
G01 X100.0083 Y37.0540
G01 X100.0797 Y37.0889
G01 X100.1520 Y37.1220
G01 X100.2251 Y37.1534
G01 X100.2989 Y37.1829
G01 X100.3735 Y37.2106
G01 X100.4487 Y37.2365
G01 X100.5245 Y37.2605
G01 X100.6009 Y37.2826
G01 X100.6777 Y37.3029
G01 X100.7286 Y37.3150
G01 X102.2014 Y37.3150
G01 X102.2523 Y37.3029
G01 X102.3291 Y37.2826
G01 X102.4055 Y37.2605
G01 X102.4813 Y37.2365
G01 X102.5565 Y37.2106
G01 X102.6311 Y37.1829
G01 X102.7049 Y37.1534
G01 X102.7780 Y37.1220
G01 X102.8503 Y37.0889
G01 X102.9217 Y37.0540
G01 X102.9923 Y37.0174
G01 X103.0620 Y36.9791
G01 X103.1307 Y36.9390
G01 X103.1984 Y36.8973
G01 X103.2650 Y36.8540
G01 X103.3306 Y36.8090
G01 X103.3951 Y36.7624
G01 X103.4584 Y36.7142
G01 X103.5204 Y36.6646
G01 X103.5813 Y36.6134
G01 X103.6409 Y36.5607
G01 X103.6991 Y36.5066
G01 X103.7560 Y36.4510
G01 X103.8116 Y36.3941
G01 X103.8657 Y36.3359
G01 X103.9184 Y36.2763
G01 X103.9696 Y36.2154
G01 X104.0192 Y36.1534
G01 X104.0674 Y36.0901
G01 X104.1140 Y36.0256
G01 X104.1590 Y35.9600
G01 X104.2023 Y35.8934
G01 X104.2440 Y35.8257
G01 X104.2841 Y35.7570
G01 X104.3224 Y35.6873
G01 X104.3590 Y35.6167
G01 X104.3939 Y35.5453
G01 X104.4270 Y35.4730
G01 X104.4584 Y35.3999
G01 X104.4879 Y35.3261
G01 X104.5156 Y35.2515
G01 X104.5415 Y35.1763
G01 X104.5655 Y35.1005
G01 X104.5876 Y35.0241
G01 X104.6079 Y34.9473
G01 X104.6250 Y34.8753
G01 X101.8250 Y34.1600
G01 X101.8246 Y34.1777
G01 X101.8223 Y34.2041
G01 X101.8181 Y34.2302
G01 X101.8142 Y34.2475
G01 X101.8095 Y34.2645
G01 X101.8009 Y34.2896
G01 X101.7904 Y34.3139
G01 X101.7825 Y34.3297
G01 X101.7691 Y34.3526
G01 X101.7593 Y34.3673
G01 X101.7433 Y34.3884
G01 X101.7317 Y34.4018
G01 X101.7132 Y34.4207
G01 X101.7001 Y34.4326
G01 X101.6865 Y34.4438
G01 X101.6723 Y34.4543
G01 X101.6576 Y34.4641
G01 X101.6347 Y34.4775
G01 X101.6189 Y34.4854
G01 X101.5946 Y34.4959
G01 X101.5779 Y34.5018
G01 X101.5525 Y34.5092
G01 X101.5352 Y34.5131
G01 X101.5178 Y34.5161
G01 X101.5003 Y34.5183
G01 X101.4827 Y34.5196
G01 X101.4650 Y34.5200
G01 X101.4385 Y34.5190
G01 X101.4122 Y34.5161
G01 X101.3948 Y34.5131
G01 X101.3775 Y34.5092
G01 X101.3521 Y34.5018
G01 X101.3272 Y34.4926
G01 X101.3111 Y34.4854
G01 X101.2953 Y34.4775
G01 X101.2799 Y34.4688
G01 X101.2650 Y34.4593
G01 X101.2435 Y34.4438
G01 X101.2232 Y34.4267
G01 X101.2104 Y34.4146
G01 X101.1983 Y34.4018
G01 X101.1867 Y34.3884
G01 X101.1758 Y34.3745
G01 X101.1609 Y34.3526
G01 X101.1475 Y34.3297
G01 X101.1396 Y34.3139
G01 X101.1324 Y34.2978
G01 X101.1260 Y34.2813
G01 X101.1205 Y34.2645
G01 X101.1137 Y34.2389
G01 X101.1103 Y34.2215
G01 X101.1077 Y34.2041
G01 X101.1054 Y34.1777
G01 X101.1051 Y34.1512
G01 X101.1060 Y34.1335
G01 X101.1077 Y34.1159
G01 X101.1119 Y34.0898
G01 X101.1158 Y34.0725
G01 X101.1205 Y34.0555
G01 X101.1291 Y34.0304
G01 X101.1359 Y34.0141
G01 X101.1434 Y33.9981
G01 X101.1518 Y33.9826
G01 X101.1609 Y33.9674
G01 X101.1758 Y33.9455
G01 X101.1867 Y33.9316
G01 X101.1983 Y33.9182
G01 X101.2168 Y33.8993
G01 X101.2299 Y33.8874
G01 X101.2435 Y33.8762
G01 X101.2650 Y33.8607
G01 X101.2876 Y33.8468
G01 X101.3031 Y33.8384
G01 X101.3191 Y33.8309
G01 X101.3437 Y33.8210
G01 X101.3605 Y33.8155
G01 X101.3775 Y33.8108
G01 X101.3948 Y33.8069
G01 X101.4122 Y33.8039
G01 X101.4385 Y33.8010
G01 X101.4562 Y33.8001
G01 X101.4738 Y33.8001
G01 X101.4915 Y33.8010
G01 X101.5091 Y33.8027
G01 X101.5265 Y33.8053
G01 X101.5439 Y33.8087
G01 X101.5610 Y33.8130
G01 X101.5779 Y33.8182
G01 X101.6028 Y33.8274
G01 X101.6189 Y33.8346
G01 X101.6347 Y33.8425
G01 X101.6501 Y33.8512
G01 X101.6650 Y33.8607
G01 X101.6795 Y33.8708
G01 X101.6934 Y33.8817
G01 X101.7068 Y33.8933
G01 X101.7196 Y33.9054
G01 X101.7317 Y33.9182
G01 X101.7488 Y33.9385
G01 X101.7593 Y33.9527
G01 X101.7691 Y33.9674
G01 X101.7782 Y33.9826
G01 X101.7866 Y33.9981
G01 X101.7941 Y34.0141
G01 X101.8009 Y34.0304
G01 X101.8095 Y34.0555
G01 X101.8142 Y34.0725
G01 X101.8181 Y34.0898
G01 X101.8211 Y34.1072
G01 X101.8233 Y34.1247
G01 X101.8246 Y34.1423
G01 X101.8250 Y34.1600
G01 X102.5450 Y34.1600
G01 X102.5447 Y34.1865
G01 X102.5437 Y34.2130
G01 X102.5421 Y34.2394
G01 X102.5398 Y34.2659
G01 X102.5369 Y34.2922
G01 X102.5333 Y34.3185
G01 X102.5291 Y34.3446
G01 X102.5242 Y34.3707
G01 X102.5188 Y34.3966
G01 X102.5126 Y34.4224
G01 X102.5059 Y34.4480
G01 X102.4985 Y34.4735
G01 X102.4905 Y34.4988
G01 X102.4819 Y34.5238
G01 X102.4726 Y34.5487
G01 X102.4628 Y34.5733
G01 X102.4523 Y34.5977
G01 X102.4413 Y34.6218
G01 X102.4297 Y34.6456
G01 X102.4175 Y34.6691
G01 X102.4047 Y34.6923
G01 X102.3913 Y34.7152
G01 X102.3774 Y34.7378
G01 X102.3630 Y34.7600
G01 X102.3480 Y34.7819
G01 X102.3325 Y34.8034
G01 X102.3164 Y34.8245
G01 X102.2999 Y34.8451
G01 X102.2828 Y34.8654
G01 X102.2652 Y34.8853
G01 X102.2472 Y34.9047
G01 X102.2287 Y34.9237
G01 X102.2097 Y34.9422
G01 X102.1903 Y34.9602
G01 X102.1704 Y34.9778
G01 X102.1501 Y34.9949
G01 X102.1295 Y35.0114
G01 X102.1084 Y35.0275
G01 X102.0869 Y35.0430
G01 X102.0650 Y35.0580
G01 X102.0428 Y35.0724
G01 X102.0202 Y35.0863
G01 X101.9973 Y35.0997
G01 X101.9741 Y35.1125
G01 X101.9506 Y35.1247
G01 X101.9268 Y35.1363
G01 X101.9027 Y35.1473
G01 X101.8783 Y35.1578
G01 X101.8537 Y35.1676
G01 X101.8288 Y35.1769
G01 X101.8038 Y35.1855
G01 X101.7785 Y35.1935
G01 X101.7530 Y35.2009
G01 X101.7274 Y35.2076
G01 X101.7016 Y35.2138
G01 X101.6757 Y35.2192
G01 X101.6496 Y35.2241
G01 X101.6235 Y35.2283
G01 X101.5972 Y35.2319
G01 X101.5709 Y35.2348
G01 X101.5444 Y35.2371
G01 X101.5180 Y35.2387
G01 X101.4915 Y35.2397
G01 X101.4650 Y35.2400
G01 X101.4385 Y35.2397
G01 X101.4120 Y35.2387
G01 X101.3856 Y35.2371
G01 X101.3591 Y35.2348
G01 X101.3328 Y35.2319
G01 X101.3065 Y35.2283
G01 X101.2804 Y35.2241
G01 X101.2543 Y35.2192
G01 X101.2284 Y35.2138
G01 X101.2026 Y35.2076
G01 X101.1770 Y35.2009
G01 X101.1515 Y35.1935
G01 X101.1262 Y35.1855
G01 X101.1012 Y35.1769
G01 X101.0763 Y35.1676
G01 X101.0517 Y35.1578
G01 X101.0273 Y35.1473
G01 X101.0032 Y35.1363
G01 X100.9794 Y35.1247
G01 X100.9559 Y35.1125
G01 X100.9327 Y35.0997
G01 X100.9098 Y35.0863
G01 X100.8872 Y35.0724
G01 X100.8650 Y35.0580
G01 X100.8431 Y35.0430
G01 X100.8216 Y35.0275
G01 X100.8005 Y35.0114
G01 X100.7799 Y34.9949
G01 X100.7596 Y34.9778
G01 X100.7397 Y34.9602
G01 X100.7203 Y34.9422
G01 X100.7013 Y34.9237
G01 X100.6828 Y34.9047
G01 X100.6648 Y34.8853
G01 X100.6472 Y34.8654
G01 X100.6301 Y34.8451
G01 X100.6136 Y34.8245
G01 X100.5975 Y34.8034
G01 X100.5820 Y34.7819
G01 X100.5670 Y34.7600
G01 X100.5526 Y34.7378
G01 X100.5387 Y34.7152
G01 X100.5253 Y34.6923
G01 X100.5125 Y34.6691
G01 X100.5003 Y34.6456
G01 X100.4887 Y34.6218
G01 X100.4777 Y34.5977
G01 X100.4672 Y34.5733
G01 X100.4574 Y34.5487
G01 X100.4481 Y34.5238
G01 X100.4395 Y34.4988
G01 X100.4315 Y34.4735
G01 X100.4241 Y34.4480
G01 X100.4174 Y34.4224
G01 X100.4112 Y34.3966
G01 X100.4058 Y34.3707
G01 X100.4009 Y34.3446
G01 X100.3967 Y34.3185
G01 X100.3931 Y34.2922
G01 X100.3902 Y34.2659
G01 X100.3879 Y34.2394
G01 X100.3863 Y34.2130
G01 X100.3853 Y34.1865
G01 X100.3850 Y34.1600
G01 X100.3853 Y34.1335
G01 X100.3863 Y34.1070
G01 X100.3879 Y34.0806
G01 X100.3902 Y34.0541
G01 X100.3931 Y34.0278
G01 X100.3967 Y34.0015
G01 X100.4009 Y33.9754
G01 X100.4058 Y33.9493
G01 X100.4112 Y33.9234
G01 X100.4174 Y33.8976
G01 X100.4241 Y33.8720
G01 X100.4315 Y33.8465
G01 X100.4395 Y33.8212
G01 X100.4481 Y33.7962
G01 X100.4574 Y33.7713
G01 X100.4672 Y33.7467
G01 X100.4777 Y33.7223
G01 X100.4887 Y33.6982
G01 X100.5003 Y33.6744
G01 X100.5125 Y33.6509
G01 X100.5253 Y33.6277
G01 X100.5387 Y33.6048
G01 X100.5526 Y33.5822
G01 X100.5670 Y33.5600
G01 X100.5820 Y33.5381
G01 X100.5975 Y33.5166
G01 X100.6136 Y33.4955
G01 X100.6301 Y33.4749
G01 X100.6472 Y33.4546
G01 X100.6648 Y33.4347
G01 X100.6828 Y33.4153
G01 X100.7013 Y33.3963
G01 X100.7203 Y33.3778
G01 X100.7397 Y33.3598
G01 X100.7596 Y33.3422
G01 X100.7799 Y33.3251
G01 X100.8005 Y33.3086
G01 X100.8216 Y33.2925
G01 X100.8431 Y33.2770
G01 X100.8650 Y33.2620
G01 X100.8872 Y33.2476
G01 X100.9098 Y33.2337
G01 X100.9327 Y33.2203
G01 X100.9559 Y33.2075
G01 X100.9794 Y33.1953
G01 X101.0032 Y33.1837
G01 X101.0273 Y33.1727
G01 X101.0517 Y33.1622
G01 X101.0763 Y33.1524
G01 X101.1012 Y33.1431
G01 X101.1262 Y33.1345
G01 X101.1515 Y33.1265
G01 X101.1770 Y33.1191
G01 X101.2026 Y33.1124
G01 X101.2284 Y33.1062
G01 X101.2543 Y33.1008
G01 X101.2804 Y33.0959
G01 X101.3065 Y33.0917
G01 X101.3328 Y33.0881
G01 X101.3591 Y33.0852
G01 X101.3856 Y33.0829
G01 X101.4120 Y33.0813
G01 X101.4385 Y33.0803
G01 X101.4650 Y33.0800
G01 X101.4915 Y33.0803
G01 X101.5180 Y33.0813
G01 X101.5444 Y33.0829
G01 X101.5709 Y33.0852
G01 X101.5972 Y33.0881
G01 X101.6235 Y33.0917
G01 X101.6496 Y33.0959
G01 X101.6757 Y33.1008
G01 X101.7016 Y33.1062
G01 X101.7274 Y33.1124
G01 X101.7530 Y33.1191
G01 X101.7785 Y33.1265
G01 X101.8038 Y33.1345
G01 X101.8288 Y33.1431
G01 X101.8537 Y33.1524
G01 X101.8783 Y33.1622
G01 X101.9027 Y33.1727
G01 X101.9268 Y33.1837
G01 X101.9506 Y33.1953
G01 X101.9741 Y33.2075
G01 X101.9973 Y33.2203
G01 X102.0202 Y33.2337
G01 X102.0428 Y33.2476
G01 X102.0650 Y33.2620
G01 X102.0869 Y33.2770
G01 X102.1084 Y33.2925
G01 X102.1295 Y33.3086
G01 X102.1501 Y33.3251
G01 X102.1704 Y33.3422
G01 X102.1903 Y33.3598
G01 X102.2097 Y33.3778
G01 X102.2287 Y33.3963
G01 X102.2472 Y33.4153
G01 X102.2652 Y33.4347
G01 X102.2828 Y33.4546
G01 X102.2999 Y33.4749
G01 X102.3164 Y33.4955
G01 X102.3325 Y33.5166
G01 X102.3480 Y33.5381
G01 X102.3630 Y33.5600
G01 X102.3774 Y33.5822
G01 X102.3913 Y33.6048
G01 X102.4047 Y33.6277
G01 X102.4175 Y33.6509
G01 X102.4297 Y33.6744
G01 X102.4413 Y33.6982
G01 X102.4523 Y33.7223
G01 X102.4628 Y33.7467
G01 X102.4726 Y33.7713
G01 X102.4819 Y33.7962
G01 X102.4905 Y33.8212
G01 X102.4985 Y33.8465
G01 X102.5059 Y33.8720
G01 X102.5126 Y33.8976
G01 X102.5188 Y33.9234
G01 X102.5242 Y33.9493
G01 X102.5291 Y33.9754
G01 X102.5333 Y34.0015
G01 X102.5369 Y34.0278
G01 X102.5398 Y34.0541
G01 X102.5421 Y34.0806
G01 X102.5437 Y34.1070
G01 X102.5447 Y34.1335
G01 X102.5450 Y34.1600
G01 X103.2650 Y34.1600
G01 X103.2645 Y34.2042
G01 X103.2628 Y34.2483
G01 X103.2601 Y34.2924
G01 X103.2563 Y34.3364
G01 X103.2515 Y34.3803
G01 X103.2455 Y34.4241
G01 X103.2385 Y34.4677
G01 X103.2304 Y34.5112
G01 X103.2213 Y34.5544
G01 X103.2111 Y34.5974
G01 X103.1998 Y34.6401
G01 X103.1875 Y34.6825
G01 X103.1742 Y34.7246
G01 X103.1598 Y34.7664
G01 X103.1444 Y34.8078
G01 X103.1280 Y34.8488
G01 X103.1106 Y34.8894
G01 X103.0922 Y34.9296
G01 X103.0728 Y34.9693
G01 X103.0525 Y35.0085
G01 X103.0312 Y35.0472
G01 X103.0089 Y35.0854
G01 X102.9857 Y35.1230
G01 X102.9616 Y35.1600
G01 X102.9367 Y35.1965
G01 X102.9108 Y35.2323
G01 X102.8840 Y35.2674
G01 X102.8564 Y35.3019
G01 X102.8280 Y35.3357
G01 X102.7987 Y35.3688
G01 X102.7686 Y35.4012
G01 X102.7378 Y35.4328
G01 X102.7062 Y35.4636
G01 X102.6738 Y35.4937
G01 X102.6407 Y35.5230
G01 X102.6069 Y35.5514
G01 X102.5724 Y35.5790
G01 X102.5373 Y35.6058
G01 X102.5015 Y35.6317
G01 X102.4650 Y35.6566
G01 X102.4280 Y35.6807
G01 X102.3904 Y35.7039
G01 X102.3522 Y35.7262
G01 X102.3135 Y35.7475
G01 X102.2743 Y35.7678
G01 X102.2346 Y35.7872
G01 X102.1944 Y35.8056
G01 X102.1538 Y35.8230
G01 X102.1128 Y35.8394
G01 X102.0714 Y35.8548
G01 X102.0296 Y35.8692
G01 X101.9875 Y35.8825
G01 X101.9451 Y35.8948
G01 X101.9024 Y35.9061
G01 X101.8594 Y35.9163
G01 X101.8162 Y35.9254
G01 X101.7727 Y35.9335
G01 X101.7291 Y35.9405
G01 X101.6853 Y35.9465
G01 X101.6414 Y35.9513
G01 X101.5974 Y35.9551
G01 X101.5533 Y35.9578
G01 X101.5092 Y35.9595
G01 X101.4650 Y35.9600
G01 X101.4208 Y35.9595
G01 X101.3767 Y35.9578
G01 X101.3326 Y35.9551
G01 X101.2886 Y35.9513
G01 X101.2447 Y35.9465
G01 X101.2009 Y35.9405
G01 X101.1573 Y35.9335
G01 X101.1138 Y35.9254
G01 X101.0706 Y35.9163
G01 X101.0276 Y35.9061
G01 X100.9849 Y35.8948
G01 X100.9425 Y35.8825
G01 X100.9004 Y35.8692
G01 X100.8586 Y35.8548
G01 X100.8172 Y35.8394
G01 X100.7762 Y35.8230
G01 X100.7356 Y35.8056
G01 X100.6954 Y35.7872
G01 X100.6557 Y35.7678
G01 X100.6165 Y35.7475
G01 X100.5778 Y35.7262
G01 X100.5396 Y35.7039
G01 X100.5020 Y35.6807
G01 X100.4650 Y35.6566
G01 X100.4285 Y35.6317
G01 X100.3927 Y35.6058
G01 X100.3576 Y35.5790
G01 X100.3231 Y35.5514
G01 X100.2893 Y35.5230
G01 X100.2562 Y35.4937
G01 X100.2238 Y35.4636
G01 X100.1922 Y35.4328
G01 X100.1614 Y35.4012
G01 X100.1313 Y35.3688
G01 X100.1020 Y35.3357
G01 X100.0736 Y35.3019
G01 X100.0460 Y35.2674
G01 X100.0192 Y35.2323
G01 X99.9933 Y35.1965
G01 X99.9684 Y35.1600
G01 X99.9443 Y35.1230
G01 X99.9211 Y35.0854
G01 X99.8988 Y35.0472
G01 X99.8775 Y35.0085
G01 X99.8572 Y34.9693
G01 X99.8378 Y34.9296
G01 X99.8194 Y34.8894
G01 X99.8020 Y34.8488
G01 X99.7856 Y34.8078
G01 X99.7702 Y34.7664
G01 X99.7558 Y34.7246
G01 X99.7425 Y34.6825
G01 X99.7302 Y34.6401
G01 X99.7189 Y34.5974
G01 X99.7087 Y34.5544
G01 X99.6996 Y34.5112
G01 X99.6915 Y34.4677
G01 X99.6845 Y34.4241
G01 X99.6785 Y34.3803
G01 X99.6737 Y34.3364
G01 X99.6699 Y34.2924
G01 X99.6672 Y34.2483
G01 X99.6655 Y34.2042
G01 X99.6650 Y34.1600
G01 X99.6655 Y34.1158
G01 X99.6672 Y34.0717
G01 X99.6699 Y34.0276
G01 X99.6737 Y33.9836
G01 X99.6785 Y33.9397
G01 X99.6845 Y33.8959
G01 X99.6915 Y33.8523
G01 X99.6996 Y33.8088
G01 X99.7087 Y33.7656
G01 X99.7189 Y33.7226
G01 X99.7302 Y33.6799
G01 X99.7425 Y33.6375
G01 X99.7558 Y33.5954
G01 X99.7702 Y33.5536
G01 X99.7856 Y33.5122
G01 X99.8020 Y33.4712
G01 X99.8194 Y33.4306
G01 X99.8378 Y33.3904
G01 X99.8572 Y33.3507
G01 X99.8775 Y33.3115
G01 X99.8988 Y33.2728
G01 X99.9211 Y33.2346
G01 X99.9443 Y33.1970
G01 X99.9684 Y33.1600
G01 X99.9933 Y33.1235
G01 X100.0192 Y33.0877
G01 X100.0460 Y33.0526
G01 X100.0736 Y33.0181
G01 X100.1020 Y32.9843
G01 X100.1313 Y32.9512
G01 X100.1614 Y32.9188
G01 X100.1922 Y32.8872
G01 X100.2238 Y32.8564
G01 X100.2562 Y32.8263
G01 X100.2893 Y32.7970
G01 X100.3231 Y32.7686
G01 X100.3576 Y32.7410
G01 X100.3927 Y32.7142
G01 X100.4285 Y32.6883
G01 X100.4650 Y32.6634
G01 X100.5020 Y32.6393
G01 X100.5396 Y32.6161
G01 X100.5778 Y32.5938
G01 X100.6165 Y32.5725
G01 X100.6557 Y32.5522
G01 X100.6954 Y32.5328
G01 X100.7356 Y32.5144
G01 X100.7762 Y32.4970
G01 X100.8172 Y32.4806
G01 X100.8586 Y32.4652
G01 X100.9004 Y32.4508
G01 X100.9425 Y32.4375
G01 X100.9849 Y32.4252
G01 X101.0276 Y32.4139
G01 X101.0706 Y32.4037
G01 X101.1138 Y32.3946
G01 X101.1573 Y32.3865
G01 X101.2009 Y32.3795
G01 X101.2447 Y32.3735
G01 X101.2886 Y32.3687
G01 X101.3326 Y32.3649
G01 X101.3767 Y32.3622
G01 X101.4208 Y32.3605
G01 X101.4650 Y32.3600
G01 X101.5092 Y32.3605
G01 X101.5533 Y32.3622
G01 X101.5974 Y32.3649
G01 X101.6414 Y32.3687
G01 X101.6853 Y32.3735
G01 X101.7291 Y32.3795
G01 X101.7727 Y32.3865
G01 X101.8162 Y32.3946
G01 X101.8594 Y32.4037
G01 X101.9024 Y32.4139
G01 X101.9451 Y32.4252
G01 X101.9875 Y32.4375
G01 X102.0296 Y32.4508
G01 X102.0714 Y32.4652
G01 X102.1128 Y32.4806
G01 X102.1538 Y32.4970
G01 X102.1944 Y32.5144
G01 X102.2346 Y32.5328
G01 X102.2743 Y32.5522
G01 X102.3135 Y32.5725
G01 X102.3522 Y32.5938
G01 X102.3904 Y32.6161
G01 X102.4280 Y32.6393
G01 X102.4650 Y32.6634
G01 X102.5015 Y32.6883
G01 X102.5373 Y32.7142
G01 X102.5724 Y32.7410
G01 X102.6069 Y32.7686
G01 X102.6407 Y32.7970
G01 X102.6738 Y32.8263
G01 X102.7062 Y32.8564
G01 X102.7378 Y32.8872
G01 X102.7686 Y32.9188
G01 X102.7987 Y32.9512
G01 X102.8280 Y32.9843
G01 X102.8564 Y33.0181
G01 X102.8840 Y33.0526
G01 X102.9108 Y33.0877
G01 X102.9367 Y33.1235
G01 X102.9616 Y33.1600
G01 X102.9857 Y33.1970
G01 X103.0089 Y33.2346
G01 X103.0312 Y33.2728
G01 X103.0525 Y33.3115
G01 X103.0728 Y33.3507
G01 X103.0922 Y33.3904
G01 X103.1106 Y33.4306
G01 X103.1280 Y33.4712
G01 X103.1444 Y33.5122
G01 X103.1598 Y33.5536
G01 X103.1742 Y33.5954
G01 X103.1875 Y33.6375
G01 X103.1998 Y33.6799
G01 X103.2111 Y33.7226
G01 X103.2213 Y33.7656
G01 X103.2304 Y33.8088
G01 X103.2385 Y33.8523
G01 X103.2455 Y33.8959
G01 X103.2515 Y33.9397
G01 X103.2563 Y33.9836
G01 X103.2601 Y34.0276
G01 X103.2628 Y34.0717
G01 X103.2645 Y34.1158
G01 X103.2650 Y34.1600
G01 X103.9850 Y34.1600
G01 X103.9842 Y34.2218
G01 X103.9820 Y34.2837
G01 X103.9782 Y34.3454
G01 X103.9729 Y34.4070
G01 X103.9660 Y34.4685
G01 X103.9577 Y34.5298
G01 X103.9479 Y34.5908
G01 X103.9366 Y34.6516
G01 X103.9238 Y34.7121
G01 X103.9095 Y34.7723
G01 X103.8937 Y34.8321
G01 X103.8765 Y34.8915
G01 X103.8578 Y34.9505
G01 X103.8377 Y35.0090
G01 X103.8161 Y35.0669
G01 X103.7932 Y35.1244
G01 X103.7688 Y35.1812
G01 X103.7431 Y35.2374
G01 X103.7159 Y35.2930
G01 X103.6874 Y35.3479
G01 X103.6576 Y35.4021
G01 X103.6265 Y35.4555
G01 X103.5940 Y35.5082
G01 X103.5603 Y35.5600
G01 X103.5253 Y35.6110
G01 X103.4891 Y35.6612
G01 X103.4516 Y35.7104
G01 X103.4130 Y35.7587
G01 X103.3732 Y35.8060
G01 X103.3322 Y35.8523
G01 X103.2901 Y35.8976
G01 X103.2469 Y35.9419
G01 X103.2026 Y35.9851
G01 X103.1573 Y36.0272
G01 X103.1110 Y36.0682
G01 X103.0637 Y36.1080
G01 X103.0154 Y36.1466
G01 X102.9662 Y36.1841
G01 X102.9160 Y36.2203
G01 X102.8650 Y36.2553
G01 X102.8132 Y36.2890
G01 X102.7605 Y36.3215
G01 X102.7071 Y36.3526
G01 X102.6529 Y36.3824
G01 X102.5980 Y36.4109
G01 X102.5424 Y36.4381
G01 X102.4862 Y36.4638
G01 X102.4294 Y36.4882
G01 X102.3719 Y36.5111
G01 X102.3140 Y36.5327
G01 X102.2555 Y36.5528
G01 X102.1965 Y36.5715
G01 X102.1371 Y36.5887
G01 X102.0773 Y36.6045
G01 X102.0171 Y36.6188
G01 X101.9566 Y36.6316
G01 X101.8958 Y36.6429
G01 X101.8348 Y36.6527
G01 X101.7735 Y36.6610
G01 X101.7120 Y36.6679
G01 X101.6504 Y36.6732
G01 X101.5887 Y36.6770
G01 X101.5268 Y36.6792
G01 X101.4650 Y36.6800
G01 X101.4032 Y36.6792
G01 X101.3413 Y36.6770
G01 X101.2796 Y36.6732
G01 X101.2180 Y36.6679
G01 X101.1565 Y36.6610
G01 X101.0952 Y36.6527
G01 X101.0342 Y36.6429
G01 X100.9734 Y36.6316
G01 X100.9129 Y36.6188
G01 X100.8527 Y36.6045
G01 X100.7929 Y36.5887
G01 X100.7335 Y36.5715
G01 X100.6745 Y36.5528
G01 X100.6160 Y36.5327
G01 X100.5581 Y36.5111
G01 X100.5006 Y36.4882
G01 X100.4438 Y36.4638
G01 X100.3876 Y36.4381
G01 X100.3320 Y36.4109
G01 X100.2771 Y36.3824
G01 X100.2229 Y36.3526
G01 X100.1695 Y36.3215
G01 X100.1168 Y36.2890
G01 X100.0650 Y36.2553
G01 X100.0140 Y36.2203
G01 X99.9638 Y36.1841
G01 X99.9146 Y36.1466
G01 X99.8663 Y36.1080
G01 X99.8190 Y36.0682
G01 X99.7727 Y36.0272
G01 X99.7274 Y35.9851
G01 X99.6831 Y35.9419
G01 X99.6399 Y35.8976
G01 X99.5978 Y35.8523
G01 X99.5568 Y35.8060
G01 X99.5170 Y35.7587
G01 X99.4784 Y35.7104
G01 X99.4409 Y35.6612
G01 X99.4047 Y35.6110
G01 X99.3697 Y35.5600
G01 X99.3360 Y35.5082
G01 X99.3035 Y35.4555
G01 X99.2724 Y35.4021
G01 X99.2426 Y35.3479
G01 X99.2141 Y35.2930
G01 X99.1869 Y35.2374
G01 X99.1612 Y35.1812
G01 X99.1368 Y35.1244
G01 X99.1139 Y35.0669
G01 X99.0923 Y35.0090
G01 X99.0722 Y34.9505
G01 X99.0535 Y34.8915
G01 X99.0363 Y34.8321
G01 X99.0205 Y34.7723
G01 X99.0062 Y34.7121
G01 X98.9934 Y34.6516
G01 X98.9821 Y34.5908
G01 X98.9723 Y34.5298
G01 X98.9640 Y34.4685
G01 X98.9571 Y34.4070
G01 X98.9518 Y34.3454
G01 X98.9480 Y34.2837
G01 X98.9458 Y34.2218
G01 X98.9450 Y34.1600
G01 X98.9458 Y34.0982
G01 X98.9480 Y34.0363
G01 X98.9518 Y33.9746
G01 X98.9571 Y33.9130
G01 X98.9640 Y33.8515
G01 X98.9723 Y33.7902
G01 X98.9821 Y33.7292
G01 X98.9934 Y33.6684
G01 X99.0062 Y33.6079
G01 X99.0205 Y33.5477
G01 X99.0363 Y33.4879
G01 X99.0535 Y33.4285
G01 X99.0722 Y33.3695
G01 X99.0923 Y33.3110
G01 X99.1139 Y33.2531
G01 X99.1368 Y33.1956
G01 X99.1612 Y33.1388
G01 X99.1869 Y33.0826
G01 X99.2141 Y33.0270
G01 X99.2426 Y32.9721
G01 X99.2724 Y32.9179
G01 X99.3035 Y32.8645
G01 X99.3360 Y32.8118
G01 X99.3697 Y32.7600
G01 X99.4047 Y32.7090
G01 X99.4409 Y32.6588
G01 X99.4784 Y32.6096
G01 X99.5170 Y32.5613
G01 X99.5568 Y32.5140
G01 X99.5978 Y32.4677
G01 X99.6399 Y32.4224
G01 X99.6831 Y32.3781
G01 X99.7274 Y32.3349
G01 X99.7727 Y32.2928
G01 X99.8190 Y32.2518
G01 X99.8663 Y32.2120
G01 X99.9146 Y32.1734
G01 X99.9638 Y32.1359
G01 X100.0140 Y32.0997
G01 X100.0650 Y32.0647
G01 X100.1168 Y32.0310
G01 X100.1695 Y31.9985
G01 X100.2229 Y31.9674
G01 X100.2771 Y31.9376
G01 X100.3320 Y31.9091
G01 X100.3876 Y31.8819
G01 X100.4438 Y31.8562
G01 X100.5006 Y31.8318
G01 X100.5581 Y31.8089
G01 X100.6160 Y31.7873
G01 X100.6745 Y31.7672
G01 X100.7335 Y31.7485
G01 X100.7929 Y31.7313
G01 X100.8527 Y31.7155
G01 X100.9129 Y31.7012
G01 X100.9734 Y31.6884
G01 X101.0342 Y31.6771
G01 X101.0952 Y31.6673
