(G-CODE GENERATED BY FLATCAM v8.994 - www.flatcam.org - Version Date: 2020/11/7)

(Name: Sensorbox-PTH_1_2.drl_mill_cnc)
(Type: G-code from Geometry)
(Units: MM)

(Created on Thursday, 25 January 2024 at 17:32)

(This preprocessor is the default preprocessor used by FlatCAM.)
(It is made to work with MACH3 compatible motion controllers.)

(TOOL DIAMETER: 1.2 mm)
(Feedrate_XY: 120.0 mm/min)
(Feedrate_Z: 60.0 mm/min)
(Feedrate rapids 1500.0 mm/min)

(Z_Cut: -2.4 mm)
(Z_Move: 2.0 mm)
(Z Start: None mm)
(Z End: 15.0 mm)
(X,Y End: None mm)
(Steps per circle: 64)
(Preprocessor Geometry: default)

(X range:   12.0170 ...  106.5000  mm)
(Y range:   20.5800 ...   67.9050  mm)

(Spindle Speed: 10000.0 RPM)
G21
G90
G94

G01 F120.00

M5
G00 Z15.0000
G00 X0.0000 Y0.0000
T1
M6    
(MSG, Change to Tool Dia = 1.2000)
M0
G00 Z15.0000

M03 S10000.0
G01 F120.00
G00 X12.0170 Y47.0110
G01 F60.00
G01 Z-2.4000
G01 F120.00
G01 X12.0170 Y47.0110
G01 X12.0170 Y47.0110
G01 X12.0170 Y47.0110
G01 X12.0170 Y47.0110
G00 Z2.0000
G00 X14.6070 Y47.0110
G01 F60.00
G01 Z-2.4000
G01 F120.00
G01 X14.6070 Y47.0110
G01 X14.6070 Y47.0110
G01 X14.6070 Y47.0110
G01 X14.6070 Y47.0110
G00 Z2.0000
G00 X17.2070 Y47.0310
G01 F60.00
G01 Z-2.4000
G01 F120.00
G01 X17.2070 Y47.0310
G01 X17.2070 Y47.0310
G01 X17.2070 Y47.0310
G01 X17.2070 Y47.0310
G00 Z2.0000
G00 X18.2310 Y54.4630
G01 F60.00
G01 Z-2.4000
G01 F120.00
G01 X18.2310 Y54.4630
G01 X18.2310 Y54.4630
G01 X18.2310 Y54.4630
G01 X18.2310 Y54.4630
G00 Z2.0000
G00 X13.5810 Y54.5220
G01 F60.00
G01 Z-2.4000
G01 F120.00
G01 X13.5810 Y54.5220
G01 X13.5810 Y54.5220
G01 X13.5810 Y54.5220
G01 X13.5810 Y54.5220
G00 Z2.0000
G00 X13.4350 Y67.9050
G01 F60.00
G01 Z-2.4000
G01 F120.00
G01 X13.4350 Y67.9050
G01 X13.4350 Y67.9050
G01 X13.4350 Y67.9050
G01 X13.4350 Y67.9050
G00 Z2.0000
G00 X18.0850 Y67.8470
G01 F60.00
G01 Z-2.4000
G01 F120.00
G01 X18.0850 Y67.8470
G01 X18.0850 Y67.8470
G01 X18.0850 Y67.8470
G01 X18.0850 Y67.8470
G00 Z2.0000
G00 X53.7580 Y53.7500
G01 F60.00
G01 Z-2.4000
G01 F120.00
G01 X53.7580 Y53.7500
G01 X53.7580 Y53.7500
G01 X53.7580 Y53.7500
G01 X53.7580 Y53.7500
G00 Z2.0000
G00 X53.7000 Y49.1000
G01 F60.00
G01 Z-2.4000
G01 F120.00
G01 X53.7000 Y49.1000
G01 X53.7000 Y49.1000
G01 X53.7000 Y49.1000
G01 X53.7000 Y49.1000
G00 Z2.0000
G00 X67.0830 Y49.2460
G01 F60.00
G01 Z-2.4000
G01 F120.00
G01 X67.0830 Y49.2460
G01 X67.0830 Y49.2460
G01 X67.0830 Y49.2460
G01 X67.0830 Y49.2460
G00 Z2.0000
G00 X67.1420 Y53.8960
G01 F60.00
G01 Z-2.4000
G01 F120.00
G01 X67.1420 Y53.8960
G01 X67.1420 Y53.8960
G01 X67.1420 Y53.8960
G01 X67.1420 Y53.8960
G00 Z2.0000
G00 X91.8100 Y40.4200
G01 F60.00
G01 Z-2.4000
G01 F120.00
G01 X91.8100 Y40.4200
G01 X91.8100 Y40.4200
G01 X91.8100 Y40.4200
G01 X91.8100 Y40.4200
G00 Z2.0000
G00 X94.4000 Y40.4200
G01 F60.00
G01 Z-2.4000
G01 F120.00
G01 X94.4000 Y40.4200
G01 X94.4000 Y40.4200
G01 X94.4000 Y40.4200
G01 X94.4000 Y40.4200
G00 Z2.0000
G00 X97.0000 Y40.4000
G01 F60.00
G01 Z-2.4000
G01 F120.00
G01 X97.0000 Y40.4000
G01 X97.0000 Y40.4000
G01 X97.0000 Y40.4000
G01 X97.0000 Y40.4000
G00 Z2.0000
G00 X99.5800 Y40.4000
G01 F60.00
G01 Z-2.4000
G01 F120.00
G01 X99.5800 Y40.4000
G01 X99.5800 Y40.4000
G01 X99.5800 Y40.4000
G01 X99.5800 Y40.4000
G00 Z2.0000
G00 X98.7300 Y57.1000
G01 F60.00
G01 Z-2.4000
G01 F120.00
G01 X98.7300 Y57.1000
G01 X98.7300 Y57.1000
G01 X98.7300 Y57.1000
G01 X98.7300 Y57.1000
G00 Z2.0000
G00 X101.3200 Y57.1000
G01 F60.00
G01 Z-2.4000
G01 F120.00
G01 X101.3200 Y57.1000
G01 X101.3200 Y57.1000
G01 X101.3200 Y57.1000
G01 X101.3200 Y57.1000
G00 Z2.0000
G00 X103.9200 Y57.1200
G01 F60.00
G01 Z-2.4000
G01 F120.00
G01 X103.9200 Y57.1200
G01 X103.9200 Y57.1200
G01 X103.9200 Y57.1200
G01 X103.9200 Y57.1200
G00 Z2.0000
G00 X106.5000 Y57.1200
G01 F60.00
G01 Z-2.4000
G01 F120.00
G01 X106.5000 Y57.1200
G01 X106.5000 Y57.1200
G01 X106.5000 Y57.1200
G01 X106.5000 Y57.1200
G00 Z2.0000
G00 X78.7500 Y20.6000
G01 F60.00
G01 Z-2.4000
G01 F120.00
G01 X78.7500 Y20.6000
G01 X78.7500 Y20.6000
G01 X78.7500 Y20.6000
G01 X78.7500 Y20.6000
G00 Z2.0000
G00 X76.1600 Y20.6000
G01 F60.00
G01 Z-2.4000
G01 F120.00
G01 X76.1600 Y20.6000
G01 X76.1600 Y20.6000
G01 X76.1600 Y20.6000
G01 X76.1600 Y20.6000
G00 Z2.0000
G00 X73.5600 Y20.5800
G01 F60.00
G01 Z-2.4000
G01 F120.00
G01 X73.5600 Y20.5800
G01 X73.5600 Y20.5800
G01 X73.5600 Y20.5800
G01 X73.5600 Y20.5800
G00 Z2.0000
M05
G00 Z2.0000
G00 Z15.00


