(G-CODE GENERATED BY FLATCAM v8.994 - www.flatcam.org - Version Date: 2020/11/7)

(Name: Sensorbox-F_Cu.gbr_iso_combined_cnc)
(Type: G-code from Geometry)
(Units: MM)

(Created on Monday, 19 February 2024 at 14:28)

(This preprocessor is the default preprocessor used by FlatCAM.)
(It is made to work with MACH3 compatible motion controllers.)

(TOOL DIAMETER: 0.1322 mm)
(Feedrate_XY: 40.0 mm/min)
(Feedrate_Z: 20.0 mm/min)
(Feedrate rapids 1500.0 mm/min)

(Z_Cut: -0.0601 mm)
(Z_Move: 2.0 mm)
(Z Start: None mm)
(Z End: 15.0 mm)
(X,Y End: None mm)
(Steps per circle: 64)
(Preprocessor Geometry: default)

(X range:   -0.0656 ...  110.0656  mm)
(Y range:   -0.0656 ...   70.0656  mm)

(Spindle Speed: 20000.0 RPM)
G21
G90
G94

G01 F40.00

M5
G00 Z15.0000
G00 X0.0000 Y0.0000
T1
M6    
(MSG, Change to Tool Dia = 0.1322)
M0
G00 Z15.0000

M03 S20000.0
G01 F40.00
G00 X-0.0633 Y0.1074
G01 F20.00
G01 Z-0.0601
G01 F40.00
G01 X-0.0463 Y0.0438
G01 X-0.0435 Y0.0361
G01 X-0.0397 Y0.0287
G01 X-0.0361 Y0.0232
G01 X-0.0308 Y0.0169
G01 X0.0181 Y-0.0319
G01 X0.0232 Y-0.0361
G01 X0.0287 Y-0.0397
G01 X0.0361 Y-0.0435
G01 X0.0422 Y-0.0458
G01 X0.1089 Y-0.0637
G01 X0.1167 Y-0.0651
G01 X0.1245 Y-0.0656
G01 X109.8755 Y-0.0656
G01 X109.8833 Y-0.0651
G01 X109.8911 Y-0.0637
G01 X109.9546 Y-0.0467
G01 X109.9639 Y-0.0435
G01 X109.9727 Y-0.0389
G01 X109.9781 Y-0.0351
G01 X109.9831 Y-0.0308
G01 X110.0296 Y0.0158
G01 X110.0361 Y0.0232
G01 X110.0405 Y0.0302
G01 X110.0441 Y0.0376
G01 X110.0463 Y0.0438
G01 X110.0633 Y0.1074
G01 X110.0651 Y0.1167
G01 X110.0656 Y0.1245
G01 X110.0656 Y69.8755
G01 X110.0651 Y69.8833
G01 X110.0637 Y69.8911
G01 X110.0467 Y69.9546
G01 X110.0435 Y69.9639
G01 X110.0389 Y69.9727
G01 X110.0351 Y69.9781
G01 X110.0308 Y69.9831
G01 X109.9842 Y70.0296
G01 X109.9768 Y70.0361
G01 X109.9698 Y70.0405
G01 X109.9624 Y70.0441
G01 X109.9562 Y70.0463
G01 X109.8926 Y70.0633
G01 X109.8833 Y70.0651
G01 X109.8755 Y70.0656
G01 X0.1245 Y70.0656
G01 X0.1167 Y70.0651
G01 X0.1089 Y70.0637
G01 X0.0454 Y70.0467
G01 X0.0361 Y70.0435
G01 X0.0273 Y70.0389
G01 X0.0219 Y70.0351
G01 X0.0169 Y70.0308
G01 X-0.0296 Y69.9842
G01 X-0.0361 Y69.9768
G01 X-0.0405 Y69.9698
G01 X-0.0435 Y69.9639
G01 X-0.0463 Y69.9562
G01 X-0.0633 Y69.8926
G01 X-0.0651 Y69.8833
G01 X-0.0656 Y69.8755
G01 X-0.0656 Y0.1245
G01 X-0.0649 Y0.1151
G01 X-0.0633 Y0.1074
G00 Z2.0000
G00 X3.2120 Y4.9347
G01 F20.00
G01 Z-0.0601
G01 F40.00
G01 X3.2406 Y4.6750
G01 X3.3067 Y4.4223
G01 X3.3922 Y4.2210
G01 X3.4088 Y4.1819
G01 X3.5449 Y3.9590
G01 X3.7120 Y3.7582
G01 X3.9065 Y3.5839
G01 X4.1243 Y3.4398
G01 X4.3609 Y3.3289
G01 X4.6110 Y3.2536
G01 X4.8694 Y3.2156
G01 X5.0652 Y3.2156
G01 X5.2605 Y3.2299
G01 X5.5155 Y3.2867
G01 X5.7594 Y3.3800
G01 X5.9872 Y3.5078
G01 X6.1939 Y3.6675
G01 X6.3752 Y3.8555
G01 X6.5272 Y4.0679
G01 X6.6467 Y4.3002
G01 X6.7310 Y4.5475
G01 X6.7784 Y4.8043
G01 X6.7880 Y5.0653
G01 X6.7594 Y5.3250
G01 X6.6933 Y5.5777
G01 X6.5912 Y5.8181
G01 X6.4551 Y6.0410
G01 X6.2880 Y6.2418
G01 X6.0935 Y6.4161
G01 X5.8757 Y6.5602
G01 X5.6391 Y6.6711
G01 X5.3890 Y6.7464
G01 X5.1306 Y6.7844
G01 X4.9348 Y6.7844
G01 X4.7395 Y6.7701
G01 X4.4845 Y6.7133
G01 X4.2406 Y6.6200
G01 X4.0128 Y6.4922
G01 X3.8061 Y6.3325
G01 X3.6248 Y6.1445
G01 X3.4728 Y5.9321
G01 X3.3533 Y5.6998
G01 X3.2690 Y5.4525
G01 X3.2216 Y5.1957
G01 X3.2120 Y4.9347
G00 Z2.0000
G00 X6.6337 Y17.0968
G01 F20.00
G01 Z-0.0601
G01 F40.00
G01 X6.6364 Y17.0445
G01 X6.6445 Y16.9895
G01 X6.6580 Y16.9356
G01 X6.6768 Y16.8833
G01 X6.7005 Y16.8330
G01 X6.7291 Y16.7854
G01 X6.7622 Y16.7407
G01 X6.7984 Y16.7007
G01 X9.2007 Y14.2984
G01 X9.2383 Y14.2643
G01 X9.2433 Y14.2602
G01 X9.2854 Y14.2291
G01 X9.3302 Y14.2021
G01 X9.3359 Y14.1991
G01 X9.3833 Y14.1768
G01 X9.4372 Y14.1576
G01 X9.4895 Y14.1445
G01 X9.5413 Y14.1368
G01 X9.5477 Y14.1361
G01 X9.6000 Y14.1336
G01 X17.2654 Y14.1336
G01 X18.9336 Y12.4654
G01 X18.9337 Y7.5984
G01 X18.9364 Y7.5445
G01 X18.9440 Y7.4927
G01 X18.9452 Y7.4863
G01 X18.9580 Y7.4356
G01 X18.9756 Y7.3863
G01 X18.9781 Y7.3803
G01 X18.9991 Y7.3359
G01 X19.0021 Y7.3302
G01 X19.0274 Y7.2881
G01 X19.0310 Y7.2827
G01 X19.0622 Y7.2407
G01 X19.0995 Y7.1995
G01 X21.5007 Y4.7984
G01 X21.5407 Y4.7622
G01 X21.5827 Y4.7310
G01 X21.5881 Y4.7274
G01 X21.6330 Y4.7005
G01 X21.6833 Y4.6768
G01 X21.7325 Y4.6591
G01 X21.7387 Y4.6572
G01 X21.7863 Y4.6452
G01 X21.7927 Y4.6440
G01 X21.8445 Y4.6364
G01 X21.9000 Y4.6336
G01 X72.2016 Y4.6337
G01 X72.2555 Y4.6364
G01 X72.3105 Y4.6445
G01 X72.3644 Y4.6580
G01 X72.4167 Y4.6768
G01 X72.4670 Y4.7005
G01 X72.5146 Y4.7291
G01 X72.5593 Y4.7622
G01 X72.5993 Y4.7984
G01 X73.9627 Y6.1619
G01 X73.9978 Y6.2007
G01 X74.0290 Y6.2427
G01 X74.0326 Y6.2481
G01 X74.0595 Y6.2930
G01 X74.0832 Y6.3433
G01 X74.1009 Y6.3925
G01 X74.1028 Y6.3987
G01 X74.1148 Y6.4463
G01 X74.1160 Y6.4527
G01 X74.1236 Y6.5045
G01 X74.1264 Y6.5600
G01 X74.1264 Y19.6779
G01 X74.1536 Y19.6945
G01 X74.2351 Y19.7549
G01 X74.3150 Y19.8273
G01 X74.3841 Y19.9037
G01 X74.4446 Y19.9851
G01 X74.4482 Y19.9904
G01 X74.4994 Y20.0760
G01 X74.5449 Y20.1720
G01 X74.5792 Y20.2674
G01 X74.5811 Y20.2737
G01 X74.6056 Y20.3720
G01 X74.6206 Y20.4723
G01 X74.6212 Y20.4787
G01 X74.6261 Y20.5816
G01 X74.6210 Y20.6845
G01 X74.6056 Y20.7880
G01 X74.5802 Y20.8895
G01 X74.5461 Y20.9850
G01 X74.5436 Y20.9909
G01 X74.5017 Y21.0797
G01 X74.4986 Y21.0854
G01 X74.4464 Y21.1723
G01 X74.3861 Y21.2538
G01 X74.3820 Y21.2588
G01 X74.3138 Y21.3338
G01 X74.2363 Y21.4041
G01 X74.1523 Y21.4664
G01 X74.0626 Y21.5202
G01 X73.9680 Y21.5649
G01 X73.8695 Y21.6002
G01 X73.7680 Y21.6256
G01 X73.6677 Y21.6406
G01 X73.6613 Y21.6412
G01 X73.5600 Y21.6461
G01 X73.4555 Y21.6410
G01 X73.3520 Y21.6256
G01 X73.2505 Y21.6002
G01 X73.1520 Y21.5649
G01 X73.0574 Y21.5202
G01 X72.9677 Y21.4664
G01 X72.8837 Y21.4041
G01 X72.8062 Y21.3338
G01 X72.7359 Y21.2563
G01 X72.6736 Y21.1723
G01 X72.6198 Y21.0826
G01 X72.5751 Y20.9880
G01 X72.5398 Y20.8895
G01 X72.5144 Y20.7880
G01 X72.4990 Y20.6845
G01 X72.4939 Y20.5800
G01 X72.4988 Y20.4787
G01 X72.4994 Y20.4723
G01 X72.5144 Y20.3720
G01 X72.5389 Y20.2737
G01 X72.5408 Y20.2674
G01 X72.5751 Y20.1720
G01 X72.6190 Y20.0789
G01 X72.6718 Y19.9904
G01 X72.6754 Y19.9851
G01 X72.7359 Y19.9037
G01 X72.8050 Y19.8273
G01 X72.8849 Y19.7549
G01 X72.9664 Y19.6945
G01 X72.9936 Y19.6779
G01 X72.9936 Y6.7946
G01 X71.9654 Y5.7664
G01 X22.1346 Y5.7664
G01 X20.0664 Y7.8346
G01 X20.0664 Y12.7000
G01 X20.0636 Y12.7555
G01 X20.0555 Y12.8105
G01 X20.0420 Y12.8644
G01 X20.0226 Y12.9182
G01 X19.9995 Y12.9670
G01 X19.9709 Y13.0146
G01 X19.9378 Y13.0593
G01 X19.9016 Y13.0993
G01 X17.9005 Y15.1005
G01 X17.8580 Y15.1388
G01 X17.8146 Y15.1709
G01 X17.7670 Y15.1995
G01 X17.7167 Y15.2232
G01 X17.6675 Y15.2409
G01 X17.6613 Y15.2428
G01 X17.6137 Y15.2548
G01 X17.6073 Y15.2560
G01 X17.5555 Y15.2636
G01 X17.5016 Y15.2663
G01 X9.8346 Y15.2664
G01 X7.7664 Y17.3346
G01 X7.7664 Y48.9654
G01 X9.3346 Y50.5336
G01 X20.8654 Y50.5336
G01 X22.5207 Y48.8784
G01 X22.5607 Y48.8422
G01 X22.6027 Y48.8110
G01 X22.6081 Y48.8074
G01 X22.6530 Y48.7805
G01 X22.7033 Y48.7568
G01 X22.7525 Y48.7391
G01 X22.7587 Y48.7372
G01 X22.8095 Y48.7245
G01 X22.8645 Y48.7164
G01 X22.9200 Y48.7136
G01 X27.9339 Y48.7136
G01 X27.9339 Y48.6784
G01 X27.9346 Y48.6703
G01 X27.9359 Y48.6639
G01 X27.9383 Y48.6562
G01 X27.9410 Y48.6503
G01 X27.9450 Y48.6433
G01 X27.9499 Y48.6368
G01 X27.9556 Y48.6310
G01 X27.9619 Y48.6260
G01 X27.9688 Y48.6217
G01 X27.9762 Y48.6183
G01 X27.9839 Y48.6159
G01 X27.9919 Y48.6144
G01 X28.0000 Y48.6139
G01 X30.0016 Y48.6139
G01 X30.0129 Y48.6152
G01 X30.0223 Y48.6178
G01 X30.0312 Y48.6217
G01 X30.0394 Y48.6269
G01 X30.0467 Y48.6333
G01 X30.0531 Y48.6406
G01 X30.0583 Y48.6488
G01 X30.0628 Y48.6593
G01 X30.0651 Y48.6687
G01 X30.0661 Y48.6800
G01 X30.0661 Y49.8816
G01 X30.0651 Y49.8913
G01 X30.0628 Y49.9007
G01 X30.0590 Y49.9097
G01 X30.0531 Y49.9194
G01 X30.0467 Y49.9267
G01 X30.0381 Y49.9340
G01 X30.0297 Y49.9390
G01 X30.0207 Y49.9428
G01 X30.0097 Y49.9454
G01 X30.0000 Y49.9461
G01 X27.9968 Y49.9460
G01 X27.9903 Y49.9454
G01 X27.9824 Y49.9437
G01 X27.9747 Y49.9411
G01 X27.9674 Y49.9375
G01 X27.9606 Y49.9331
G01 X27.9544 Y49.9279
G01 X27.9489 Y49.9219
G01 X27.9442 Y49.9154
G01 X27.9410 Y49.9097
G01 X27.9383 Y49.9038
G01 X27.9359 Y49.8961
G01 X27.9346 Y49.8897
G01 X27.9339 Y49.8816
G01 X27.9339 Y49.8464
G01 X23.1546 Y49.8464
G01 X21.4993 Y51.5016
G01 X21.4593 Y51.5378
G01 X21.4173 Y51.5690
G01 X21.4119 Y51.5726
G01 X21.3670 Y51.5995
G01 X21.3167 Y51.6232
G01 X21.2675 Y51.6409
G01 X21.2613 Y51.6428
G01 X21.2137 Y51.6548
G01 X21.2073 Y51.6560
G01 X21.1555 Y51.6636
G01 X21.1000 Y51.6664
G01 X9.1000 Y51.6664
G01 X9.0445 Y51.6636
G01 X8.9927 Y51.6560
G01 X8.9863 Y51.6548
G01 X8.9387 Y51.6428
G01 X8.9325 Y51.6409
G01 X8.8833 Y51.6232
G01 X8.8330 Y51.5995
G01 X8.7881 Y51.5726
G01 X8.7827 Y51.5690
G01 X8.7407 Y51.5378
G01 X8.7007 Y51.5016
G01 X6.7984 Y49.5993
G01 X6.7622 Y49.5593
G01 X6.7291 Y49.5146
G01 X6.7005 Y49.4670
G01 X6.6768 Y49.4167
G01 X6.6580 Y49.3644
G01 X6.6445 Y49.3105
G01 X6.6364 Y49.2555
G01 X6.6336 Y49.2000
G01 X6.6337 Y17.0968
G00 Z2.0000
G00 X8.3337 Y34.0968
G01 F20.00
G01 Z-0.0601
G01 F40.00
G01 X8.3364 Y34.0445
G01 X8.3445 Y33.9895
G01 X8.3580 Y33.9356
G01 X8.3756 Y33.8863
G01 X8.3781 Y33.8803
G01 X8.3991 Y33.8359
G01 X8.4021 Y33.8302
G01 X8.4291 Y33.7854
G01 X8.4622 Y33.7407
G01 X8.4995 Y33.6995
G01 X9.4660 Y32.7330
G01 X9.5072 Y32.6957
G01 X9.5519 Y32.6626
G01 X9.5995 Y32.6340
G01 X9.6498 Y32.6102
G01 X9.7021 Y32.5915
G01 X9.7560 Y32.5780
G01 X9.8110 Y32.5699
G01 X9.8649 Y32.5672
G01 X47.8715 Y32.5671
G01 X47.9062 Y32.5206
G01 X47.9687 Y32.4515
G01 X48.0388 Y32.3877
G01 X48.1162 Y32.3302
G01 X48.1990 Y32.2807
G01 X48.2803 Y32.2422
G01 X48.2863 Y32.2398
G01 X48.3725 Y32.2090
G01 X48.4613 Y32.1867
G01 X48.4677 Y32.1854
G01 X48.5583 Y32.1720
G01 X48.6546 Y32.1674
G01 X48.7477 Y32.1720
G01 X48.8414 Y32.1859
G01 X48.9334 Y32.2090
G01 X49.0227 Y32.2409
G01 X49.1084 Y32.2815
G01 X49.1897 Y32.3302
G01 X49.2658 Y32.3867
G01 X49.3361 Y32.4503
G01 X49.3998 Y32.5206
G01 X49.4562 Y32.5967
G01 X49.5050 Y32.6781
G01 X49.5455 Y32.7638
G01 X49.5775 Y32.8530
G01 X49.6005 Y32.9450
G01 X49.6144 Y33.0388
G01 X49.6190 Y33.1319
G01 X49.6144 Y33.2282
G01 X49.6005 Y33.3220
G01 X49.5775 Y33.4139
G01 X49.5455 Y33.5032
G01 X49.5050 Y33.5889
G01 X49.4562 Y33.6702
G01 X49.3998 Y33.7464
G01 X49.3361 Y33.8166
G01 X49.2658 Y33.8803
G01 X49.1897 Y33.9368
G01 X49.1084 Y33.9855
G01 X49.0227 Y34.0260
G01 X48.9334 Y34.0580
G01 X48.8414 Y34.0810
G01 X48.7477 Y34.0949
G01 X48.6546 Y34.0996
G01 X48.5583 Y34.0949
G01 X48.4677 Y34.0816
G01 X48.4613 Y34.0803
G01 X48.3725 Y34.0580
G01 X48.2863 Y34.0272
G01 X48.2803 Y34.0247
G01 X48.1990 Y33.9863
G01 X48.1162 Y33.9368
G01 X48.0388 Y33.8792
G01 X47.9687 Y33.8155
G01 X47.9062 Y33.7464
G01 X47.8715 Y33.6998
G01 X10.1011 Y33.6998
G01 X9.4664 Y34.3346
G01 X9.4664 Y48.1654
G01 X10.3346 Y49.0336
G01 X20.1654 Y49.0336
G01 X22.3207 Y46.8784
G01 X22.3607 Y46.8422
G01 X22.4027 Y46.8110
G01 X22.4081 Y46.8074
G01 X22.4530 Y46.7805
G01 X22.5003 Y46.7581
G01 X22.5063 Y46.7556
G01 X22.5556 Y46.7380
G01 X22.6063 Y46.7252
G01 X22.6127 Y46.7240
G01 X22.6645 Y46.7164
G01 X22.7200 Y46.7136
G01 X27.9339 Y46.7136
G01 X27.9339 Y46.6784
G01 X27.9346 Y46.6703
G01 X27.9359 Y46.6639
G01 X27.9383 Y46.6562
G01 X27.9410 Y46.6503
G01 X27.9450 Y46.6433
G01 X27.9499 Y46.6368
G01 X27.9556 Y46.6310
G01 X27.9619 Y46.6260
G01 X27.9688 Y46.6217
G01 X27.9762 Y46.6183
G01 X27.9839 Y46.6159
G01 X27.9919 Y46.6144
G01 X28.0000 Y46.6139
G01 X30.0016 Y46.6139
G01 X30.0129 Y46.6152
G01 X30.0223 Y46.6178
G01 X30.0312 Y46.6217
G01 X30.0394 Y46.6269
G01 X30.0467 Y46.6333
G01 X30.0531 Y46.6406
G01 X30.0583 Y46.6488
G01 X30.0622 Y46.6577
G01 X30.0651 Y46.6687
G01 X30.0661 Y46.6800
G01 X30.0660 Y47.8832
G01 X30.0645 Y47.8945
G01 X30.0611 Y47.9053
G01 X30.0558 Y47.9154
G01 X30.0490 Y47.9244
G01 X30.0407 Y47.9321
G01 X30.0326 Y47.9375
G01 X30.0223 Y47.9422
G01 X30.0113 Y47.9451
G01 X30.0000 Y47.9461
G01 X27.9968 Y47.9460
G01 X27.9903 Y47.9454
G01 X27.9824 Y47.9437
G01 X27.9747 Y47.9411
G01 X27.9674 Y47.9375
G01 X27.9606 Y47.9331
G01 X27.9544 Y47.9279
G01 X27.9489 Y47.9219
G01 X27.9442 Y47.9154
G01 X27.9410 Y47.9097
G01 X27.9383 Y47.9038
G01 X27.9359 Y47.8961
G01 X27.9346 Y47.8897
G01 X27.9339 Y47.8816
G01 X27.9339 Y47.8464
G01 X22.9546 Y47.8464
G01 X20.7981 Y50.0027
G01 X20.7593 Y50.0378
G01 X20.7146 Y50.0709
G01 X20.6670 Y50.0995
G01 X20.6167 Y50.1232
G01 X20.5644 Y50.1420
G01 X20.5105 Y50.1555
G01 X20.4555 Y50.1636
G01 X20.4016 Y50.1663
G01 X10.1000 Y50.1664
G01 X10.0429 Y50.1634
G01 X9.9895 Y50.1555
G01 X9.9387 Y50.1428
G01 X9.9325 Y50.1409
G01 X9.8833 Y50.1232
G01 X9.8330 Y50.0995
G01 X9.7881 Y50.0726
G01 X9.7827 Y50.0690
G01 X9.7433 Y50.0398
G01 X9.7383 Y50.0357
G01 X9.6995 Y50.0005
G01 X8.4995 Y48.8005
G01 X8.4643 Y48.7617
G01 X8.4602 Y48.7567
G01 X8.4291 Y48.7146
G01 X8.4005 Y48.6670
G01 X8.3768 Y48.6167
G01 X8.3591 Y48.5675
G01 X8.3572 Y48.5613
G01 X8.3452 Y48.5137
G01 X8.3440 Y48.5073
G01 X8.3364 Y48.4555
G01 X8.3336 Y48.4000
G01 X8.3337 Y34.0968
G00 Z2.0000
G00 X10.5829 Y46.6944
G01 F20.00
G01 Z-0.0601
G01 F40.00
G01 X10.5829 Y45.9678
G01 X10.5877 Y45.9220
G01 X10.5893 Y45.9151
G01 X10.6306 Y45.8043
G01 X10.6345 Y45.7972
G01 X10.7044 Y45.7038
G01 X10.7101 Y45.6981
G01 X10.8035 Y45.6282
G01 X10.8106 Y45.6244
G01 X10.9214 Y45.5830
G01 X10.9283 Y45.5814
G01 X10.9741 Y45.5766
G01 X11.7007 Y45.5766
G01 X11.7007 Y45.9444
G01 X11.0136 Y45.9445
G01 X11.0055 Y45.9454
G01 X10.9976 Y45.9473
G01 X10.9915 Y45.9495
G01 X10.9842 Y45.9530
G01 X10.9788 Y45.9565
G01 X10.9724 Y45.9615
G01 X10.9668 Y45.9673
G01 X10.9619 Y45.9738
G01 X10.9571 Y45.9823
G01 X10.9536 Y45.9913
G01 X10.9517 Y45.9992
G01 X10.9507 Y46.0089
G01 X10.9507 Y46.6944
G01 X10.5829 Y46.6944
G00 Z2.0000
G00 X13.5462 Y46.9028
G01 F20.00
G01 Z-0.0601
G01 F40.00
G01 X13.5612 Y46.8025
G01 X13.5866 Y46.7011
G01 X13.6219 Y46.6025
G01 X13.6666 Y46.5080
G01 X13.7204 Y46.4182
G01 X13.7827 Y46.3342
G01 X13.8530 Y46.2567
G01 X13.9318 Y46.1854
G01 X14.0119 Y46.1260
G01 X14.0173 Y46.1224
G01 X14.1043 Y46.0703
G01 X14.1959 Y46.0269
G01 X14.2019 Y46.0244
G01 X14.2973 Y45.9903
G01 X14.3972 Y45.9652
G01 X14.5023 Y45.9496
G01 X14.6084 Y45.9444
G01 X14.7129 Y45.9497
G01 X14.8132 Y45.9646
G01 X14.8442 Y45.9722
G01 X15.9369 Y44.8795
G01 X15.9768 Y44.8432
G01 X16.0200 Y44.8110
G01 X16.0254 Y44.8074
G01 X16.0704 Y44.7805
G01 X16.1206 Y44.7568
G01 X16.1699 Y44.7391
G01 X16.1761 Y44.7372
G01 X16.2269 Y44.7245
G01 X16.2802 Y44.7166
G01 X16.3373 Y44.7136
G01 X27.9339 Y44.7136
G01 X27.9339 Y44.6784
G01 X27.9346 Y44.6703
G01 X27.9359 Y44.6639
G01 X27.9383 Y44.6562
G01 X27.9410 Y44.6503
G01 X27.9450 Y44.6433
G01 X27.9499 Y44.6368
G01 X27.9556 Y44.6310
G01 X27.9619 Y44.6260
G01 X27.9688 Y44.6217
G01 X27.9762 Y44.6183
G01 X27.9839 Y44.6159
G01 X27.9919 Y44.6144
G01 X28.0000 Y44.6139
G01 X30.0016 Y44.6139
G01 X30.0081 Y44.6144
G01 X30.0145 Y44.6155
G01 X30.0253 Y44.6189
G01 X30.0354 Y44.6242
G01 X30.0444 Y44.6310
G01 X30.0521 Y44.6393
G01 X30.0583 Y44.6488
G01 X30.0628 Y44.6593
G01 X30.0645 Y44.6655
G01 X30.0656 Y44.6719
G01 X30.0661 Y44.6800
G01 X30.0660 Y45.8832
G01 X30.0645 Y45.8945
G01 X30.0611 Y45.9053
G01 X30.0583 Y45.9112
G01 X30.0550 Y45.9167
G01 X30.0479 Y45.9256
G01 X30.0432 Y45.9301
G01 X30.0381 Y45.9340
G01 X30.0283 Y45.9398
G01 X30.0176 Y45.9437
G01 X30.0065 Y45.9458
G01 X30.0000 Y45.9461
G01 X27.9968 Y45.9460
G01 X27.9903 Y45.9454
G01 X27.9824 Y45.9437
G01 X27.9747 Y45.9411
G01 X27.9674 Y45.9375
G01 X27.9606 Y45.9331
G01 X27.9544 Y45.9279
G01 X27.9489 Y45.9219
G01 X27.9442 Y45.9154
G01 X27.9410 Y45.9097
G01 X27.9383 Y45.9038
G01 X27.9359 Y45.8961
G01 X27.9346 Y45.8897
G01 X27.9339 Y45.8816
G01 X27.9339 Y45.8464
G01 X16.5719 Y45.8464
G01 X15.6451 Y46.7731
G01 X15.6527 Y46.8041
G01 X15.6676 Y46.9044
G01 X15.6729 Y47.0089
G01 X15.6678 Y47.1150
G01 X15.6521 Y47.2201
G01 X15.6279 Y47.3169
G01 X15.6260 Y47.3231
G01 X15.5918 Y47.4185
G01 X15.5485 Y47.5102
G01 X15.5454 Y47.5159
G01 X15.4932 Y47.6028
G01 X15.4309 Y47.6869
G01 X15.3607 Y47.7644
G01 X15.2831 Y47.8346
G01 X15.1991 Y47.8970
G01 X15.1094 Y47.9507
G01 X15.0148 Y47.9955
G01 X14.9163 Y48.0307
G01 X14.8148 Y48.0561
G01 X14.7129 Y48.0713
G01 X14.6068 Y48.0766
G01 X14.5023 Y48.0715
G01 X14.3988 Y48.0561
G01 X14.3005 Y48.0316
G01 X14.2943 Y48.0297
G01 X14.2019 Y47.9966
G01 X14.1959 Y47.9942
G01 X14.1043 Y47.9507
G01 X14.0173 Y47.8987
G01 X14.0119 Y47.8951
G01 X13.9305 Y47.8346
G01 X13.8530 Y47.7644
G01 X13.7827 Y47.6869
G01 X13.7223 Y47.6055
G01 X13.7187 Y47.6001
G01 X13.6666 Y47.5131
G01 X13.6232 Y47.4215
G01 X13.6207 Y47.4155
G01 X13.5876 Y47.3231
G01 X13.5858 Y47.3169
G01 X13.5612 Y47.2185
G01 X13.5458 Y47.1150
G01 X13.5407 Y47.0105
G01 X13.5456 Y46.9093
G01 X13.5462 Y46.9028
G00 Z2.0000
G00 X16.1462 Y46.9228
G01 F20.00
G01 Z-0.0601
G01 F40.00
G01 X16.1612 Y46.8225
G01 X16.1866 Y46.7211
G01 X16.2219 Y46.6225
G01 X16.2666 Y46.5280
G01 X16.3204 Y46.4382
G01 X16.3827 Y46.3542
G01 X16.4530 Y46.2767
G01 X16.5305 Y46.2064
G01 X16.6145 Y46.1441
G01 X16.7043 Y46.0903
G01 X16.7988 Y46.0456
G01 X16.8973 Y46.0103
G01 X16.9988 Y45.9849
G01 X17.1023 Y45.9696
G01 X17.2068 Y45.9644
G01 X17.3113 Y45.9696
G01 X17.4148 Y45.9849
G01 X17.5163 Y46.0103
G01 X17.6148 Y46.0456
G01 X17.7094 Y46.0903
G01 X17.7991 Y46.1441
G01 X17.8831 Y46.2064
G01 X17.9607 Y46.2767
G01 X18.0309 Y46.3542
G01 X18.0932 Y46.4382
G01 X18.1470 Y46.5280
G01 X18.1918 Y46.6225
G01 X18.2270 Y46.7211
G01 X18.2524 Y46.8225
G01 X18.2678 Y46.9260
G01 X18.2729 Y47.0305
G01 X18.2678 Y47.1350
G01 X18.2524 Y47.2385
G01 X18.2270 Y47.3400
G01 X18.1918 Y47.4385
G01 X18.1470 Y47.5331
G01 X18.0932 Y47.6228
G01 X18.0309 Y47.7069
G01 X17.9607 Y47.7844
G01 X17.8831 Y47.8546
G01 X17.7991 Y47.9170
G01 X17.7094 Y47.9707
G01 X17.6148 Y48.0155
G01 X17.5163 Y48.0507
G01 X17.4148 Y48.0761
G01 X17.3113 Y48.0915
G01 X17.2068 Y48.0966
G01 X17.1023 Y48.0915
G01 X16.9988 Y48.0761
G01 X16.8973 Y48.0507
G01 X16.7988 Y48.0155
G01 X16.7043 Y47.9707
G01 X16.6145 Y47.9170
G01 X16.5305 Y47.8546
G01 X16.4530 Y47.7844
G01 X16.3827 Y47.7069
G01 X16.3204 Y47.6228
G01 X16.2666 Y47.5331
G01 X16.2219 Y47.4385
G01 X16.1866 Y47.3400
G01 X16.1612 Y47.2385
G01 X16.1458 Y47.1350
G01 X16.1407 Y47.0305
G01 X16.1456 Y46.9293
G01 X16.1462 Y46.9228
G00 Z2.0000
G00 X21.0368 Y43.1413
G01 F20.00
G01 Z-0.0601
G01 F40.00
G01 X21.0445 Y43.0895
G01 X21.0580 Y43.0356
G01 X21.0768 Y42.9833
G01 X21.0991 Y42.9359
G01 X21.1021 Y42.9302
G01 X21.1274 Y42.8881
G01 X21.1310 Y42.8827
G01 X21.1622 Y42.8407
G01 X21.1995 Y42.7995
G01 X21.2407 Y42.7622
G01 X21.2854 Y42.7291
G01 X21.3330 Y42.7005
G01 X21.3803 Y42.6781
G01 X21.3863 Y42.6756
G01 X21.4325 Y42.6591
G01 X21.4387 Y42.6572
G01 X21.4895 Y42.6445
G01 X21.5413 Y42.6368
G01 X21.5477 Y42.6361
G01 X21.6000 Y42.6336
G01 X23.8072 Y42.6336
G01 X23.8245 Y42.6182
G01 X23.8494 Y42.5997
G01 X23.8760 Y42.5837
G01 X23.9040 Y42.5705
G01 X23.9332 Y42.5600
G01 X23.9633 Y42.5525
G01 X23.9940 Y42.5479
G01 X24.0250 Y42.5464
G01 X24.9782 Y42.5465
G01 X25.0060 Y42.5479
G01 X25.0367 Y42.5525
G01 X25.0668 Y42.5600
G01 X25.0960 Y42.5705
G01 X25.1240 Y42.5837
G01 X25.1506 Y42.5997
G01 X25.1755 Y42.6182
G01 X25.1928 Y42.6336
G01 X25.9072 Y42.6336
G01 X25.9245 Y42.6182
G01 X25.9494 Y42.5997
G01 X25.9760 Y42.5837
G01 X26.0025 Y42.5711
G01 X26.0302 Y42.5610
G01 X26.0364 Y42.5591
G01 X26.0633 Y42.5525
G01 X26.0956 Y42.5478
G01 X26.1250 Y42.5464
G01 X27.0750 Y42.5464
G01 X27.1027 Y42.5477
G01 X27.1092 Y42.5483
G01 X27.1367 Y42.5525
G01 X27.1668 Y42.5600
G01 X27.1929 Y42.5693
G01 X27.1989 Y42.5718
G01 X27.2240 Y42.5837
G01 X27.2479 Y42.5979
G01 X27.2533 Y42.6015
G01 X27.2755 Y42.6182
G01 X27.2962 Y42.6367
G01 X27.3008 Y42.6413
G01 X27.3193 Y42.6620
G01 X27.3360 Y42.6842
G01 X27.3396 Y42.6896
G01 X27.3539 Y42.7136
G01 X27.9339 Y42.7136
G01 X27.9339 Y42.6784
G01 X27.9346 Y42.6703
G01 X27.9359 Y42.6639
G01 X27.9378 Y42.6577
G01 X27.9402 Y42.6517
G01 X27.9442 Y42.6446
G01 X27.9479 Y42.6393
G01 X27.9533 Y42.6333
G01 X27.9593 Y42.6279
G01 X27.9660 Y42.6233
G01 X27.9732 Y42.6196
G01 X27.9808 Y42.6167
G01 X27.9887 Y42.6149
G01 X27.9968 Y42.6140
G01 X30.0049 Y42.6141
G01 X30.0161 Y42.6159
G01 X30.0268 Y42.6196
G01 X30.0326 Y42.6225
G01 X30.0381 Y42.6260
G01 X30.0467 Y42.6333
G01 X30.0511 Y42.6381
G01 X30.0550 Y42.6433
G01 X30.0604 Y42.6532
G01 X30.0641 Y42.6639
G01 X30.0654 Y42.6703
G01 X30.0660 Y42.6768
G01 X30.0659 Y43.8849
G01 X30.0641 Y43.8961
G01 X30.0622 Y43.9023
G01 X30.0598 Y43.9083
G01 X30.0567 Y43.9140
G01 X30.0531 Y43.9194
G01 X30.0456 Y43.9279
G01 X30.0407 Y43.9321
G01 X30.0354 Y43.9358
G01 X30.0253 Y43.9411
G01 X30.0192 Y43.9433
G01 X30.0129 Y43.9448
G01 X30.0016 Y43.9461
G01 X27.9984 Y43.9461
G01 X27.9903 Y43.9454
G01 X27.9824 Y43.9437
G01 X27.9747 Y43.9411
G01 X27.9674 Y43.9375
G01 X27.9606 Y43.9331
G01 X27.9544 Y43.9279
G01 X27.9489 Y43.9219
G01 X27.9442 Y43.9154
G01 X27.9410 Y43.9097
G01 X27.9383 Y43.9038
G01 X27.9359 Y43.8961
G01 X27.9346 Y43.8897
G01 X27.9339 Y43.8816
G01 X27.9339 Y43.8464
G01 X27.1417 Y43.8464
G01 X27.1335 Y43.8481
G01 X27.1060 Y43.8521
G01 X27.0750 Y43.8536
G01 X26.1218 Y43.8535
G01 X26.0940 Y43.8521
G01 X26.0633 Y43.8475
G01 X26.0332 Y43.8400
G01 X26.0040 Y43.8295
G01 X25.9760 Y43.8163
G01 X25.9494 Y43.8003
G01 X25.9245 Y43.7818
G01 X25.9072 Y43.7664
G01 X25.1928 Y43.7664
G01 X25.1755 Y43.7818
G01 X25.1506 Y43.8003
G01 X25.1240 Y43.8163
G01 X25.0960 Y43.8295
G01 X25.0668 Y43.8400
G01 X25.0367 Y43.8475
G01 X25.0060 Y43.8521
G01 X24.9782 Y43.8535
G01 X24.0250 Y43.8536
G01 X23.9940 Y43.8521
G01 X23.9633 Y43.8475
G01 X23.9332 Y43.8400
G01 X23.9040 Y43.8295
G01 X23.8760 Y43.8163
G01 X23.8494 Y43.8003
G01 X23.8245 Y43.7818
G01 X23.8072 Y43.7664
G01 X21.6000 Y43.7664
G01 X21.5461 Y43.7638
G01 X21.4895 Y43.7555
G01 X21.4356 Y43.7420
G01 X21.3833 Y43.7232
G01 X21.3330 Y43.6995
G01 X21.2854 Y43.6709
G01 X21.2407 Y43.6378
G01 X21.1995 Y43.6005
G01 X21.1622 Y43.5593
G01 X21.1291 Y43.5146
G01 X21.1005 Y43.4670
G01 X21.0768 Y43.4167
G01 X21.0580 Y43.3644
G01 X21.0445 Y43.3105
G01 X21.0364 Y43.2555
G01 X21.0336 Y43.2000
G01 X21.0361 Y43.1477
G01 X21.0368 Y43.1413
G00 Z2.0000
G00 X23.3411 Y40.8089
G01 F20.00
G01 Z-0.0601
G01 F40.00
G01 X23.3412 Y40.7394
G01 X23.3502 Y40.6518
G01 X23.3515 Y40.6457
G01 X23.3999 Y40.4997
G01 X23.4027 Y40.4937
G01 X23.4831 Y40.3633
G01 X23.4873 Y40.3581
G01 X23.5956 Y40.2498
G01 X23.6008 Y40.2456
G01 X23.7312 Y40.1652
G01 X23.7372 Y40.1624
G01 X23.8832 Y40.1140
G01 X23.8893 Y40.1127
G01 X23.9799 Y40.1036
G01 X24.1839 Y40.1036
G01 X24.1839 Y40.4714
G01 X24.0234 Y40.4714
G01 X23.9940 Y40.4729
G01 X23.9649 Y40.4772
G01 X23.9332 Y40.4850
G01 X23.9040 Y40.4955
G01 X23.8760 Y40.5087
G01 X23.8480 Y40.5256
G01 X23.8270 Y40.5412
G01 X23.8220 Y40.5453
G01 X23.8015 Y40.5640
G01 X23.7828 Y40.5845
G01 X23.7787 Y40.5895
G01 X23.7622 Y40.6119
G01 X23.7455 Y40.6399
G01 X23.7343 Y40.6636
G01 X23.7318 Y40.6696
G01 X23.7225 Y40.6957
G01 X23.7153 Y40.7242
G01 X23.7103 Y40.7581
G01 X23.7089 Y40.7859
G01 X23.7089 Y40.8089
G01 X23.3411 Y40.8089
G00 Z2.0000
G00 X24.8161 Y40.4714
G01 F20.00
G01 Z-0.0601
G01 F40.00
G01 X24.8161 Y40.1036
G01 X25.0201 Y40.1036
G01 X25.1107 Y40.1127
G01 X25.1168 Y40.1140
G01 X25.2628 Y40.1624
G01 X25.2688 Y40.1652
G01 X25.3992 Y40.2456
G01 X25.4044 Y40.2498
G01 X25.4190 Y40.2641
G01 X25.4266 Y40.2698
G01 X25.4849 Y40.3035
G01 X25.4922 Y40.3072
G01 X25.5032 Y40.3107
G01 X25.5146 Y40.3123
G01 X25.5821 Y40.3124
G01 X25.5887 Y40.3120
G01 X25.5968 Y40.3107
G01 X25.6031 Y40.3089
G01 X25.6093 Y40.3065
G01 X25.6151 Y40.3035
G01 X25.6707 Y40.2714
G01 X25.6760 Y40.2680
G01 X25.6810 Y40.2641
G01 X25.6956 Y40.2498
G01 X25.7008 Y40.2456
G01 X25.8312 Y40.1652
G01 X25.8372 Y40.1624
G01 X25.9832 Y40.1140
G01 X25.9893 Y40.1127
G01 X26.0799 Y40.1036
G01 X26.2839 Y40.1036
G01 X26.2839 Y40.4714
G01 X26.1234 Y40.4714
G01 X26.0940 Y40.4729
G01 X26.0649 Y40.4772
G01 X26.0332 Y40.4850
G01 X26.0040 Y40.4955
G01 X25.9760 Y40.5087
G01 X25.9480 Y40.5256
G01 X25.9270 Y40.5412
G01 X25.9220 Y40.5453
G01 X25.9015 Y40.5640
G01 X25.8828 Y40.5845
G01 X25.8787 Y40.5895
G01 X25.8622 Y40.6119
G01 X25.8455 Y40.6399
G01 X25.8343 Y40.6636
G01 X25.8318 Y40.6696
G01 X25.8225 Y40.6957
G01 X25.8153 Y40.7242
G01 X25.8103 Y40.7581
G01 X25.8089 Y40.7859
G01 X25.8089 Y40.8089
G01 X25.2911 Y40.8089
G01 X25.2911 Y40.7859
G01 X25.2897 Y40.7581
G01 X25.2847 Y40.7242
G01 X25.2775 Y40.6957
G01 X25.2682 Y40.6696
G01 X25.2657 Y40.6636
G01 X25.2545 Y40.6399
G01 X25.2378 Y40.6119
G01 X25.2213 Y40.5895
G01 X25.2172 Y40.5845
G01 X25.1985 Y40.5640
G01 X25.1780 Y40.5453
G01 X25.1730 Y40.5412
G01 X25.1520 Y40.5256
G01 X25.1240 Y40.5087
G01 X25.0960 Y40.4955
G01 X25.0668 Y40.4850
G01 X25.0351 Y40.4772
G01 X25.0060 Y40.4729
G01 X24.9766 Y40.4714
G01 X24.8161 Y40.4714
G00 Z2.0000
G00 X26.9161 Y40.1036
G01 F20.00
G01 Z-0.0601
G01 F40.00
G01 X27.1201 Y40.1036
G01 X27.2107 Y40.1127
G01 X27.2168 Y40.1140
G01 X27.3628 Y40.1624
G01 X27.3688 Y40.1652
G01 X27.4992 Y40.2456
G01 X27.5044 Y40.2498
G01 X27.6127 Y40.3581
G01 X27.6169 Y40.3633
G01 X27.6973 Y40.4937
G01 X27.7001 Y40.4997
G01 X27.7485 Y40.6457
G01 X27.7498 Y40.6519
G01 X27.7588 Y40.7394
G01 X27.7589 Y40.8089
G01 X27.3911 Y40.8089
G01 X27.3911 Y40.7859
G01 X27.3897 Y40.7581
G01 X27.3847 Y40.7242
G01 X27.3775 Y40.6957
G01 X27.3682 Y40.6696
G01 X27.3657 Y40.6636
G01 X27.3545 Y40.6399
G01 X27.3378 Y40.6119
G01 X27.3213 Y40.5895
G01 X27.3172 Y40.5845
G01 X27.2985 Y40.5640
G01 X27.2780 Y40.5453
G01 X27.2730 Y40.5412
G01 X27.2520 Y40.5256
G01 X27.2240 Y40.5087
G01 X27.1960 Y40.4955
G01 X27.1668 Y40.4850
G01 X27.1351 Y40.4772
G01 X27.1060 Y40.4729
G01 X27.0766 Y40.4714
G01 X26.9161 Y40.4714
G01 X26.9161 Y40.1036
G00 Z2.0000
G00 X31.4000 Y40.7339
G01 F20.00
G01 Z-0.0601
G01 F40.00
G01 X32.6016 Y40.7339
G01 X32.6097 Y40.7346
G01 X32.6176 Y40.7363
G01 X32.6253 Y40.7389
G01 X32.6340 Y40.7433
G01 X32.6407 Y40.7479
G01 X32.6467 Y40.7533
G01 X32.6521 Y40.7593
G01 X32.6575 Y40.7674
G01 X32.6611 Y40.7747
G01 X32.6637 Y40.7824
G01 X32.6654 Y40.7903
G01 X32.6661 Y40.8000
G01 X32.6661 Y42.8000
G01 X32.6654 Y42.8097
G01 X32.6637 Y42.8176
G01 X32.6611 Y42.8253
G01 X32.6575 Y42.8326
G01 X32.6531 Y42.8394
G01 X32.6467 Y42.8467
G01 X32.6407 Y42.8521
G01 X32.6326 Y42.8575
G01 X32.6253 Y42.8611
G01 X32.6161 Y42.8641
G01 X32.6081 Y42.8656
G01 X32.6000 Y42.8661
G01 X31.3984 Y42.8661
G01 X31.3887 Y42.8651
G01 X31.3808 Y42.8633
G01 X31.3732 Y42.8604
G01 X31.3660 Y42.8567
G01 X31.3593 Y42.8521
G01 X31.3533 Y42.8467
G01 X31.3469 Y42.8394
G01 X31.3425 Y42.8326
G01 X31.3383 Y42.8238
G01 X31.3359 Y42.8161
G01 X31.3344 Y42.8081
G01 X31.3339 Y42.8000
G01 X31.3339 Y40.7984
G01 X31.3344 Y40.7919
G01 X31.3355 Y40.7855
G01 X31.3372 Y40.7793
G01 X31.3396 Y40.7732
G01 X31.3425 Y40.7674
G01 X31.3460 Y40.7619
G01 X31.3499 Y40.7568
G01 X31.3544 Y40.7521
G01 X31.3593 Y40.7479
G01 X31.3646 Y40.7442
G01 X31.3703 Y40.7410
G01 X31.3762 Y40.7383
G01 X31.3871 Y40.7352
G01 X31.3935 Y40.7342
G01 X31.4000 Y40.7339
G00 Z2.0000
G00 X30.9656 Y42.8443
G01 F20.00
G01 Z-0.0601
G01 F40.00
G01 X30.9656 Y40.7557
G01 X30.9707 Y40.7078
G01 X31.0148 Y40.5897
G01 X31.0897 Y40.4897
G01 X31.1897 Y40.4148
G01 X31.3078 Y40.3707
G01 X31.3557 Y40.3656
G01 X32.6443 Y40.3656
G01 X32.6922 Y40.3707
G01 X32.8103 Y40.4148
G01 X32.8861 Y40.4715
G01 X32.8913 Y40.4750
G01 X32.8982 Y40.4787
G01 X32.9508 Y40.5025
G01 X32.9604 Y40.5053
G01 X32.9703 Y40.5065
G01 X33.0264 Y40.5066
G01 X33.0314 Y40.5064
G01 X33.0380 Y40.5056
G01 X33.0428 Y40.5045
G01 X33.0492 Y40.5025
G01 X33.1018 Y40.4787
G01 X33.1074 Y40.4759
G01 X33.1139 Y40.4715
G01 X33.1897 Y40.4148
G01 X33.3078 Y40.3707
G01 X33.3557 Y40.3656
G01 X34.6443 Y40.3656
G01 X34.6922 Y40.3707
G01 X34.8103 Y40.4148
G01 X34.8861 Y40.4715
G01 X34.8913 Y40.4750
G01 X34.8982 Y40.4787
G01 X34.9508 Y40.5025
G01 X34.9604 Y40.5053
G01 X34.9703 Y40.5065
G01 X35.0264 Y40.5066
G01 X35.0314 Y40.5064
G01 X35.0380 Y40.5056
G01 X35.0428 Y40.5045
G01 X35.0492 Y40.5025
G01 X35.1018 Y40.4787
G01 X35.1074 Y40.4759
G01 X35.1139 Y40.4715
G01 X35.1897 Y40.4148
G01 X35.3078 Y40.3707
G01 X35.3557 Y40.3656
G01 X36.6443 Y40.3656
G01 X36.6922 Y40.3707
G01 X36.8103 Y40.4148
G01 X36.8861 Y40.4715
G01 X36.8913 Y40.4750
G01 X36.8982 Y40.4787
G01 X36.9508 Y40.5025
G01 X36.9604 Y40.5053
G01 X36.9703 Y40.5065
G01 X37.0264 Y40.5066
G01 X37.0314 Y40.5064
G01 X37.0380 Y40.5056
G01 X37.0428 Y40.5045
G01 X37.0492 Y40.5025
G01 X37.1018 Y40.4787
G01 X37.1074 Y40.4759
G01 X37.1139 Y40.4715
G01 X37.1897 Y40.4148
G01 X37.3078 Y40.3707
G01 X37.3557 Y40.3656
G01 X38.6443 Y40.3656
G01 X38.6922 Y40.3707
G01 X38.8103 Y40.4148
G01 X38.8861 Y40.4715
G01 X38.8913 Y40.4750
G01 X38.8982 Y40.4787
G01 X38.9508 Y40.5025
G01 X38.9604 Y40.5053
G01 X38.9703 Y40.5065
G01 X39.0264 Y40.5066
G01 X39.0314 Y40.5064
G01 X39.0380 Y40.5056
G01 X39.0428 Y40.5045
G01 X39.0492 Y40.5025
G01 X39.1018 Y40.4787
G01 X39.1074 Y40.4759
G01 X39.1139 Y40.4715
G01 X39.1897 Y40.4148
G01 X39.3078 Y40.3707
G01 X39.3557 Y40.3656
G01 X40.6443 Y40.3656
G01 X40.6922 Y40.3707
G01 X40.8103 Y40.4148
G01 X40.8861 Y40.4715
G01 X40.8913 Y40.4750
G01 X40.8982 Y40.4787
G01 X40.9508 Y40.5025
G01 X40.9604 Y40.5053
G01 X40.9703 Y40.5065
G01 X41.0264 Y40.5066
G01 X41.0314 Y40.5064
G01 X41.0380 Y40.5056
G01 X41.0428 Y40.5045
G01 X41.0492 Y40.5025
G01 X41.1018 Y40.4787
G01 X41.1074 Y40.4759
G01 X41.1139 Y40.4715
G01 X41.1897 Y40.4148
G01 X41.3078 Y40.3707
G01 X41.3557 Y40.3656
G01 X42.6443 Y40.3656
G01 X42.6922 Y40.3707
G01 X42.8103 Y40.4148
G01 X42.9103 Y40.4897
G01 X42.9852 Y40.5897
G01 X43.0293 Y40.7078
G01 X43.0344 Y40.7557
G01 X43.0344 Y42.8443
G01 X43.0293 Y42.8922
G01 X42.9852 Y43.0103
G01 X42.9103 Y43.1103
G01 X42.8103 Y43.1852
G01 X42.6922 Y43.2293
G01 X42.6443 Y43.2344
G01 X41.3557 Y43.2344
G01 X41.3078 Y43.2293
G01 X41.1897 Y43.1852
G01 X41.1139 Y43.1285
G01 X41.1087 Y43.1250
G01 X41.1018 Y43.1213
G01 X41.0492 Y43.0975
G01 X41.0396 Y43.0947
G01 X41.0297 Y43.0935
G01 X40.9736 Y43.0934
G01 X40.9670 Y43.0937
G01 X40.9620 Y43.0944
G01 X40.9572 Y43.0955
G01 X40.9508 Y43.0975
G01 X40.8982 Y43.1213
G01 X40.8926 Y43.1242
G01 X40.8861 Y43.1285
G01 X40.8103 Y43.1852
G01 X40.6922 Y43.2293
G01 X40.6443 Y43.2344
G01 X39.3557 Y43.2344
G01 X39.3078 Y43.2293
G01 X39.1897 Y43.1852
G01 X39.1139 Y43.1285
G01 X39.1087 Y43.1250
G01 X39.1018 Y43.1213
G01 X39.0492 Y43.0975
G01 X39.0396 Y43.0947
G01 X39.0297 Y43.0935
G01 X38.9736 Y43.0934
G01 X38.9670 Y43.0937
G01 X38.9620 Y43.0944
G01 X38.9572 Y43.0955
G01 X38.9508 Y43.0975
G01 X38.8982 Y43.1213
G01 X38.8926 Y43.1242
G01 X38.8861 Y43.1285
G01 X38.8103 Y43.1852
G01 X38.6922 Y43.2293
G01 X38.6443 Y43.2344
G01 X37.3557 Y43.2344
G01 X37.3078 Y43.2293
G01 X37.1897 Y43.1852
G01 X37.1139 Y43.1285
G01 X37.1087 Y43.1250
G01 X37.1018 Y43.1213
G01 X37.0492 Y43.0975
G01 X37.0396 Y43.0947
G01 X37.0297 Y43.0935
G01 X36.9736 Y43.0934
G01 X36.9670 Y43.0937
G01 X36.9620 Y43.0944
G01 X36.9572 Y43.0955
G01 X36.9508 Y43.0975
G01 X36.8982 Y43.1213
G01 X36.8926 Y43.1242
G01 X36.8861 Y43.1285
G01 X36.8103 Y43.1852
G01 X36.6922 Y43.2293
G01 X36.6443 Y43.2344
G01 X35.3557 Y43.2344
G01 X35.3078 Y43.2293
G01 X35.1897 Y43.1852
G01 X35.1139 Y43.1285
G01 X35.1087 Y43.1250
G01 X35.1018 Y43.1213
G01 X35.0492 Y43.0975
G01 X35.0396 Y43.0947
G01 X35.0297 Y43.0935
G01 X34.9736 Y43.0934
G01 X34.9670 Y43.0937
G01 X34.9620 Y43.0944
G01 X34.9572 Y43.0955
G01 X34.9508 Y43.0975
G01 X34.8982 Y43.1213
G01 X34.8926 Y43.1242
G01 X34.8861 Y43.1285
G01 X34.8103 Y43.1852
G01 X34.6922 Y43.2293
G01 X34.6443 Y43.2344
G01 X33.3557 Y43.2344
G01 X33.3078 Y43.2293
G01 X33.1897 Y43.1852
G01 X33.1139 Y43.1285
G01 X33.1087 Y43.1250
G01 X33.1018 Y43.1213
G01 X33.0492 Y43.0975
G01 X33.0396 Y43.0947
G01 X33.0297 Y43.0935
G01 X32.9736 Y43.0934
G01 X32.9670 Y43.0937
G01 X32.9620 Y43.0944
G01 X32.9572 Y43.0955
G01 X32.9508 Y43.0975
G01 X32.8982 Y43.1213
G01 X32.8926 Y43.1242
G01 X32.8861 Y43.1285
G01 X32.8103 Y43.1852
G01 X32.6922 Y43.2293
G01 X32.6443 Y43.2344
G01 X31.3557 Y43.2344
G01 X31.3078 Y43.2293
G01 X31.1897 Y43.1852
G01 X31.0897 Y43.1103
G01 X31.0148 Y43.0103
G01 X30.9707 Y42.8922
G01 X30.9656 Y42.8443
G00 Z2.0000
G00 X33.3339 Y42.8000
G01 F20.00
G01 Z-0.0601
G01 F40.00
G01 X33.3339 Y40.8000
G01 X33.3346 Y40.7903
G01 X33.3367 Y40.7808
G01 X33.3402 Y40.7717
G01 X33.3442 Y40.7646
G01 X33.3489 Y40.7581
G01 X33.3544 Y40.7521
G01 X33.3606 Y40.7469
G01 X33.3674 Y40.7425
G01 X33.3747 Y40.7389
G01 X33.3824 Y40.7363
G01 X33.3903 Y40.7346
G01 X33.3984 Y40.7339
G01 X34.6000 Y40.7339
G01 X34.6081 Y40.7344
G01 X34.6176 Y40.7363
G01 X34.6268 Y40.7396
G01 X34.6354 Y40.7442
G01 X34.6419 Y40.7489
G01 X34.6479 Y40.7544
G01 X34.6531 Y40.7606
G01 X34.6575 Y40.7674
G01 X34.6611 Y40.7747
G01 X34.6637 Y40.7824
G01 X34.6654 Y40.7903
G01 X34.6661 Y40.8000
G01 X34.6661 Y42.8000
G01 X34.6654 Y42.8097
G01 X34.6633 Y42.8192
G01 X34.6598 Y42.8283
G01 X34.6558 Y42.8354
G01 X34.6511 Y42.8419
G01 X34.6456 Y42.8479
G01 X34.6394 Y42.8531
G01 X34.6326 Y42.8575
G01 X34.6253 Y42.8611
G01 X34.6176 Y42.8637
G01 X34.6097 Y42.8654
G01 X34.6016 Y42.8661
G01 X33.3984 Y42.8661
G01 X33.3919 Y42.8656
G01 X33.3855 Y42.8645
G01 X33.3793 Y42.8628
G01 X33.3732 Y42.8604
G01 X33.3674 Y42.8575
G01 X33.3619 Y42.8540
G01 X33.3568 Y42.8501
G01 X33.3521 Y42.8456
G01 X33.3479 Y42.8407
G01 X33.3442 Y42.8354
G01 X33.3389 Y42.8253
G01 X33.3367 Y42.8192
G01 X33.3352 Y42.8129
G01 X33.3342 Y42.8065
G01 X33.3339 Y42.8000
G00 Z2.0000
G00 X35.3339 Y42.8000
G01 F20.00
G01 Z-0.0601
G01 F40.00
G01 X35.3339 Y40.8000
G01 X35.3346 Y40.7903
G01 X35.3367 Y40.7808
G01 X35.3402 Y40.7717
G01 X35.3442 Y40.7646
G01 X35.3489 Y40.7581
G01 X35.3544 Y40.7521
G01 X35.3606 Y40.7469
G01 X35.3674 Y40.7425
G01 X35.3747 Y40.7389
G01 X35.3824 Y40.7363
G01 X35.3903 Y40.7346
G01 X35.3984 Y40.7339
G01 X36.6000 Y40.7339
G01 X36.6081 Y40.7344
G01 X36.6176 Y40.7363
G01 X36.6268 Y40.7396
G01 X36.6354 Y40.7442
G01 X36.6419 Y40.7489
G01 X36.6479 Y40.7544
G01 X36.6531 Y40.7606
G01 X36.6575 Y40.7674
G01 X36.6611 Y40.7747
G01 X36.6637 Y40.7824
G01 X36.6654 Y40.7903
G01 X36.6661 Y40.8000
G01 X36.6661 Y42.8000
G01 X36.6654 Y42.8097
G01 X36.6633 Y42.8192
G01 X36.6598 Y42.8283
G01 X36.6558 Y42.8354
G01 X36.6511 Y42.8419
G01 X36.6456 Y42.8479
G01 X36.6394 Y42.8531
G01 X36.6326 Y42.8575
G01 X36.6253 Y42.8611
G01 X36.6176 Y42.8637
G01 X36.6097 Y42.8654
G01 X36.6016 Y42.8661
G01 X35.3984 Y42.8661
G01 X35.3919 Y42.8656
G01 X35.3855 Y42.8645
G01 X35.3793 Y42.8628
G01 X35.3732 Y42.8604
G01 X35.3674 Y42.8575
G01 X35.3619 Y42.8540
G01 X35.3568 Y42.8501
G01 X35.3521 Y42.8456
G01 X35.3479 Y42.8407
G01 X35.3442 Y42.8354
G01 X35.3389 Y42.8253
G01 X35.3367 Y42.8192
G01 X35.3352 Y42.8129
G01 X35.3342 Y42.8065
G01 X35.3339 Y42.8000
G00 Z2.0000
G00 X37.3339 Y42.8000
G01 F20.00
G01 Z-0.0601
G01 F40.00
G01 X37.3339 Y40.8000
G01 X37.3346 Y40.7903
G01 X37.3367 Y40.7808
G01 X37.3402 Y40.7717
G01 X37.3442 Y40.7646
G01 X37.3489 Y40.7581
G01 X37.3544 Y40.7521
G01 X37.3606 Y40.7469
G01 X37.3674 Y40.7425
G01 X37.3747 Y40.7389
G01 X37.3824 Y40.7363
G01 X37.3903 Y40.7346
G01 X37.3984 Y40.7339
G01 X38.6000 Y40.7339
G01 X38.6081 Y40.7344
G01 X38.6176 Y40.7363
G01 X38.6268 Y40.7396
G01 X38.6354 Y40.7442
G01 X38.6419 Y40.7489
G01 X38.6479 Y40.7544
G01 X38.6531 Y40.7606
G01 X38.6575 Y40.7674
G01 X38.6611 Y40.7747
G01 X38.6637 Y40.7824
G01 X38.6654 Y40.7903
G01 X38.6661 Y40.8000
G01 X38.6661 Y42.8000
G01 X38.6654 Y42.8097
G01 X38.6633 Y42.8192
G01 X38.6598 Y42.8283
G01 X38.6558 Y42.8354
G01 X38.6511 Y42.8419
G01 X38.6456 Y42.8479
G01 X38.6394 Y42.8531
G01 X38.6326 Y42.8575
G01 X38.6253 Y42.8611
G01 X38.6176 Y42.8637
G01 X38.6097 Y42.8654
G01 X38.6016 Y42.8661
G01 X37.3984 Y42.8661
G01 X37.3919 Y42.8656
G01 X37.3855 Y42.8645
G01 X37.3793 Y42.8628
G01 X37.3732 Y42.8604
G01 X37.3674 Y42.8575
G01 X37.3619 Y42.8540
G01 X37.3568 Y42.8501
G01 X37.3521 Y42.8456
G01 X37.3479 Y42.8407
G01 X37.3442 Y42.8354
G01 X37.3389 Y42.8253
G01 X37.3367 Y42.8192
G01 X37.3352 Y42.8129
G01 X37.3342 Y42.8065
G01 X37.3339 Y42.8000
G00 Z2.0000
G00 X39.3339 Y42.8000
G01 F20.00
G01 Z-0.0601
G01 F40.00
G01 X39.3339 Y40.8000
G01 X39.3346 Y40.7903
G01 X39.3367 Y40.7808
G01 X39.3402 Y40.7717
G01 X39.3442 Y40.7646
G01 X39.3489 Y40.7581
G01 X39.3544 Y40.7521
G01 X39.3606 Y40.7469
G01 X39.3674 Y40.7425
G01 X39.3747 Y40.7389
G01 X39.3824 Y40.7363
G01 X39.3903 Y40.7346
G01 X39.3984 Y40.7339
G01 X40.6000 Y40.7339
G01 X40.6081 Y40.7344
G01 X40.6176 Y40.7363
G01 X40.6268 Y40.7396
G01 X40.6354 Y40.7442
G01 X40.6419 Y40.7489
G01 X40.6479 Y40.7544
G01 X40.6531 Y40.7606
G01 X40.6575 Y40.7674
G01 X40.6611 Y40.7747
G01 X40.6637 Y40.7824
G01 X40.6654 Y40.7903
G01 X40.6661 Y40.8000
G01 X40.6661 Y42.8000
G01 X40.6654 Y42.8097
G01 X40.6633 Y42.8192
G01 X40.6598 Y42.8283
G01 X40.6558 Y42.8354
G01 X40.6511 Y42.8419
G01 X40.6456 Y42.8479
G01 X40.6394 Y42.8531
G01 X40.6326 Y42.8575
G01 X40.6253 Y42.8611
G01 X40.6176 Y42.8637
G01 X40.6097 Y42.8654
G01 X40.6016 Y42.8661
G01 X39.3984 Y42.8661
G01 X39.3919 Y42.8656
G01 X39.3855 Y42.8645
G01 X39.3793 Y42.8628
G01 X39.3732 Y42.8604
G01 X39.3674 Y42.8575
G01 X39.3619 Y42.8540
G01 X39.3568 Y42.8501
G01 X39.3521 Y42.8456
G01 X39.3479 Y42.8407
G01 X39.3442 Y42.8354
G01 X39.3389 Y42.8253
G01 X39.3367 Y42.8192
G01 X39.3352 Y42.8129
G01 X39.3342 Y42.8065
G01 X39.3339 Y42.8000
G00 Z2.0000
G00 X41.3339 Y42.8000
G01 F20.00
G01 Z-0.0601
G01 F40.00
G01 X41.3339 Y40.8000
G01 X41.3346 Y40.7903
G01 X41.3367 Y40.7808
G01 X41.3402 Y40.7717
G01 X41.3442 Y40.7646
G01 X41.3489 Y40.7581
G01 X41.3544 Y40.7521
G01 X41.3606 Y40.7469
G01 X41.3674 Y40.7425
G01 X41.3747 Y40.7389
G01 X41.3824 Y40.7363
G01 X41.3903 Y40.7346
G01 X41.3984 Y40.7339
G01 X42.6000 Y40.7339
G01 X42.6081 Y40.7344
G01 X42.6176 Y40.7363
G01 X42.6268 Y40.7396
G01 X42.6354 Y40.7442
G01 X42.6419 Y40.7489
G01 X42.6479 Y40.7544
G01 X42.6531 Y40.7606
G01 X42.6575 Y40.7674
G01 X42.6611 Y40.7747
G01 X42.6637 Y40.7824
G01 X42.6654 Y40.7903
G01 X42.6661 Y40.8000
G01 X42.6661 Y42.8000
G01 X42.6654 Y42.8097
G01 X42.6633 Y42.8192
G01 X42.6598 Y42.8283
G01 X42.6558 Y42.8354
G01 X42.6511 Y42.8419
G01 X42.6456 Y42.8479
G01 X42.6394 Y42.8531
G01 X42.6326 Y42.8575
G01 X42.6253 Y42.8611
G01 X42.6176 Y42.8637
G01 X42.6097 Y42.8654
G01 X42.6016 Y42.8661
G01 X41.3984 Y42.8661
G01 X41.3919 Y42.8656
G01 X41.3855 Y42.8645
G01 X41.3793 Y42.8628
G01 X41.3732 Y42.8604
G01 X41.3674 Y42.8575
G01 X41.3619 Y42.8540
G01 X41.3568 Y42.8501
G01 X41.3521 Y42.8456
G01 X41.3479 Y42.8407
G01 X41.3442 Y42.8354
G01 X41.3389 Y42.8253
G01 X41.3367 Y42.8192
G01 X41.3352 Y42.8129
G01 X41.3342 Y42.8065
G01 X41.3339 Y42.8000
G00 Z2.0000
G00 X43.5661 Y42.9639
G01 F20.00
G01 Z-0.0601
G01 F40.00
G01 X43.5661 Y42.6372
G01 X43.5709 Y42.5915
G01 X43.5725 Y42.5846
G01 X43.6138 Y42.4738
G01 X43.6177 Y42.4666
G01 X43.6876 Y42.3733
G01 X43.6933 Y42.3676
G01 X43.7866 Y42.2977
G01 X43.7938 Y42.2938
G01 X43.9046 Y42.2525
G01 X43.9115 Y42.2509
G01 X43.9542 Y42.2463
G01 X44.6839 Y42.2461
G01 X44.6839 Y42.6139
G01 X44.0000 Y42.6139
G01 X43.9903 Y42.6146
G01 X43.9808 Y42.6167
G01 X43.9717 Y42.6202
G01 X43.9633 Y42.6250
G01 X43.9556 Y42.6310
G01 X43.9499 Y42.6368
G01 X43.9442 Y42.6446
G01 X43.9396 Y42.6532
G01 X43.9363 Y42.6624
G01 X43.9344 Y42.6719
G01 X43.9339 Y42.6800
G01 X43.9339 Y42.9639
G01 X43.5661 Y42.9639
G00 Z2.0000
G00 X44.0000 Y44.6139
G01 F20.00
G01 Z-0.0601
G01 F40.00
G01 X46.0032 Y44.6140
G01 X46.0113 Y44.6149
G01 X46.0207 Y44.6172
G01 X46.0283 Y44.6202
G01 X46.0354 Y44.6242
G01 X46.0419 Y44.6289
G01 X46.0490 Y44.6356
G01 X46.0540 Y44.6419
G01 X46.0583 Y44.6488
G01 X46.0611 Y44.6547
G01 X46.0633 Y44.6608
G01 X46.0648 Y44.6671
G01 X46.0658 Y44.6735
G01 X46.0661 Y44.6800
G01 X46.0661 Y44.7336
G01 X46.6562 Y44.7336
G01 X46.6593 Y44.7261
G01 X46.6712 Y44.7010
G01 X46.6854 Y44.6771
G01 X46.6890 Y44.6717
G01 X46.7057 Y44.6495
G01 X46.7242 Y44.6288
G01 X46.7288 Y44.6242
G01 X46.7495 Y44.6057
G01 X46.7717 Y44.5890
G01 X46.7771 Y44.5854
G01 X46.8010 Y44.5712
G01 X46.8261 Y44.5593
G01 X46.8321 Y44.5568
G01 X46.8582 Y44.5475
G01 X46.8899 Y44.5397
G01 X46.9190 Y44.5354
G01 X46.9500 Y44.5339
G01 X47.6500 Y44.5339
G01 X47.6777 Y44.5352
G01 X47.6842 Y44.5358
G01 X47.7117 Y44.5400
G01 X47.7418 Y44.5475
G01 X47.7679 Y44.5568
G01 X47.7739 Y44.5593
G01 X47.7990 Y44.5712
G01 X47.8256 Y44.5872
G01 X47.8480 Y44.6037
G01 X47.8530 Y44.6078
G01 X47.8735 Y44.6265
G01 X47.8922 Y44.6470
G01 X47.8963 Y44.6520
G01 X47.9128 Y44.6744
G01 X47.9272 Y44.6982
G01 X47.9302 Y44.7039
G01 X47.9420 Y44.7290
G01 X47.9515 Y44.7552
G01 X47.9534 Y44.7614
G01 X47.9603 Y44.7899
G01 X47.9646 Y44.8190
G01 X47.9661 Y44.8500
G01 X47.9661 Y45.7500
G01 X47.9648 Y45.7777
G01 X47.9642 Y45.7842
G01 X47.9600 Y45.8117
G01 X47.9525 Y45.8418
G01 X47.9432 Y45.8679
G01 X47.9407 Y45.8739
G01 X47.9288 Y45.8990
G01 X47.9128 Y45.9256
G01 X47.8943 Y45.9505
G01 X47.8758 Y45.9712
G01 X47.8712 Y45.9758
G01 X47.8530 Y45.9922
G01 X47.8480 Y45.9963
G01 X47.8256 Y46.0128
G01 X47.7990 Y46.0288
G01 X47.7710 Y46.0420
G01 X47.7448 Y46.0515
G01 X47.7386 Y46.0534
G01 X47.7148 Y46.0593
G01 X47.7085 Y46.0606
G01 X47.6810 Y46.0646
G01 X47.6516 Y46.0661
G01 X46.9500 Y46.0661
G01 X46.9190 Y46.0646
G01 X46.8883 Y46.0600
G01 X46.8614 Y46.0534
G01 X46.8552 Y46.0515
G01 X46.8290 Y46.0420
G01 X46.8039 Y46.0302
G01 X46.7982 Y46.0272
G01 X46.7744 Y46.0128
G01 X46.7495 Y45.9943
G01 X46.7288 Y45.9758
G01 X46.7242 Y45.9712
G01 X46.7057 Y45.9505
G01 X46.6890 Y45.9283
G01 X46.6854 Y45.9229
G01 X46.6712 Y45.8990
G01 X46.6593 Y45.8739
G01 X46.6562 Y45.8664
G01 X46.0661 Y45.8664
G01 X46.0659 Y45.8849
G01 X46.0651 Y45.8913
G01 X46.0637 Y45.8976
G01 X46.0611 Y45.9053
G01 X46.0583 Y45.9112
G01 X46.0550 Y45.9167
G01 X46.0511 Y45.9219
G01 X46.0456 Y45.9279
G01 X46.0407 Y45.9321
G01 X46.0354 Y45.9358
G01 X46.0297 Y45.9390
G01 X46.0238 Y45.9417
G01 X46.0161 Y45.9441
G01 X46.0097 Y45.9454
G01 X46.0016 Y45.9461
G01 X44.0000 Y45.9461
G01 X43.9903 Y45.9454
G01 X43.9808 Y45.9433
G01 X43.9717 Y45.9398
G01 X43.9619 Y45.9340
G01 X43.9544 Y45.9279
G01 X43.9479 Y45.9207
G01 X43.9425 Y45.9126
G01 X43.9383 Y45.9038
G01 X43.9355 Y45.8945
G01 X43.9340 Y45.8832
G01 X43.9339 Y44.6784
G01 X43.9344 Y44.6719
G01 X43.9355 Y44.6655
G01 X43.9372 Y44.6593
G01 X43.9396 Y44.6532
G01 X43.9425 Y44.6474
G01 X43.9460 Y44.6419
G01 X43.9499 Y44.6368
G01 X43.9544 Y44.6321
G01 X43.9593 Y44.6279
G01 X43.9646 Y44.6242
G01 X43.9703 Y44.6210
G01 X43.9762 Y44.6183
G01 X43.9871 Y44.6152
G01 X43.9935 Y44.6142
G01 X44.0000 Y44.6139
G00 Z2.0000
G00 X44.0000 Y46.6139
G01 F20.00
G01 Z-0.0601
G01 F40.00
G01 X46.0032 Y46.6140
G01 X46.0113 Y46.6149
G01 X46.0207 Y46.6172
G01 X46.0283 Y46.6202
G01 X46.0354 Y46.6242
G01 X46.0419 Y46.6289
G01 X46.0490 Y46.6356
G01 X46.0540 Y46.6419
G01 X46.0583 Y46.6488
G01 X46.0611 Y46.6547
G01 X46.0633 Y46.6608
G01 X46.0648 Y46.6671
G01 X46.0658 Y46.6735
G01 X46.0661 Y46.6800
G01 X46.0661 Y46.7336
G01 X46.6562 Y46.7336
G01 X46.6593 Y46.7261
G01 X46.6712 Y46.7010
G01 X46.6854 Y46.6771
G01 X46.6890 Y46.6717
G01 X46.7057 Y46.6495
G01 X46.7242 Y46.6288
G01 X46.7288 Y46.6242
G01 X46.7495 Y46.6057
G01 X46.7717 Y46.5890
G01 X46.7771 Y46.5854
G01 X46.8010 Y46.5712
G01 X46.8261 Y46.5593
G01 X46.8321 Y46.5568
G01 X46.8582 Y46.5475
G01 X46.8899 Y46.5397
G01 X46.9190 Y46.5354
G01 X46.9500 Y46.5339
G01 X47.6500 Y46.5339
G01 X47.6777 Y46.5352
G01 X47.6842 Y46.5358
G01 X47.7117 Y46.5400
G01 X47.7418 Y46.5475
G01 X47.7679 Y46.5568
G01 X47.7739 Y46.5593
G01 X47.7990 Y46.5712
G01 X47.8256 Y46.5872
G01 X47.8480 Y46.6037
G01 X47.8530 Y46.6078
G01 X47.8735 Y46.6265
G01 X47.8922 Y46.6470
G01 X47.8963 Y46.6520
G01 X47.9128 Y46.6744
G01 X47.9272 Y46.6982
G01 X47.9302 Y46.7039
G01 X47.9420 Y46.7290
G01 X47.9515 Y46.7552
G01 X47.9534 Y46.7614
G01 X47.9603 Y46.7899
G01 X47.9646 Y46.8190
G01 X47.9661 Y46.8500
G01 X47.9661 Y47.7500
G01 X47.9648 Y47.7777
G01 X47.9642 Y47.7842
G01 X47.9600 Y47.8117
G01 X47.9525 Y47.8418
G01 X47.9432 Y47.8679
G01 X47.9407 Y47.8739
G01 X47.9288 Y47.8990
G01 X47.9128 Y47.9256
G01 X47.8943 Y47.9505
G01 X47.8758 Y47.9712
G01 X47.8712 Y47.9758
G01 X47.8530 Y47.9922
G01 X47.8480 Y47.9963
G01 X47.8256 Y48.0128
G01 X47.7990 Y48.0288
G01 X47.7710 Y48.0420
G01 X47.7448 Y48.0515
G01 X47.7386 Y48.0534
G01 X47.7148 Y48.0593
G01 X47.7085 Y48.0606
G01 X47.6810 Y48.0646
G01 X47.6516 Y48.0661
G01 X46.9500 Y48.0661
G01 X46.9190 Y48.0646
G01 X46.8883 Y48.0600
G01 X46.8614 Y48.0534
G01 X46.8552 Y48.0515
G01 X46.8290 Y48.0420
G01 X46.8039 Y48.0302
G01 X46.7982 Y48.0272
G01 X46.7744 Y48.0128
G01 X46.7495 Y47.9943
G01 X46.7288 Y47.9758
G01 X46.7242 Y47.9712
G01 X46.7057 Y47.9505
G01 X46.6890 Y47.9283
G01 X46.6854 Y47.9229
G01 X46.6712 Y47.8990
G01 X46.6593 Y47.8739
G01 X46.6562 Y47.8664
G01 X46.0661 Y47.8664
G01 X46.0659 Y47.8849
G01 X46.0651 Y47.8913
G01 X46.0637 Y47.8976
G01 X46.0611 Y47.9053
G01 X46.0583 Y47.9112
G01 X46.0550 Y47.9167
G01 X46.0511 Y47.9219
G01 X46.0456 Y47.9279
G01 X46.0407 Y47.9321
G01 X46.0354 Y47.9358
G01 X46.0297 Y47.9390
G01 X46.0238 Y47.9417
G01 X46.0161 Y47.9441
G01 X46.0097 Y47.9454
G01 X46.0016 Y47.9461
G01 X44.0000 Y47.9461
G01 X43.9903 Y47.9454
G01 X43.9808 Y47.9433
G01 X43.9717 Y47.9398
G01 X43.9619 Y47.9340
G01 X43.9544 Y47.9279
G01 X43.9479 Y47.9207
G01 X43.9425 Y47.9126
G01 X43.9383 Y47.9038
G01 X43.9355 Y47.8945
G01 X43.9340 Y47.8832
G01 X43.9339 Y46.6784
G01 X43.9344 Y46.6719
G01 X43.9355 Y46.6655
G01 X43.9372 Y46.6593
G01 X43.9396 Y46.6532
G01 X43.9425 Y46.6474
G01 X43.9460 Y46.6419
G01 X43.9499 Y46.6368
G01 X43.9544 Y46.6321
G01 X43.9593 Y46.6279
G01 X43.9646 Y46.6242
G01 X43.9703 Y46.6210
G01 X43.9762 Y46.6183
G01 X43.9871 Y46.6152
G01 X43.9935 Y46.6142
G01 X44.0000 Y46.6139
G00 Z2.0000
G00 X44.0000 Y48.6139
G01 F20.00
G01 Z-0.0601
G01 F40.00
G01 X46.0016 Y48.6139
G01 X46.0129 Y48.6152
G01 X46.0238 Y48.6183
G01 X46.0326 Y48.6225
G01 X46.0419 Y48.6289
G01 X46.0490 Y48.6356
G01 X46.0558 Y48.6446
G01 X46.0611 Y48.6547
G01 X46.0642 Y48.6642
G01 X50.5567 Y48.6642
G01 X50.5645 Y48.6559
G01 X50.5876 Y48.6352
G01 X50.6112 Y48.6177
G01 X50.6392 Y48.6010
G01 X50.6658 Y48.5885
G01 X50.6951 Y48.5780
G01 X50.7251 Y48.5705
G01 X50.7558 Y48.5659
G01 X50.7868 Y48.5644
G01 X51.6868 Y48.5644
G01 X51.7178 Y48.5659
G01 X51.7485 Y48.5705
G01 X51.7786 Y48.5780
G01 X51.8048 Y48.5873
G01 X51.8107 Y48.5898
G01 X51.8358 Y48.6017
G01 X51.8597 Y48.6160
G01 X51.8651 Y48.6196
G01 X51.8848 Y48.6342
G01 X51.8898 Y48.6383
G01 X51.9103 Y48.6570
G01 X51.9305 Y48.6792
G01 X52.7210 Y48.6792
G01 X52.7598 Y48.5974
G01 X52.8118 Y48.5104
G01 X52.8154 Y48.5051
G01 X52.8759 Y48.4237
G01 X52.9439 Y48.3485
G01 X52.9485 Y48.3439
G01 X53.0237 Y48.2759
G01 X53.1077 Y48.2136
G01 X53.1974 Y48.1598
G01 X53.2891 Y48.1164
G01 X53.2950 Y48.1139
G01 X53.3905 Y48.0798
G01 X53.4920 Y48.0544
G01 X53.5923 Y48.0394
G01 X53.5987 Y48.0388
G01 X53.7000 Y48.0339
G01 X53.8013 Y48.0388
G01 X53.8077 Y48.0394
G01 X53.9080 Y48.0544
G01 X54.0095 Y48.0798
G01 X54.1050 Y48.1139
G01 X54.1109 Y48.1164
G01 X54.2026 Y48.1598
G01 X54.2923 Y48.2136
G01 X54.3763 Y48.2759
G01 X54.4515 Y48.3439
G01 X54.4561 Y48.3485
G01 X54.5241 Y48.4237
G01 X54.5846 Y48.5051
G01 X54.5882 Y48.5104
G01 X54.6402 Y48.5974
G01 X54.6790 Y48.6792
G01 X66.1813 Y48.6792
G01 X66.1979 Y48.6519
G01 X66.2583 Y48.5704
G01 X66.3307 Y48.4905
G01 X66.4046 Y48.4235
G01 X66.4096 Y48.4194
G01 X66.4911 Y48.3591
G01 X66.5794 Y48.3061
G01 X66.6754 Y48.2606
G01 X66.7708 Y48.2263
G01 X66.7770 Y48.2244
G01 X66.8754 Y48.1999
G01 X66.9757 Y48.1849
G01 X66.9821 Y48.1843
G01 X67.0850 Y48.1794
G01 X67.1879 Y48.1845
G01 X67.2914 Y48.1999
G01 X67.3928 Y48.2253
G01 X67.4914 Y48.2606
G01 X67.5859 Y48.3053
G01 X67.6757 Y48.3591
G01 X67.7597 Y48.4214
G01 X67.8372 Y48.4917
G01 X67.9075 Y48.5692
G01 X67.9698 Y48.6532
G01 X68.0236 Y48.7429
G01 X68.0683 Y48.8375
G01 X68.1036 Y48.9360
G01 X68.1290 Y49.0375
G01 X68.1443 Y49.1410
G01 X68.1495 Y49.2471
G01 X68.1443 Y49.3500
G01 X68.1290 Y49.4535
G01 X68.1036 Y49.5550
G01 X68.0683 Y49.6535
G01 X68.0236 Y49.7481
G01 X67.9698 Y49.8378
G01 X67.9075 Y49.9218
G01 X67.8372 Y49.9994
G01 X67.7597 Y50.0696
G01 X67.6757 Y50.1319
G01 X67.5859 Y50.1857
G01 X67.4914 Y50.2305
G01 X67.3928 Y50.2657
G01 X67.2914 Y50.2911
G01 X67.1879 Y50.3065
G01 X67.0850 Y50.3116
G01 X66.9821 Y50.3067
G01 X66.9757 Y50.3061
G01 X66.8754 Y50.2911
G01 X66.7770 Y50.2666
G01 X66.7708 Y50.2647
G01 X66.6754 Y50.2305
G01 X66.5794 Y50.1849
G01 X66.4911 Y50.1319
G01 X66.4096 Y50.0716
G01 X66.4046 Y50.0675
G01 X66.3307 Y50.0005
G01 X66.2583 Y49.9206
G01 X66.1979 Y49.8391
G01 X66.1813 Y49.8119
G01 X54.4920 Y49.8119
G01 X54.4527 Y49.8550
G01 X54.3776 Y49.9231
G01 X54.2936 Y49.9855
G01 X54.2026 Y50.0402
G01 X54.1095 Y50.0843
G01 X54.0095 Y50.1202
G01 X53.9080 Y50.1456
G01 X53.8045 Y50.1610
G01 X53.7000 Y50.1661
G01 X53.5955 Y50.1610
G01 X53.4920 Y50.1456
G01 X53.3905 Y50.1202
G01 X53.2905 Y50.0843
G01 X53.1974 Y50.0402
G01 X53.1064 Y49.9855
G01 X53.0224 Y49.9231
G01 X52.9473 Y49.8550
G01 X52.9080 Y49.8119
G01 X51.9018 Y49.8119
G01 X51.8861 Y49.8259
G01 X51.8611 Y49.8442
G01 X51.8358 Y49.8593
G01 X51.8093 Y49.8719
G01 X51.7817 Y49.8820
G01 X51.7754 Y49.8839
G01 X51.7485 Y49.8906
G01 X51.7162 Y49.8952
G01 X51.6868 Y49.8966
G01 X50.7868 Y49.8966
G01 X50.7558 Y49.8951
G01 X50.7251 Y49.8906
G01 X50.6951 Y49.8830
G01 X50.6644 Y49.8719
G01 X50.6378 Y49.8593
G01 X50.6099 Y49.8424
G01 X50.5850 Y49.8238
G01 X50.5645 Y49.8052
G01 X50.5567 Y49.7969
G01 X46.0661 Y49.7969
G01 X46.0660 Y49.8832
G01 X46.0645 Y49.8945
G01 X46.0611 Y49.9053
G01 X46.0567 Y49.9140
G01 X46.0511 Y49.9219
G01 X46.0456 Y49.9279
G01 X46.0381 Y49.9340
G01 X46.0312 Y49.9383
G01 X46.0223 Y49.9422
G01 X46.0145 Y49.9445
G01 X46.0049 Y49.9459
G01 X43.9984 Y49.9461
G01 X43.9919 Y49.9456
G01 X43.9855 Y49.9445
G01 X43.9747 Y49.9411
G01 X43.9646 Y49.9358
G01 X43.9593 Y49.9321
G01 X43.9544 Y49.9279
G01 X43.9469 Y49.9194
G01 X43.9433 Y49.9140
G01 X43.9402 Y49.9083
G01 X43.9378 Y49.9023
G01 X43.9359 Y49.8961
G01 X43.9346 Y49.8897
G01 X43.9340 Y49.8832
G01 X43.9339 Y48.6800
G01 X43.9342 Y48.6735
G01 X43.9352 Y48.6671
G01 X43.9367 Y48.6608
G01 X43.9389 Y48.6547
G01 X43.9417 Y48.6488
G01 X43.9450 Y48.6433
G01 X43.9489 Y48.6381
G01 X43.9533 Y48.6333
G01 X43.9581 Y48.6289
G01 X43.9633 Y48.6250
G01 X43.9688 Y48.6217
G01 X43.9747 Y48.6189
G01 X43.9808 Y48.6167
G01 X43.9871 Y48.6152
G01 X43.9935 Y48.6142
G01 X44.0000 Y48.6139
G00 Z2.0000
G00 X44.0000 Y50.6139
G01 F20.00
G01 Z-0.0601
G01 F40.00
G01 X46.0032 Y50.6140
G01 X46.0113 Y50.6149
G01 X46.0192 Y50.6167
G01 X46.0268 Y50.6196
G01 X46.0340 Y50.6233
G01 X46.0407 Y50.6279
G01 X46.0467 Y50.6333
G01 X46.0511 Y50.6381
G01 X46.0558 Y50.6446
G01 X46.0590 Y50.6503
G01 X46.0622 Y50.6577
G01 X46.0641 Y50.6639
G01 X46.0654 Y50.6703
G01 X46.0661 Y50.6784
G01 X46.0661 Y50.7136
G01 X49.8800 Y50.7136
G01 X49.9355 Y50.7164
G01 X49.9921 Y50.7249
G01 X50.0444 Y50.7380
G01 X50.0937 Y50.7556
G01 X50.0997 Y50.7581
G01 X50.1470 Y50.7805
G01 X50.1919 Y50.8074
G01 X50.1973 Y50.8110
G01 X50.2393 Y50.8422
G01 X50.2781 Y50.8773
G01 X51.7005 Y52.2995
G01 X51.7357 Y52.3383
G01 X51.7398 Y52.3433
G01 X51.7709 Y52.3854
G01 X51.7995 Y52.4330
G01 X51.8232 Y52.4833
G01 X51.8409 Y52.5325
G01 X51.8428 Y52.5387
G01 X51.8548 Y52.5863
G01 X51.8560 Y52.5927
G01 X51.8636 Y52.6445
G01 X51.8663 Y52.6984
G01 X51.8664 Y61.4654
G01 X53.4346 Y63.0336
G01 X84.2654 Y63.0336
G01 X85.6836 Y61.6154
G01 X85.6836 Y58.4821
G01 X85.6564 Y58.4655
G01 X85.5749 Y58.4051
G01 X85.4950 Y58.3327
G01 X85.4259 Y58.2563
G01 X85.3654 Y58.1749
G01 X85.3618 Y58.1696
G01 X85.3090 Y58.0811
G01 X85.2651 Y57.9880
G01 X85.2308 Y57.8926
G01 X85.2289 Y57.8863
G01 X85.2044 Y57.7880
G01 X85.1894 Y57.6877
G01 X85.1888 Y57.6813
G01 X85.1839 Y57.5800
G01 X85.1890 Y57.4755
G01 X85.2044 Y57.3720
G01 X85.2289 Y57.2737
G01 X85.2308 Y57.2674
G01 X85.2651 Y57.1720
G01 X85.3083 Y57.0803
G01 X85.3114 Y57.0746
G01 X85.3627 Y56.9891
G01 X85.4259 Y56.9037
G01 X85.4973 Y56.8250
G01 X85.5749 Y56.7549
G01 X85.6564 Y56.6945
G01 X85.6836 Y56.6779
G01 X85.6837 Y55.3484
G01 X85.6864 Y55.2945
G01 X85.6945 Y55.2395
G01 X85.7080 Y55.1856
G01 X85.7268 Y55.1333
G01 X85.7505 Y55.0830
G01 X85.7774 Y55.0381
G01 X85.7810 Y55.0327
G01 X85.8132 Y54.9895
G01 X85.8484 Y54.9507
G01 X85.9007 Y54.8984
G01 X85.9407 Y54.8622
G01 X85.9840 Y54.8300
G01 X86.0302 Y54.8021
G01 X86.0359 Y54.7991
G01 X86.0833 Y54.7768
G01 X86.1356 Y54.7580
G01 X86.1863 Y54.7452
G01 X86.1927 Y54.7440
G01 X86.2445 Y54.7364
G01 X86.2984 Y54.7337
G01 X86.3523 Y54.7361
G01 X86.3587 Y54.7368
G01 X86.4105 Y54.7445
G01 X86.4644 Y54.7580
G01 X86.5137 Y54.7756
G01 X86.5197 Y54.7781
G01 X86.5670 Y54.8005
G01 X86.6146 Y54.8291
G01 X86.6593 Y54.8622
G01 X86.6981 Y54.8973
G01 X86.7027 Y54.9019
G01 X86.7378 Y54.9407
G01 X86.7709 Y54.9854
G01 X86.7979 Y55.0302
G01 X86.8009 Y55.0359
G01 X86.8219 Y55.0803
G01 X86.8244 Y55.0863
G01 X86.8420 Y55.1356
G01 X86.8555 Y55.1895
G01 X86.8636 Y55.2445
G01 X86.8664 Y55.3000
G01 X86.8636 Y55.3555
G01 X86.8551 Y55.4121
G01 X86.8415 Y55.4659
G01 X86.8238 Y55.5152
G01 X86.8164 Y55.5315
G01 X86.8164 Y56.6779
G01 X86.8436 Y56.6945
G01 X86.9251 Y56.7549
G01 X87.0027 Y56.8250
G01 X87.0741 Y56.9037
G01 X87.1373 Y56.9891
G01 X87.1886 Y57.0746
G01 X87.1917 Y57.0803
G01 X87.2349 Y57.1720
G01 X87.2692 Y57.2674
G01 X87.2711 Y57.2737
G01 X87.2956 Y57.3720
G01 X87.3111 Y57.4771
G01 X87.3161 Y57.5800
G01 X87.3112 Y57.6813
G01 X87.3106 Y57.6877
G01 X87.2956 Y57.7880
G01 X87.2711 Y57.8863
G01 X87.2692 Y57.8926
G01 X87.2349 Y57.9880
G01 X87.1910 Y58.0811
G01 X87.1382 Y58.1696
G01 X87.1346 Y58.1749
G01 X87.0741 Y58.2563
G01 X87.0050 Y58.3327
G01 X86.9251 Y58.4051
G01 X86.8436 Y58.4655
G01 X86.8164 Y58.4821
G01 X86.8164 Y61.8500
G01 X86.8139 Y61.9023
G01 X86.8132 Y61.9087
G01 X86.8055 Y61.9605
G01 X86.7924 Y62.0128
G01 X86.7732 Y62.0667
G01 X86.7509 Y62.1141
G01 X86.7479 Y62.1198
G01 X86.7209 Y62.1646
G01 X86.6898 Y62.2067
G01 X86.6857 Y62.2117
G01 X86.6516 Y62.2493
G01 X84.8993 Y64.0016
G01 X84.8593 Y64.0378
G01 X84.8146 Y64.0709
G01 X84.7670 Y64.0995
G01 X84.7197 Y64.1219
G01 X84.7137 Y64.1244
G01 X84.6675 Y64.1409
G01 X84.6613 Y64.1428
G01 X84.6105 Y64.1555
G01 X84.5539 Y64.1638
G01 X84.5000 Y64.1664
G01 X53.2000 Y64.1664
G01 X53.1477 Y64.1639
G01 X53.1413 Y64.1632
G01 X53.0895 Y64.1555
G01 X53.0372 Y64.1424
G01 X52.9833 Y64.1232
G01 X52.9359 Y64.1009
G01 X52.9302 Y64.0979
G01 X52.8854 Y64.0709
G01 X52.8433 Y64.0398
G01 X52.8383 Y64.0357
G01 X52.8007 Y64.0016
G01 X50.8995 Y62.1005
G01 X50.8622 Y62.0593
G01 X50.8310 Y62.0173
G01 X50.8274 Y62.0119
G01 X50.8005 Y61.9670
G01 X50.7768 Y61.9167
G01 X50.7591 Y61.8675
G01 X50.7572 Y61.8613
G01 X50.7445 Y61.8105
G01 X50.7364 Y61.7555
G01 X50.7336 Y61.7000
G01 X50.7336 Y52.9346
G01 X49.6454 Y51.8464
G01 X46.0661 Y51.8464
G01 X46.0661 Y51.8816
G01 X46.0654 Y51.8897
G01 X46.0637 Y51.8976
G01 X46.0617 Y51.9038
G01 X46.0590 Y51.9097
G01 X46.0558 Y51.9154
G01 X46.0511 Y51.9219
G01 X46.0456 Y51.9279
G01 X46.0394 Y51.9331
G01 X46.0340 Y51.9367
G01 X46.0268 Y51.9404
G01 X46.0192 Y51.9433
G01 X46.0113 Y51.9451
G01 X46.0032 Y51.9460
G01 X44.0000 Y51.9461
G01 X43.9887 Y51.9451
G01 X43.9777 Y51.9422
G01 X43.9688 Y51.9383
G01 X43.9606 Y51.9331
G01 X43.9533 Y51.9267
G01 X43.9469 Y51.9194
G01 X43.9417 Y51.9112
G01 X43.9372 Y51.9007
G01 X43.9349 Y51.8913
G01 X43.9339 Y51.8816
G01 X43.9339 Y50.6784
G01 X43.9344 Y50.6719
G01 X43.9355 Y50.6655
G01 X43.9372 Y50.6593
G01 X43.9396 Y50.6532
G01 X43.9425 Y50.6474
G01 X43.9460 Y50.6419
G01 X43.9499 Y50.6368
G01 X43.9544 Y50.6321
G01 X43.9593 Y50.6279
G01 X43.9646 Y50.6242
G01 X43.9703 Y50.6210
G01 X43.9762 Y50.6183
G01 X43.9871 Y50.6152
G01 X43.9935 Y50.6142
G01 X44.0000 Y50.6139
G00 Z2.0000
G00 X44.0000 Y52.6139
G01 F20.00
G01 Z-0.0601
G01 F40.00
G01 X46.0032 Y52.6140
G01 X46.0113 Y52.6149
G01 X46.0192 Y52.6167
G01 X46.0268 Y52.6196
G01 X46.0340 Y52.6233
G01 X46.0407 Y52.6279
G01 X46.0467 Y52.6333
G01 X46.0511 Y52.6381
G01 X46.0558 Y52.6446
G01 X46.0590 Y52.6503
G01 X46.0622 Y52.6577
G01 X46.0641 Y52.6639
G01 X46.0654 Y52.6703
G01 X46.0661 Y52.6784
G01 X46.0661 Y52.7136
G01 X48.6800 Y52.7136
G01 X48.7355 Y52.7164
G01 X48.7873 Y52.7240
G01 X48.7937 Y52.7252
G01 X48.8444 Y52.7380
G01 X48.8937 Y52.7556
G01 X48.8997 Y52.7581
G01 X48.9470 Y52.7805
G01 X48.9919 Y52.8074
G01 X48.9973 Y52.8110
G01 X49.0393 Y52.8422
G01 X49.0781 Y52.8773
G01 X50.3005 Y54.0995
G01 X50.3378 Y54.1407
G01 X50.3700 Y54.1840
G01 X50.3979 Y54.2302
G01 X50.4009 Y54.2359
G01 X50.4232 Y54.2833
G01 X50.4420 Y54.3356
G01 X50.4555 Y54.3895
G01 X50.4632 Y54.4413
G01 X50.4639 Y54.4477
G01 X50.4664 Y54.5000
G01 X50.4664 Y62.6654
G01 X52.3346 Y64.5336
G01 X86.7654 Y64.5336
G01 X88.1536 Y63.1454
G01 X88.1536 Y58.4721
G01 X88.1264 Y58.4555
G01 X88.0449 Y58.3951
G01 X87.9650 Y58.3227
G01 X87.8959 Y58.2463
G01 X87.8354 Y58.1649
G01 X87.8318 Y58.1596
G01 X87.7790 Y58.0711
G01 X87.7351 Y57.9780
G01 X87.7008 Y57.8826
G01 X87.6989 Y57.8763
G01 X87.6744 Y57.7780
G01 X87.6594 Y57.6777
G01 X87.6588 Y57.6713
G01 X87.6539 Y57.5700
G01 X87.6589 Y57.4671
G01 X87.6744 Y57.3620
G01 X87.6998 Y57.2605
G01 X87.7351 Y57.1620
G01 X87.7783 Y57.0703
G01 X87.7814 Y57.0646
G01 X87.8336 Y56.9777
G01 X87.8939 Y56.8962
G01 X87.8980 Y56.8912
G01 X87.9639 Y56.8185
G01 X87.9685 Y56.8139
G01 X88.0437 Y56.7459
G01 X88.1277 Y56.6836
G01 X88.2174 Y56.6298
G01 X88.3120 Y56.5851
G01 X88.4105 Y56.5498
G01 X88.5120 Y56.5244
G01 X88.6155 Y56.5090
G01 X88.7200 Y56.5039
G01 X88.8245 Y56.5090
G01 X88.9280 Y56.5244
G01 X89.0295 Y56.5498
G01 X89.1280 Y56.5851
G01 X89.2226 Y56.6298
G01 X89.3123 Y56.6836
G01 X89.3963 Y56.7459
G01 X89.4738 Y56.8162
G01 X89.5441 Y56.8937
G01 X89.6064 Y56.9777
G01 X89.6602 Y57.0674
G01 X89.7049 Y57.1620
G01 X89.7402 Y57.2605
G01 X89.7656 Y57.3620
G01 X89.7810 Y57.4655
G01 X89.7860 Y57.5668
G01 X89.7860 Y57.5732
G01 X89.7812 Y57.6713
G01 X89.7806 Y57.6777
G01 X89.7656 Y57.7780
G01 X89.7411 Y57.8763
G01 X89.7392 Y57.8826
G01 X89.7049 Y57.9780
G01 X89.6594 Y58.0740
G01 X89.6064 Y58.1623
G01 X89.5461 Y58.2438
G01 X89.5420 Y58.2488
G01 X89.4750 Y58.3227
G01 X89.3951 Y58.3951
G01 X89.3136 Y58.4555
G01 X89.2864 Y58.4721
G01 X89.2864 Y63.3800
G01 X89.2836 Y63.4355
G01 X89.2755 Y63.4905
G01 X89.2628 Y63.5413
G01 X89.2609 Y63.5475
G01 X89.2432 Y63.5967
G01 X89.2209 Y63.6441
G01 X89.2179 Y63.6498
G01 X89.1909 Y63.6946
G01 X89.1568 Y63.7405
G01 X89.1205 Y63.7805
G01 X88.3673 Y64.5336
G01 X98.5654 Y64.5336
G01 X100.7536 Y62.3454
G01 X100.7536 Y58.0021
G01 X100.7264 Y57.9855
G01 X100.6449 Y57.9251
G01 X100.5650 Y57.8527
G01 X100.4959 Y57.7763
G01 X100.4354 Y57.6949
G01 X100.4318 Y57.6896
G01 X100.3790 Y57.6011
G01 X100.3351 Y57.5080
G01 X100.3008 Y57.4126
G01 X100.2989 Y57.4063
G01 X100.2744 Y57.3080
G01 X100.2594 Y57.2077
G01 X100.2588 Y57.2013
G01 X100.2539 Y57.1000
G01 X100.2590 Y56.9955
G01 X100.2744 Y56.8920
G01 X100.2998 Y56.7905
G01 X100.3351 Y56.6920
G01 X100.3783 Y56.6003
G01 X100.3814 Y56.5946
G01 X100.4336 Y56.5077
G01 X100.4939 Y56.4262
G01 X100.4980 Y56.4212
G01 X100.5639 Y56.3485
G01 X100.5685 Y56.3439
G01 X100.6437 Y56.2759
G01 X100.7277 Y56.2136
G01 X100.8174 Y56.1598
G01 X100.9120 Y56.1151
G01 X101.0105 Y56.0798
G01 X101.1120 Y56.0544
G01 X101.2155 Y56.0390
G01 X101.3168 Y56.0340
G01 X101.3232 Y56.0340
G01 X101.4245 Y56.0390
G01 X101.5280 Y56.0544
G01 X101.6295 Y56.0798
G01 X101.7250 Y56.1139
G01 X101.7309 Y56.1164
G01 X101.8197 Y56.1583
G01 X101.8254 Y56.1614
G01 X101.9123 Y56.2136
G01 X101.9938 Y56.2739
G01 X101.9988 Y56.2780
G01 X102.0738 Y56.3462
G01 X102.1441 Y56.4237
G01 X102.2064 Y56.5077
G01 X102.2602 Y56.5974
G01 X102.3049 Y56.6920
G01 X102.3402 Y56.7905
G01 X102.3656 Y56.8920
G01 X102.3811 Y56.9971
G01 X102.3861 Y57.1000
G01 X102.3812 Y57.2013
G01 X102.3806 Y57.2077
G01 X102.3656 Y57.3080
G01 X102.3411 Y57.4063
G01 X102.3392 Y57.4126
G01 X102.3049 Y57.5080
G01 X102.2610 Y57.6011
G01 X102.2082 Y57.6896
G01 X102.2046 Y57.6949
G01 X102.1441 Y57.7763
G01 X102.0750 Y57.8527
G01 X101.9951 Y57.9251
G01 X101.9136 Y57.9855
G01 X101.8864 Y58.0021
G01 X101.8864 Y62.5800
G01 X101.8836 Y62.6355
G01 X101.8758 Y62.6889
G01 X101.8628 Y62.7413
G01 X101.8609 Y62.7475
G01 X101.8432 Y62.7967
G01 X101.8195 Y62.8470
G01 X101.7926 Y62.8919
G01 X101.7890 Y62.8973
G01 X101.7578 Y62.9393
G01 X101.7216 Y62.9793
G01 X99.2005 Y65.5005
G01 X99.1593 Y65.5378
G01 X99.1146 Y65.5709
G01 X99.0670 Y65.5995
G01 X99.0197 Y65.6219
G01 X99.0137 Y65.6244
G01 X98.9675 Y65.6409
G01 X98.9613 Y65.6428
G01 X98.9105 Y65.6555
G01 X98.8587 Y65.6632
G01 X98.8523 Y65.6639
G01 X98.8000 Y65.6664
G01 X52.1000 Y65.6664
G01 X52.0445 Y65.6636
G01 X51.9911 Y65.6558
G01 X51.9387 Y65.6428
G01 X51.9325 Y65.6409
G01 X51.8833 Y65.6232
G01 X51.8330 Y65.5995
G01 X51.7881 Y65.5726
G01 X51.7827 Y65.5690
G01 X51.7407 Y65.5378
G01 X51.6995 Y65.5005
G01 X49.4984 Y63.2993
G01 X49.4622 Y63.2593
G01 X49.4310 Y63.2173
G01 X49.4274 Y63.2119
G01 X49.4005 Y63.1670
G01 X49.3781 Y63.1197
G01 X49.3756 Y63.1137
G01 X49.3580 Y63.0644
G01 X49.3452 Y63.0137
G01 X49.3440 Y63.0073
G01 X49.3364 Y62.9555
G01 X49.3336 Y62.9000
G01 X49.3336 Y54.7346
G01 X48.4454 Y53.8464
G01 X46.0661 Y53.8464
G01 X46.0661 Y53.8816
G01 X46.0654 Y53.8897
G01 X46.0637 Y53.8976
G01 X46.0617 Y53.9038
G01 X46.0590 Y53.9097
G01 X46.0558 Y53.9154
G01 X46.0511 Y53.9219
G01 X46.0456 Y53.9279
G01 X46.0394 Y53.9331
G01 X46.0340 Y53.9367
G01 X46.0268 Y53.9404
G01 X46.0192 Y53.9433
G01 X46.0113 Y53.9451
G01 X46.0032 Y53.9460
G01 X44.0000 Y53.9461
G01 X43.9935 Y53.9458
G01 X43.9871 Y53.9448
G01 X43.9762 Y53.9417
G01 X43.9674 Y53.9375
G01 X43.9593 Y53.9321
G01 X43.9521 Y53.9256
G01 X43.9460 Y53.9181
G01 X43.9410 Y53.9097
G01 X43.9372 Y53.9007
G01 X43.9349 Y53.8913
G01 X43.9339 Y53.8816
G01 X43.9339 Y52.6784
G01 X43.9344 Y52.6719
G01 X43.9355 Y52.6655
G01 X43.9372 Y52.6593
G01 X43.9396 Y52.6532
G01 X43.9425 Y52.6474
G01 X43.9460 Y52.6419
G01 X43.9499 Y52.6368
G01 X43.9544 Y52.6321
G01 X43.9593 Y52.6279
G01 X43.9646 Y52.6242
G01 X43.9703 Y52.6210
G01 X43.9762 Y52.6183
G01 X43.9871 Y52.6152
G01 X43.9935 Y52.6142
G01 X44.0000 Y52.6139
G00 Z2.0000
G00 X44.0000 Y56.6139
G01 F20.00
G01 Z-0.0601
G01 F40.00
G01 X46.0016 Y56.6139
G01 X46.0097 Y56.6146
G01 X46.0192 Y56.6167
G01 X46.0283 Y56.6202
G01 X46.0354 Y56.6242
G01 X46.0419 Y56.6289
G01 X46.0490 Y56.6356
G01 X46.0550 Y56.6433
G01 X46.0590 Y56.6503
G01 X46.0622 Y56.6577
G01 X46.0641 Y56.6639
G01 X46.0656 Y56.6719
G01 X46.0661 Y56.6800
G01 X46.0661 Y57.8800
G01 X46.0658 Y57.8865
G01 X46.0648 Y57.8929
G01 X46.0617 Y57.9038
G01 X46.0575 Y57.9126
G01 X46.0521 Y57.9207
G01 X46.0456 Y57.9279
G01 X46.0394 Y57.9331
G01 X46.0312 Y57.9383
G01 X46.0223 Y57.9422
G01 X46.0129 Y57.9448
G01 X46.0049 Y57.9459
G01 X45.5664 Y57.9461
G01 X45.5664 Y60.6954
G01 X47.8005 Y62.9295
G01 X47.8378 Y62.9707
G01 X47.8709 Y63.0154
G01 X47.8995 Y63.0630
G01 X47.9232 Y63.1133
G01 X47.9420 Y63.1656
G01 X47.9548 Y63.2163
G01 X47.9560 Y63.2227
G01 X47.9632 Y63.2713
G01 X47.9639 Y63.2777
G01 X47.9664 Y63.3300
G01 X47.9639 Y63.3823
G01 X47.9632 Y63.3887
G01 X47.9555 Y63.4405
G01 X47.9428 Y63.4913
G01 X47.9409 Y63.4975
G01 X47.9232 Y63.5467
G01 X47.8995 Y63.5970
G01 X47.8709 Y63.6446
G01 X47.8378 Y63.6893
G01 X47.8005 Y63.7305
G01 X47.7593 Y63.7678
G01 X47.7146 Y63.8009
G01 X47.6655 Y63.8302
G01 X47.6167 Y63.8532
G01 X47.5675 Y63.8709
G01 X47.5613 Y63.8728
G01 X47.5105 Y63.8855
G01 X47.4587 Y63.8932
G01 X47.4523 Y63.8939
G01 X47.4000 Y63.8964
G01 X47.3445 Y63.8936
G01 X47.2895 Y63.8855
G01 X47.2387 Y63.8728
G01 X47.2325 Y63.8709
G01 X47.1833 Y63.8532
G01 X47.1330 Y63.8295
G01 X47.0881 Y63.8026
G01 X47.0827 Y63.7990
G01 X47.0407 Y63.7678
G01 X46.9995 Y63.7305
G01 X44.5995 Y61.3305
G01 X44.5622 Y61.2893
G01 X44.5310 Y61.2473
G01 X44.5274 Y61.2419
G01 X44.4998 Y61.1955
G01 X44.4768 Y61.1467
G01 X44.4591 Y61.0975
G01 X44.4572 Y61.0913
G01 X44.4445 Y61.0405
G01 X44.4368 Y60.9887
G01 X44.4361 Y60.9823
G01 X44.4337 Y60.9316
G01 X44.4336 Y57.9461
G01 X44.0000 Y57.9461
G01 X43.9935 Y57.9458
G01 X43.9839 Y57.9441
G01 X43.9747 Y57.9411
G01 X43.9660 Y57.9367
G01 X43.9581 Y57.9311
G01 X43.9510 Y57.9244
G01 X43.9450 Y57.9167
G01 X43.9402 Y57.9083
G01 X43.9372 Y57.9007
G01 X43.9349 Y57.8913
G01 X43.9339 Y57.8800
G01 X43.9340 Y56.6768
G01 X43.9346 Y56.6703
G01 X43.9359 Y56.6639
G01 X43.9396 Y56.6532
G01 X43.9425 Y56.6474
G01 X43.9460 Y56.6419
G01 X43.9499 Y56.6368
G01 X43.9544 Y56.6321
G01 X43.9593 Y56.6279
G01 X43.9646 Y56.6242
G01 X43.9703 Y56.6210
G01 X43.9762 Y56.6183
G01 X43.9871 Y56.6152
G01 X43.9935 Y56.6142
G01 X44.0000 Y56.6139
G00 Z2.0000
G00 X42.0337 Y56.6768
G01 F20.00
G01 Z-0.0601
G01 F40.00
G01 X42.0364 Y56.6245
G01 X42.0445 Y56.5695
G01 X42.0580 Y56.5156
G01 X42.0768 Y56.4633
G01 X42.1005 Y56.4130
G01 X42.1291 Y56.3654
G01 X42.1622 Y56.3207
G01 X42.1984 Y56.2807
G01 X43.6007 Y54.8784
G01 X43.6407 Y54.8422
G01 X43.6827 Y54.8110
G01 X43.6881 Y54.8074
G01 X43.7302 Y54.7821
G01 X43.7359 Y54.7791
G01 X43.7833 Y54.7568
G01 X43.8356 Y54.7380
G01 X43.8895 Y54.7245
G01 X43.9339 Y54.7179
G01 X43.9341 Y54.6751
G01 X43.9355 Y54.6655
G01 X43.9383 Y54.6562
G01 X43.9410 Y54.6503
G01 X43.9442 Y54.6446
G01 X43.9510 Y54.6356
G01 X43.9556 Y54.6310
G01 X43.9606 Y54.6269
G01 X43.9703 Y54.6210
G01 X43.9762 Y54.6183
G01 X43.9839 Y54.6159
G01 X43.9919 Y54.6144
G01 X44.0000 Y54.6139
G01 X46.0000 Y54.6139
G01 X46.0065 Y54.6142
G01 X46.0145 Y54.6155
G01 X46.0223 Y54.6178
G01 X46.0297 Y54.6210
G01 X46.0367 Y54.6250
G01 X46.0432 Y54.6299
G01 X46.0490 Y54.6356
G01 X46.0540 Y54.6419
G01 X46.0590 Y54.6503
G01 X46.0628 Y54.6593
G01 X46.0654 Y54.6703
G01 X46.0661 Y54.6800
G01 X46.0661 Y55.8800
G01 X46.0658 Y55.8865
G01 X46.0645 Y55.8945
G01 X46.0628 Y55.9007
G01 X46.0598 Y55.9083
G01 X46.0567 Y55.9140
G01 X46.0521 Y55.9207
G01 X46.0467 Y55.9267
G01 X46.0407 Y55.9321
G01 X46.0312 Y55.9383
G01 X46.0207 Y55.9428
G01 X46.0113 Y55.9451
G01 X46.0000 Y55.9461
G01 X44.1348 Y55.9461
G01 X43.1664 Y56.9146
G01 X43.1664 Y63.1654
G01 X44.0346 Y64.0336
G01 X47.9000 Y64.0339
G01 X47.9065 Y64.0342
G01 X47.9129 Y64.0352
G01 X47.9192 Y64.0367
G01 X47.9253 Y64.0389
G01 X47.9340 Y64.0433
G01 X47.9419 Y64.0489
G01 X47.9490 Y64.0556
G01 X47.9550 Y64.0633
G01 X47.9598 Y64.0717
G01 X47.9633 Y64.0808
G01 X47.9654 Y64.0903
G01 X47.9661 Y64.1000
G01 X47.9664 Y64.6000
G01 X47.9661 Y65.1016
G01 X47.9654 Y65.1097
G01 X47.9637 Y65.1176
G01 X47.9611 Y65.1253
G01 X47.9583 Y65.1312
G01 X47.9550 Y65.1367
G01 X47.9501 Y65.1432
G01 X47.9444 Y65.1490
G01 X47.9381 Y65.1540
G01 X47.9297 Y65.1590
G01 X47.9207 Y65.1628
G01 X47.9113 Y65.1651
G01 X47.9016 Y65.1661
G01 X47.4000 Y65.1664
G01 X43.8000 Y65.1664
G01 X43.7445 Y65.1636
G01 X43.6927 Y65.1560
G01 X43.6863 Y65.1548
G01 X43.6356 Y65.1420
G01 X43.5863 Y65.1244
G01 X43.5803 Y65.1219
G01 X43.5330 Y65.0995
G01 X43.4881 Y65.0726
G01 X43.4827 Y65.0690
G01 X43.4407 Y65.0378
G01 X43.4019 Y65.0027
G01 X42.1995 Y63.8005
G01 X42.1622 Y63.7593
G01 X42.1300 Y63.7160
G01 X42.1021 Y63.6698
G01 X42.0991 Y63.6641
G01 X42.0768 Y63.6167
G01 X42.0580 Y63.5644
G01 X42.0452 Y63.5137
G01 X42.0440 Y63.5073
G01 X42.0364 Y63.4555
G01 X42.0337 Y63.4016
G01 X42.0337 Y56.6768
G00 Z2.0000
G00 X41.6611 Y63.3762
G01 F20.00
G01 Z-0.0601
G01 F40.00
G01 X41.6644 Y63.3499
G01 X41.6656 Y63.3287
G01 X41.6656 Y56.6943
G01 X41.6635 Y56.6087
G01 X41.6727 Y56.5572
G01 X41.6744 Y56.5454
G01 X41.6800 Y56.4909
G01 X41.6875 Y56.4670
G01 X41.6920 Y56.4491
G01 X41.6970 Y56.4216
G01 X41.7164 Y56.3731
G01 X41.7205 Y56.3619
G01 X41.7369 Y56.3096
G01 X41.7491 Y56.2877
G01 X41.7570 Y56.2710
G01 X41.7675 Y56.2451
G01 X41.7963 Y56.2015
G01 X41.8025 Y56.1913
G01 X41.8291 Y56.1435
G01 X41.8472 Y56.1222
G01 X41.8583 Y56.1074
G01 X41.8721 Y56.0865
G01 X41.9090 Y56.0495
G01 X41.9172 Y56.0408
G01 X41.9529 Y55.9993
G01 X41.9738 Y55.9830
G01 X41.9897 Y55.9688
G01 X43.3292 Y54.6294
G01 X43.3882 Y54.5674
G01 X43.4311 Y54.5375
G01 X43.4407 Y54.5304
G01 X43.4832 Y54.4958
G01 X43.5078 Y54.4828
G01 X43.5236 Y54.4731
G01 X43.5442 Y54.4588
G01 X43.5860 Y54.4409
G01 X43.5933 Y54.4369
G01 X43.6423 Y54.4013
G01 X43.6498 Y54.3949
G01 X43.6553 Y54.3887
G01 X43.6600 Y54.3818
G01 X43.6884 Y54.3284
G01 X43.6911 Y54.3223
G01 X43.6931 Y54.3160
G01 X43.6951 Y54.3045
G01 X43.6973 Y54.2424
G01 X43.6964 Y54.2325
G01 X43.6941 Y54.2228
G01 X43.6917 Y54.2166
G01 X43.6692 Y54.1658
G01 X43.6654 Y54.1584
G01 X43.6617 Y54.1529
G01 X43.6148 Y54.0903
G01 X43.5707 Y53.9722
G01 X43.5656 Y53.9243
G01 X43.5656 Y52.6357
G01 X43.5707 Y52.5878
G01 X43.6148 Y52.4697
G01 X43.6715 Y52.3939
G01 X43.6750 Y52.3887
G01 X43.6787 Y52.3818
G01 X43.7025 Y52.3292
G01 X43.7053 Y52.3196
G01 X43.7065 Y52.3097
G01 X43.7066 Y52.2536
G01 X43.7063 Y52.2470
G01 X43.7056 Y52.2420
G01 X43.7045 Y52.2372
G01 X43.7025 Y52.2308
G01 X43.6787 Y52.1782
G01 X43.6758 Y52.1726
G01 X43.6715 Y52.1661
G01 X43.6148 Y52.0903
G01 X43.5707 Y51.9722
G01 X43.5656 Y51.9243
G01 X43.5656 Y50.6357
G01 X43.5707 Y50.5878
G01 X43.6148 Y50.4697
G01 X43.6715 Y50.3939
G01 X43.6750 Y50.3887
G01 X43.6787 Y50.3818
G01 X43.7025 Y50.3292
G01 X43.7053 Y50.3196
G01 X43.7065 Y50.3097
G01 X43.7066 Y50.2536
G01 X43.7063 Y50.2470
G01 X43.7056 Y50.2420
G01 X43.7045 Y50.2372
G01 X43.7025 Y50.2308
G01 X43.6787 Y50.1782
G01 X43.6758 Y50.1726
G01 X43.6715 Y50.1661
G01 X43.6148 Y50.0903
G01 X43.5707 Y49.9722
G01 X43.5656 Y49.9243
G01 X43.5656 Y48.6357
G01 X43.5707 Y48.5878
G01 X43.6148 Y48.4697
G01 X43.6715 Y48.3939
G01 X43.6750 Y48.3887
G01 X43.6787 Y48.3818
G01 X43.7025 Y48.3292
G01 X43.7053 Y48.3196
G01 X43.7065 Y48.3097
G01 X43.7066 Y48.2536
G01 X43.7063 Y48.2470
G01 X43.7056 Y48.2420
G01 X43.7045 Y48.2372
G01 X43.7025 Y48.2308
G01 X43.6787 Y48.1782
G01 X43.6758 Y48.1726
G01 X43.6715 Y48.1661
G01 X43.6148 Y48.0903
G01 X43.5707 Y47.9722
G01 X43.5656 Y47.9243
G01 X43.5656 Y46.6357
G01 X43.5707 Y46.5878
G01 X43.6148 Y46.4697
G01 X43.6715 Y46.3939
G01 X43.6750 Y46.3887
G01 X43.6787 Y46.3818
G01 X43.7025 Y46.3292
G01 X43.7053 Y46.3196
G01 X43.7065 Y46.3097
G01 X43.7066 Y46.2536
G01 X43.7063 Y46.2470
G01 X43.7056 Y46.2420
G01 X43.7045 Y46.2372
G01 X43.7025 Y46.2308
G01 X43.6787 Y46.1782
G01 X43.6758 Y46.1726
G01 X43.6715 Y46.1661
G01 X43.6148 Y46.0903
G01 X43.5707 Y45.9722
G01 X43.5656 Y45.9243
G01 X43.5656 Y44.6357
G01 X43.5707 Y44.5878
G01 X43.6148 Y44.4697
G01 X43.6718 Y44.3935
G01 X43.6754 Y44.3883
G01 X43.6790 Y44.3814
G01 X43.7028 Y44.3288
G01 X43.7056 Y44.3192
G01 X43.7068 Y44.3093
G01 X43.7069 Y44.2532
G01 X43.7066 Y44.2466
G01 X43.7059 Y44.2416
G01 X43.7044 Y44.2351
G01 X43.7028 Y44.2304
G01 X43.6769 Y44.1736
G01 X43.6718 Y44.1657
G01 X43.6177 Y44.0934
G01 X43.6138 Y44.0862
G01 X43.5725 Y43.9754
G01 X43.5709 Y43.9685
G01 X43.5661 Y43.9228
G01 X43.5661 Y43.5961
G01 X43.9339 Y43.5961
G01 X43.9339 Y43.8800
G01 X43.9342 Y43.8865
G01 X43.9352 Y43.8929
G01 X43.9383 Y43.9038
G01 X43.9433 Y43.9140
G01 X43.9499 Y43.9232
G01 X43.9581 Y43.9311
G01 X43.9674 Y43.9375
G01 X43.9777 Y43.9422
G01 X43.9887 Y43.9451
G01 X44.0000 Y43.9461
G01 X46.0000 Y43.9461
G01 X46.0097 Y43.9454
G01 X46.0192 Y43.9433
G01 X46.0283 Y43.9398
G01 X46.0381 Y43.9340
G01 X46.0456 Y43.9279
G01 X46.0531 Y43.9194
G01 X46.0583 Y43.9112
G01 X46.0622 Y43.9023
G01 X46.0651 Y43.8913
G01 X46.0661 Y43.8800
G01 X46.0661 Y43.5961
G01 X46.4339 Y43.5961
G01 X46.4339 Y43.9227
G01 X46.4291 Y43.9685
G01 X46.4275 Y43.9754
G01 X46.4246 Y43.9846
G01 X46.4233 Y43.9930
G01 X46.4178 Y44.0648
G01 X46.4178 Y44.0713
G01 X46.4186 Y44.0793
G01 X46.4209 Y44.0887
G01 X46.4246 Y44.0977
G01 X46.4582 Y44.1613
G01 X46.4617 Y44.1668
G01 X46.4667 Y44.1731
G01 X46.4736 Y44.1798
G01 X46.4815 Y44.1855
G01 X46.5425 Y44.2206
G01 X46.5482 Y44.2236
G01 X46.5558 Y44.2265
G01 X46.5620 Y44.2281
G01 X46.5684 Y44.2291
G01 X46.5748 Y44.2295
G01 X46.6468 Y44.2268
G01 X46.6552 Y44.2259
G01 X46.6650 Y44.2234
G01 X46.8111 Y44.1750
G01 X46.9034 Y44.1656
G01 X47.6966 Y44.1656
G01 X47.7889 Y44.1750
G01 X47.9412 Y44.2255
G01 X48.0774 Y44.3095
G01 X48.1659 Y44.3980
G01 X48.1743 Y44.4052
G01 X48.1796 Y44.4086
G01 X48.2381 Y44.4422
G01 X48.2488 Y44.4466
G01 X48.2552 Y44.4482
G01 X48.2617 Y44.4492
G01 X48.2683 Y44.4495
G01 X48.3374 Y44.4493
G01 X48.3439 Y44.4485
G01 X48.3519 Y44.4466
G01 X48.3581 Y44.4443
G01 X48.3641 Y44.4414
G01 X48.4211 Y44.4085
G01 X48.4301 Y44.4023
G01 X48.4348 Y44.3980
G01 X48.5206 Y44.3123
G01 X48.5258 Y44.3081
G01 X48.6562 Y44.2277
G01 X48.6622 Y44.2249
G01 X48.8082 Y44.1765
G01 X48.8143 Y44.1752
G01 X48.9019 Y44.1662
G01 X48.9839 Y44.1661
G01 X48.9839 Y44.5339
G01 X48.9484 Y44.5339
G01 X48.9190 Y44.5354
G01 X48.8883 Y44.5400
G01 X48.8582 Y44.5475
G01 X48.8290 Y44.5580
G01 X48.8010 Y44.5712
G01 X48.7744 Y44.5872
G01 X48.7495 Y44.6057
G01 X48.7265 Y44.6265
G01 X48.7057 Y44.6495
G01 X48.6872 Y44.6744
G01 X48.6712 Y44.7010
G01 X48.6580 Y44.7290
G01 X48.6475 Y44.7582
G01 X48.6400 Y44.7883
G01 X48.6358 Y44.8158
G01 X48.6352 Y44.8223
G01 X48.6339 Y44.8500
G01 X48.6339 Y45.7500
G01 X48.6354 Y45.7810
G01 X48.6400 Y45.8117
G01 X48.6475 Y45.8418
G01 X48.6568 Y45.8679
G01 X48.6593 Y45.8739
G01 X48.6712 Y45.8990
G01 X48.6872 Y45.9256
G01 X48.7037 Y45.9480
G01 X48.7078 Y45.9530
G01 X48.7265 Y45.9735
G01 X48.7470 Y45.9922
G01 X48.7520 Y45.9963
G01 X48.7744 Y46.0128
G01 X48.8010 Y46.0288
G01 X48.8290 Y46.0420
G01 X48.8552 Y46.0515
G01 X48.8614 Y46.0534
G01 X48.8899 Y46.0603
G01 X48.9190 Y46.0646
G01 X48.9500 Y46.0661
G01 X49.6500 Y46.0661
G01 X49.6777 Y46.0648
G01 X49.6842 Y46.0642
G01 X49.7117 Y46.0600
G01 X49.7418 Y46.0525
G01 X49.7710 Y46.0420
G01 X49.7990 Y46.0288
G01 X49.8256 Y46.0128
G01 X49.8505 Y45.9943
G01 X49.8735 Y45.9735
G01 X49.8943 Y45.9505
G01 X49.9128 Y45.9256
G01 X49.9295 Y45.8976
G01 X49.9420 Y45.8710
G01 X49.9525 Y45.8418
G01 X49.9600 Y45.8117
G01 X49.9644 Y45.7826
G01 X49.9661 Y45.7500
G01 X49.9661 Y45.6161
G01 X50.3339 Y45.6161
G01 X50.3339 Y45.7951
G01 X50.3248 Y45.8857
G01 X50.3235 Y45.8918
G01 X50.2857 Y46.0057
G01 X50.2836 Y46.0137
G01 X50.2824 Y46.0236
G01 X50.2794 Y46.0928
G01 X50.2799 Y46.1023
G01 X50.2818 Y46.1117
G01 X50.2838 Y46.1177
G01 X50.2871 Y46.1249
G01 X50.3233 Y46.1895
G01 X50.3280 Y46.1958
G01 X50.3335 Y46.2016
G01 X50.3396 Y46.2066
G01 X50.3449 Y46.2101
G01 X50.4068 Y46.2446
G01 X50.4155 Y46.2485
G01 X50.4231 Y46.2507
G01 X50.4310 Y46.2519
G01 X50.4389 Y46.2523
G01 X50.5081 Y46.2493
G01 X50.5147 Y46.2486
G01 X50.5196 Y46.2477
G01 X50.5260 Y46.2460
G01 X50.6479 Y46.2055
G01 X50.7402 Y46.1961
G01 X50.8710 Y46.1961
G01 X50.8775 Y46.1958
G01 X50.8839 Y46.1949
G01 X50.9345 Y46.1847
G01 X50.9438 Y46.1817
G01 X50.9525 Y46.1773
G01 X50.9968 Y46.1477
G01 X51.0055 Y46.1404
G01 X51.4965 Y45.6494
G01 X51.5556 Y45.5874
G01 X51.6005 Y45.5560
G01 X51.6100 Y45.5488
G01 X51.6505 Y45.5158
G01 X51.6751 Y45.5028
G01 X51.6909 Y45.4931
G01 X51.7115 Y45.4788
G01 X51.7619 Y45.4571
G01 X51.7726 Y45.4520
G01 X51.8189 Y45.4278
G01 X51.8457 Y45.4200
G01 X51.8630 Y45.4138
G01 X51.8862 Y45.4039
G01 X51.9374 Y45.3933
G01 X51.9490 Y45.3905
G01 X52.0016 Y45.3755
G01 X52.0294 Y45.3733
G01 X52.0477 Y45.3706
G01 X52.0723 Y45.3656
G01 X52.1271 Y45.3656
G01 X52.1390 Y45.3651
G01 X52.1911 Y45.3611
G01 X52.2174 Y45.3644
G01 X52.2387 Y45.3656
G01 X53.1448 Y45.3656
G01 X53.1618 Y45.3648
G01 X53.2000 Y45.3611
G01 X53.3848 Y45.3793
G01 X53.3889 Y45.3800
G01 X53.4752 Y45.4070
G01 X53.5598 Y45.4327
G01 X53.5704 Y45.4369
G01 X53.6463 Y45.4790
G01 X53.7217 Y45.5193
G01 X53.7273 Y45.5234
G01 X53.7365 Y45.5291
G01 X53.7998 Y45.5834
G01 X53.8639 Y45.6361
G01 X53.8680 Y45.6406
G01 X53.8807 Y45.6529
G01 X53.9297 Y45.7162
G01 X53.9807 Y45.7784
G01 X53.9971 Y45.8032
G01 X54.0308 Y45.8720
G01 X54.0674 Y45.9407
G01 X54.0768 Y45.9653
G01 X54.0808 Y45.9738
G01 X54.0991 Y46.0447
G01 X54.1209 Y46.1168
G01 X54.1218 Y46.1248
G01 X54.1254 Y46.1454
G01 X54.1284 Y46.1578
G01 X54.1319 Y46.2276
G01 X54.1389 Y46.3000
G01 X54.1379 Y46.3114
G01 X54.1374 Y46.3315
G01 X54.1380 Y46.3476
G01 X54.1280 Y46.4133
G01 X54.1209 Y46.4832
G01 X54.1166 Y46.4975
G01 X54.1124 Y46.5162
G01 X54.1092 Y46.5354
G01 X54.0873 Y46.5947
G01 X54.0675 Y46.6593
G01 X54.0589 Y46.6755
G01 X54.0513 Y46.6923
G01 X54.0432 Y46.7136
G01 X54.0116 Y46.7644
G01 X54.0064 Y46.7735
G01 X53.9807 Y46.8216
G01 X53.9678 Y46.8374
G01 X53.9567 Y46.8527
G01 X53.9427 Y46.8749
G01 X53.9038 Y46.9159
G01 X53.8963 Y46.9245
G01 X53.8639 Y46.9639
G01 X53.8455 Y46.9791
G01 X53.8322 Y46.9913
G01 X53.8118 Y47.0126
G01 X53.7682 Y47.0430
G01 X53.7583 Y47.0506
G01 X53.7216 Y47.0807
G01 X53.6970 Y47.0939
G01 X53.6829 Y47.1025
G01 X53.6558 Y47.1212
G01 X53.6101 Y47.1409
G01 X53.5981 Y47.1467
G01 X53.5593 Y47.1675
G01 X53.5292 Y47.1766
G01 X53.5146 Y47.1819
G01 X53.4812 Y47.1961
G01 X53.4358 Y47.2056
G01 X53.4218 Y47.2092
G01 X53.3832 Y47.2209
G01 X53.3484 Y47.2243
G01 X53.3339 Y47.2265
G01 X53.2950 Y47.2344
G01 X53.2520 Y47.2345
G01 X53.2382 Y47.2352
G01 X53.2000 Y47.2389
G01 X53.1618 Y47.2352
G01 X53.1448 Y47.2344
G01 X52.6331 Y47.2344
G01 X52.6250 Y47.2349
G01 X52.5712 Y47.2454
G01 X52.5649 Y47.2472
G01 X52.5589 Y47.2495
G01 X52.5489 Y47.2550
G01 X52.5074 Y47.2828
G01 X52.4999 Y47.2889
G01 X52.4236 Y47.3655
G01 X52.4187 Y47.3719
G01 X52.3909 Y47.4135
G01 X52.3877 Y47.4191
G01 X52.3851 Y47.4251
G01 X52.3819 Y47.4360
G01 X52.3725 Y47.4834
G01 X52.3714 Y47.4914
G01 X52.3712 Y47.6272
G01 X52.3618 Y47.7194
G01 X52.3113 Y47.8717
G01 X52.2209 Y48.0187
G01 X52.2176 Y48.0261
G01 X52.2152 Y48.0339
G01 X52.1947 Y48.0839
G01 X52.1923 Y48.0916
G01 X52.1909 Y48.0995
G01 X52.1904 Y48.1075
G01 X52.1911 Y48.1172
G01 X52.2036 Y48.1894
G01 X52.2058 Y48.1972
G01 X52.2090 Y48.2046
G01 X52.2130 Y48.2115
G01 X52.2179 Y48.2179
G01 X52.2658 Y48.2714
G01 X52.2729 Y48.2779
G01 X52.2795 Y48.2825
G01 X52.2866 Y48.2863
G01 X52.2941 Y48.2891
G01 X52.3664 Y48.3097
G01 X52.3730 Y48.3108
G01 X52.3797 Y48.3111
G01 X52.4024 Y48.3110
G01 X52.4122 Y48.3098
G01 X52.4775 Y48.2933
G01 X52.4867 Y48.2897
G01 X52.4966 Y48.2839
G01 X52.5029 Y48.2787
G01 X52.5512 Y48.2340
G01 X52.5564 Y48.2277
G01 X52.5642 Y48.2160
G01 X52.7252 Y48.0411
G01 X52.9128 Y47.8951
G01 X53.1218 Y47.7819
G01 X53.3467 Y47.7047
G01 X53.5811 Y47.6656
G01 X53.8189 Y47.6656
G01 X54.0533 Y47.7047
G01 X54.2782 Y47.7819
G01 X54.4872 Y47.8951
G01 X54.6748 Y48.0411
G01 X54.8358 Y48.2160
G01 X54.8436 Y48.2277
G01 X54.8488 Y48.2340
G01 X54.8971 Y48.2787
G01 X54.9034 Y48.2839
G01 X54.9133 Y48.2897
G01 X54.9240 Y48.2937
G01 X54.9862 Y48.3095
G01 X54.9927 Y48.3106
G01 X55.0009 Y48.3111
G01 X65.9139 Y48.3110
G01 X65.9241 Y48.3097
G01 X65.9770 Y48.2985
G01 X65.9876 Y48.2948
G01 X65.9961 Y48.2902
G01 X66.0402 Y48.2588
G01 X66.0468 Y48.2534
G01 X66.1086 Y48.1866
G01 X66.2961 Y48.0406
G01 X66.5052 Y47.9274
G01 X66.7300 Y47.8502
G01 X66.9645 Y47.8111
G01 X67.2022 Y47.8111
G01 X67.4367 Y47.8502
G01 X67.6615 Y47.9274
G01 X67.8706 Y48.0406
G01 X68.0582 Y48.1866
G01 X68.2192 Y48.3615
G01 X68.3492 Y48.5605
G01 X68.4447 Y48.7782
G01 X68.5031 Y49.0086
G01 X68.5227 Y49.2455
G01 X68.5031 Y49.4824
G01 X68.4447 Y49.7128
G01 X68.3492 Y49.9305
G01 X68.2192 Y50.1296
G01 X68.0582 Y50.3044
G01 X67.8706 Y50.4505
G01 X67.6615 Y50.5636
G01 X67.4367 Y50.6408
G01 X67.2022 Y50.6799
G01 X66.9645 Y50.6799
G01 X66.7300 Y50.6408
G01 X66.5052 Y50.5636
G01 X66.2961 Y50.4505
G01 X66.1086 Y50.3044
G01 X66.0468 Y50.2376
G01 X66.0402 Y50.2322
G01 X65.9961 Y50.2008
G01 X65.9861 Y50.1956
G01 X65.9770 Y50.1925
G01 X65.9224 Y50.1810
G01 X65.9122 Y50.1799
G01 X54.7116 Y50.1799
G01 X54.7038 Y50.1806
G01 X54.6620 Y50.1875
G01 X54.6522 Y50.1899
G01 X54.6429 Y50.1938
G01 X54.6055 Y50.2140
G01 X54.5964 Y50.2200
G01 X54.4872 Y50.3049
G01 X54.2782 Y50.4181
G01 X54.0533 Y50.4953
G01 X53.8189 Y50.5344
G01 X53.5811 Y50.5344
G01 X53.3467 Y50.4953
G01 X53.1218 Y50.4181
G01 X52.9128 Y50.3049
G01 X52.8036 Y50.2200
G01 X52.7945 Y50.2140
G01 X52.7571 Y50.1938
G01 X52.7478 Y50.1899
G01 X52.7380 Y50.1875
G01 X52.6977 Y50.1808
G01 X52.6915 Y50.1801
G01 X52.0727 Y50.1799
G01 X52.0660 Y50.1802
G01 X52.0562 Y50.1820
G01 X52.0194 Y50.1924
G01 X52.0095 Y50.1931
G01 X51.9984 Y50.1956
G01 X51.9909 Y50.1986
G01 X51.9780 Y50.2050
G01 X51.8257 Y50.2555
G01 X51.7335 Y50.2649
G01 X50.7402 Y50.2649
G01 X50.6549 Y50.2562
G01 X50.6436 Y50.2560
G01 X50.5774 Y50.2655
G01 X50.5695 Y50.2673
G01 X50.5634 Y50.2695
G01 X50.5575 Y50.2723
G01 X50.5506 Y50.2765
G01 X50.5007 Y50.3133
G01 X50.4945 Y50.3185
G01 X50.4879 Y50.3257
G01 X50.4817 Y50.3352
G01 X50.4536 Y50.3941
G01 X50.4513 Y50.4001
G01 X50.4492 Y50.4080
G01 X50.4481 Y50.4160
G01 X50.4479 Y50.4225
G01 X50.4510 Y50.4860
G01 X50.4521 Y50.4941
G01 X50.4541 Y50.5019
G01 X50.4572 Y50.5095
G01 X50.4602 Y50.5152
G01 X50.4921 Y50.5684
G01 X50.4979 Y50.5762
G01 X50.5105 Y50.5891
G01 X50.5198 Y50.5978
G01 X50.5607 Y50.6329
G01 X50.5770 Y50.6538
G01 X50.5911 Y50.6697
G01 X51.9507 Y52.0292
G01 X52.0126 Y52.0882
G01 X52.0425 Y52.1311
G01 X52.0496 Y52.1407
G01 X52.0842 Y52.1832
G01 X52.0959 Y52.2054
G01 X52.1054 Y52.2212
G01 X52.1212 Y52.2442
G01 X52.1429 Y52.2945
G01 X52.1480 Y52.3053
G01 X52.1722 Y52.3516
G01 X52.1791 Y52.3757
G01 X52.1853 Y52.3931
G01 X52.1961 Y52.4188
G01 X52.2072 Y52.4725
G01 X52.2101 Y52.4840
G01 X52.2245 Y52.5343
G01 X52.2267 Y52.5621
G01 X52.2294 Y52.5804
G01 X52.2344 Y52.6050
G01 X52.2344 Y52.6572
G01 X52.2348 Y52.6692
G01 X52.2389 Y52.7238
G01 X52.2358 Y52.7487
G01 X52.2345 Y52.7685
G01 X52.2344 Y52.8226
G01 X52.2347 Y52.8293
G01 X52.2366 Y52.8393
G01 X52.2534 Y52.9032
G01 X52.2577 Y52.9137
G01 X52.2609 Y52.9192
G01 X52.2647 Y52.9245
G01 X52.2689 Y52.9293
G01 X52.3138 Y52.9757
G01 X52.3199 Y52.9810
G01 X52.3252 Y52.9846
G01 X52.3322 Y52.9885
G01 X52.3397 Y52.9914
G01 X52.4015 Y53.0098
G01 X52.4078 Y53.0114
G01 X52.4190 Y53.0126
G01 X52.4255 Y53.0124
G01 X52.4319 Y53.0116
G01 X52.5010 Y52.9958
G01 X52.5100 Y52.9923
G01 X52.5184 Y52.9875
G01 X52.5249 Y52.9826
G01 X52.5349 Y52.9736
G01 X52.8152 Y53.2538
G01 X52.7735 Y53.3420
G01 X52.7393 Y53.4375
G01 X52.7374 Y53.4437
G01 X52.7135 Y53.5389
G01 X52.7123 Y53.5452
G01 X52.6975 Y53.6455
G01 X52.6923 Y53.7500
G01 X52.6975 Y53.8545
G01 X52.7123 Y53.9548
G01 X52.7135 Y53.9612
G01 X52.7374 Y54.0564
G01 X52.7393 Y54.0626
G01 X52.7735 Y54.1580
G01 X52.8152 Y54.2463
G01 X52.5349 Y54.5265
G01 X52.5249 Y54.5174
G01 X52.5198 Y54.5134
G01 X52.5115 Y54.5084
G01 X52.5041 Y54.5053
G01 X52.4963 Y54.5030
G01 X52.4350 Y54.4891
G01 X52.4287 Y54.4880
G01 X52.4222 Y54.4875
G01 X52.4142 Y54.4877
G01 X52.4047 Y54.4893
G01 X52.3413 Y54.5081
G01 X52.3308 Y54.5123
G01 X52.3211 Y54.5181
G01 X52.3138 Y54.5244
G01 X52.2678 Y54.5719
G01 X52.2627 Y54.5781
G01 X52.2584 Y54.5849
G01 X52.2550 Y54.5922
G01 X52.2525 Y54.5999
G01 X52.2362 Y54.6624
G01 X52.2346 Y54.6724
G01 X52.2346 Y61.2391
G01 X52.2357 Y61.2471
G01 X52.2451 Y61.2946
G01 X52.2467 Y61.3009
G01 X52.2489 Y61.3070
G01 X52.2516 Y61.3128
G01 X52.2550 Y61.3184
G01 X52.2828 Y61.3600
G01 X52.2889 Y61.3675
G01 X53.5314 Y62.6099
G01 X53.5400 Y62.6172
G01 X53.5843 Y62.6468
G01 X53.5930 Y62.6511
G01 X53.6038 Y62.6546
G01 X53.6545 Y62.6646
G01 X53.6658 Y62.6656
G01 X84.0342 Y62.6656
G01 X84.0455 Y62.6646
G01 X84.0977 Y62.6542
G01 X84.1070 Y62.6511
G01 X84.1170 Y62.6459
G01 X84.1600 Y62.6172
G01 X84.1686 Y62.6099
G01 X85.2611 Y61.5175
G01 X85.2672 Y61.5100
G01 X85.2950 Y61.4684
G01 X85.2984 Y61.4628
G01 X85.3011 Y61.4570
G01 X85.3046 Y61.4462
G01 X85.3143 Y61.3971
G01 X85.3153 Y61.3907
G01 X85.3156 Y61.3842
G01 X85.3156 Y58.7570
G01 X85.3147 Y58.7463
G01 X85.3057 Y58.6981
G01 X85.3023 Y58.6872
G01 X85.2979 Y58.6784
G01 X85.2702 Y58.6342
G01 X85.2654 Y58.6283
G01 X85.1142 Y58.4640
G01 X85.1070 Y58.4546
G01 X85.1015 Y58.4486
G01 X85.0953 Y58.4434
G01 X85.0899 Y58.4398
G01 X85.0687 Y58.4193
G01 X85.0639 Y58.4150
G01 X85.0545 Y58.4088
G01 X85.0458 Y58.4048
G01 X84.9918 Y58.3863
G01 X84.9824 Y58.3840
G01 X84.9744 Y58.3832
G01 X84.9680 Y58.3833
G01 X84.9339 Y58.3869
G01 X84.6333 Y58.0863
G01 X84.6749 Y57.9980
G01 X84.7092 Y57.9026
G01 X84.7111 Y57.8963
G01 X84.7349 Y57.8012
G01 X84.7362 Y57.7948
G01 X84.7510 Y57.6945
G01 X84.7561 Y57.5900
G01 X84.7510 Y57.4855
G01 X84.7362 Y57.3852
G01 X84.7349 Y57.3788
G01 X84.7111 Y57.2837
G01 X84.7092 Y57.2774
G01 X84.6749 Y57.1820
G01 X84.6333 Y57.0937
G01 X84.9362 Y56.7909
G01 X84.9608 Y56.7932
G01 X84.9688 Y56.7928
G01 X84.9783 Y56.7910
G01 X85.0385 Y56.7701
G01 X85.0484 Y56.7648
G01 X85.0573 Y56.7579
G01 X85.0995 Y56.7167
G01 X85.1046 Y56.7105
G01 X85.1142 Y56.6960
G01 X85.2674 Y56.5294
G01 X85.2720 Y56.5233
G01 X85.2971 Y56.4830
G01 X85.3003 Y56.4773
G01 X85.3029 Y56.4713
G01 X85.3057 Y56.4619
G01 X85.3145 Y56.4152
G01 X85.3153 Y56.4091
G01 X85.3156 Y56.4030
G01 X85.3156 Y55.3643
G01 X85.3135 Y55.2787
G01 X85.3227 Y55.2272
G01 X85.3244 Y55.2154
G01 X85.3300 Y55.1609
G01 X85.3375 Y55.1370
G01 X85.3420 Y55.1191
G01 X85.3470 Y55.0916
G01 X85.3664 Y55.0431
G01 X85.3705 Y55.0319
G01 X85.3869 Y54.9796
G01 X85.3991 Y54.9577
G01 X85.4070 Y54.9410
G01 X85.4175 Y54.9151
G01 X85.4463 Y54.8715
G01 X85.4525 Y54.8613
G01 X85.4791 Y54.8135
G01 X85.4972 Y54.7922
G01 X85.5083 Y54.7774
G01 X85.5221 Y54.7565
G01 X85.5599 Y54.7186
G01 X85.5689 Y54.7089
G01 X85.6029 Y54.6692
G01 X85.6122 Y54.6608
G01 X85.6281 Y54.6453
G01 X85.6361 Y54.6361
G01 X85.7797 Y54.5182
G01 X85.7830 Y54.5159
G01 X85.8638 Y54.4736
G01 X85.9411 Y54.4323
G01 X85.9516 Y54.4278
G01 X86.0349 Y54.4039
G01 X86.1169 Y54.3791
G01 X86.1237 Y54.3780
G01 X86.1343 Y54.3755
G01 X86.2201 Y54.3689
G01 X86.3000 Y54.3611
G01 X86.3061 Y54.3614
G01 X86.3238 Y54.3611
G01 X86.4031 Y54.3712
G01 X86.4832 Y54.3791
G01 X86.5123 Y54.3851
G01 X86.5848 Y54.4099
G01 X86.6593 Y54.4325
G01 X86.6833 Y54.4433
G01 X86.6921 Y54.4466
G01 X86.7553 Y54.4837
G01 X86.8216 Y54.5193
G01 X86.8279 Y54.5243
G01 X86.8450 Y54.5363
G01 X86.8559 Y54.5430
G01 X86.9078 Y54.5898
G01 X86.9639 Y54.6361
G01 X86.9712 Y54.6449
G01 X86.9851 Y54.6594
G01 X86.9969 Y54.6704
G01 X87.0363 Y54.7240
G01 X87.0807 Y54.7784
G01 X87.0878 Y54.7915
G01 X87.0980 Y54.8078
G01 X87.1094 Y54.8235
G01 X87.1358 Y54.8809
G01 X87.1674 Y54.9407
G01 X87.1728 Y54.9582
G01 X87.1793 Y54.9754
G01 X87.1887 Y54.9962
G01 X87.2023 Y55.0545
G01 X87.2050 Y55.0645
G01 X87.2209 Y55.1168
G01 X87.2229 Y55.1371
G01 X87.2259 Y55.1558
G01 X87.2317 Y55.1813
G01 X87.2332 Y55.2378
G01 X87.2339 Y55.2492
G01 X87.2389 Y55.3000
G01 X87.2366 Y55.3238
G01 X87.2359 Y55.3418
G01 X87.2365 Y55.3713
G01 X87.2272 Y55.4236
G01 X87.2255 Y55.4359
G01 X87.2209 Y55.4832
G01 X87.2128 Y55.5100
G01 X87.2089 Y55.5260
G01 X87.2030 Y55.5584
G01 X87.1974 Y55.5724
G01 X87.1951 Y55.5799
G01 X87.1856 Y55.6290
G01 X87.1845 Y55.6383
G01 X87.1844 Y56.4030
G01 X87.1848 Y56.4106
G01 X87.1943 Y56.4619
G01 X87.1971 Y56.4713
G01 X87.2021 Y56.4816
G01 X87.2289 Y56.5245
G01 X87.2346 Y56.5317
G01 X87.3405 Y56.6468
G01 X87.3453 Y56.6514
G01 X87.3518 Y56.6565
G01 X87.4149 Y56.6953
G01 X87.4239 Y56.6994
G01 X87.4335 Y56.7021
G01 X87.4450 Y56.7034
G01 X87.5174 Y56.7033
G01 X87.5240 Y56.7027
G01 X87.5305 Y56.7014
G01 X87.5384 Y56.6988
G01 X87.5444 Y56.6961
G01 X87.6062 Y56.6583
G01 X87.6143 Y56.6525
G01 X87.6203 Y56.6468
G01 X87.7452 Y56.5111
G01 X87.9328 Y56.3651
G01 X88.1418 Y56.2519
G01 X88.3667 Y56.1747
G01 X88.6011 Y56.1356
G01 X88.8389 Y56.1356
G01 X89.0733 Y56.1747
G01 X89.2982 Y56.2519
G01 X89.5072 Y56.3651
G01 X89.6948 Y56.5111
G01 X89.8558 Y56.6860
G01 X89.8665 Y56.7022
G01 X89.8725 Y56.7097
G01 X89.9167 Y56.7528
G01 X89.9258 Y56.7592
G01 X89.9315 Y56.7622
G01 X89.9375 Y56.7646
G01 X89.9912 Y56.7834
G01 X89.9990 Y56.7852
G01 X90.0095 Y56.7865
G01 X90.3167 Y57.0937
G01 X90.2751 Y57.1820
G01 X90.2408 Y57.2774
G01 X90.2389 Y57.2837
G01 X90.2151 Y57.3788
G01 X90.2138 Y57.3852
G01 X90.1990 Y57.4855
G01 X90.1939 Y57.5900
G01 X90.1990 Y57.6945
G01 X90.2138 Y57.7948
G01 X90.2151 Y57.8012
G01 X90.2389 Y57.8963
G01 X90.2408 Y57.9026
G01 X90.2751 Y57.9980
G01 X90.3167 Y58.0863
G01 X90.0145 Y58.3885
G01 X89.9942 Y58.3862
G01 X89.9878 Y58.3862
G01 X89.9798 Y58.3871
G01 X89.9720 Y58.3889
G01 X89.9190 Y58.4051
G01 X89.9117 Y58.4084
G01 X89.9035 Y58.4134
G01 X89.8743 Y58.4380
G01 X89.8679 Y58.4424
G01 X89.8618 Y58.4477
G01 X89.7046 Y58.6183
G01 X89.6998 Y58.6242
G01 X89.6721 Y58.6684
G01 X89.6671 Y58.6787
G01 X89.6643 Y58.6881
G01 X89.6548 Y58.7394
G01 X89.6544 Y58.7470
G01 X89.6544 Y63.3658
G01 X89.6565 Y63.4513
G01 X89.6469 Y63.5053
G01 X89.6453 Y63.5171
G01 X89.6400 Y63.5691
G01 X89.6325 Y63.5930
G01 X89.6280 Y63.6110
G01 X89.6230 Y63.6384
G01 X89.6027 Y63.6893
G01 X89.5987 Y63.7005
G01 X89.5831 Y63.7504
G01 X89.5709 Y63.7723
G01 X89.5630 Y63.7890
G01 X89.5525 Y63.8149
G01 X89.5224 Y63.8606
G01 X89.5094 Y63.8832
G01 X89.5060 Y63.8903
G01 X89.5031 Y63.8992
G01 X89.4875 Y63.9609
G01 X89.4862 Y63.9673
G01 X89.4855 Y63.9755
G01 X89.4858 Y63.9836
G01 X89.4875 Y63.9933
G01 X89.5055 Y64.0578
G01 X89.5077 Y64.0639
G01 X89.5105 Y64.0698
G01 X89.5149 Y64.0767
G01 X89.5211 Y64.0843
G01 X89.5676 Y64.1302
G01 X89.5725 Y64.1345
G01 X89.5777 Y64.1384
G01 X89.5834 Y64.1417
G01 X89.5893 Y64.1445
G01 X89.5955 Y64.1466
G01 X89.6601 Y64.1638
G01 X89.6678 Y64.1651
G01 X89.6756 Y64.1656
G01 X98.3342 Y64.1656
G01 X98.3423 Y64.1651
G01 X98.3962 Y64.1546
G01 X98.4024 Y64.1528
G01 X98.4085 Y64.1505
G01 X98.4170 Y64.1459
G01 X98.4586 Y64.1181
G01 X98.4638 Y64.1143
G01 X98.4686 Y64.1099
G01 X100.3299 Y62.2486
G01 X100.3372 Y62.2400
G01 X100.3650 Y62.1984
G01 X100.3691 Y62.1914
G01 X100.3723 Y62.1839
G01 X100.3746 Y62.1762
G01 X100.3843 Y62.1271
G01 X100.3853 Y62.1207
G01 X100.3856 Y62.1142
G01 X100.3855 Y58.2740
G01 X100.3847 Y58.2663
G01 X100.3760 Y58.2197
G01 X100.3729 Y58.2087
G01 X100.3679 Y58.1984
G01 X100.3411 Y58.1555
G01 X100.3354 Y58.1483
G01 X100.1842 Y57.9840
G01 X100.1778 Y57.9755
G01 X100.1724 Y57.9695
G01 X100.1676 Y57.9651
G01 X100.1629 Y57.9617
G01 X100.1263 Y57.9281
G01 X100.1183 Y57.9224
G01 X100.1111 Y57.9186
G01 X100.1002 Y57.9148
G01 X100.0380 Y57.8992
G01 X100.0266 Y57.8979
G01 X100.0152 Y57.8986
G01 X100.0088 Y57.8999
G01 X99.9450 Y57.9162
G01 X99.9389 Y57.9186
G01 X99.9331 Y57.9216
G01 X99.9237 Y57.9281
G01 X99.8871 Y57.9617
G01 X99.8809 Y57.9664
G01 X99.8762 Y57.9709
G01 X99.8720 Y57.9758
G01 X99.8658 Y57.9840
G01 X99.7048 Y58.1589
G01 X99.5172 Y58.3049
G01 X99.3082 Y58.4181
G01 X99.0833 Y58.4953
G01 X99.0799 Y58.4959
G01 X98.8489 Y58.5344
G01 X98.6111 Y58.5344
G01 X98.3767 Y58.4953
G01 X98.1518 Y58.4181
G01 X97.9428 Y58.3049
G01 X97.7552 Y58.1589
G01 X97.5942 Y57.9840
G01 X97.4642 Y57.7850
G01 X97.3687 Y57.5673
G01 X97.3103 Y57.3369
G01 X97.2907 Y57.1000
G01 X97.3103 Y56.8631
G01 X97.3687 Y56.6327
G01 X97.4642 Y56.4150
G01 X97.5942 Y56.2160
G01 X97.7184 Y56.0808
G01 X97.7228 Y56.0745
G01 X97.7479 Y56.0342
G01 X97.7517 Y56.0269
G01 X97.7544 Y56.0192
G01 X97.7560 Y56.0129
G01 X97.7647 Y55.9663
G01 X97.7656 Y55.9556
G01 X97.7656 Y55.3552
G01 X97.7648 Y55.3382
G01 X97.7611 Y55.3000
G01 X97.7793 Y55.1152
G01 X97.7799 Y55.1111
G01 X97.8069 Y55.0251
G01 X97.8326 Y54.9404
G01 X97.8369 Y54.9296
G01 X97.8790 Y54.8538
G01 X97.9193 Y54.7783
G01 X97.9234 Y54.7727
G01 X97.9291 Y54.7635
G01 X97.9834 Y54.7002
G01 X98.0361 Y54.6361
G01 X98.0406 Y54.6320
G01 X98.0529 Y54.6193
G01 X98.1161 Y54.5703
G01 X98.1784 Y54.5193
G01 X98.2032 Y54.5029
G01 X98.2719 Y54.4692
G01 X98.3407 Y54.4326
G01 X98.3653 Y54.4232
G01 X98.3738 Y54.4192
G01 X98.4447 Y54.4009
G01 X98.5168 Y54.3791
G01 X98.5248 Y54.3782
G01 X98.5454 Y54.3746
G01 X98.5578 Y54.3716
G01 X98.6276 Y54.3681
G01 X98.7000 Y54.3611
G01 X98.7114 Y54.3621
G01 X98.7315 Y54.3626
G01 X98.7476 Y54.3620
G01 X98.8134 Y54.3720
G01 X98.8832 Y54.3791
G01 X98.8975 Y54.3834
G01 X98.9162 Y54.3877
G01 X98.9354 Y54.3908
G01 X98.9947 Y54.4127
G01 X99.0593 Y54.4325
G01 X99.0755 Y54.4411
G01 X99.0923 Y54.4487
G01 X99.1136 Y54.4568
G01 X99.1644 Y54.4884
G01 X99.1735 Y54.4936
G01 X99.2216 Y54.5193
G01 X99.2374 Y54.5322
G01 X99.2527 Y54.5433
G01 X99.2749 Y54.5573
G01 X99.3159 Y54.5962
G01 X99.3245 Y54.6037
G01 X99.3639 Y54.6361
G01 X99.3791 Y54.6545
G01 X99.3913 Y54.6677
G01 X99.4126 Y54.6882
G01 X99.4430 Y54.7318
G01 X99.4506 Y54.7417
G01 X99.4807 Y54.7784
G01 X99.4939 Y54.8031
G01 X99.5025 Y54.8171
G01 X99.5212 Y54.8442
G01 X99.5409 Y54.8899
G01 X99.5467 Y54.9019
G01 X99.5674 Y54.9407
G01 X99.5766 Y54.9708
G01 X99.5819 Y54.9854
G01 X99.5961 Y55.0188
G01 X99.6056 Y55.0643
G01 X99.6092 Y55.0782
G01 X99.6209 Y55.1168
G01 X99.6243 Y55.1516
G01 X99.6265 Y55.1661
G01 X99.6344 Y55.2050
G01 X99.6345 Y55.2480
G01 X99.6352 Y55.2618
G01 X99.6389 Y55.3000
G01 X99.6352 Y55.3382
G01 X99.6344 Y55.3552
G01 X99.6344 Y55.8950
G01 X99.6349 Y55.9016
G01 X99.6361 Y55.9082
G01 X99.6487 Y55.9627
G01 X99.6515 Y55.9717
G01 X99.6548 Y55.9789
G01 X99.6589 Y55.9857
G01 X99.6830 Y56.0155
G01 X99.6876 Y56.0233
G01 X99.6926 Y56.0296
G01 X99.6971 Y56.0343
G01 X99.7048 Y56.0410
G01 X99.8658 Y56.2159
G01 X99.8754 Y56.2282
G01 X99.8812 Y56.2338
G01 X99.8871 Y56.2383
G01 X99.9249 Y56.2729
G01 X99.9345 Y56.2792
G01 X99.9435 Y56.2832
G01 X99.9497 Y56.2852
G01 X100.0104 Y56.3005
G01 X100.0185 Y56.3018
G01 X100.0266 Y56.3021
G01 X100.0332 Y56.3016
G01 X100.0396 Y56.3005
G01 X100.1018 Y56.2847
G01 X100.1111 Y56.2814
G01 X100.1197 Y56.2767
G01 X100.1276 Y56.2708
G01 X100.1629 Y56.2383
G01 X100.1691 Y56.2335
G01 X100.1738 Y56.2291
G01 X100.1780 Y56.2242
G01 X100.1842 Y56.2160
G01 X100.3452 Y56.0411
G01 X100.5328 Y55.8951
G01 X100.7418 Y55.7819
G01 X100.9667 Y55.7047
G01 X101.2011 Y55.6656
G01 X101.4389 Y55.6656
G01 X101.6733 Y55.7047
G01 X101.8982 Y55.7819
G01 X102.1072 Y55.8951
G01 X102.2948 Y56.0411
G01 X102.4558 Y56.2160
G01 X102.4771 Y56.2484
G01 X102.4820 Y56.2548
G01 X102.5277 Y56.2992
G01 X102.5369 Y56.3057
G01 X102.5456 Y56.3100
G01 X102.5996 Y56.3288
G01 X102.6090 Y56.3313
G01 X102.6170 Y56.3323
G01 X102.6250 Y56.3323
G01 X102.6796 Y56.3266
G01 X102.9767 Y56.6237
G01 X102.9351 Y56.7120
G01 X102.9008 Y56.8074
G01 X102.8989 Y56.8137
G01 X102.8751 Y56.9088
G01 X102.8738 Y56.9152
G01 X102.8590 Y57.0155
G01 X102.8539 Y57.1200
G01 X102.8590 Y57.2245
G01 X102.8738 Y57.3248
G01 X102.8751 Y57.3312
G01 X102.8989 Y57.4263
G01 X102.9008 Y57.4326
G01 X102.9351 Y57.5280
G01 X102.9767 Y57.6163
G01 X102.6872 Y57.9057
G01 X102.6769 Y57.9018
G01 X102.6674 Y57.8998
G01 X102.6103 Y57.8935
G01 X102.6038 Y57.8933
G01 X102.5958 Y57.8939
G01 X102.5848 Y57.8964
G01 X102.5290 Y57.9157
G01 X102.5189 Y57.9207
G01 X102.5135 Y57.9244
G01 X102.5086 Y57.9286
G01 X102.4663 Y57.9698
G01 X102.4612 Y57.9760
G01 X102.4558 Y57.9840
G01 X102.3046 Y58.1483
G01 X102.3007 Y58.1530
G01 X102.2972 Y58.1580
G01 X102.2729 Y58.1970
G01 X102.2677 Y58.2072
G01 X102.2643 Y58.2181
G01 X102.2548 Y58.2694
G01 X102.2544 Y58.2770
G01 X102.2544 Y62.5658
G01 X102.2565 Y62.6513
G01 X102.2469 Y62.7052
G01 X102.2453 Y62.7171
G01 X102.2400 Y62.7691
G01 X102.2318 Y62.7957
G01 X102.2274 Y62.8137
G01 X102.2230 Y62.8384
G01 X102.2027 Y62.8893
G01 X102.1987 Y62.9005
G01 X102.1831 Y62.9504
G01 X102.1709 Y62.9723
G01 X102.1630 Y62.9890
G01 X102.1525 Y63.0149
G01 X102.1224 Y63.0606
G01 X102.1162 Y63.0708
G01 X102.0909 Y63.1165
G01 X102.0745 Y63.1356
G01 X102.0634 Y63.1503
G01 X102.0479 Y63.1735
G01 X102.0110 Y63.2105
G01 X102.0028 Y63.2192
G01 X101.9671 Y63.2607
G01 X101.9462 Y63.2770
G01 X101.9303 Y63.2912
G01 X99.4708 Y65.7506
G01 X99.4118 Y65.8126
G01 X99.3689 Y65.8425
G01 X99.3593 Y65.8496
G01 X99.3168 Y65.8842
G01 X99.2946 Y65.8959
G01 X99.2788 Y65.9054
G01 X99.2558 Y65.9212
G01 X99.2055 Y65.9429
G01 X99.1947 Y65.9480
G01 X99.1484 Y65.9722
G01 X99.1216 Y65.9800
G01 X99.1044 Y65.9862
G01 X99.0812 Y65.9961
G01 X99.0300 Y66.0067
G01 X99.0184 Y66.0095
G01 X98.9657 Y66.0245
G01 X98.9379 Y66.0267
G01 X98.9196 Y66.0294
G01 X98.8950 Y66.0344
G01 X98.8428 Y66.0344
G01 X98.8308 Y66.0348
G01 X98.7762 Y66.0389
G01 X98.7499 Y66.0356
G01 X98.7287 Y66.0344
G01 X87.0428 Y66.0344
G01 X87.0283 Y66.0349
G01 X86.9762 Y66.0389
G01 X86.9499 Y66.0356
G01 X86.9287 Y66.0344
G01 X52.1143 Y66.0344
G01 X52.0287 Y66.0365
G01 X51.9748 Y66.0269
G01 X51.9629 Y66.0253
G01 X51.9109 Y66.0200
G01 X51.8843 Y66.0118
G01 X51.8663 Y66.0074
G01 X51.8416 Y66.0030
G01 X51.7931 Y65.9836
G01 X51.7819 Y65.9796
G01 X51.7296 Y65.9631
G01 X51.7077 Y65.9509
G01 X51.6910 Y65.9430
G01 X51.6651 Y65.9325
G01 X51.6194 Y65.9024
G01 X51.6091 Y65.8962
G01 X51.5635 Y65.8709
G01 X51.5444 Y65.8545
G01 X51.5297 Y65.8434
G01 X51.5065 Y65.8279
G01 X51.4695 Y65.7910
G01 X51.4608 Y65.7828
G01 X51.4193 Y65.7471
G01 X51.4030 Y65.7262
G01 X51.3888 Y65.7103
G01 X49.2494 Y63.5708
G01 X49.1874 Y63.5118
G01 X49.1575 Y63.4689
G01 X49.1504 Y63.4593
G01 X49.1158 Y63.4168
G01 X49.1041 Y63.3946
G01 X49.0946 Y63.3788
G01 X49.0788 Y63.3558
G01 X49.0571 Y63.3055
G01 X49.0520 Y63.2947
G01 X49.0278 Y63.2484
G01 X49.0209 Y63.2243
G01 X49.0147 Y63.2069
G01 X49.0039 Y63.1812
G01 X48.9933 Y63.1300
G01 X48.9905 Y63.1184
G01 X48.9755 Y63.0657
G01 X48.9733 Y63.0379
G01 X48.9706 Y63.0196
G01 X48.9656 Y62.9950
G01 X48.9656 Y62.9428
G01 X48.9652 Y62.9308
G01 X48.9611 Y62.8762
G01 X48.9644 Y62.8499
G01 X48.9656 Y62.8287
G01 X48.9656 Y54.9658
G01 X48.9653 Y54.9593
G01 X48.9643 Y54.9529
G01 X48.9546 Y54.9038
G01 X48.9511 Y54.8930
G01 X48.9484 Y54.8872
G01 X48.9450 Y54.8816
G01 X48.9172 Y54.8400
G01 X48.9122 Y54.8337
G01 X48.3486 Y54.2701
G01 X48.3400 Y54.2628
G01 X48.2984 Y54.2350
G01 X48.2928 Y54.2316
G01 X48.2870 Y54.2289
G01 X48.2809 Y54.2267
G01 X48.2746 Y54.2251
G01 X48.2255 Y54.2154
G01 X48.2175 Y54.2145
G01 X46.5590 Y54.2146
G01 X46.5480 Y54.2163
G01 X46.4874 Y54.2313
G01 X46.4814 Y54.2334
G01 X46.4743 Y54.2368
G01 X46.4688 Y54.2402
G01 X46.4638 Y54.2440
G01 X46.4170 Y54.2853
G01 X46.4125 Y54.2898
G01 X46.4076 Y54.2961
G01 X46.4042 Y54.3015
G01 X46.4008 Y54.3086
G01 X46.3785 Y54.3669
G01 X46.3766 Y54.3730
G01 X46.3754 Y54.3792
G01 X46.3747 Y54.3856
G01 X46.3747 Y54.3919
G01 X46.3819 Y54.4555
G01 X46.3830 Y54.4618
G01 X46.3857 Y54.4709
G01 X46.4293 Y54.5878
G01 X46.4344 Y54.6357
G01 X46.4344 Y55.9243
G01 X46.4293 Y55.9722
G01 X46.3852 Y56.0903
G01 X46.3285 Y56.1661
G01 X46.3250 Y56.1713
G01 X46.3213 Y56.1782
G01 X46.2975 Y56.2308
G01 X46.2947 Y56.2404
G01 X46.2935 Y56.2503
G01 X46.2934 Y56.3080
G01 X46.2939 Y56.3147
G01 X46.2947 Y56.3196
G01 X46.2959 Y56.3244
G01 X46.2981 Y56.3308
G01 X46.3213 Y56.3818
G01 X46.3241 Y56.3874
G01 X46.3285 Y56.3939
G01 X46.3852 Y56.4697
G01 X46.4293 Y56.5878
G01 X46.4344 Y56.6357
G01 X46.4344 Y57.9243
G01 X46.4293 Y57.9722
G01 X46.3852 Y58.0903
G01 X46.3103 Y58.1903
G01 X46.2103 Y58.2652
G01 X46.0921 Y58.3093
G01 X46.0792 Y58.3119
G01 X46.0714 Y58.3144
G01 X46.0162 Y58.3413
G01 X46.0065 Y58.3475
G01 X46.0003 Y58.3528
G01 X45.9949 Y58.3589
G01 X45.9598 Y58.4033
G01 X45.9537 Y58.4130
G01 X45.9505 Y58.4205
G01 X45.9486 Y58.4268
G01 X45.9357 Y58.4835
G01 X45.9347 Y58.4899
G01 X45.9344 Y58.4965
G01 X45.9344 Y60.4642
G01 X45.9354 Y60.4755
G01 X45.9451 Y60.5246
G01 X45.9467 Y60.5309
G01 X45.9489 Y60.5370
G01 X45.9516 Y60.5428
G01 X45.9550 Y60.5484
G01 X45.9828 Y60.5900
G01 X45.9889 Y60.5975
G01 X48.0217 Y62.6302
G01 X48.0342 Y62.6417
G01 X48.0639 Y62.6661
G01 X48.1818 Y62.8097
G01 X48.1841 Y62.8130
G01 X48.2260 Y62.8932
G01 X48.2677 Y62.9711
G01 X48.2722 Y62.9816
G01 X48.2961 Y63.0650
G01 X48.3209 Y63.1469
G01 X48.3220 Y63.1537
G01 X48.3245 Y63.1643
G01 X48.3308 Y63.2474
G01 X48.3389 Y63.3300
G01 X48.3386 Y63.3361
G01 X48.3389 Y63.3538
G01 X48.3288 Y63.4331
G01 X48.3209 Y63.5132
G01 X48.3149 Y63.5423
G01 X48.2901 Y63.6148
G01 X48.2674 Y63.6893
G01 X48.2625 Y63.7004
G01 X48.2599 Y63.7081
G01 X48.2580 Y63.7176
G01 X48.2576 Y63.7289
G01 X48.2484 Y63.7727
G01 X48.2473 Y63.7824
G01 X48.2479 Y63.7938
G01 X48.2500 Y63.8033
G01 X48.2694 Y63.8555
G01 X48.2722 Y63.8656
G01 X48.2747 Y63.8716
G01 X48.2798 Y63.8814
G01 X48.2852 Y63.8897
G01 X48.3293 Y64.0078
G01 X48.3344 Y64.0557
G01 X48.3344 Y64.5715
G01 X48.3380 Y64.6476
G01 X48.3362 Y64.6602
G01 X48.3344 Y64.6856
G01 X48.3344 Y65.1443
G01 X48.3293 Y65.1922
G01 X48.2852 Y65.3103
G01 X48.2103 Y65.4103
G01 X48.1103 Y65.4852
G01 X47.9922 Y65.5293
G01 X47.9443 Y65.5344
G01 X43.8142 Y65.5344
G01 X43.7287 Y65.5365
G01 X43.6748 Y65.5269
G01 X43.6630 Y65.5253
G01 X43.6109 Y65.5200
G01 X43.5843 Y65.5118
G01 X43.5663 Y65.5074
G01 X43.5416 Y65.5030
G01 X43.4931 Y65.4836
G01 X43.4819 Y65.4796
G01 X43.4296 Y65.4631
G01 X43.4077 Y65.4509
G01 X43.3910 Y65.4430
G01 X43.3651 Y65.4325
G01 X43.3194 Y65.4024
G01 X43.3092 Y65.3962
G01 X43.2635 Y65.3709
G01 X43.2422 Y65.3528
G01 X43.2274 Y65.3417
G01 X43.2065 Y65.3279
G01 X43.1695 Y65.2910
G01 X43.1608 Y65.2828
G01 X43.1193 Y65.2471
G01 X43.1030 Y65.2262
G01 X43.0888 Y65.2103
G01 X41.9494 Y64.0708
G01 X41.8874 Y64.0118
G01 X41.8575 Y63.9689
G01 X41.8504 Y63.9593
G01 X41.8158 Y63.9168
G01 X41.8041 Y63.8946
G01 X41.7946 Y63.8788
G01 X41.7788 Y63.8558
G01 X41.7571 Y63.8055
G01 X41.7520 Y63.7947
G01 X41.7278 Y63.7484
G01 X41.7209 Y63.7243
G01 X41.7147 Y63.7069
G01 X41.7039 Y63.6812
G01 X41.6933 Y63.6300
G01 X41.6905 Y63.6184
G01 X41.6755 Y63.5657
G01 X41.6733 Y63.5379
G01 X41.6706 Y63.5196
G01 X41.6656 Y63.4950
G01 X41.6656 Y63.4428
G01 X41.6652 Y63.4308
G01 X41.6611 Y63.3762
G00 Z2.0000
G00 X52.9906 Y54.9649
G01 F20.00
G01 Z-0.0601
G01 F40.00
G01 X53.2622 Y54.6933
G01 X53.3505 Y54.7350
G01 X53.4459 Y54.7692
