(G-CODE GENERATED BY FLATCAM v8.994 - www.flatcam.org - Version Date: 2020/11/7)

(Name: Sensorbox-NPTH.drl_mill_cnc)
(Type: G-code from Geometry)
(Units: MM)

(Created on Tuesday, 06 February 2024 at 13:46)

(This preprocessor is the default preprocessor used by FlatCAM.)
(It is made to work with MACH3 compatible motion controllers.)

(TOOL DIAMETER: 1.2 mm)
(Feedrate_XY: 80.0 mm/min)
(Feedrate_Z: 40.0 mm/min)
(Feedrate rapids 1500.0 mm/min)

(Z_Cut: -1.9 mm)
(DepthPerCut: 0.2 mm <=>10 passes)
(Z_Move: 2.0 mm)
(Z Start: None mm)
(Z End: 15.0 mm)
(X,Y End: None mm)
(Steps per circle: 64)
(Preprocessor Geometry: default)

(X range:    4.0000 ...  106.3890  mm)
(Y range:    4.0000 ...   66.0000  mm)

(Spindle Speed: 20000.0 RPM)
G21
G90
G94

G01 F80.00

M5
G00 Z15.0000
G00 X0.0000 Y0.0000
T1
M6    
(MSG, Change to Tool Dia = 1.2000)
M0
G00 Z15.0000

M03 S20000.0
G01 F80.00
G00 X6.0000 Y5.0000
G01 F40.00
G01 Z-0.2000
G01 F80.00
G01 X5.9952 Y4.9020
G01 X5.9808 Y4.8049
G01 X5.9569 Y4.7097
G01 X5.9239 Y4.6173
G01 X5.8819 Y4.5286
G01 X5.8315 Y4.4444
G01 X5.7730 Y4.3656
G01 X5.7071 Y4.2929
G01 X5.6344 Y4.2270
G01 X5.5556 Y4.1685
G01 X5.4714 Y4.1181
G01 X5.3827 Y4.0761
G01 X5.2903 Y4.0431
G01 X5.1951 Y4.0192
G01 X5.0980 Y4.0048
G01 X5.0000 Y4.0000
G01 X4.9020 Y4.0048
G01 X4.8049 Y4.0192
G01 X4.7097 Y4.0431
G01 X4.6173 Y4.0761
G01 X4.5286 Y4.1181
G01 X4.4444 Y4.1685
G01 X4.3656 Y4.2270
G01 X4.2929 Y4.2929
G01 X4.2270 Y4.3656
G01 X4.1685 Y4.4444
G01 X4.1181 Y4.5286
G01 X4.0761 Y4.6173
G01 X4.0431 Y4.7097
G01 X4.0192 Y4.8049
G01 X4.0048 Y4.9020
G01 X4.0000 Y5.0000
G01 X4.0048 Y5.0980
G01 X4.0192 Y5.1951
G01 X4.0431 Y5.2903
G01 X4.0761 Y5.3827
G01 X4.1181 Y5.4714
G01 X4.1685 Y5.5556
G01 X4.2270 Y5.6344
G01 X4.2929 Y5.7071
G01 X4.3656 Y5.7730
G01 X4.4444 Y5.8315
G01 X4.5286 Y5.8819
G01 X4.6173 Y5.9239
G01 X4.7097 Y5.9569
G01 X4.8049 Y5.9808
G01 X4.9020 Y5.9952
G01 X5.0000 Y6.0000
G01 X5.0980 Y5.9952
G01 X5.1951 Y5.9808
G01 X5.2903 Y5.9569
G01 X5.3827 Y5.9239
G01 X5.4714 Y5.8819
G01 X5.5556 Y5.8315
G01 X5.6344 Y5.7730
G01 X5.7071 Y5.7071
G01 X5.7730 Y5.6344
G01 X5.8315 Y5.5556
G01 X5.8819 Y5.4714
G01 X5.9239 Y5.3827
G01 X5.9569 Y5.2903
G01 X5.9808 Y5.1951
G01 X5.9952 Y5.0980
G01 X6.0000 Y5.0000
G00 X6.0000 Y5.0000
G01 F40.00
G01 Z-0.4000
G01 F80.00
G01 X5.9952 Y4.9020
G01 X5.9808 Y4.8049
G01 X5.9569 Y4.7097
G01 X5.9239 Y4.6173
G01 X5.8819 Y4.5286
G01 X5.8315 Y4.4444
G01 X5.7730 Y4.3656
G01 X5.7071 Y4.2929
G01 X5.6344 Y4.2270
G01 X5.5556 Y4.1685
G01 X5.4714 Y4.1181
G01 X5.3827 Y4.0761
G01 X5.2903 Y4.0431
G01 X5.1951 Y4.0192
G01 X5.0980 Y4.0048
G01 X5.0000 Y4.0000
G01 X4.9020 Y4.0048
G01 X4.8049 Y4.0192
G01 X4.7097 Y4.0431
G01 X4.6173 Y4.0761
G01 X4.5286 Y4.1181
G01 X4.4444 Y4.1685
G01 X4.3656 Y4.2270
G01 X4.2929 Y4.2929
G01 X4.2270 Y4.3656
G01 X4.1685 Y4.4444
G01 X4.1181 Y4.5286
G01 X4.0761 Y4.6173
G01 X4.0431 Y4.7097
G01 X4.0192 Y4.8049
G01 X4.0048 Y4.9020
G01 X4.0000 Y5.0000
G01 X4.0048 Y5.0980
G01 X4.0192 Y5.1951
G01 X4.0431 Y5.2903
G01 X4.0761 Y5.3827
G01 X4.1181 Y5.4714
G01 X4.1685 Y5.5556
G01 X4.2270 Y5.6344
G01 X4.2929 Y5.7071
G01 X4.3656 Y5.7730
G01 X4.4444 Y5.8315
G01 X4.5286 Y5.8819
G01 X4.6173 Y5.9239
G01 X4.7097 Y5.9569
G01 X4.8049 Y5.9808
G01 X4.9020 Y5.9952
G01 X5.0000 Y6.0000
G01 X5.0980 Y5.9952
G01 X5.1951 Y5.9808
G01 X5.2903 Y5.9569
G01 X5.3827 Y5.9239
G01 X5.4714 Y5.8819
G01 X5.5556 Y5.8315
G01 X5.6344 Y5.7730
G01 X5.7071 Y5.7071
G01 X5.7730 Y5.6344
G01 X5.8315 Y5.5556
G01 X5.8819 Y5.4714
G01 X5.9239 Y5.3827
G01 X5.9569 Y5.2903
G01 X5.9808 Y5.1951
G01 X5.9952 Y5.0980
G01 X6.0000 Y5.0000
G00 X6.0000 Y5.0000
G01 F40.00
G01 Z-0.6000
G01 F80.00
G01 X5.9952 Y4.9020
G01 X5.9808 Y4.8049
G01 X5.9569 Y4.7097
G01 X5.9239 Y4.6173
G01 X5.8819 Y4.5286
G01 X5.8315 Y4.4444
G01 X5.7730 Y4.3656
G01 X5.7071 Y4.2929
G01 X5.6344 Y4.2270
G01 X5.5556 Y4.1685
G01 X5.4714 Y4.1181
G01 X5.3827 Y4.0761
G01 X5.2903 Y4.0431
G01 X5.1951 Y4.0192
G01 X5.0980 Y4.0048
G01 X5.0000 Y4.0000
G01 X4.9020 Y4.0048
G01 X4.8049 Y4.0192
G01 X4.7097 Y4.0431
G01 X4.6173 Y4.0761
G01 X4.5286 Y4.1181
G01 X4.4444 Y4.1685
G01 X4.3656 Y4.2270
G01 X4.2929 Y4.2929
G01 X4.2270 Y4.3656
G01 X4.1685 Y4.4444
G01 X4.1181 Y4.5286
G01 X4.0761 Y4.6173
G01 X4.0431 Y4.7097
G01 X4.0192 Y4.8049
G01 X4.0048 Y4.9020
G01 X4.0000 Y5.0000
G01 X4.0048 Y5.0980
G01 X4.0192 Y5.1951
G01 X4.0431 Y5.2903
G01 X4.0761 Y5.3827
G01 X4.1181 Y5.4714
G01 X4.1685 Y5.5556
G01 X4.2270 Y5.6344
G01 X4.2929 Y5.7071
G01 X4.3656 Y5.7730
G01 X4.4444 Y5.8315
G01 X4.5286 Y5.8819
G01 X4.6173 Y5.9239
G01 X4.7097 Y5.9569
G01 X4.8049 Y5.9808
G01 X4.9020 Y5.9952
G01 X5.0000 Y6.0000
G01 X5.0980 Y5.9952
G01 X5.1951 Y5.9808
G01 X5.2903 Y5.9569
G01 X5.3827 Y5.9239
G01 X5.4714 Y5.8819
G01 X5.5556 Y5.8315
G01 X5.6344 Y5.7730
G01 X5.7071 Y5.7071
G01 X5.7730 Y5.6344
G01 X5.8315 Y5.5556
G01 X5.8819 Y5.4714
G01 X5.9239 Y5.3827
G01 X5.9569 Y5.2903
G01 X5.9808 Y5.1951
G01 X5.9952 Y5.0980
G01 X6.0000 Y5.0000
G00 X6.0000 Y5.0000
G01 F40.00
G01 Z-0.8000
G01 F80.00
G01 X5.9952 Y4.9020
G01 X5.9808 Y4.8049
G01 X5.9569 Y4.7097
G01 X5.9239 Y4.6173
G01 X5.8819 Y4.5286
G01 X5.8315 Y4.4444
G01 X5.7730 Y4.3656
G01 X5.7071 Y4.2929
G01 X5.6344 Y4.2270
G01 X5.5556 Y4.1685
G01 X5.4714 Y4.1181
G01 X5.3827 Y4.0761
G01 X5.2903 Y4.0431
G01 X5.1951 Y4.0192
G01 X5.0980 Y4.0048
G01 X5.0000 Y4.0000
G01 X4.9020 Y4.0048
G01 X4.8049 Y4.0192
G01 X4.7097 Y4.0431
G01 X4.6173 Y4.0761
G01 X4.5286 Y4.1181
G01 X4.4444 Y4.1685
G01 X4.3656 Y4.2270
G01 X4.2929 Y4.2929
G01 X4.2270 Y4.3656
G01 X4.1685 Y4.4444
G01 X4.1181 Y4.5286
G01 X4.0761 Y4.6173
G01 X4.0431 Y4.7097
G01 X4.0192 Y4.8049
G01 X4.0048 Y4.9020
G01 X4.0000 Y5.0000
G01 X4.0048 Y5.0980
G01 X4.0192 Y5.1951
G01 X4.0431 Y5.2903
G01 X4.0761 Y5.3827
G01 X4.1181 Y5.4714
G01 X4.1685 Y5.5556
G01 X4.2270 Y5.6344
G01 X4.2929 Y5.7071
G01 X4.3656 Y5.7730
G01 X4.4444 Y5.8315
G01 X4.5286 Y5.8819
G01 X4.6173 Y5.9239
G01 X4.7097 Y5.9569
G01 X4.8049 Y5.9808
G01 X4.9020 Y5.9952
G01 X5.0000 Y6.0000
G01 X5.0980 Y5.9952
G01 X5.1951 Y5.9808
G01 X5.2903 Y5.9569
G01 X5.3827 Y5.9239
G01 X5.4714 Y5.8819
G01 X5.5556 Y5.8315
G01 X5.6344 Y5.7730
G01 X5.7071 Y5.7071
G01 X5.7730 Y5.6344
G01 X5.8315 Y5.5556
G01 X5.8819 Y5.4714
G01 X5.9239 Y5.3827
G01 X5.9569 Y5.2903
G01 X5.9808 Y5.1951
G01 X5.9952 Y5.0980
G01 X6.0000 Y5.0000
G00 X6.0000 Y5.0000
G01 F40.00
G01 Z-1.0000
G01 F80.00
G01 X5.9952 Y4.9020
G01 X5.9808 Y4.8049
G01 X5.9569 Y4.7097
G01 X5.9239 Y4.6173
G01 X5.8819 Y4.5286
G01 X5.8315 Y4.4444
G01 X5.7730 Y4.3656
G01 X5.7071 Y4.2929
G01 X5.6344 Y4.2270
G01 X5.5556 Y4.1685
G01 X5.4714 Y4.1181
G01 X5.3827 Y4.0761
G01 X5.2903 Y4.0431
G01 X5.1951 Y4.0192
G01 X5.0980 Y4.0048
G01 X5.0000 Y4.0000
G01 X4.9020 Y4.0048
G01 X4.8049 Y4.0192
G01 X4.7097 Y4.0431
G01 X4.6173 Y4.0761
G01 X4.5286 Y4.1181
G01 X4.4444 Y4.1685
G01 X4.3656 Y4.2270
G01 X4.2929 Y4.2929
G01 X4.2270 Y4.3656
G01 X4.1685 Y4.4444
G01 X4.1181 Y4.5286
G01 X4.0761 Y4.6173
G01 X4.0431 Y4.7097
G01 X4.0192 Y4.8049
G01 X4.0048 Y4.9020
G01 X4.0000 Y5.0000
G01 X4.0048 Y5.0980
G01 X4.0192 Y5.1951
G01 X4.0431 Y5.2903
G01 X4.0761 Y5.3827
G01 X4.1181 Y5.4714
G01 X4.1685 Y5.5556
G01 X4.2270 Y5.6344
G01 X4.2929 Y5.7071
G01 X4.3656 Y5.7730
G01 X4.4444 Y5.8315
G01 X4.5286 Y5.8819
G01 X4.6173 Y5.9239
G01 X4.7097 Y5.9569
G01 X4.8049 Y5.9808
G01 X4.9020 Y5.9952
G01 X5.0000 Y6.0000
G01 X5.0980 Y5.9952
G01 X5.1951 Y5.9808
G01 X5.2903 Y5.9569
G01 X5.3827 Y5.9239
G01 X5.4714 Y5.8819
G01 X5.5556 Y5.8315
G01 X5.6344 Y5.7730
G01 X5.7071 Y5.7071
G01 X5.7730 Y5.6344
G01 X5.8315 Y5.5556
G01 X5.8819 Y5.4714
G01 X5.9239 Y5.3827
G01 X5.9569 Y5.2903
G01 X5.9808 Y5.1951
G01 X5.9952 Y5.0980
G01 X6.0000 Y5.0000
G00 X6.0000 Y5.0000
G01 F40.00
G01 Z-1.2000
G01 F80.00
G01 X5.9952 Y4.9020
G01 X5.9808 Y4.8049
G01 X5.9569 Y4.7097
G01 X5.9239 Y4.6173
G01 X5.8819 Y4.5286
G01 X5.8315 Y4.4444
G01 X5.7730 Y4.3656
G01 X5.7071 Y4.2929
G01 X5.6344 Y4.2270
G01 X5.5556 Y4.1685
G01 X5.4714 Y4.1181
G01 X5.3827 Y4.0761
G01 X5.2903 Y4.0431
G01 X5.1951 Y4.0192
G01 X5.0980 Y4.0048
G01 X5.0000 Y4.0000
G01 X4.9020 Y4.0048
G01 X4.8049 Y4.0192
G01 X4.7097 Y4.0431
G01 X4.6173 Y4.0761
G01 X4.5286 Y4.1181
G01 X4.4444 Y4.1685
G01 X4.3656 Y4.2270
G01 X4.2929 Y4.2929
G01 X4.2270 Y4.3656
G01 X4.1685 Y4.4444
G01 X4.1181 Y4.5286
G01 X4.0761 Y4.6173
G01 X4.0431 Y4.7097
G01 X4.0192 Y4.8049
G01 X4.0048 Y4.9020
G01 X4.0000 Y5.0000
G01 X4.0048 Y5.0980
G01 X4.0192 Y5.1951
G01 X4.0431 Y5.2903
G01 X4.0761 Y5.3827
G01 X4.1181 Y5.4714
G01 X4.1685 Y5.5556
G01 X4.2270 Y5.6344
G01 X4.2929 Y5.7071
G01 X4.3656 Y5.7730
G01 X4.4444 Y5.8315
G01 X4.5286 Y5.8819
G01 X4.6173 Y5.9239
G01 X4.7097 Y5.9569
G01 X4.8049 Y5.9808
G01 X4.9020 Y5.9952
G01 X5.0000 Y6.0000
G01 X5.0980 Y5.9952
G01 X5.1951 Y5.9808
G01 X5.2903 Y5.9569
G01 X5.3827 Y5.9239
G01 X5.4714 Y5.8819
G01 X5.5556 Y5.8315
G01 X5.6344 Y5.7730
G01 X5.7071 Y5.7071
G01 X5.7730 Y5.6344
G01 X5.8315 Y5.5556
G01 X5.8819 Y5.4714
G01 X5.9239 Y5.3827
G01 X5.9569 Y5.2903
G01 X5.9808 Y5.1951
G01 X5.9952 Y5.0980
G01 X6.0000 Y5.0000
G00 X6.0000 Y5.0000
G01 F40.00
G01 Z-1.4000
G01 F80.00
G01 X5.9952 Y4.9020
G01 X5.9808 Y4.8049
G01 X5.9569 Y4.7097
G01 X5.9239 Y4.6173
G01 X5.8819 Y4.5286
G01 X5.8315 Y4.4444
G01 X5.7730 Y4.3656
G01 X5.7071 Y4.2929
G01 X5.6344 Y4.2270
G01 X5.5556 Y4.1685
G01 X5.4714 Y4.1181
G01 X5.3827 Y4.0761
G01 X5.2903 Y4.0431
G01 X5.1951 Y4.0192
G01 X5.0980 Y4.0048
G01 X5.0000 Y4.0000
G01 X4.9020 Y4.0048
G01 X4.8049 Y4.0192
G01 X4.7097 Y4.0431
G01 X4.6173 Y4.0761
G01 X4.5286 Y4.1181
G01 X4.4444 Y4.1685
G01 X4.3656 Y4.2270
G01 X4.2929 Y4.2929
G01 X4.2270 Y4.3656
G01 X4.1685 Y4.4444
G01 X4.1181 Y4.5286
G01 X4.0761 Y4.6173
G01 X4.0431 Y4.7097
G01 X4.0192 Y4.8049
G01 X4.0048 Y4.9020
G01 X4.0000 Y5.0000
G01 X4.0048 Y5.0980
G01 X4.0192 Y5.1951
G01 X4.0431 Y5.2903
G01 X4.0761 Y5.3827
G01 X4.1181 Y5.4714
G01 X4.1685 Y5.5556
G01 X4.2270 Y5.6344
G01 X4.2929 Y5.7071
G01 X4.3656 Y5.7730
G01 X4.4444 Y5.8315
G01 X4.5286 Y5.8819
G01 X4.6173 Y5.9239
G01 X4.7097 Y5.9569
G01 X4.8049 Y5.9808
G01 X4.9020 Y5.9952
G01 X5.0000 Y6.0000
G01 X5.0980 Y5.9952
G01 X5.1951 Y5.9808
G01 X5.2903 Y5.9569
G01 X5.3827 Y5.9239
G01 X5.4714 Y5.8819
G01 X5.5556 Y5.8315
G01 X5.6344 Y5.7730
G01 X5.7071 Y5.7071
G01 X5.7730 Y5.6344
G01 X5.8315 Y5.5556
G01 X5.8819 Y5.4714
G01 X5.9239 Y5.3827
G01 X5.9569 Y5.2903
G01 X5.9808 Y5.1951
G01 X5.9952 Y5.0980
G01 X6.0000 Y5.0000
G00 X6.0000 Y5.0000
G01 F40.00
G01 Z-1.6000
G01 F80.00
G01 X5.9952 Y4.9020
G01 X5.9808 Y4.8049
G01 X5.9569 Y4.7097
G01 X5.9239 Y4.6173
G01 X5.8819 Y4.5286
G01 X5.8315 Y4.4444
G01 X5.7730 Y4.3656
G01 X5.7071 Y4.2929
G01 X5.6344 Y4.2270
G01 X5.5556 Y4.1685
G01 X5.4714 Y4.1181
G01 X5.3827 Y4.0761
G01 X5.2903 Y4.0431
G01 X5.1951 Y4.0192
G01 X5.0980 Y4.0048
G01 X5.0000 Y4.0000
G01 X4.9020 Y4.0048
G01 X4.8049 Y4.0192
G01 X4.7097 Y4.0431
G01 X4.6173 Y4.0761
G01 X4.5286 Y4.1181
G01 X4.4444 Y4.1685
G01 X4.3656 Y4.2270
G01 X4.2929 Y4.2929
G01 X4.2270 Y4.3656
G01 X4.1685 Y4.4444
G01 X4.1181 Y4.5286
G01 X4.0761 Y4.6173
G01 X4.0431 Y4.7097
G01 X4.0192 Y4.8049
G01 X4.0048 Y4.9020
G01 X4.0000 Y5.0000
G01 X4.0048 Y5.0980
G01 X4.0192 Y5.1951
G01 X4.0431 Y5.2903
G01 X4.0761 Y5.3827
G01 X4.1181 Y5.4714
G01 X4.1685 Y5.5556
G01 X4.2270 Y5.6344
G01 X4.2929 Y5.7071
G01 X4.3656 Y5.7730
G01 X4.4444 Y5.8315
G01 X4.5286 Y5.8819
G01 X4.6173 Y5.9239
G01 X4.7097 Y5.9569
G01 X4.8049 Y5.9808
G01 X4.9020 Y5.9952
G01 X5.0000 Y6.0000
G01 X5.0980 Y5.9952
G01 X5.1951 Y5.9808
G01 X5.2903 Y5.9569
G01 X5.3827 Y5.9239
G01 X5.4714 Y5.8819
G01 X5.5556 Y5.8315
G01 X5.6344 Y5.7730
G01 X5.7071 Y5.7071
G01 X5.7730 Y5.6344
G01 X5.8315 Y5.5556
G01 X5.8819 Y5.4714
G01 X5.9239 Y5.3827
G01 X5.9569 Y5.2903
G01 X5.9808 Y5.1951
G01 X5.9952 Y5.0980
G01 X6.0000 Y5.0000
G00 X6.0000 Y5.0000
G01 F40.00
G01 Z-1.8000
G01 F80.00
G01 X5.9952 Y4.9020
G01 X5.9808 Y4.8049
G01 X5.9569 Y4.7097
G01 X5.9239 Y4.6173
G01 X5.8819 Y4.5286
G01 X5.8315 Y4.4444
G01 X5.7730 Y4.3656
G01 X5.7071 Y4.2929
G01 X5.6344 Y4.2270
G01 X5.5556 Y4.1685
G01 X5.4714 Y4.1181
G01 X5.3827 Y4.0761
G01 X5.2903 Y4.0431
G01 X5.1951 Y4.0192
G01 X5.0980 Y4.0048
G01 X5.0000 Y4.0000
G01 X4.9020 Y4.0048
G01 X4.8049 Y4.0192
G01 X4.7097 Y4.0431
G01 X4.6173 Y4.0761
G01 X4.5286 Y4.1181
G01 X4.4444 Y4.1685
G01 X4.3656 Y4.2270
G01 X4.2929 Y4.2929
G01 X4.2270 Y4.3656
G01 X4.1685 Y4.4444
G01 X4.1181 Y4.5286
G01 X4.0761 Y4.6173
G01 X4.0431 Y4.7097
G01 X4.0192 Y4.8049
G01 X4.0048 Y4.9020
G01 X4.0000 Y5.0000
G01 X4.0048 Y5.0980
G01 X4.0192 Y5.1951
G01 X4.0431 Y5.2903
G01 X4.0761 Y5.3827
G01 X4.1181 Y5.4714
G01 X4.1685 Y5.5556
G01 X4.2270 Y5.6344
G01 X4.2929 Y5.7071
G01 X4.3656 Y5.7730
G01 X4.4444 Y5.8315
G01 X4.5286 Y5.8819
G01 X4.6173 Y5.9239
G01 X4.7097 Y5.9569
G01 X4.8049 Y5.9808
G01 X4.9020 Y5.9952
G01 X5.0000 Y6.0000
G01 X5.0980 Y5.9952
G01 X5.1951 Y5.9808
G01 X5.2903 Y5.9569
G01 X5.3827 Y5.9239
G01 X5.4714 Y5.8819
G01 X5.5556 Y5.8315
G01 X5.6344 Y5.7730
G01 X5.7071 Y5.7071
G01 X5.7730 Y5.6344
G01 X5.8315 Y5.5556
G01 X5.8819 Y5.4714
G01 X5.9239 Y5.3827
G01 X5.9569 Y5.2903
G01 X5.9808 Y5.1951
G01 X5.9952 Y5.0980
G01 X6.0000 Y5.0000
G00 X6.0000 Y5.0000
G01 F40.00
G01 Z-1.9000
G01 F80.00
G01 X5.9952 Y4.9020
G01 X5.9808 Y4.8049
G01 X5.9569 Y4.7097
G01 X5.9239 Y4.6173
G01 X5.8819 Y4.5286
G01 X5.8315 Y4.4444
G01 X5.7730 Y4.3656
G01 X5.7071 Y4.2929
G01 X5.6344 Y4.2270
G01 X5.5556 Y4.1685
G01 X5.4714 Y4.1181
G01 X5.3827 Y4.0761
G01 X5.2903 Y4.0431
G01 X5.1951 Y4.0192
G01 X5.0980 Y4.0048
G01 X5.0000 Y4.0000
G01 X4.9020 Y4.0048
G01 X4.8049 Y4.0192
G01 X4.7097 Y4.0431
G01 X4.6173 Y4.0761
G01 X4.5286 Y4.1181
G01 X4.4444 Y4.1685
G01 X4.3656 Y4.2270
G01 X4.2929 Y4.2929
G01 X4.2270 Y4.3656
G01 X4.1685 Y4.4444
G01 X4.1181 Y4.5286
G01 X4.0761 Y4.6173
G01 X4.0431 Y4.7097
G01 X4.0192 Y4.8049
G01 X4.0048 Y4.9020
G01 X4.0000 Y5.0000
G01 X4.0048 Y5.0980
G01 X4.0192 Y5.1951
G01 X4.0431 Y5.2903
G01 X4.0761 Y5.3827
G01 X4.1181 Y5.4714
G01 X4.1685 Y5.5556
G01 X4.2270 Y5.6344
G01 X4.2929 Y5.7071
G01 X4.3656 Y5.7730
G01 X4.4444 Y5.8315
G01 X4.5286 Y5.8819
G01 X4.6173 Y5.9239
G01 X4.7097 Y5.9569
G01 X4.8049 Y5.9808
G01 X4.9020 Y5.9952
G01 X5.0000 Y6.0000
G01 X5.0980 Y5.9952
G01 X5.1951 Y5.9808
G01 X5.2903 Y5.9569
G01 X5.3827 Y5.9239
G01 X5.4714 Y5.8819
G01 X5.5556 Y5.8315
G01 X5.6344 Y5.7730
G01 X5.7071 Y5.7071
G01 X5.7730 Y5.6344
G01 X5.8315 Y5.5556
G01 X5.8819 Y5.4714
G01 X5.9239 Y5.3827
G01 X5.9569 Y5.2903
G01 X5.9808 Y5.1951
G01 X5.9952 Y5.0980
G01 X6.0000 Y5.0000
G00 Z2.0000
G00 X48.9190 Y25.7980
G01 F40.00
G01 Z-0.2000
G01 F80.00
G01 X48.9175 Y25.7676
G01 X48.9130 Y25.7375
G01 X48.9057 Y25.7080
G01 X48.8954 Y25.6794
G01 X48.8824 Y25.6519
G01 X48.8668 Y25.6258
G01 X48.8486 Y25.6013
G01 X48.8282 Y25.5788
G01 X48.8057 Y25.5584
G01 X48.7812 Y25.5402
G01 X48.7551 Y25.5246
G01 X48.7276 Y25.5116
G01 X48.6990 Y25.5013
G01 X48.6695 Y25.4940
G01 X48.6394 Y25.4895
G01 X48.6090 Y25.4880
G01 X48.5786 Y25.4895
G01 X48.5485 Y25.4940
G01 X48.5190 Y25.5013
G01 X48.4904 Y25.5116
G01 X48.4629 Y25.5246
G01 X48.4368 Y25.5402
G01 X48.4123 Y25.5584
G01 X48.3898 Y25.5788
G01 X48.3694 Y25.6013
G01 X48.3512 Y25.6258
G01 X48.3356 Y25.6519
G01 X48.3226 Y25.6794
G01 X48.3123 Y25.7080
G01 X48.3050 Y25.7375
G01 X48.3005 Y25.7676
G01 X48.2990 Y25.7980
G01 X48.3005 Y25.8284
G01 X48.3050 Y25.8585
G01 X48.3123 Y25.8880
G01 X48.3226 Y25.9166
G01 X48.3356 Y25.9441
G01 X48.3512 Y25.9702
G01 X48.3694 Y25.9947
G01 X48.3898 Y26.0172
G01 X48.4123 Y26.0376
G01 X48.4368 Y26.0558
G01 X48.4629 Y26.0714
G01 X48.4904 Y26.0844
G01 X48.5190 Y26.0947
G01 X48.5485 Y26.1020
G01 X48.5786 Y26.1065
G01 X48.6090 Y26.1080
G01 X48.6394 Y26.1065
G01 X48.6695 Y26.1020
G01 X48.6990 Y26.0947
G01 X48.7276 Y26.0844
G01 X48.7551 Y26.0714
G01 X48.7812 Y26.0558
G01 X48.8057 Y26.0376
G01 X48.8282 Y26.0172
G01 X48.8486 Y25.9947
G01 X48.8668 Y25.9702
G01 X48.8824 Y25.9441
G01 X48.8954 Y25.9166
G01 X48.9057 Y25.8880
G01 X48.9130 Y25.8585
G01 X48.9175 Y25.8284
G01 X48.9190 Y25.7980
G00 X48.9190 Y25.7980
G01 F40.00
G01 Z-0.4000
G01 F80.00
G01 X48.9175 Y25.7676
G01 X48.9130 Y25.7375
G01 X48.9057 Y25.7080
G01 X48.8954 Y25.6794
G01 X48.8824 Y25.6519
G01 X48.8668 Y25.6258
G01 X48.8486 Y25.6013
G01 X48.8282 Y25.5788
G01 X48.8057 Y25.5584
G01 X48.7812 Y25.5402
G01 X48.7551 Y25.5246
G01 X48.7276 Y25.5116
G01 X48.6990 Y25.5013
G01 X48.6695 Y25.4940
G01 X48.6394 Y25.4895
G01 X48.6090 Y25.4880
G01 X48.5786 Y25.4895
G01 X48.5485 Y25.4940
G01 X48.5190 Y25.5013
G01 X48.4904 Y25.5116
G01 X48.4629 Y25.5246
G01 X48.4368 Y25.5402
G01 X48.4123 Y25.5584
G01 X48.3898 Y25.5788
G01 X48.3694 Y25.6013
G01 X48.3512 Y25.6258
G01 X48.3356 Y25.6519
G01 X48.3226 Y25.6794
G01 X48.3123 Y25.7080
G01 X48.3050 Y25.7375
G01 X48.3005 Y25.7676
G01 X48.2990 Y25.7980
G01 X48.3005 Y25.8284
G01 X48.3050 Y25.8585
G01 X48.3123 Y25.8880
G01 X48.3226 Y25.9166
G01 X48.3356 Y25.9441
G01 X48.3512 Y25.9702
G01 X48.3694 Y25.9947
G01 X48.3898 Y26.0172
G01 X48.4123 Y26.0376
G01 X48.4368 Y26.0558
G01 X48.4629 Y26.0714
G01 X48.4904 Y26.0844
G01 X48.5190 Y26.0947
G01 X48.5485 Y26.1020
G01 X48.5786 Y26.1065
G01 X48.6090 Y26.1080
G01 X48.6394 Y26.1065
G01 X48.6695 Y26.1020
G01 X48.6990 Y26.0947
G01 X48.7276 Y26.0844
G01 X48.7551 Y26.0714
G01 X48.7812 Y26.0558
G01 X48.8057 Y26.0376
G01 X48.8282 Y26.0172
G01 X48.8486 Y25.9947
G01 X48.8668 Y25.9702
G01 X48.8824 Y25.9441
G01 X48.8954 Y25.9166
G01 X48.9057 Y25.8880
G01 X48.9130 Y25.8585
G01 X48.9175 Y25.8284
G01 X48.9190 Y25.7980
G00 X48.9190 Y25.7980
G01 F40.00
G01 Z-0.6000
G01 F80.00
G01 X48.9175 Y25.7676
G01 X48.9130 Y25.7375
G01 X48.9057 Y25.7080
G01 X48.8954 Y25.6794
G01 X48.8824 Y25.6519
G01 X48.8668 Y25.6258
G01 X48.8486 Y25.6013
G01 X48.8282 Y25.5788
G01 X48.8057 Y25.5584
G01 X48.7812 Y25.5402
G01 X48.7551 Y25.5246
G01 X48.7276 Y25.5116
G01 X48.6990 Y25.5013
G01 X48.6695 Y25.4940
G01 X48.6394 Y25.4895
G01 X48.6090 Y25.4880
G01 X48.5786 Y25.4895
G01 X48.5485 Y25.4940
G01 X48.5190 Y25.5013
G01 X48.4904 Y25.5116
G01 X48.4629 Y25.5246
G01 X48.4368 Y25.5402
G01 X48.4123 Y25.5584
G01 X48.3898 Y25.5788
G01 X48.3694 Y25.6013
G01 X48.3512 Y25.6258
G01 X48.3356 Y25.6519
G01 X48.3226 Y25.6794
G01 X48.3123 Y25.7080
G01 X48.3050 Y25.7375
G01 X48.3005 Y25.7676
G01 X48.2990 Y25.7980
G01 X48.3005 Y25.8284
G01 X48.3050 Y25.8585
G01 X48.3123 Y25.8880
G01 X48.3226 Y25.9166
G01 X48.3356 Y25.9441
G01 X48.3512 Y25.9702
G01 X48.3694 Y25.9947
G01 X48.3898 Y26.0172
G01 X48.4123 Y26.0376
G01 X48.4368 Y26.0558
G01 X48.4629 Y26.0714
G01 X48.4904 Y26.0844
G01 X48.5190 Y26.0947
G01 X48.5485 Y26.1020
G01 X48.5786 Y26.1065
G01 X48.6090 Y26.1080
G01 X48.6394 Y26.1065
G01 X48.6695 Y26.1020
G01 X48.6990 Y26.0947
G01 X48.7276 Y26.0844
G01 X48.7551 Y26.0714
G01 X48.7812 Y26.0558
G01 X48.8057 Y26.0376
G01 X48.8282 Y26.0172
G01 X48.8486 Y25.9947
G01 X48.8668 Y25.9702
G01 X48.8824 Y25.9441
G01 X48.8954 Y25.9166
G01 X48.9057 Y25.8880
G01 X48.9130 Y25.8585
G01 X48.9175 Y25.8284
G01 X48.9190 Y25.7980
G00 X48.9190 Y25.7980
G01 F40.00
G01 Z-0.8000
G01 F80.00
G01 X48.9175 Y25.7676
G01 X48.9130 Y25.7375
G01 X48.9057 Y25.7080
G01 X48.8954 Y25.6794
G01 X48.8824 Y25.6519
G01 X48.8668 Y25.6258
G01 X48.8486 Y25.6013
G01 X48.8282 Y25.5788
G01 X48.8057 Y25.5584
G01 X48.7812 Y25.5402
G01 X48.7551 Y25.5246
G01 X48.7276 Y25.5116
G01 X48.6990 Y25.5013
G01 X48.6695 Y25.4940
G01 X48.6394 Y25.4895
G01 X48.6090 Y25.4880
G01 X48.5786 Y25.4895
G01 X48.5485 Y25.4940
G01 X48.5190 Y25.5013
G01 X48.4904 Y25.5116
G01 X48.4629 Y25.5246
G01 X48.4368 Y25.5402
G01 X48.4123 Y25.5584
G01 X48.3898 Y25.5788
G01 X48.3694 Y25.6013
G01 X48.3512 Y25.6258
G01 X48.3356 Y25.6519
G01 X48.3226 Y25.6794
G01 X48.3123 Y25.7080
G01 X48.3050 Y25.7375
G01 X48.3005 Y25.7676
G01 X48.2990 Y25.7980
G01 X48.3005 Y25.8284
G01 X48.3050 Y25.8585
G01 X48.3123 Y25.8880
G01 X48.3226 Y25.9166
G01 X48.3356 Y25.9441
G01 X48.3512 Y25.9702
G01 X48.3694 Y25.9947
G01 X48.3898 Y26.0172
G01 X48.4123 Y26.0376
G01 X48.4368 Y26.0558
G01 X48.4629 Y26.0714
G01 X48.4904 Y26.0844
G01 X48.5190 Y26.0947
G01 X48.5485 Y26.1020
G01 X48.5786 Y26.1065
G01 X48.6090 Y26.1080
G01 X48.6394 Y26.1065
G01 X48.6695 Y26.1020
G01 X48.6990 Y26.0947
G01 X48.7276 Y26.0844
G01 X48.7551 Y26.0714
G01 X48.7812 Y26.0558
G01 X48.8057 Y26.0376
G01 X48.8282 Y26.0172
G01 X48.8486 Y25.9947
G01 X48.8668 Y25.9702
G01 X48.8824 Y25.9441
G01 X48.8954 Y25.9166
G01 X48.9057 Y25.8880
G01 X48.9130 Y25.8585
G01 X48.9175 Y25.8284
G01 X48.9190 Y25.7980
G00 X48.9190 Y25.7980
G01 F40.00
G01 Z-1.0000
G01 F80.00
G01 X48.9175 Y25.7676
G01 X48.9130 Y25.7375
G01 X48.9057 Y25.7080
G01 X48.8954 Y25.6794
G01 X48.8824 Y25.6519
G01 X48.8668 Y25.6258
G01 X48.8486 Y25.6013
G01 X48.8282 Y25.5788
G01 X48.8057 Y25.5584
G01 X48.7812 Y25.5402
G01 X48.7551 Y25.5246
G01 X48.7276 Y25.5116
G01 X48.6990 Y25.5013
G01 X48.6695 Y25.4940
G01 X48.6394 Y25.4895
G01 X48.6090 Y25.4880
G01 X48.5786 Y25.4895
G01 X48.5485 Y25.4940
G01 X48.5190 Y25.5013
G01 X48.4904 Y25.5116
G01 X48.4629 Y25.5246
G01 X48.4368 Y25.5402
G01 X48.4123 Y25.5584
G01 X48.3898 Y25.5788
G01 X48.3694 Y25.6013
G01 X48.3512 Y25.6258
G01 X48.3356 Y25.6519
G01 X48.3226 Y25.6794
G01 X48.3123 Y25.7080
G01 X48.3050 Y25.7375
G01 X48.3005 Y25.7676
G01 X48.2990 Y25.7980
G01 X48.3005 Y25.8284
G01 X48.3050 Y25.8585
G01 X48.3123 Y25.8880
G01 X48.3226 Y25.9166
G01 X48.3356 Y25.9441
G01 X48.3512 Y25.9702
G01 X48.3694 Y25.9947
G01 X48.3898 Y26.0172
G01 X48.4123 Y26.0376
G01 X48.4368 Y26.0558
G01 X48.4629 Y26.0714
G01 X48.4904 Y26.0844
G01 X48.5190 Y26.0947
G01 X48.5485 Y26.1020
G01 X48.5786 Y26.1065
G01 X48.6090 Y26.1080
G01 X48.6394 Y26.1065
G01 X48.6695 Y26.1020
G01 X48.6990 Y26.0947
G01 X48.7276 Y26.0844
G01 X48.7551 Y26.0714
G01 X48.7812 Y26.0558
G01 X48.8057 Y26.0376
G01 X48.8282 Y26.0172
G01 X48.8486 Y25.9947
G01 X48.8668 Y25.9702
G01 X48.8824 Y25.9441
G01 X48.8954 Y25.9166
G01 X48.9057 Y25.8880
G01 X48.9130 Y25.8585
G01 X48.9175 Y25.8284
G01 X48.9190 Y25.7980
G00 X48.9190 Y25.7980
G01 F40.00
G01 Z-1.2000
G01 F80.00
G01 X48.9175 Y25.7676
G01 X48.9130 Y25.7375
G01 X48.9057 Y25.7080
G01 X48.8954 Y25.6794
G01 X48.8824 Y25.6519
G01 X48.8668 Y25.6258
G01 X48.8486 Y25.6013
G01 X48.8282 Y25.5788
G01 X48.8057 Y25.5584
G01 X48.7812 Y25.5402
G01 X48.7551 Y25.5246
G01 X48.7276 Y25.5116
G01 X48.6990 Y25.5013
G01 X48.6695 Y25.4940
G01 X48.6394 Y25.4895
G01 X48.6090 Y25.4880
G01 X48.5786 Y25.4895
G01 X48.5485 Y25.4940
G01 X48.5190 Y25.5013
G01 X48.4904 Y25.5116
G01 X48.4629 Y25.5246
G01 X48.4368 Y25.5402
G01 X48.4123 Y25.5584
G01 X48.3898 Y25.5788
G01 X48.3694 Y25.6013
G01 X48.3512 Y25.6258
G01 X48.3356 Y25.6519
G01 X48.3226 Y25.6794
G01 X48.3123 Y25.7080
G01 X48.3050 Y25.7375
G01 X48.3005 Y25.7676
G01 X48.2990 Y25.7980
G01 X48.3005 Y25.8284
G01 X48.3050 Y25.8585
G01 X48.3123 Y25.8880
G01 X48.3226 Y25.9166
G01 X48.3356 Y25.9441
G01 X48.3512 Y25.9702
G01 X48.3694 Y25.9947
G01 X48.3898 Y26.0172
G01 X48.4123 Y26.0376
G01 X48.4368 Y26.0558
G01 X48.4629 Y26.0714
G01 X48.4904 Y26.0844
G01 X48.5190 Y26.0947
G01 X48.5485 Y26.1020
G01 X48.5786 Y26.1065
G01 X48.6090 Y26.1080
G01 X48.6394 Y26.1065
G01 X48.6695 Y26.1020
G01 X48.6990 Y26.0947
G01 X48.7276 Y26.0844
G01 X48.7551 Y26.0714
G01 X48.7812 Y26.0558
G01 X48.8057 Y26.0376
G01 X48.8282 Y26.0172
G01 X48.8486 Y25.9947
G01 X48.8668 Y25.9702
G01 X48.8824 Y25.9441
G01 X48.8954 Y25.9166
G01 X48.9057 Y25.8880
G01 X48.9130 Y25.8585
G01 X48.9175 Y25.8284
G01 X48.9190 Y25.7980
G00 X48.9190 Y25.7980
G01 F40.00
G01 Z-1.4000
G01 F80.00
G01 X48.9175 Y25.7676
G01 X48.9130 Y25.7375
G01 X48.9057 Y25.7080
G01 X48.8954 Y25.6794
G01 X48.8824 Y25.6519
G01 X48.8668 Y25.6258
G01 X48.8486 Y25.6013
G01 X48.8282 Y25.5788
G01 X48.8057 Y25.5584
G01 X48.7812 Y25.5402
G01 X48.7551 Y25.5246
G01 X48.7276 Y25.5116
G01 X48.6990 Y25.5013
G01 X48.6695 Y25.4940
G01 X48.6394 Y25.4895
G01 X48.6090 Y25.4880
G01 X48.5786 Y25.4895
G01 X48.5485 Y25.4940
G01 X48.5190 Y25.5013
G01 X48.4904 Y25.5116
G01 X48.4629 Y25.5246
G01 X48.4368 Y25.5402
G01 X48.4123 Y25.5584
G01 X48.3898 Y25.5788
G01 X48.3694 Y25.6013
G01 X48.3512 Y25.6258
G01 X48.3356 Y25.6519
G01 X48.3226 Y25.6794
G01 X48.3123 Y25.7080
G01 X48.3050 Y25.7375
G01 X48.3005 Y25.7676
G01 X48.2990 Y25.7980
G01 X48.3005 Y25.8284
G01 X48.3050 Y25.8585
G01 X48.3123 Y25.8880
G01 X48.3226 Y25.9166
G01 X48.3356 Y25.9441
G01 X48.3512 Y25.9702
G01 X48.3694 Y25.9947
G01 X48.3898 Y26.0172
G01 X48.4123 Y26.0376
G01 X48.4368 Y26.0558
G01 X48.4629 Y26.0714
G01 X48.4904 Y26.0844
G01 X48.5190 Y26.0947
G01 X48.5485 Y26.1020
G01 X48.5786 Y26.1065
G01 X48.6090 Y26.1080
G01 X48.6394 Y26.1065
G01 X48.6695 Y26.1020
G01 X48.6990 Y26.0947
G01 X48.7276 Y26.0844
G01 X48.7551 Y26.0714
G01 X48.7812 Y26.0558
G01 X48.8057 Y26.0376
G01 X48.8282 Y26.0172
G01 X48.8486 Y25.9947
G01 X48.8668 Y25.9702
G01 X48.8824 Y25.9441
G01 X48.8954 Y25.9166
G01 X48.9057 Y25.8880
G01 X48.9130 Y25.8585
G01 X48.9175 Y25.8284
G01 X48.9190 Y25.7980
G00 X48.9190 Y25.7980
G01 F40.00
G01 Z-1.6000
G01 F80.00
G01 X48.9175 Y25.7676
G01 X48.9130 Y25.7375
G01 X48.9057 Y25.7080
G01 X48.8954 Y25.6794
G01 X48.8824 Y25.6519
G01 X48.8668 Y25.6258
G01 X48.8486 Y25.6013
G01 X48.8282 Y25.5788
G01 X48.8057 Y25.5584
G01 X48.7812 Y25.5402
G01 X48.7551 Y25.5246
G01 X48.7276 Y25.5116
G01 X48.6990 Y25.5013
G01 X48.6695 Y25.4940
G01 X48.6394 Y25.4895
G01 X48.6090 Y25.4880
G01 X48.5786 Y25.4895
G01 X48.5485 Y25.4940
G01 X48.5190 Y25.5013
G01 X48.4904 Y25.5116
G01 X48.4629 Y25.5246
G01 X48.4368 Y25.5402
G01 X48.4123 Y25.5584
G01 X48.3898 Y25.5788
G01 X48.3694 Y25.6013
G01 X48.3512 Y25.6258
G01 X48.3356 Y25.6519
G01 X48.3226 Y25.6794
G01 X48.3123 Y25.7080
G01 X48.3050 Y25.7375
G01 X48.3005 Y25.7676
G01 X48.2990 Y25.7980
G01 X48.3005 Y25.8284
G01 X48.3050 Y25.8585
G01 X48.3123 Y25.8880
G01 X48.3226 Y25.9166
G01 X48.3356 Y25.9441
G01 X48.3512 Y25.9702
G01 X48.3694 Y25.9947
G01 X48.3898 Y26.0172
G01 X48.4123 Y26.0376
G01 X48.4368 Y26.0558
G01 X48.4629 Y26.0714
G01 X48.4904 Y26.0844
G01 X48.5190 Y26.0947
G01 X48.5485 Y26.1020
G01 X48.5786 Y26.1065
G01 X48.6090 Y26.1080
G01 X48.6394 Y26.1065
G01 X48.6695 Y26.1020
G01 X48.6990 Y26.0947
G01 X48.7276 Y26.0844
G01 X48.7551 Y26.0714
G01 X48.7812 Y26.0558
G01 X48.8057 Y26.0376
G01 X48.8282 Y26.0172
G01 X48.8486 Y25.9947
G01 X48.8668 Y25.9702
G01 X48.8824 Y25.9441
G01 X48.8954 Y25.9166
G01 X48.9057 Y25.8880
G01 X48.9130 Y25.8585
G01 X48.9175 Y25.8284
G01 X48.9190 Y25.7980
G00 X48.9190 Y25.7980
G01 F40.00
G01 Z-1.8000
G01 F80.00
G01 X48.9175 Y25.7676
G01 X48.9130 Y25.7375
G01 X48.9057 Y25.7080
G01 X48.8954 Y25.6794
G01 X48.8824 Y25.6519
G01 X48.8668 Y25.6258
G01 X48.8486 Y25.6013
G01 X48.8282 Y25.5788
G01 X48.8057 Y25.5584
G01 X48.7812 Y25.5402
G01 X48.7551 Y25.5246
G01 X48.7276 Y25.5116
G01 X48.6990 Y25.5013
G01 X48.6695 Y25.4940
G01 X48.6394 Y25.4895
G01 X48.6090 Y25.4880
G01 X48.5786 Y25.4895
G01 X48.5485 Y25.4940
G01 X48.5190 Y25.5013
G01 X48.4904 Y25.5116
G01 X48.4629 Y25.5246
G01 X48.4368 Y25.5402
G01 X48.4123 Y25.5584
G01 X48.3898 Y25.5788
G01 X48.3694 Y25.6013
G01 X48.3512 Y25.6258
G01 X48.3356 Y25.6519
G01 X48.3226 Y25.6794
G01 X48.3123 Y25.7080
G01 X48.3050 Y25.7375
G01 X48.3005 Y25.7676
G01 X48.2990 Y25.7980
G01 X48.3005 Y25.8284
G01 X48.3050 Y25.8585
G01 X48.3123 Y25.8880
G01 X48.3226 Y25.9166
G01 X48.3356 Y25.9441
G01 X48.3512 Y25.9702
G01 X48.3694 Y25.9947
G01 X48.3898 Y26.0172
G01 X48.4123 Y26.0376
G01 X48.4368 Y26.0558
G01 X48.4629 Y26.0714
G01 X48.4904 Y26.0844
G01 X48.5190 Y26.0947
G01 X48.5485 Y26.1020
G01 X48.5786 Y26.1065
G01 X48.6090 Y26.1080
G01 X48.6394 Y26.1065
G01 X48.6695 Y26.1020
G01 X48.6990 Y26.0947
G01 X48.7276 Y26.0844
G01 X48.7551 Y26.0714
G01 X48.7812 Y26.0558
G01 X48.8057 Y26.0376
G01 X48.8282 Y26.0172
G01 X48.8486 Y25.9947
G01 X48.8668 Y25.9702
G01 X48.8824 Y25.9441
G01 X48.8954 Y25.9166
G01 X48.9057 Y25.8880
G01 X48.9130 Y25.8585
G01 X48.9175 Y25.8284
G01 X48.9190 Y25.7980
G00 X48.9190 Y25.7980
G01 F40.00
G01 Z-1.9000
G01 F80.00
G01 X48.9175 Y25.7676
G01 X48.9130 Y25.7375
G01 X48.9057 Y25.7080
G01 X48.8954 Y25.6794
G01 X48.8824 Y25.6519
G01 X48.8668 Y25.6258
G01 X48.8486 Y25.6013
G01 X48.8282 Y25.5788
G01 X48.8057 Y25.5584
G01 X48.7812 Y25.5402
G01 X48.7551 Y25.5246
G01 X48.7276 Y25.5116
G01 X48.6990 Y25.5013
G01 X48.6695 Y25.4940
G01 X48.6394 Y25.4895
G01 X48.6090 Y25.4880
G01 X48.5786 Y25.4895
G01 X48.5485 Y25.4940
G01 X48.5190 Y25.5013
G01 X48.4904 Y25.5116
G01 X48.4629 Y25.5246
G01 X48.4368 Y25.5402
G01 X48.4123 Y25.5584
G01 X48.3898 Y25.5788
G01 X48.3694 Y25.6013
G01 X48.3512 Y25.6258
G01 X48.3356 Y25.6519
G01 X48.3226 Y25.6794
G01 X48.3123 Y25.7080
G01 X48.3050 Y25.7375
G01 X48.3005 Y25.7676
G01 X48.2990 Y25.7980
G01 X48.3005 Y25.8284
G01 X48.3050 Y25.8585
G01 X48.3123 Y25.8880
G01 X48.3226 Y25.9166
G01 X48.3356 Y25.9441
G01 X48.3512 Y25.9702
G01 X48.3694 Y25.9947
G01 X48.3898 Y26.0172
G01 X48.4123 Y26.0376
G01 X48.4368 Y26.0558
G01 X48.4629 Y26.0714
G01 X48.4904 Y26.0844
G01 X48.5190 Y26.0947
G01 X48.5485 Y26.1020
G01 X48.5786 Y26.1065
G01 X48.6090 Y26.1080
G01 X48.6394 Y26.1065
G01 X48.6695 Y26.1020
G01 X48.6990 Y26.0947
G01 X48.7276 Y26.0844
G01 X48.7551 Y26.0714
G01 X48.7812 Y26.0558
G01 X48.8057 Y26.0376
G01 X48.8282 Y26.0172
G01 X48.8486 Y25.9947
G01 X48.8668 Y25.9702
G01 X48.8824 Y25.9441
G01 X48.8954 Y25.9166
G01 X48.9057 Y25.8880
G01 X48.9130 Y25.8585
G01 X48.9175 Y25.8284
G01 X48.9190 Y25.7980
G00 Z2.0000
G00 X48.9190 Y40.4880
G01 F40.00
G01 Z-0.2000
G01 F80.00
G01 X48.9175 Y40.4576
G01 X48.9130 Y40.4275
G01 X48.9057 Y40.3980
G01 X48.8954 Y40.3694
G01 X48.8824 Y40.3419
G01 X48.8668 Y40.3158
G01 X48.8486 Y40.2913
G01 X48.8282 Y40.2688
G01 X48.8057 Y40.2484
G01 X48.7812 Y40.2302
G01 X48.7551 Y40.2146
G01 X48.7276 Y40.2016
G01 X48.6990 Y40.1913
G01 X48.6695 Y40.1840
G01 X48.6394 Y40.1795
G01 X48.6090 Y40.1780
G01 X48.5786 Y40.1795
G01 X48.5485 Y40.1840
G01 X48.5190 Y40.1913
G01 X48.4904 Y40.2016
G01 X48.4629 Y40.2146
G01 X48.4368 Y40.2302
G01 X48.4123 Y40.2484
G01 X48.3898 Y40.2688
G01 X48.3694 Y40.2913
G01 X48.3512 Y40.3158
G01 X48.3356 Y40.3419
G01 X48.3226 Y40.3694
G01 X48.3123 Y40.3980
G01 X48.3050 Y40.4275
G01 X48.3005 Y40.4576
G01 X48.2990 Y40.4880
G01 X48.3005 Y40.5184
G01 X48.3050 Y40.5485
G01 X48.3123 Y40.5780
G01 X48.3226 Y40.6066
G01 X48.3356 Y40.6341
G01 X48.3512 Y40.6602
G01 X48.3694 Y40.6847
G01 X48.3898 Y40.7072
G01 X48.4123 Y40.7276
G01 X48.4368 Y40.7458
G01 X48.4629 Y40.7614
G01 X48.4904 Y40.7744
G01 X48.5190 Y40.7847
G01 X48.5485 Y40.7920
G01 X48.5786 Y40.7965
G01 X48.6090 Y40.7980
G01 X48.6394 Y40.7965
G01 X48.6695 Y40.7920
G01 X48.6990 Y40.7847
G01 X48.7276 Y40.7744
G01 X48.7551 Y40.7614
G01 X48.7812 Y40.7458
G01 X48.8057 Y40.7276
G01 X48.8282 Y40.7072
G01 X48.8486 Y40.6847
G01 X48.8668 Y40.6602
G01 X48.8824 Y40.6341
G01 X48.8954 Y40.6066
G01 X48.9057 Y40.5780
G01 X48.9130 Y40.5485
G01 X48.9175 Y40.5184
G01 X48.9190 Y40.4880
G00 X48.9190 Y40.4880
G01 F40.00
G01 Z-0.4000
G01 F80.00
G01 X48.9175 Y40.4576
G01 X48.9130 Y40.4275
G01 X48.9057 Y40.3980
G01 X48.8954 Y40.3694
G01 X48.8824 Y40.3419
G01 X48.8668 Y40.3158
G01 X48.8486 Y40.2913
G01 X48.8282 Y40.2688
G01 X48.8057 Y40.2484
G01 X48.7812 Y40.2302
G01 X48.7551 Y40.2146
G01 X48.7276 Y40.2016
G01 X48.6990 Y40.1913
G01 X48.6695 Y40.1840
G01 X48.6394 Y40.1795
G01 X48.6090 Y40.1780
G01 X48.5786 Y40.1795
G01 X48.5485 Y40.1840
G01 X48.5190 Y40.1913
G01 X48.4904 Y40.2016
G01 X48.4629 Y40.2146
G01 X48.4368 Y40.2302
G01 X48.4123 Y40.2484
G01 X48.3898 Y40.2688
G01 X48.3694 Y40.2913
G01 X48.3512 Y40.3158
G01 X48.3356 Y40.3419
G01 X48.3226 Y40.3694
G01 X48.3123 Y40.3980
G01 X48.3050 Y40.4275
G01 X48.3005 Y40.4576
G01 X48.2990 Y40.4880
G01 X48.3005 Y40.5184
G01 X48.3050 Y40.5485
G01 X48.3123 Y40.5780
G01 X48.3226 Y40.6066
G01 X48.3356 Y40.6341
G01 X48.3512 Y40.6602
G01 X48.3694 Y40.6847
G01 X48.3898 Y40.7072
G01 X48.4123 Y40.7276
G01 X48.4368 Y40.7458
G01 X48.4629 Y40.7614
G01 X48.4904 Y40.7744
G01 X48.5190 Y40.7847
G01 X48.5485 Y40.7920
G01 X48.5786 Y40.7965
G01 X48.6090 Y40.7980
G01 X48.6394 Y40.7965
G01 X48.6695 Y40.7920
G01 X48.6990 Y40.7847
G01 X48.7276 Y40.7744
G01 X48.7551 Y40.7614
G01 X48.7812 Y40.7458
G01 X48.8057 Y40.7276
G01 X48.8282 Y40.7072
G01 X48.8486 Y40.6847
G01 X48.8668 Y40.6602
G01 X48.8824 Y40.6341
G01 X48.8954 Y40.6066
G01 X48.9057 Y40.5780
G01 X48.9130 Y40.5485
G01 X48.9175 Y40.5184
G01 X48.9190 Y40.4880
G00 X48.9190 Y40.4880
G01 F40.00
G01 Z-0.6000
G01 F80.00
G01 X48.9175 Y40.4576
G01 X48.9130 Y40.4275
G01 X48.9057 Y40.3980
G01 X48.8954 Y40.3694
G01 X48.8824 Y40.3419
G01 X48.8668 Y40.3158
G01 X48.8486 Y40.2913
G01 X48.8282 Y40.2688
G01 X48.8057 Y40.2484
G01 X48.7812 Y40.2302
G01 X48.7551 Y40.2146
G01 X48.7276 Y40.2016
G01 X48.6990 Y40.1913
G01 X48.6695 Y40.1840
G01 X48.6394 Y40.1795
G01 X48.6090 Y40.1780
G01 X48.5786 Y40.1795
G01 X48.5485 Y40.1840
G01 X48.5190 Y40.1913
G01 X48.4904 Y40.2016
G01 X48.4629 Y40.2146
G01 X48.4368 Y40.2302
G01 X48.4123 Y40.2484
G01 X48.3898 Y40.2688
G01 X48.3694 Y40.2913
G01 X48.3512 Y40.3158
G01 X48.3356 Y40.3419
G01 X48.3226 Y40.3694
G01 X48.3123 Y40.3980
G01 X48.3050 Y40.4275
G01 X48.3005 Y40.4576
G01 X48.2990 Y40.4880
G01 X48.3005 Y40.5184
G01 X48.3050 Y40.5485
G01 X48.3123 Y40.5780
G01 X48.3226 Y40.6066
G01 X48.3356 Y40.6341
G01 X48.3512 Y40.6602
G01 X48.3694 Y40.6847
G01 X48.3898 Y40.7072
G01 X48.4123 Y40.7276
G01 X48.4368 Y40.7458
G01 X48.4629 Y40.7614
G01 X48.4904 Y40.7744
G01 X48.5190 Y40.7847
G01 X48.5485 Y40.7920
G01 X48.5786 Y40.7965
G01 X48.6090 Y40.7980
G01 X48.6394 Y40.7965
G01 X48.6695 Y40.7920
G01 X48.6990 Y40.7847
G01 X48.7276 Y40.7744
G01 X48.7551 Y40.7614
G01 X48.7812 Y40.7458
G01 X48.8057 Y40.7276
G01 X48.8282 Y40.7072
G01 X48.8486 Y40.6847
G01 X48.8668 Y40.6602
G01 X48.8824 Y40.6341
G01 X48.8954 Y40.6066
G01 X48.9057 Y40.5780
G01 X48.9130 Y40.5485
G01 X48.9175 Y40.5184
G01 X48.9190 Y40.4880
G00 X48.9190 Y40.4880
G01 F40.00
G01 Z-0.8000
G01 F80.00
G01 X48.9175 Y40.4576
G01 X48.9130 Y40.4275
G01 X48.9057 Y40.3980
G01 X48.8954 Y40.3694
G01 X48.8824 Y40.3419
G01 X48.8668 Y40.3158
G01 X48.8486 Y40.2913
G01 X48.8282 Y40.2688
G01 X48.8057 Y40.2484
G01 X48.7812 Y40.2302
G01 X48.7551 Y40.2146
G01 X48.7276 Y40.2016
G01 X48.6990 Y40.1913
G01 X48.6695 Y40.1840
G01 X48.6394 Y40.1795
G01 X48.6090 Y40.1780
G01 X48.5786 Y40.1795
G01 X48.5485 Y40.1840
G01 X48.5190 Y40.1913
G01 X48.4904 Y40.2016
G01 X48.4629 Y40.2146
G01 X48.4368 Y40.2302
G01 X48.4123 Y40.2484
G01 X48.3898 Y40.2688
G01 X48.3694 Y40.2913
G01 X48.3512 Y40.3158
G01 X48.3356 Y40.3419
G01 X48.3226 Y40.3694
G01 X48.3123 Y40.3980
G01 X48.3050 Y40.4275
G01 X48.3005 Y40.4576
G01 X48.2990 Y40.4880
G01 X48.3005 Y40.5184
G01 X48.3050 Y40.5485
G01 X48.3123 Y40.5780
G01 X48.3226 Y40.6066
G01 X48.3356 Y40.6341
G01 X48.3512 Y40.6602
G01 X48.3694 Y40.6847
G01 X48.3898 Y40.7072
G01 X48.4123 Y40.7276
G01 X48.4368 Y40.7458
G01 X48.4629 Y40.7614
G01 X48.4904 Y40.7744
G01 X48.5190 Y40.7847
G01 X48.5485 Y40.7920
G01 X48.5786 Y40.7965
G01 X48.6090 Y40.7980
G01 X48.6394 Y40.7965
G01 X48.6695 Y40.7920
G01 X48.6990 Y40.7847
G01 X48.7276 Y40.7744
G01 X48.7551 Y40.7614
G01 X48.7812 Y40.7458
G01 X48.8057 Y40.7276
G01 X48.8282 Y40.7072
G01 X48.8486 Y40.6847
G01 X48.8668 Y40.6602
G01 X48.8824 Y40.6341
G01 X48.8954 Y40.6066
G01 X48.9057 Y40.5780
G01 X48.9130 Y40.5485
G01 X48.9175 Y40.5184
G01 X48.9190 Y40.4880
G00 X48.9190 Y40.4880
G01 F40.00
G01 Z-1.0000
G01 F80.00
G01 X48.9175 Y40.4576
G01 X48.9130 Y40.4275
G01 X48.9057 Y40.3980
G01 X48.8954 Y40.3694
G01 X48.8824 Y40.3419
G01 X48.8668 Y40.3158
G01 X48.8486 Y40.2913
G01 X48.8282 Y40.2688
G01 X48.8057 Y40.2484
G01 X48.7812 Y40.2302
G01 X48.7551 Y40.2146
G01 X48.7276 Y40.2016
G01 X48.6990 Y40.1913
G01 X48.6695 Y40.1840
G01 X48.6394 Y40.1795
G01 X48.6090 Y40.1780
G01 X48.5786 Y40.1795
G01 X48.5485 Y40.1840
G01 X48.5190 Y40.1913
G01 X48.4904 Y40.2016
G01 X48.4629 Y40.2146
G01 X48.4368 Y40.2302
G01 X48.4123 Y40.2484
G01 X48.3898 Y40.2688
G01 X48.3694 Y40.2913
G01 X48.3512 Y40.3158
G01 X48.3356 Y40.3419
G01 X48.3226 Y40.3694
G01 X48.3123 Y40.3980
G01 X48.3050 Y40.4275
G01 X48.3005 Y40.4576
G01 X48.2990 Y40.4880
G01 X48.3005 Y40.5184
G01 X48.3050 Y40.5485
G01 X48.3123 Y40.5780
G01 X48.3226 Y40.6066
G01 X48.3356 Y40.6341
G01 X48.3512 Y40.6602
G01 X48.3694 Y40.6847
G01 X48.3898 Y40.7072
G01 X48.4123 Y40.7276
G01 X48.4368 Y40.7458
G01 X48.4629 Y40.7614
G01 X48.4904 Y40.7744
G01 X48.5190 Y40.7847
G01 X48.5485 Y40.7920
G01 X48.5786 Y40.7965
G01 X48.6090 Y40.7980
G01 X48.6394 Y40.7965
G01 X48.6695 Y40.7920
G01 X48.6990 Y40.7847
G01 X48.7276 Y40.7744
G01 X48.7551 Y40.7614
G01 X48.7812 Y40.7458
G01 X48.8057 Y40.7276
G01 X48.8282 Y40.7072
G01 X48.8486 Y40.6847
G01 X48.8668 Y40.6602
G01 X48.8824 Y40.6341
G01 X48.8954 Y40.6066
G01 X48.9057 Y40.5780
G01 X48.9130 Y40.5485
G01 X48.9175 Y40.5184
G01 X48.9190 Y40.4880
G00 X48.9190 Y40.4880
G01 F40.00
G01 Z-1.2000
G01 F80.00
G01 X48.9175 Y40.4576
G01 X48.9130 Y40.4275
G01 X48.9057 Y40.3980
G01 X48.8954 Y40.3694
G01 X48.8824 Y40.3419
G01 X48.8668 Y40.3158
G01 X48.8486 Y40.2913
G01 X48.8282 Y40.2688
G01 X48.8057 Y40.2484
G01 X48.7812 Y40.2302
G01 X48.7551 Y40.2146
G01 X48.7276 Y40.2016
G01 X48.6990 Y40.1913
G01 X48.6695 Y40.1840
G01 X48.6394 Y40.1795
G01 X48.6090 Y40.1780
G01 X48.5786 Y40.1795
G01 X48.5485 Y40.1840
G01 X48.5190 Y40.1913
G01 X48.4904 Y40.2016
G01 X48.4629 Y40.2146
G01 X48.4368 Y40.2302
G01 X48.4123 Y40.2484
G01 X48.3898 Y40.2688
G01 X48.3694 Y40.2913
G01 X48.3512 Y40.3158
G01 X48.3356 Y40.3419
G01 X48.3226 Y40.3694
G01 X48.3123 Y40.3980
G01 X48.3050 Y40.4275
G01 X48.3005 Y40.4576
G01 X48.2990 Y40.4880
G01 X48.3005 Y40.5184
G01 X48.3050 Y40.5485
G01 X48.3123 Y40.5780
G01 X48.3226 Y40.6066
G01 X48.3356 Y40.6341
G01 X48.3512 Y40.6602
G01 X48.3694 Y40.6847
G01 X48.3898 Y40.7072
G01 X48.4123 Y40.7276
G01 X48.4368 Y40.7458
G01 X48.4629 Y40.7614
G01 X48.4904 Y40.7744
G01 X48.5190 Y40.7847
G01 X48.5485 Y40.7920
G01 X48.5786 Y40.7965
G01 X48.6090 Y40.7980
G01 X48.6394 Y40.7965
G01 X48.6695 Y40.7920
G01 X48.6990 Y40.7847
G01 X48.7276 Y40.7744
G01 X48.7551 Y40.7614
G01 X48.7812 Y40.7458
G01 X48.8057 Y40.7276
G01 X48.8282 Y40.7072
G01 X48.8486 Y40.6847
G01 X48.8668 Y40.6602
G01 X48.8824 Y40.6341
G01 X48.8954 Y40.6066
G01 X48.9057 Y40.5780
G01 X48.9130 Y40.5485
G01 X48.9175 Y40.5184
G01 X48.9190 Y40.4880
G00 X48.9190 Y40.4880
G01 F40.00
G01 Z-1.4000
G01 F80.00
G01 X48.9175 Y40.4576
G01 X48.9130 Y40.4275
G01 X48.9057 Y40.3980
G01 X48.8954 Y40.3694
G01 X48.8824 Y40.3419
G01 X48.8668 Y40.3158
G01 X48.8486 Y40.2913
G01 X48.8282 Y40.2688
G01 X48.8057 Y40.2484
G01 X48.7812 Y40.2302
G01 X48.7551 Y40.2146
G01 X48.7276 Y40.2016
G01 X48.6990 Y40.1913
G01 X48.6695 Y40.1840
G01 X48.6394 Y40.1795
G01 X48.6090 Y40.1780
G01 X48.5786 Y40.1795
G01 X48.5485 Y40.1840
G01 X48.5190 Y40.1913
G01 X48.4904 Y40.2016
G01 X48.4629 Y40.2146
G01 X48.4368 Y40.2302
G01 X48.4123 Y40.2484
G01 X48.3898 Y40.2688
G01 X48.3694 Y40.2913
G01 X48.3512 Y40.3158
G01 X48.3356 Y40.3419
G01 X48.3226 Y40.3694
G01 X48.3123 Y40.3980
G01 X48.3050 Y40.4275
G01 X48.3005 Y40.4576
G01 X48.2990 Y40.4880
G01 X48.3005 Y40.5184
G01 X48.3050 Y40.5485
G01 X48.3123 Y40.5780
G01 X48.3226 Y40.6066
G01 X48.3356 Y40.6341
G01 X48.3512 Y40.6602
G01 X48.3694 Y40.6847
G01 X48.3898 Y40.7072
G01 X48.4123 Y40.7276
G01 X48.4368 Y40.7458
G01 X48.4629 Y40.7614
G01 X48.4904 Y40.7744
G01 X48.5190 Y40.7847
G01 X48.5485 Y40.7920
G01 X48.5786 Y40.7965
G01 X48.6090 Y40.7980
G01 X48.6394 Y40.7965
G01 X48.6695 Y40.7920
G01 X48.6990 Y40.7847
G01 X48.7276 Y40.7744
G01 X48.7551 Y40.7614
G01 X48.7812 Y40.7458
G01 X48.8057 Y40.7276
G01 X48.8282 Y40.7072
G01 X48.8486 Y40.6847
G01 X48.8668 Y40.6602
G01 X48.8824 Y40.6341
G01 X48.8954 Y40.6066
G01 X48.9057 Y40.5780
G01 X48.9130 Y40.5485
G01 X48.9175 Y40.5184
G01 X48.9190 Y40.4880
G00 X48.9190 Y40.4880
G01 F40.00
G01 Z-1.6000
G01 F80.00
G01 X48.9175 Y40.4576
G01 X48.9130 Y40.4275
G01 X48.9057 Y40.3980
G01 X48.8954 Y40.3694
G01 X48.8824 Y40.3419
G01 X48.8668 Y40.3158
G01 X48.8486 Y40.2913
G01 X48.8282 Y40.2688
G01 X48.8057 Y40.2484
G01 X48.7812 Y40.2302
G01 X48.7551 Y40.2146
G01 X48.7276 Y40.2016
G01 X48.6990 Y40.1913
G01 X48.6695 Y40.1840
G01 X48.6394 Y40.1795
G01 X48.6090 Y40.1780
G01 X48.5786 Y40.1795
G01 X48.5485 Y40.1840
G01 X48.5190 Y40.1913
G01 X48.4904 Y40.2016
G01 X48.4629 Y40.2146
G01 X48.4368 Y40.2302
G01 X48.4123 Y40.2484
G01 X48.3898 Y40.2688
G01 X48.3694 Y40.2913
G01 X48.3512 Y40.3158
G01 X48.3356 Y40.3419
G01 X48.3226 Y40.3694
G01 X48.3123 Y40.3980
G01 X48.3050 Y40.4275
G01 X48.3005 Y40.4576
G01 X48.2990 Y40.4880
G01 X48.3005 Y40.5184
G01 X48.3050 Y40.5485
G01 X48.3123 Y40.5780
G01 X48.3226 Y40.6066
G01 X48.3356 Y40.6341
G01 X48.3512 Y40.6602
G01 X48.3694 Y40.6847
G01 X48.3898 Y40.7072
G01 X48.4123 Y40.7276
G01 X48.4368 Y40.7458
G01 X48.4629 Y40.7614
G01 X48.4904 Y40.7744
G01 X48.5190 Y40.7847
G01 X48.5485 Y40.7920
G01 X48.5786 Y40.7965
G01 X48.6090 Y40.7980
G01 X48.6394 Y40.7965
G01 X48.6695 Y40.7920
G01 X48.6990 Y40.7847
G01 X48.7276 Y40.7744
G01 X48.7551 Y40.7614
G01 X48.7812 Y40.7458
G01 X48.8057 Y40.7276
G01 X48.8282 Y40.7072
G01 X48.8486 Y40.6847
G01 X48.8668 Y40.6602
G01 X48.8824 Y40.6341
G01 X48.8954 Y40.6066
G01 X48.9057 Y40.5780
G01 X48.9130 Y40.5485
G01 X48.9175 Y40.5184
G01 X48.9190 Y40.4880
G00 X48.9190 Y40.4880
G01 F40.00
G01 Z-1.8000
G01 F80.00
G01 X48.9175 Y40.4576
G01 X48.9130 Y40.4275
G01 X48.9057 Y40.3980
G01 X48.8954 Y40.3694
G01 X48.8824 Y40.3419
G01 X48.8668 Y40.3158
G01 X48.8486 Y40.2913
G01 X48.8282 Y40.2688
G01 X48.8057 Y40.2484
G01 X48.7812 Y40.2302
G01 X48.7551 Y40.2146
G01 X48.7276 Y40.2016
G01 X48.6990 Y40.1913
G01 X48.6695 Y40.1840
G01 X48.6394 Y40.1795
G01 X48.6090 Y40.1780
G01 X48.5786 Y40.1795
G01 X48.5485 Y40.1840
G01 X48.5190 Y40.1913
G01 X48.4904 Y40.2016
G01 X48.4629 Y40.2146
G01 X48.4368 Y40.2302
G01 X48.4123 Y40.2484
G01 X48.3898 Y40.2688
G01 X48.3694 Y40.2913
G01 X48.3512 Y40.3158
G01 X48.3356 Y40.3419
G01 X48.3226 Y40.3694
G01 X48.3123 Y40.3980
G01 X48.3050 Y40.4275
G01 X48.3005 Y40.4576
G01 X48.2990 Y40.4880
G01 X48.3005 Y40.5184
G01 X48.3050 Y40.5485
G01 X48.3123 Y40.5780
G01 X48.3226 Y40.6066
G01 X48.3356 Y40.6341
G01 X48.3512 Y40.6602
G01 X48.3694 Y40.6847
G01 X48.3898 Y40.7072
G01 X48.4123 Y40.7276
G01 X48.4368 Y40.7458
G01 X48.4629 Y40.7614
G01 X48.4904 Y40.7744
G01 X48.5190 Y40.7847
G01 X48.5485 Y40.7920
G01 X48.5786 Y40.7965
G01 X48.6090 Y40.7980
G01 X48.6394 Y40.7965
G01 X48.6695 Y40.7920
G01 X48.6990 Y40.7847
G01 X48.7276 Y40.7744
G01 X48.7551 Y40.7614
G01 X48.7812 Y40.7458
G01 X48.8057 Y40.7276
G01 X48.8282 Y40.7072
G01 X48.8486 Y40.6847
G01 X48.8668 Y40.6602
G01 X48.8824 Y40.6341
G01 X48.8954 Y40.6066
G01 X48.9057 Y40.5780
G01 X48.9130 Y40.5485
G01 X48.9175 Y40.5184
G01 X48.9190 Y40.4880
G00 X48.9190 Y40.4880
G01 F40.00
G01 Z-1.9000
G01 F80.00
G01 X48.9175 Y40.4576
G01 X48.9130 Y40.4275
G01 X48.9057 Y40.3980
G01 X48.8954 Y40.3694
G01 X48.8824 Y40.3419
G01 X48.8668 Y40.3158
G01 X48.8486 Y40.2913
G01 X48.8282 Y40.2688
G01 X48.8057 Y40.2484
G01 X48.7812 Y40.2302
G01 X48.7551 Y40.2146
G01 X48.7276 Y40.2016
G01 X48.6990 Y40.1913
G01 X48.6695 Y40.1840
G01 X48.6394 Y40.1795
G01 X48.6090 Y40.1780
G01 X48.5786 Y40.1795
G01 X48.5485 Y40.1840
G01 X48.5190 Y40.1913
G01 X48.4904 Y40.2016
G01 X48.4629 Y40.2146
G01 X48.4368 Y40.2302
G01 X48.4123 Y40.2484
G01 X48.3898 Y40.2688
G01 X48.3694 Y40.2913
G01 X48.3512 Y40.3158
G01 X48.3356 Y40.3419
G01 X48.3226 Y40.3694
G01 X48.3123 Y40.3980
G01 X48.3050 Y40.4275
G01 X48.3005 Y40.4576
G01 X48.2990 Y40.4880
G01 X48.3005 Y40.5184
G01 X48.3050 Y40.5485
G01 X48.3123 Y40.5780
G01 X48.3226 Y40.6066
G01 X48.3356 Y40.6341
G01 X48.3512 Y40.6602
G01 X48.3694 Y40.6847
G01 X48.3898 Y40.7072
G01 X48.4123 Y40.7276
G01 X48.4368 Y40.7458
G01 X48.4629 Y40.7614
G01 X48.4904 Y40.7744
G01 X48.5190 Y40.7847
G01 X48.5485 Y40.7920
G01 X48.5786 Y40.7965
G01 X48.6090 Y40.7980
G01 X48.6394 Y40.7965
G01 X48.6695 Y40.7920
G01 X48.6990 Y40.7847
G01 X48.7276 Y40.7744
G01 X48.7551 Y40.7614
G01 X48.7812 Y40.7458
G01 X48.8057 Y40.7276
G01 X48.8282 Y40.7072
G01 X48.8486 Y40.6847
G01 X48.8668 Y40.6602
G01 X48.8824 Y40.6341
G01 X48.8954 Y40.6066
G01 X48.9057 Y40.5780
G01 X48.9130 Y40.5485
G01 X48.9175 Y40.5184
G01 X48.9190 Y40.4880
G00 Z2.0000
G00 X67.0290 Y40.4780
G01 F40.00
G01 Z-0.2000
G01 F80.00
G01 X67.0275 Y40.4476
G01 X67.0230 Y40.4175
G01 X67.0157 Y40.3880
G01 X67.0054 Y40.3594
G01 X66.9924 Y40.3319
G01 X66.9768 Y40.3058
G01 X66.9586 Y40.2813
G01 X66.9382 Y40.2588
G01 X66.9157 Y40.2384
G01 X66.8912 Y40.2202
G01 X66.8651 Y40.2046
G01 X66.8376 Y40.1916
G01 X66.8090 Y40.1813
G01 X66.7795 Y40.1740
G01 X66.7494 Y40.1695
G01 X66.7190 Y40.1680
G01 X66.6886 Y40.1695
G01 X66.6585 Y40.1740
G01 X66.6290 Y40.1813
G01 X66.6004 Y40.1916
G01 X66.5729 Y40.2046
G01 X66.5468 Y40.2202
G01 X66.5223 Y40.2384
G01 X66.4998 Y40.2588
G01 X66.4794 Y40.2813
G01 X66.4612 Y40.3058
G01 X66.4456 Y40.3319
G01 X66.4326 Y40.3594
G01 X66.4223 Y40.3880
G01 X66.4150 Y40.4175
G01 X66.4105 Y40.4476
G01 X66.4090 Y40.4780
G01 X66.4105 Y40.5084
G01 X66.4150 Y40.5385
G01 X66.4223 Y40.5680
G01 X66.4326 Y40.5966
G01 X66.4456 Y40.6241
G01 X66.4612 Y40.6502
G01 X66.4794 Y40.6747
G01 X66.4998 Y40.6972
G01 X66.5223 Y40.7176
G01 X66.5468 Y40.7358
G01 X66.5729 Y40.7514
G01 X66.6004 Y40.7644
G01 X66.6290 Y40.7747
G01 X66.6585 Y40.7820
G01 X66.6886 Y40.7865
G01 X66.7190 Y40.7880
G01 X66.7494 Y40.7865
G01 X66.7795 Y40.7820
G01 X66.8090 Y40.7747
G01 X66.8376 Y40.7644
G01 X66.8651 Y40.7514
G01 X66.8912 Y40.7358
G01 X66.9157 Y40.7176
G01 X66.9382 Y40.6972
G01 X66.9586 Y40.6747
G01 X66.9768 Y40.6502
G01 X66.9924 Y40.6241
G01 X67.0054 Y40.5966
G01 X67.0157 Y40.5680
G01 X67.0230 Y40.5385
G01 X67.0275 Y40.5084
G01 X67.0290 Y40.4780
G00 X67.0290 Y40.4780
G01 F40.00
G01 Z-0.4000
G01 F80.00
G01 X67.0275 Y40.4476
G01 X67.0230 Y40.4175
G01 X67.0157 Y40.3880
G01 X67.0054 Y40.3594
G01 X66.9924 Y40.3319
G01 X66.9768 Y40.3058
G01 X66.9586 Y40.2813
G01 X66.9382 Y40.2588
G01 X66.9157 Y40.2384
G01 X66.8912 Y40.2202
G01 X66.8651 Y40.2046
G01 X66.8376 Y40.1916
G01 X66.8090 Y40.1813
G01 X66.7795 Y40.1740
G01 X66.7494 Y40.1695
G01 X66.7190 Y40.1680
G01 X66.6886 Y40.1695
G01 X66.6585 Y40.1740
G01 X66.6290 Y40.1813
G01 X66.6004 Y40.1916
G01 X66.5729 Y40.2046
G01 X66.5468 Y40.2202
G01 X66.5223 Y40.2384
G01 X66.4998 Y40.2588
G01 X66.4794 Y40.2813
G01 X66.4612 Y40.3058
G01 X66.4456 Y40.3319
G01 X66.4326 Y40.3594
G01 X66.4223 Y40.3880
G01 X66.4150 Y40.4175
G01 X66.4105 Y40.4476
G01 X66.4090 Y40.4780
G01 X66.4105 Y40.5084
G01 X66.4150 Y40.5385
G01 X66.4223 Y40.5680
G01 X66.4326 Y40.5966
G01 X66.4456 Y40.6241
G01 X66.4612 Y40.6502
G01 X66.4794 Y40.6747
G01 X66.4998 Y40.6972
G01 X66.5223 Y40.7176
G01 X66.5468 Y40.7358
G01 X66.5729 Y40.7514
G01 X66.6004 Y40.7644
G01 X66.6290 Y40.7747
G01 X66.6585 Y40.7820
G01 X66.6886 Y40.7865
G01 X66.7190 Y40.7880
G01 X66.7494 Y40.7865
G01 X66.7795 Y40.7820
G01 X66.8090 Y40.7747
G01 X66.8376 Y40.7644
G01 X66.8651 Y40.7514
G01 X66.8912 Y40.7358
G01 X66.9157 Y40.7176
G01 X66.9382 Y40.6972
G01 X66.9586 Y40.6747
G01 X66.9768 Y40.6502
G01 X66.9924 Y40.6241
G01 X67.0054 Y40.5966
G01 X67.0157 Y40.5680
G01 X67.0230 Y40.5385
G01 X67.0275 Y40.5084
G01 X67.0290 Y40.4780
G00 X67.0290 Y40.4780
G01 F40.00
G01 Z-0.6000
G01 F80.00
G01 X67.0275 Y40.4476
G01 X67.0230 Y40.4175
G01 X67.0157 Y40.3880
G01 X67.0054 Y40.3594
G01 X66.9924 Y40.3319
G01 X66.9768 Y40.3058
G01 X66.9586 Y40.2813
G01 X66.9382 Y40.2588
G01 X66.9157 Y40.2384
G01 X66.8912 Y40.2202
G01 X66.8651 Y40.2046
G01 X66.8376 Y40.1916
G01 X66.8090 Y40.1813
G01 X66.7795 Y40.1740
G01 X66.7494 Y40.1695
G01 X66.7190 Y40.1680
G01 X66.6886 Y40.1695
G01 X66.6585 Y40.1740
G01 X66.6290 Y40.1813
G01 X66.6004 Y40.1916
G01 X66.5729 Y40.2046
G01 X66.5468 Y40.2202
G01 X66.5223 Y40.2384
G01 X66.4998 Y40.2588
G01 X66.4794 Y40.2813
G01 X66.4612 Y40.3058
G01 X66.4456 Y40.3319
G01 X66.4326 Y40.3594
G01 X66.4223 Y40.3880
G01 X66.4150 Y40.4175
G01 X66.4105 Y40.4476
G01 X66.4090 Y40.4780
G01 X66.4105 Y40.5084
G01 X66.4150 Y40.5385
G01 X66.4223 Y40.5680
G01 X66.4326 Y40.5966
G01 X66.4456 Y40.6241
G01 X66.4612 Y40.6502
G01 X66.4794 Y40.6747
G01 X66.4998 Y40.6972
G01 X66.5223 Y40.7176
G01 X66.5468 Y40.7358
G01 X66.5729 Y40.7514
G01 X66.6004 Y40.7644
G01 X66.6290 Y40.7747
G01 X66.6585 Y40.7820
G01 X66.6886 Y40.7865
G01 X66.7190 Y40.7880
G01 X66.7494 Y40.7865
G01 X66.7795 Y40.7820
G01 X66.8090 Y40.7747
G01 X66.8376 Y40.7644
G01 X66.8651 Y40.7514
G01 X66.8912 Y40.7358
G01 X66.9157 Y40.7176
G01 X66.9382 Y40.6972
G01 X66.9586 Y40.6747
G01 X66.9768 Y40.6502
G01 X66.9924 Y40.6241
G01 X67.0054 Y40.5966
G01 X67.0157 Y40.5680
G01 X67.0230 Y40.5385
G01 X67.0275 Y40.5084
G01 X67.0290 Y40.4780
G00 X67.0290 Y40.4780
G01 F40.00
G01 Z-0.8000
G01 F80.00
G01 X67.0275 Y40.4476
G01 X67.0230 Y40.4175
G01 X67.0157 Y40.3880
G01 X67.0054 Y40.3594
G01 X66.9924 Y40.3319
G01 X66.9768 Y40.3058
G01 X66.9586 Y40.2813
G01 X66.9382 Y40.2588
G01 X66.9157 Y40.2384
G01 X66.8912 Y40.2202
G01 X66.8651 Y40.2046
G01 X66.8376 Y40.1916
G01 X66.8090 Y40.1813
G01 X66.7795 Y40.1740
G01 X66.7494 Y40.1695
G01 X66.7190 Y40.1680
G01 X66.6886 Y40.1695
G01 X66.6585 Y40.1740
G01 X66.6290 Y40.1813
G01 X66.6004 Y40.1916
G01 X66.5729 Y40.2046
G01 X66.5468 Y40.2202
G01 X66.5223 Y40.2384
G01 X66.4998 Y40.2588
G01 X66.4794 Y40.2813
G01 X66.4612 Y40.3058
G01 X66.4456 Y40.3319
G01 X66.4326 Y40.3594
G01 X66.4223 Y40.3880
G01 X66.4150 Y40.4175
G01 X66.4105 Y40.4476
G01 X66.4090 Y40.4780
G01 X66.4105 Y40.5084
G01 X66.4150 Y40.5385
G01 X66.4223 Y40.5680
G01 X66.4326 Y40.5966
G01 X66.4456 Y40.6241
G01 X66.4612 Y40.6502
G01 X66.4794 Y40.6747
G01 X66.4998 Y40.6972
G01 X66.5223 Y40.7176
G01 X66.5468 Y40.7358
G01 X66.5729 Y40.7514
G01 X66.6004 Y40.7644
G01 X66.6290 Y40.7747
G01 X66.6585 Y40.7820
G01 X66.6886 Y40.7865
G01 X66.7190 Y40.7880
G01 X66.7494 Y40.7865
G01 X66.7795 Y40.7820
G01 X66.8090 Y40.7747
G01 X66.8376 Y40.7644
G01 X66.8651 Y40.7514
G01 X66.8912 Y40.7358
G01 X66.9157 Y40.7176
G01 X66.9382 Y40.6972
G01 X66.9586 Y40.6747
G01 X66.9768 Y40.6502
G01 X66.9924 Y40.6241
G01 X67.0054 Y40.5966
G01 X67.0157 Y40.5680
G01 X67.0230 Y40.5385
G01 X67.0275 Y40.5084
G01 X67.0290 Y40.4780
G00 X67.0290 Y40.4780
G01 F40.00
G01 Z-1.0000
G01 F80.00
G01 X67.0275 Y40.4476
G01 X67.0230 Y40.4175
G01 X67.0157 Y40.3880
G01 X67.0054 Y40.3594
G01 X66.9924 Y40.3319
G01 X66.9768 Y40.3058
G01 X66.9586 Y40.2813
G01 X66.9382 Y40.2588
G01 X66.9157 Y40.2384
G01 X66.8912 Y40.2202
G01 X66.8651 Y40.2046
G01 X66.8376 Y40.1916
G01 X66.8090 Y40.1813
G01 X66.7795 Y40.1740
G01 X66.7494 Y40.1695
G01 X66.7190 Y40.1680
G01 X66.6886 Y40.1695
G01 X66.6585 Y40.1740
G01 X66.6290 Y40.1813
G01 X66.6004 Y40.1916
G01 X66.5729 Y40.2046
G01 X66.5468 Y40.2202
G01 X66.5223 Y40.2384
G01 X66.4998 Y40.2588
G01 X66.4794 Y40.2813
G01 X66.4612 Y40.3058
G01 X66.4456 Y40.3319
G01 X66.4326 Y40.3594
G01 X66.4223 Y40.3880
G01 X66.4150 Y40.4175
G01 X66.4105 Y40.4476
G01 X66.4090 Y40.4780
G01 X66.4105 Y40.5084
G01 X66.4150 Y40.5385
G01 X66.4223 Y40.5680
G01 X66.4326 Y40.5966
G01 X66.4456 Y40.6241
G01 X66.4612 Y40.6502
G01 X66.4794 Y40.6747
G01 X66.4998 Y40.6972
G01 X66.5223 Y40.7176
G01 X66.5468 Y40.7358
G01 X66.5729 Y40.7514
G01 X66.6004 Y40.7644
G01 X66.6290 Y40.7747
G01 X66.6585 Y40.7820
G01 X66.6886 Y40.7865
G01 X66.7190 Y40.7880
G01 X66.7494 Y40.7865
G01 X66.7795 Y40.7820
G01 X66.8090 Y40.7747
G01 X66.8376 Y40.7644
G01 X66.8651 Y40.7514
G01 X66.8912 Y40.7358
G01 X66.9157 Y40.7176
G01 X66.9382 Y40.6972
G01 X66.9586 Y40.6747
G01 X66.9768 Y40.6502
G01 X66.9924 Y40.6241
G01 X67.0054 Y40.5966
G01 X67.0157 Y40.5680
G01 X67.0230 Y40.5385
G01 X67.0275 Y40.5084
G01 X67.0290 Y40.4780
G00 X67.0290 Y40.4780
G01 F40.00
G01 Z-1.2000
G01 F80.00
G01 X67.0275 Y40.4476
G01 X67.0230 Y40.4175
G01 X67.0157 Y40.3880
G01 X67.0054 Y40.3594
G01 X66.9924 Y40.3319
G01 X66.9768 Y40.3058
G01 X66.9586 Y40.2813
G01 X66.9382 Y40.2588
G01 X66.9157 Y40.2384
G01 X66.8912 Y40.2202
G01 X66.8651 Y40.2046
G01 X66.8376 Y40.1916
G01 X66.8090 Y40.1813
G01 X66.7795 Y40.1740
G01 X66.7494 Y40.1695
G01 X66.7190 Y40.1680
G01 X66.6886 Y40.1695
G01 X66.6585 Y40.1740
G01 X66.6290 Y40.1813
G01 X66.6004 Y40.1916
G01 X66.5729 Y40.2046
G01 X66.5468 Y40.2202
G01 X66.5223 Y40.2384
G01 X66.4998 Y40.2588
G01 X66.4794 Y40.2813
G01 X66.4612 Y40.3058
G01 X66.4456 Y40.3319
G01 X66.4326 Y40.3594
G01 X66.4223 Y40.3880
G01 X66.4150 Y40.4175
G01 X66.4105 Y40.4476
G01 X66.4090 Y40.4780
G01 X66.4105 Y40.5084
G01 X66.4150 Y40.5385
G01 X66.4223 Y40.5680
G01 X66.4326 Y40.5966
G01 X66.4456 Y40.6241
G01 X66.4612 Y40.6502
G01 X66.4794 Y40.6747
G01 X66.4998 Y40.6972
G01 X66.5223 Y40.7176
G01 X66.5468 Y40.7358
G01 X66.5729 Y40.7514
G01 X66.6004 Y40.7644
G01 X66.6290 Y40.7747
G01 X66.6585 Y40.7820
G01 X66.6886 Y40.7865
G01 X66.7190 Y40.7880
G01 X66.7494 Y40.7865
G01 X66.7795 Y40.7820
G01 X66.8090 Y40.7747
G01 X66.8376 Y40.7644
G01 X66.8651 Y40.7514
G01 X66.8912 Y40.7358
G01 X66.9157 Y40.7176
G01 X66.9382 Y40.6972
G01 X66.9586 Y40.6747
G01 X66.9768 Y40.6502
G01 X66.9924 Y40.6241
G01 X67.0054 Y40.5966
G01 X67.0157 Y40.5680
G01 X67.0230 Y40.5385
G01 X67.0275 Y40.5084
G01 X67.0290 Y40.4780
G00 X67.0290 Y40.4780
G01 F40.00
G01 Z-1.4000
G01 F80.00
G01 X67.0275 Y40.4476
G01 X67.0230 Y40.4175
G01 X67.0157 Y40.3880
G01 X67.0054 Y40.3594
G01 X66.9924 Y40.3319
G01 X66.9768 Y40.3058
G01 X66.9586 Y40.2813
G01 X66.9382 Y40.2588
G01 X66.9157 Y40.2384
G01 X66.8912 Y40.2202
G01 X66.8651 Y40.2046
G01 X66.8376 Y40.1916
G01 X66.8090 Y40.1813
G01 X66.7795 Y40.1740
G01 X66.7494 Y40.1695
G01 X66.7190 Y40.1680
G01 X66.6886 Y40.1695
G01 X66.6585 Y40.1740
G01 X66.6290 Y40.1813
G01 X66.6004 Y40.1916
G01 X66.5729 Y40.2046
G01 X66.5468 Y40.2202
G01 X66.5223 Y40.2384
G01 X66.4998 Y40.2588
G01 X66.4794 Y40.2813
G01 X66.4612 Y40.3058
G01 X66.4456 Y40.3319
G01 X66.4326 Y40.3594
G01 X66.4223 Y40.3880
G01 X66.4150 Y40.4175
G01 X66.4105 Y40.4476
G01 X66.4090 Y40.4780
G01 X66.4105 Y40.5084
G01 X66.4150 Y40.5385
G01 X66.4223 Y40.5680
G01 X66.4326 Y40.5966
G01 X66.4456 Y40.6241
G01 X66.4612 Y40.6502
G01 X66.4794 Y40.6747
G01 X66.4998 Y40.6972
G01 X66.5223 Y40.7176
G01 X66.5468 Y40.7358
G01 X66.5729 Y40.7514
G01 X66.6004 Y40.7644
G01 X66.6290 Y40.7747
G01 X66.6585 Y40.7820
G01 X66.6886 Y40.7865
G01 X66.7190 Y40.7880
G01 X66.7494 Y40.7865
G01 X66.7795 Y40.7820
G01 X66.8090 Y40.7747
G01 X66.8376 Y40.7644
G01 X66.8651 Y40.7514
G01 X66.8912 Y40.7358
G01 X66.9157 Y40.7176
G01 X66.9382 Y40.6972
G01 X66.9586 Y40.6747
G01 X66.9768 Y40.6502
G01 X66.9924 Y40.6241
G01 X67.0054 Y40.5966
G01 X67.0157 Y40.5680
G01 X67.0230 Y40.5385
G01 X67.0275 Y40.5084
G01 X67.0290 Y40.4780
G00 X67.0290 Y40.4780
G01 F40.00
G01 Z-1.6000
G01 F80.00
G01 X67.0275 Y40.4476
G01 X67.0230 Y40.4175
G01 X67.0157 Y40.3880
G01 X67.0054 Y40.3594
G01 X66.9924 Y40.3319
G01 X66.9768 Y40.3058
G01 X66.9586 Y40.2813
G01 X66.9382 Y40.2588
G01 X66.9157 Y40.2384
G01 X66.8912 Y40.2202
G01 X66.8651 Y40.2046
G01 X66.8376 Y40.1916
G01 X66.8090 Y40.1813
G01 X66.7795 Y40.1740
G01 X66.7494 Y40.1695
G01 X66.7190 Y40.1680
G01 X66.6886 Y40.1695
G01 X66.6585 Y40.1740
G01 X66.6290 Y40.1813
G01 X66.6004 Y40.1916
G01 X66.5729 Y40.2046
G01 X66.5468 Y40.2202
G01 X66.5223 Y40.2384
G01 X66.4998 Y40.2588
G01 X66.4794 Y40.2813
G01 X66.4612 Y40.3058
G01 X66.4456 Y40.3319
G01 X66.4326 Y40.3594
G01 X66.4223 Y40.3880
G01 X66.4150 Y40.4175
G01 X66.4105 Y40.4476
G01 X66.4090 Y40.4780
G01 X66.4105 Y40.5084
G01 X66.4150 Y40.5385
G01 X66.4223 Y40.5680
G01 X66.4326 Y40.5966
G01 X66.4456 Y40.6241
G01 X66.4612 Y40.6502
G01 X66.4794 Y40.6747
G01 X66.4998 Y40.6972
G01 X66.5223 Y40.7176
G01 X66.5468 Y40.7358
G01 X66.5729 Y40.7514
G01 X66.6004 Y40.7644
G01 X66.6290 Y40.7747
G01 X66.6585 Y40.7820
G01 X66.6886 Y40.7865
G01 X66.7190 Y40.7880
G01 X66.7494 Y40.7865
G01 X66.7795 Y40.7820
G01 X66.8090 Y40.7747
G01 X66.8376 Y40.7644
G01 X66.8651 Y40.7514
G01 X66.8912 Y40.7358
G01 X66.9157 Y40.7176
G01 X66.9382 Y40.6972
G01 X66.9586 Y40.6747
G01 X66.9768 Y40.6502
G01 X66.9924 Y40.6241
G01 X67.0054 Y40.5966
G01 X67.0157 Y40.5680
G01 X67.0230 Y40.5385
G01 X67.0275 Y40.5084
G01 X67.0290 Y40.4780
G00 X67.0290 Y40.4780
G01 F40.00
G01 Z-1.8000
G01 F80.00
G01 X67.0275 Y40.4476
G01 X67.0230 Y40.4175
G01 X67.0157 Y40.3880
G01 X67.0054 Y40.3594
G01 X66.9924 Y40.3319
G01 X66.9768 Y40.3058
G01 X66.9586 Y40.2813
G01 X66.9382 Y40.2588
G01 X66.9157 Y40.2384
G01 X66.8912 Y40.2202
G01 X66.8651 Y40.2046
G01 X66.8376 Y40.1916
G01 X66.8090 Y40.1813
G01 X66.7795 Y40.1740
G01 X66.7494 Y40.1695
G01 X66.7190 Y40.1680
G01 X66.6886 Y40.1695
G01 X66.6585 Y40.1740
G01 X66.6290 Y40.1813
G01 X66.6004 Y40.1916
G01 X66.5729 Y40.2046
G01 X66.5468 Y40.2202
G01 X66.5223 Y40.2384
G01 X66.4998 Y40.2588
G01 X66.4794 Y40.2813
G01 X66.4612 Y40.3058
G01 X66.4456 Y40.3319
G01 X66.4326 Y40.3594
G01 X66.4223 Y40.3880
G01 X66.4150 Y40.4175
G01 X66.4105 Y40.4476
G01 X66.4090 Y40.4780
G01 X66.4105 Y40.5084
G01 X66.4150 Y40.5385
G01 X66.4223 Y40.5680
G01 X66.4326 Y40.5966
G01 X66.4456 Y40.6241
G01 X66.4612 Y40.6502
G01 X66.4794 Y40.6747
G01 X66.4998 Y40.6972
G01 X66.5223 Y40.7176
G01 X66.5468 Y40.7358
G01 X66.5729 Y40.7514
G01 X66.6004 Y40.7644
G01 X66.6290 Y40.7747
G01 X66.6585 Y40.7820
G01 X66.6886 Y40.7865
G01 X66.7190 Y40.7880
G01 X66.7494 Y40.7865
G01 X66.7795 Y40.7820
G01 X66.8090 Y40.7747
G01 X66.8376 Y40.7644
G01 X66.8651 Y40.7514
G01 X66.8912 Y40.7358
G01 X66.9157 Y40.7176
G01 X66.9382 Y40.6972
G01 X66.9586 Y40.6747
G01 X66.9768 Y40.6502
G01 X66.9924 Y40.6241
G01 X67.0054 Y40.5966
G01 X67.0157 Y40.5680
G01 X67.0230 Y40.5385
G01 X67.0275 Y40.5084
G01 X67.0290 Y40.4780
G00 X67.0290 Y40.4780
G01 F40.00
G01 Z-1.9000
G01 F80.00
G01 X67.0275 Y40.4476
G01 X67.0230 Y40.4175
G01 X67.0157 Y40.3880
G01 X67.0054 Y40.3594
G01 X66.9924 Y40.3319
G01 X66.9768 Y40.3058
G01 X66.9586 Y40.2813
G01 X66.9382 Y40.2588
G01 X66.9157 Y40.2384
G01 X66.8912 Y40.2202
G01 X66.8651 Y40.2046
G01 X66.8376 Y40.1916
G01 X66.8090 Y40.1813
G01 X66.7795 Y40.1740
G01 X66.7494 Y40.1695
G01 X66.7190 Y40.1680
G01 X66.6886 Y40.1695
G01 X66.6585 Y40.1740
G01 X66.6290 Y40.1813
G01 X66.6004 Y40.1916
G01 X66.5729 Y40.2046
G01 X66.5468 Y40.2202
G01 X66.5223 Y40.2384
G01 X66.4998 Y40.2588
G01 X66.4794 Y40.2813
G01 X66.4612 Y40.3058
G01 X66.4456 Y40.3319
G01 X66.4326 Y40.3594
G01 X66.4223 Y40.3880
G01 X66.4150 Y40.4175
G01 X66.4105 Y40.4476
G01 X66.4090 Y40.4780
G01 X66.4105 Y40.5084
G01 X66.4150 Y40.5385
G01 X66.4223 Y40.5680
G01 X66.4326 Y40.5966
G01 X66.4456 Y40.6241
G01 X66.4612 Y40.6502
G01 X66.4794 Y40.6747
G01 X66.4998 Y40.6972
G01 X66.5223 Y40.7176
G01 X66.5468 Y40.7358
G01 X66.5729 Y40.7514
G01 X66.6004 Y40.7644
G01 X66.6290 Y40.7747
G01 X66.6585 Y40.7820
G01 X66.6886 Y40.7865
G01 X66.7190 Y40.7880
G01 X66.7494 Y40.7865
G01 X66.7795 Y40.7820
G01 X66.8090 Y40.7747
G01 X66.8376 Y40.7644
G01 X66.8651 Y40.7514
G01 X66.8912 Y40.7358
G01 X66.9157 Y40.7176
G01 X66.9382 Y40.6972
G01 X66.9586 Y40.6747
G01 X66.9768 Y40.6502
G01 X66.9924 Y40.6241
G01 X67.0054 Y40.5966
G01 X67.0157 Y40.5680
G01 X67.0230 Y40.5385
G01 X67.0275 Y40.5084
G01 X67.0290 Y40.4780
G00 Z2.0000
G00 X71.8990 Y44.9500
G01 F40.00
G01 Z-0.2000
G01 F80.00
G01 X71.8942 Y44.8521
G01 X71.8798 Y44.7551
G01 X71.8560 Y44.6600
G01 X71.8230 Y44.5677
G01 X71.7810 Y44.4791
G01 X71.7306 Y44.3950
G01 X71.6722 Y44.3162
G01 X71.6064 Y44.2436
G01 X71.5338 Y44.1778
G01 X71.4550 Y44.1194
G01 X71.3709 Y44.0690
G01 X71.2823 Y44.0270
G01 X71.1900 Y43.9940
G01 X71.0949 Y43.9702
G01 X70.9979 Y43.9558
G01 X70.9000 Y43.9510
G01 X70.8021 Y43.9558
G01 X70.7051 Y43.9702
G01 X70.6100 Y43.9940
G01 X70.5177 Y44.0270
G01 X70.4291 Y44.0690
G01 X70.3450 Y44.1194
G01 X70.2662 Y44.1778
G01 X70.1936 Y44.2436
G01 X70.1278 Y44.3162
G01 X70.0694 Y44.3950
G01 X70.0190 Y44.4791
G01 X69.9770 Y44.5677
G01 X69.9440 Y44.6600
G01 X69.9202 Y44.7551
G01 X69.9058 Y44.8521
G01 X69.9010 Y44.9500
G01 X69.9058 Y45.0479
G01 X69.9202 Y45.1449
G01 X69.9440 Y45.2400
G01 X69.9770 Y45.3323
G01 X70.0190 Y45.4209
G01 X70.0694 Y45.5050
G01 X70.1278 Y45.5838
G01 X70.1936 Y45.6564
G01 X70.2662 Y45.7222
G01 X70.3450 Y45.7806
G01 X70.4291 Y45.8310
G01 X70.5177 Y45.8730
G01 X70.6100 Y45.9060
G01 X70.7051 Y45.9298
G01 X70.8021 Y45.9442
G01 X70.9000 Y45.9490
G01 X70.9979 Y45.9442
G01 X71.0949 Y45.9298
G01 X71.1900 Y45.9060
G01 X71.2823 Y45.8730
G01 X71.3709 Y45.8310
G01 X71.4550 Y45.7806
G01 X71.5338 Y45.7222
G01 X71.6064 Y45.6564
G01 X71.6722 Y45.5838
G01 X71.7306 Y45.5050
G01 X71.7810 Y45.4209
G01 X71.8230 Y45.3323
G01 X71.8560 Y45.2400
G01 X71.8798 Y45.1449
G01 X71.8942 Y45.0479
G01 X71.8990 Y44.9500
G00 X71.8990 Y44.9500
G01 F40.00
G01 Z-0.4000
G01 F80.00
G01 X71.8942 Y44.8521
G01 X71.8798 Y44.7551
G01 X71.8560 Y44.6600
G01 X71.8230 Y44.5677
G01 X71.7810 Y44.4791
G01 X71.7306 Y44.3950
G01 X71.6722 Y44.3162
G01 X71.6064 Y44.2436
G01 X71.5338 Y44.1778
G01 X71.4550 Y44.1194
G01 X71.3709 Y44.0690
G01 X71.2823 Y44.0270
G01 X71.1900 Y43.9940
G01 X71.0949 Y43.9702
G01 X70.9979 Y43.9558
G01 X70.9000 Y43.9510
G01 X70.8021 Y43.9558
G01 X70.7051 Y43.9702
G01 X70.6100 Y43.9940
G01 X70.5177 Y44.0270
G01 X70.4291 Y44.0690
G01 X70.3450 Y44.1194
G01 X70.2662 Y44.1778
G01 X70.1936 Y44.2436
G01 X70.1278 Y44.3162
G01 X70.0694 Y44.3950
G01 X70.0190 Y44.4791
G01 X69.9770 Y44.5677
G01 X69.9440 Y44.6600
G01 X69.9202 Y44.7551
G01 X69.9058 Y44.8521
G01 X69.9010 Y44.9500
G01 X69.9058 Y45.0479
G01 X69.9202 Y45.1449
G01 X69.9440 Y45.2400
G01 X69.9770 Y45.3323
G01 X70.0190 Y45.4209
G01 X70.0694 Y45.5050
G01 X70.1278 Y45.5838
G01 X70.1936 Y45.6564
G01 X70.2662 Y45.7222
G01 X70.3450 Y45.7806
G01 X70.4291 Y45.8310
G01 X70.5177 Y45.8730
G01 X70.6100 Y45.9060
G01 X70.7051 Y45.9298
G01 X70.8021 Y45.9442
G01 X70.9000 Y45.9490
G01 X70.9979 Y45.9442
G01 X71.0949 Y45.9298
G01 X71.1900 Y45.9060
G01 X71.2823 Y45.8730
G01 X71.3709 Y45.8310
G01 X71.4550 Y45.7806
G01 X71.5338 Y45.7222
G01 X71.6064 Y45.6564
G01 X71.6722 Y45.5838
G01 X71.7306 Y45.5050
G01 X71.7810 Y45.4209
G01 X71.8230 Y45.3323
G01 X71.8560 Y45.2400
G01 X71.8798 Y45.1449
G01 X71.8942 Y45.0479
G01 X71.8990 Y44.9500
G00 X71.8990 Y44.9500
G01 F40.00
G01 Z-0.6000
G01 F80.00
G01 X71.8942 Y44.8521
G01 X71.8798 Y44.7551
G01 X71.8560 Y44.6600
G01 X71.8230 Y44.5677
G01 X71.7810 Y44.4791
G01 X71.7306 Y44.3950
G01 X71.6722 Y44.3162
G01 X71.6064 Y44.2436
G01 X71.5338 Y44.1778
G01 X71.4550 Y44.1194
G01 X71.3709 Y44.0690
G01 X71.2823 Y44.0270
G01 X71.1900 Y43.9940
G01 X71.0949 Y43.9702
G01 X70.9979 Y43.9558
G01 X70.9000 Y43.9510
G01 X70.8021 Y43.9558
G01 X70.7051 Y43.9702
G01 X70.6100 Y43.9940
G01 X70.5177 Y44.0270
G01 X70.4291 Y44.0690
G01 X70.3450 Y44.1194
G01 X70.2662 Y44.1778
G01 X70.1936 Y44.2436
G01 X70.1278 Y44.3162
G01 X70.0694 Y44.3950
G01 X70.0190 Y44.4791
G01 X69.9770 Y44.5677
G01 X69.9440 Y44.6600
G01 X69.9202 Y44.7551
G01 X69.9058 Y44.8521
G01 X69.9010 Y44.9500
G01 X69.9058 Y45.0479
G01 X69.9202 Y45.1449
G01 X69.9440 Y45.2400
G01 X69.9770 Y45.3323
G01 X70.0190 Y45.4209
G01 X70.0694 Y45.5050
G01 X70.1278 Y45.5838
G01 X70.1936 Y45.6564
G01 X70.2662 Y45.7222
G01 X70.3450 Y45.7806
G01 X70.4291 Y45.8310
G01 X70.5177 Y45.8730
G01 X70.6100 Y45.9060
G01 X70.7051 Y45.9298
G01 X70.8021 Y45.9442
G01 X70.9000 Y45.9490
G01 X70.9979 Y45.9442
G01 X71.0949 Y45.9298
G01 X71.1900 Y45.9060
G01 X71.2823 Y45.8730
G01 X71.3709 Y45.8310
G01 X71.4550 Y45.7806
G01 X71.5338 Y45.7222
G01 X71.6064 Y45.6564
G01 X71.6722 Y45.5838
G01 X71.7306 Y45.5050
G01 X71.7810 Y45.4209
G01 X71.8230 Y45.3323
G01 X71.8560 Y45.2400
G01 X71.8798 Y45.1449
G01 X71.8942 Y45.0479
G01 X71.8990 Y44.9500
G00 X71.8990 Y44.9500
G01 F40.00
G01 Z-0.8000
G01 F80.00
G01 X71.8942 Y44.8521
G01 X71.8798 Y44.7551
G01 X71.8560 Y44.6600
G01 X71.8230 Y44.5677
G01 X71.7810 Y44.4791
G01 X71.7306 Y44.3950
G01 X71.6722 Y44.3162
G01 X71.6064 Y44.2436
G01 X71.5338 Y44.1778
G01 X71.4550 Y44.1194
G01 X71.3709 Y44.0690
G01 X71.2823 Y44.0270
G01 X71.1900 Y43.9940
G01 X71.0949 Y43.9702
G01 X70.9979 Y43.9558
G01 X70.9000 Y43.9510
G01 X70.8021 Y43.9558
G01 X70.7051 Y43.9702
G01 X70.6100 Y43.9940
G01 X70.5177 Y44.0270
G01 X70.4291 Y44.0690
G01 X70.3450 Y44.1194
G01 X70.2662 Y44.1778
G01 X70.1936 Y44.2436
G01 X70.1278 Y44.3162
G01 X70.0694 Y44.3950
G01 X70.0190 Y44.4791
G01 X69.9770 Y44.5677
G01 X69.9440 Y44.6600
G01 X69.9202 Y44.7551
G01 X69.9058 Y44.8521
G01 X69.9010 Y44.9500
G01 X69.9058 Y45.0479
G01 X69.9202 Y45.1449
G01 X69.9440 Y45.2400
G01 X69.9770 Y45.3323
G01 X70.0190 Y45.4209
G01 X70.0694 Y45.5050
G01 X70.1278 Y45.5838
G01 X70.1936 Y45.6564
G01 X70.2662 Y45.7222
G01 X70.3450 Y45.7806
G01 X70.4291 Y45.8310
G01 X70.5177 Y45.8730
G01 X70.6100 Y45.9060
G01 X70.7051 Y45.9298
G01 X70.8021 Y45.9442
G01 X70.9000 Y45.9490
G01 X70.9979 Y45.9442
G01 X71.0949 Y45.9298
G01 X71.1900 Y45.9060
G01 X71.2823 Y45.8730
G01 X71.3709 Y45.8310
G01 X71.4550 Y45.7806
G01 X71.5338 Y45.7222
G01 X71.6064 Y45.6564
G01 X71.6722 Y45.5838
G01 X71.7306 Y45.5050
G01 X71.7810 Y45.4209
G01 X71.8230 Y45.3323
G01 X71.8560 Y45.2400
G01 X71.8798 Y45.1449
G01 X71.8942 Y45.0479
G01 X71.8990 Y44.9500
G00 X71.8990 Y44.9500
G01 F40.00
G01 Z-1.0000
G01 F80.00
G01 X71.8942 Y44.8521
G01 X71.8798 Y44.7551
G01 X71.8560 Y44.6600
G01 X71.8230 Y44.5677
G01 X71.7810 Y44.4791
G01 X71.7306 Y44.3950
G01 X71.6722 Y44.3162
G01 X71.6064 Y44.2436
G01 X71.5338 Y44.1778
G01 X71.4550 Y44.1194
G01 X71.3709 Y44.0690
G01 X71.2823 Y44.0270
G01 X71.1900 Y43.9940
G01 X71.0949 Y43.9702
G01 X70.9979 Y43.9558
G01 X70.9000 Y43.9510
G01 X70.8021 Y43.9558
G01 X70.7051 Y43.9702
G01 X70.6100 Y43.9940
G01 X70.5177 Y44.0270
G01 X70.4291 Y44.0690
G01 X70.3450 Y44.1194
G01 X70.2662 Y44.1778
G01 X70.1936 Y44.2436
G01 X70.1278 Y44.3162
G01 X70.0694 Y44.3950
G01 X70.0190 Y44.4791
G01 X69.9770 Y44.5677
G01 X69.9440 Y44.6600
G01 X69.9202 Y44.7551
G01 X69.9058 Y44.8521
G01 X69.9010 Y44.9500
G01 X69.9058 Y45.0479
G01 X69.9202 Y45.1449
G01 X69.9440 Y45.2400
G01 X69.9770 Y45.3323
G01 X70.0190 Y45.4209
G01 X70.0694 Y45.5050
G01 X70.1278 Y45.5838
G01 X70.1936 Y45.6564
G01 X70.2662 Y45.7222
G01 X70.3450 Y45.7806
G01 X70.4291 Y45.8310
G01 X70.5177 Y45.8730
G01 X70.6100 Y45.9060
G01 X70.7051 Y45.9298
G01 X70.8021 Y45.9442
G01 X70.9000 Y45.9490
G01 X70.9979 Y45.9442
G01 X71.0949 Y45.9298
G01 X71.1900 Y45.9060
G01 X71.2823 Y45.8730
G01 X71.3709 Y45.8310
G01 X71.4550 Y45.7806
G01 X71.5338 Y45.7222
G01 X71.6064 Y45.6564
G01 X71.6722 Y45.5838
G01 X71.7306 Y45.5050
G01 X71.7810 Y45.4209
G01 X71.8230 Y45.3323
G01 X71.8560 Y45.2400
G01 X71.8798 Y45.1449
G01 X71.8942 Y45.0479
G01 X71.8990 Y44.9500
G00 X71.8990 Y44.9500
G01 F40.00
G01 Z-1.2000
G01 F80.00
G01 X71.8942 Y44.8521
G01 X71.8798 Y44.7551
G01 X71.8560 Y44.6600
G01 X71.8230 Y44.5677
G01 X71.7810 Y44.4791
G01 X71.7306 Y44.3950
G01 X71.6722 Y44.3162
G01 X71.6064 Y44.2436
G01 X71.5338 Y44.1778
G01 X71.4550 Y44.1194
G01 X71.3709 Y44.0690
G01 X71.2823 Y44.0270
G01 X71.1900 Y43.9940
G01 X71.0949 Y43.9702
G01 X70.9979 Y43.9558
G01 X70.9000 Y43.9510
G01 X70.8021 Y43.9558
G01 X70.7051 Y43.9702
G01 X70.6100 Y43.9940
G01 X70.5177 Y44.0270
G01 X70.4291 Y44.0690
G01 X70.3450 Y44.1194
G01 X70.2662 Y44.1778
G01 X70.1936 Y44.2436
G01 X70.1278 Y44.3162
G01 X70.0694 Y44.3950
G01 X70.0190 Y44.4791
G01 X69.9770 Y44.5677
G01 X69.9440 Y44.6600
G01 X69.9202 Y44.7551
G01 X69.9058 Y44.8521
G01 X69.9010 Y44.9500
G01 X69.9058 Y45.0479
G01 X69.9202 Y45.1449
G01 X69.9440 Y45.2400
G01 X69.9770 Y45.3323
G01 X70.0190 Y45.4209
G01 X70.0694 Y45.5050
G01 X70.1278 Y45.5838
G01 X70.1936 Y45.6564
G01 X70.2662 Y45.7222
G01 X70.3450 Y45.7806
G01 X70.4291 Y45.8310
G01 X70.5177 Y45.8730
G01 X70.6100 Y45.9060
G01 X70.7051 Y45.9298
G01 X70.8021 Y45.9442
G01 X70.9000 Y45.9490
G01 X70.9979 Y45.9442
G01 X71.0949 Y45.9298
G01 X71.1900 Y45.9060
G01 X71.2823 Y45.8730
G01 X71.3709 Y45.8310
G01 X71.4550 Y45.7806
G01 X71.5338 Y45.7222
G01 X71.6064 Y45.6564
G01 X71.6722 Y45.5838
G01 X71.7306 Y45.5050
G01 X71.7810 Y45.4209
G01 X71.8230 Y45.3323
G01 X71.8560 Y45.2400
G01 X71.8798 Y45.1449
G01 X71.8942 Y45.0479
G01 X71.8990 Y44.9500
G00 X71.8990 Y44.9500
G01 F40.00
G01 Z-1.4000
G01 F80.00
G01 X71.8942 Y44.8521
G01 X71.8798 Y44.7551
G01 X71.8560 Y44.6600
G01 X71.8230 Y44.5677
G01 X71.7810 Y44.4791
G01 X71.7306 Y44.3950
G01 X71.6722 Y44.3162
G01 X71.6064 Y44.2436
G01 X71.5338 Y44.1778
G01 X71.4550 Y44.1194
G01 X71.3709 Y44.0690
G01 X71.2823 Y44.0270
G01 X71.1900 Y43.9940
G01 X71.0949 Y43.9702
G01 X70.9979 Y43.9558
G01 X70.9000 Y43.9510
G01 X70.8021 Y43.9558
G01 X70.7051 Y43.9702
G01 X70.6100 Y43.9940
G01 X70.5177 Y44.0270
G01 X70.4291 Y44.0690
G01 X70.3450 Y44.1194
G01 X70.2662 Y44.1778
G01 X70.1936 Y44.2436
G01 X70.1278 Y44.3162
G01 X70.0694 Y44.3950
G01 X70.0190 Y44.4791
G01 X69.9770 Y44.5677
G01 X69.9440 Y44.6600
G01 X69.9202 Y44.7551
G01 X69.9058 Y44.8521
G01 X69.9010 Y44.9500
G01 X69.9058 Y45.0479
G01 X69.9202 Y45.1449
G01 X69.9440 Y45.2400
G01 X69.9770 Y45.3323
G01 X70.0190 Y45.4209
G01 X70.0694 Y45.5050
G01 X70.1278 Y45.5838
G01 X70.1936 Y45.6564
G01 X70.2662 Y45.7222
G01 X70.3450 Y45.7806
G01 X70.4291 Y45.8310
G01 X70.5177 Y45.8730
G01 X70.6100 Y45.9060
G01 X70.7051 Y45.9298
G01 X70.8021 Y45.9442
G01 X70.9000 Y45.9490
G01 X70.9979 Y45.9442
G01 X71.0949 Y45.9298
G01 X71.1900 Y45.9060
G01 X71.2823 Y45.8730
G01 X71.3709 Y45.8310
G01 X71.4550 Y45.7806
G01 X71.5338 Y45.7222
G01 X71.6064 Y45.6564
G01 X71.6722 Y45.5838
G01 X71.7306 Y45.5050
G01 X71.7810 Y45.4209
G01 X71.8230 Y45.3323
G01 X71.8560 Y45.2400
G01 X71.8798 Y45.1449
G01 X71.8942 Y45.0479
G01 X71.8990 Y44.9500
G00 X71.8990 Y44.9500
G01 F40.00
G01 Z-1.6000
G01 F80.00
G01 X71.8942 Y44.8521
G01 X71.8798 Y44.7551
G01 X71.8560 Y44.6600
G01 X71.8230 Y44.5677
G01 X71.7810 Y44.4791
G01 X71.7306 Y44.3950
G01 X71.6722 Y44.3162
G01 X71.6064 Y44.2436
G01 X71.5338 Y44.1778
G01 X71.4550 Y44.1194
G01 X71.3709 Y44.0690
G01 X71.2823 Y44.0270
G01 X71.1900 Y43.9940
G01 X71.0949 Y43.9702
G01 X70.9979 Y43.9558
G01 X70.9000 Y43.9510
G01 X70.8021 Y43.9558
G01 X70.7051 Y43.9702
G01 X70.6100 Y43.9940
G01 X70.5177 Y44.0270
G01 X70.4291 Y44.0690
G01 X70.3450 Y44.1194
G01 X70.2662 Y44.1778
G01 X70.1936 Y44.2436
G01 X70.1278 Y44.3162
G01 X70.0694 Y44.3950
G01 X70.0190 Y44.4791
G01 X69.9770 Y44.5677
G01 X69.9440 Y44.6600
G01 X69.9202 Y44.7551
G01 X69.9058 Y44.8521
G01 X69.9010 Y44.9500
G01 X69.9058 Y45.0479
G01 X69.9202 Y45.1449
G01 X69.9440 Y45.2400
G01 X69.9770 Y45.3323
G01 X70.0190 Y45.4209
G01 X70.0694 Y45.5050
G01 X70.1278 Y45.5838
G01 X70.1936 Y45.6564
G01 X70.2662 Y45.7222
G01 X70.3450 Y45.7806
G01 X70.4291 Y45.8310
G01 X70.5177 Y45.8730
G01 X70.6100 Y45.9060
G01 X70.7051 Y45.9298
G01 X70.8021 Y45.9442
G01 X70.9000 Y45.9490
G01 X70.9979 Y45.9442
G01 X71.0949 Y45.9298
G01 X71.1900 Y45.9060
G01 X71.2823 Y45.8730
G01 X71.3709 Y45.8310
G01 X71.4550 Y45.7806
G01 X71.5338 Y45.7222
G01 X71.6064 Y45.6564
G01 X71.6722 Y45.5838
G01 X71.7306 Y45.5050
G01 X71.7810 Y45.4209
G01 X71.8230 Y45.3323
G01 X71.8560 Y45.2400
G01 X71.8798 Y45.1449
G01 X71.8942 Y45.0479
G01 X71.8990 Y44.9500
G00 X71.8990 Y44.9500
G01 F40.00
G01 Z-1.8000
G01 F80.00
G01 X71.8942 Y44.8521
G01 X71.8798 Y44.7551
G01 X71.8560 Y44.6600
G01 X71.8230 Y44.5677
G01 X71.7810 Y44.4791
G01 X71.7306 Y44.3950
G01 X71.6722 Y44.3162
G01 X71.6064 Y44.2436
G01 X71.5338 Y44.1778
G01 X71.4550 Y44.1194
G01 X71.3709 Y44.0690
G01 X71.2823 Y44.0270
G01 X71.1900 Y43.9940
G01 X71.0949 Y43.9702
G01 X70.9979 Y43.9558
G01 X70.9000 Y43.9510
G01 X70.8021 Y43.9558
G01 X70.7051 Y43.9702
G01 X70.6100 Y43.9940
G01 X70.5177 Y44.0270
G01 X70.4291 Y44.0690
G01 X70.3450 Y44.1194
G01 X70.2662 Y44.1778
G01 X70.1936 Y44.2436
G01 X70.1278 Y44.3162
G01 X70.0694 Y44.3950
G01 X70.0190 Y44.4791
G01 X69.9770 Y44.5677
G01 X69.9440 Y44.6600
G01 X69.9202 Y44.7551
G01 X69.9058 Y44.8521
G01 X69.9010 Y44.9500
G01 X69.9058 Y45.0479
G01 X69.9202 Y45.1449
G01 X69.9440 Y45.2400
G01 X69.9770 Y45.3323
G01 X70.0190 Y45.4209
G01 X70.0694 Y45.5050
G01 X70.1278 Y45.5838
G01 X70.1936 Y45.6564
G01 X70.2662 Y45.7222
G01 X70.3450 Y45.7806
G01 X70.4291 Y45.8310
G01 X70.5177 Y45.8730
G01 X70.6100 Y45.9060
G01 X70.7051 Y45.9298
G01 X70.8021 Y45.9442
G01 X70.9000 Y45.9490
G01 X70.9979 Y45.9442
G01 X71.0949 Y45.9298
G01 X71.1900 Y45.9060
G01 X71.2823 Y45.8730
G01 X71.3709 Y45.8310
G01 X71.4550 Y45.7806
G01 X71.5338 Y45.7222
G01 X71.6064 Y45.6564
G01 X71.6722 Y45.5838
G01 X71.7306 Y45.5050
G01 X71.7810 Y45.4209
G01 X71.8230 Y45.3323
G01 X71.8560 Y45.2400
G01 X71.8798 Y45.1449
G01 X71.8942 Y45.0479
G01 X71.8990 Y44.9500
G00 X71.8990 Y44.9500
G01 F40.00
G01 Z-1.9000
G01 F80.00
G01 X71.8942 Y44.8521
G01 X71.8798 Y44.7551
G01 X71.8560 Y44.6600
G01 X71.8230 Y44.5677
G01 X71.7810 Y44.4791
G01 X71.7306 Y44.3950
G01 X71.6722 Y44.3162
G01 X71.6064 Y44.2436
G01 X71.5338 Y44.1778
G01 X71.4550 Y44.1194
G01 X71.3709 Y44.0690
G01 X71.2823 Y44.0270
G01 X71.1900 Y43.9940
G01 X71.0949 Y43.9702
G01 X70.9979 Y43.9558
G01 X70.9000 Y43.9510
G01 X70.8021 Y43.9558
G01 X70.7051 Y43.9702
G01 X70.6100 Y43.9940
G01 X70.5177 Y44.0270
G01 X70.4291 Y44.0690
G01 X70.3450 Y44.1194
G01 X70.2662 Y44.1778
G01 X70.1936 Y44.2436
G01 X70.1278 Y44.3162
G01 X70.0694 Y44.3950
G01 X70.0190 Y44.4791
G01 X69.9770 Y44.5677
G01 X69.9440 Y44.6600
G01 X69.9202 Y44.7551
G01 X69.9058 Y44.8521
G01 X69.9010 Y44.9500
G01 X69.9058 Y45.0479
G01 X69.9202 Y45.1449
G01 X69.9440 Y45.2400
G01 X69.9770 Y45.3323
G01 X70.0190 Y45.4209
G01 X70.0694 Y45.5050
G01 X70.1278 Y45.5838
G01 X70.1936 Y45.6564
G01 X70.2662 Y45.7222
G01 X70.3450 Y45.7806
G01 X70.4291 Y45.8310
G01 X70.5177 Y45.8730
G01 X70.6100 Y45.9060
G01 X70.7051 Y45.9298
G01 X70.8021 Y45.9442
G01 X70.9000 Y45.9490
G01 X70.9979 Y45.9442
G01 X71.0949 Y45.9298
G01 X71.1900 Y45.9060
G01 X71.2823 Y45.8730
G01 X71.3709 Y45.8310
G01 X71.4550 Y45.7806
G01 X71.5338 Y45.7222
G01 X71.6064 Y45.6564
G01 X71.6722 Y45.5838
G01 X71.7306 Y45.5050
G01 X71.7810 Y45.4209
G01 X71.8230 Y45.3323
G01 X71.8560 Y45.2400
G01 X71.8798 Y45.1449
G01 X71.8942 Y45.0479
G01 X71.8990 Y44.9500
G00 Z2.0000
G00 X82.0090 Y40.4380
G01 F40.00
G01 Z-0.2000
G01 F80.00
G01 X82.0075 Y40.4076
G01 X82.0030 Y40.3775
G01 X81.9957 Y40.3480
G01 X81.9854 Y40.3194
G01 X81.9724 Y40.2919
G01 X81.9568 Y40.2658
G01 X81.9386 Y40.2413
G01 X81.9182 Y40.2188
G01 X81.8957 Y40.1984
G01 X81.8712 Y40.1802
G01 X81.8451 Y40.1646
G01 X81.8176 Y40.1516
G01 X81.7890 Y40.1413
G01 X81.7595 Y40.1340
G01 X81.7294 Y40.1295
G01 X81.6990 Y40.1280
G01 X81.6686 Y40.1295
G01 X81.6385 Y40.1340
G01 X81.6090 Y40.1413
G01 X81.5804 Y40.1516
G01 X81.5529 Y40.1646
G01 X81.5268 Y40.1802
G01 X81.5023 Y40.1984
G01 X81.4798 Y40.2188
G01 X81.4594 Y40.2413
G01 X81.4412 Y40.2658
G01 X81.4256 Y40.2919
G01 X81.4126 Y40.3194
G01 X81.4023 Y40.3480
G01 X81.3950 Y40.3775
G01 X81.3905 Y40.4076
G01 X81.3890 Y40.4380
G01 X81.3905 Y40.4684
G01 X81.3950 Y40.4985
G01 X81.4023 Y40.5280
G01 X81.4126 Y40.5566
G01 X81.4256 Y40.5841
G01 X81.4412 Y40.6102
G01 X81.4594 Y40.6347
G01 X81.4798 Y40.6572
G01 X81.5023 Y40.6776
G01 X81.5268 Y40.6958
G01 X81.5529 Y40.7114
G01 X81.5804 Y40.7244
G01 X81.6090 Y40.7347
G01 X81.6385 Y40.7420
G01 X81.6686 Y40.7465
G01 X81.6990 Y40.7480
G01 X81.7294 Y40.7465
G01 X81.7595 Y40.7420
G01 X81.7890 Y40.7347
G01 X81.8176 Y40.7244
G01 X81.8451 Y40.7114
G01 X81.8712 Y40.6958
G01 X81.8957 Y40.6776
G01 X81.9182 Y40.6572
G01 X81.9386 Y40.6347
G01 X81.9568 Y40.6102
G01 X81.9724 Y40.5841
G01 X81.9854 Y40.5566
G01 X81.9957 Y40.5280
G01 X82.0030 Y40.4985
G01 X82.0075 Y40.4684
G01 X82.0090 Y40.4380
G00 X82.0090 Y40.4380
G01 F40.00
G01 Z-0.4000
G01 F80.00
G01 X82.0075 Y40.4076
G01 X82.0030 Y40.3775
G01 X81.9957 Y40.3480
G01 X81.9854 Y40.3194
G01 X81.9724 Y40.2919
G01 X81.9568 Y40.2658
G01 X81.9386 Y40.2413
G01 X81.9182 Y40.2188
G01 X81.8957 Y40.1984
G01 X81.8712 Y40.1802
G01 X81.8451 Y40.1646
G01 X81.8176 Y40.1516
G01 X81.7890 Y40.1413
G01 X81.7595 Y40.1340
G01 X81.7294 Y40.1295
G01 X81.6990 Y40.1280
G01 X81.6686 Y40.1295
G01 X81.6385 Y40.1340
G01 X81.6090 Y40.1413
G01 X81.5804 Y40.1516
G01 X81.5529 Y40.1646
G01 X81.5268 Y40.1802
G01 X81.5023 Y40.1984
G01 X81.4798 Y40.2188
G01 X81.4594 Y40.2413
G01 X81.4412 Y40.2658
G01 X81.4256 Y40.2919
G01 X81.4126 Y40.3194
G01 X81.4023 Y40.3480
G01 X81.3950 Y40.3775
G01 X81.3905 Y40.4076
G01 X81.3890 Y40.4380
G01 X81.3905 Y40.4684
G01 X81.3950 Y40.4985
G01 X81.4023 Y40.5280
G01 X81.4126 Y40.5566
G01 X81.4256 Y40.5841
G01 X81.4412 Y40.6102
G01 X81.4594 Y40.6347
G01 X81.4798 Y40.6572
G01 X81.5023 Y40.6776
G01 X81.5268 Y40.6958
G01 X81.5529 Y40.7114
G01 X81.5804 Y40.7244
G01 X81.6090 Y40.7347
G01 X81.6385 Y40.7420
G01 X81.6686 Y40.7465
G01 X81.6990 Y40.7480
G01 X81.7294 Y40.7465
G01 X81.7595 Y40.7420
G01 X81.7890 Y40.7347
G01 X81.8176 Y40.7244
G01 X81.8451 Y40.7114
G01 X81.8712 Y40.6958
G01 X81.8957 Y40.6776
G01 X81.9182 Y40.6572
G01 X81.9386 Y40.6347
G01 X81.9568 Y40.6102
G01 X81.9724 Y40.5841
G01 X81.9854 Y40.5566
G01 X81.9957 Y40.5280
G01 X82.0030 Y40.4985
G01 X82.0075 Y40.4684
G01 X82.0090 Y40.4380
G00 X82.0090 Y40.4380
G01 F40.00
G01 Z-0.6000
G01 F80.00
G01 X82.0075 Y40.4076
G01 X82.0030 Y40.3775
G01 X81.9957 Y40.3480
G01 X81.9854 Y40.3194
G01 X81.9724 Y40.2919
G01 X81.9568 Y40.2658
G01 X81.9386 Y40.2413
G01 X81.9182 Y40.2188
G01 X81.8957 Y40.1984
G01 X81.8712 Y40.1802
G01 X81.8451 Y40.1646
G01 X81.8176 Y40.1516
G01 X81.7890 Y40.1413
G01 X81.7595 Y40.1340
G01 X81.7294 Y40.1295
G01 X81.6990 Y40.1280
G01 X81.6686 Y40.1295
G01 X81.6385 Y40.1340
G01 X81.6090 Y40.1413
G01 X81.5804 Y40.1516
G01 X81.5529 Y40.1646
G01 X81.5268 Y40.1802
G01 X81.5023 Y40.1984
G01 X81.4798 Y40.2188
G01 X81.4594 Y40.2413
G01 X81.4412 Y40.2658
G01 X81.4256 Y40.2919
G01 X81.4126 Y40.3194
G01 X81.4023 Y40.3480
G01 X81.3950 Y40.3775
G01 X81.3905 Y40.4076
G01 X81.3890 Y40.4380
G01 X81.3905 Y40.4684
G01 X81.3950 Y40.4985
G01 X81.4023 Y40.5280
G01 X81.4126 Y40.5566
G01 X81.4256 Y40.5841
G01 X81.4412 Y40.6102
G01 X81.4594 Y40.6347
G01 X81.4798 Y40.6572
G01 X81.5023 Y40.6776
G01 X81.5268 Y40.6958
G01 X81.5529 Y40.7114
G01 X81.5804 Y40.7244
G01 X81.6090 Y40.7347
G01 X81.6385 Y40.7420
G01 X81.6686 Y40.7465
G01 X81.6990 Y40.7480
G01 X81.7294 Y40.7465
G01 X81.7595 Y40.7420
G01 X81.7890 Y40.7347
G01 X81.8176 Y40.7244
G01 X81.8451 Y40.7114
G01 X81.8712 Y40.6958
G01 X81.8957 Y40.6776
G01 X81.9182 Y40.6572
G01 X81.9386 Y40.6347
G01 X81.9568 Y40.6102
G01 X81.9724 Y40.5841
G01 X81.9854 Y40.5566
G01 X81.9957 Y40.5280
G01 X82.0030 Y40.4985
G01 X82.0075 Y40.4684
G01 X82.0090 Y40.4380
G00 X82.0090 Y40.4380
G01 F40.00
G01 Z-0.8000
G01 F80.00
G01 X82.0075 Y40.4076
G01 X82.0030 Y40.3775
G01 X81.9957 Y40.3480
G01 X81.9854 Y40.3194
G01 X81.9724 Y40.2919
G01 X81.9568 Y40.2658
G01 X81.9386 Y40.2413
G01 X81.9182 Y40.2188
G01 X81.8957 Y40.1984
G01 X81.8712 Y40.1802
G01 X81.8451 Y40.1646
G01 X81.8176 Y40.1516
G01 X81.7890 Y40.1413
G01 X81.7595 Y40.1340
G01 X81.7294 Y40.1295
G01 X81.6990 Y40.1280
G01 X81.6686 Y40.1295
G01 X81.6385 Y40.1340
G01 X81.6090 Y40.1413
G01 X81.5804 Y40.1516
G01 X81.5529 Y40.1646
G01 X81.5268 Y40.1802
G01 X81.5023 Y40.1984
G01 X81.4798 Y40.2188
G01 X81.4594 Y40.2413
G01 X81.4412 Y40.2658
G01 X81.4256 Y40.2919
G01 X81.4126 Y40.3194
G01 X81.4023 Y40.3480
G01 X81.3950 Y40.3775
G01 X81.3905 Y40.4076
G01 X81.3890 Y40.4380
G01 X81.3905 Y40.4684
G01 X81.3950 Y40.4985
G01 X81.4023 Y40.5280
G01 X81.4126 Y40.5566
G01 X81.4256 Y40.5841
G01 X81.4412 Y40.6102
G01 X81.4594 Y40.6347
G01 X81.4798 Y40.6572
G01 X81.5023 Y40.6776
G01 X81.5268 Y40.6958
G01 X81.5529 Y40.7114
G01 X81.5804 Y40.7244
G01 X81.6090 Y40.7347
G01 X81.6385 Y40.7420
G01 X81.6686 Y40.7465
G01 X81.6990 Y40.7480
G01 X81.7294 Y40.7465
G01 X81.7595 Y40.7420
G01 X81.7890 Y40.7347
G01 X81.8176 Y40.7244
G01 X81.8451 Y40.7114
G01 X81.8712 Y40.6958
G01 X81.8957 Y40.6776
G01 X81.9182 Y40.6572
G01 X81.9386 Y40.6347
G01 X81.9568 Y40.6102
G01 X81.9724 Y40.5841
G01 X81.9854 Y40.5566
G01 X81.9957 Y40.5280
G01 X82.0030 Y40.4985
G01 X82.0075 Y40.4684
G01 X82.0090 Y40.4380
G00 X82.0090 Y40.4380
G01 F40.00
G01 Z-1.0000
G01 F80.00
G01 X82.0075 Y40.4076
G01 X82.0030 Y40.3775
G01 X81.9957 Y40.3480
G01 X81.9854 Y40.3194
G01 X81.9724 Y40.2919
G01 X81.9568 Y40.2658
G01 X81.9386 Y40.2413
G01 X81.9182 Y40.2188
G01 X81.8957 Y40.1984
G01 X81.8712 Y40.1802
G01 X81.8451 Y40.1646
G01 X81.8176 Y40.1516
G01 X81.7890 Y40.1413
G01 X81.7595 Y40.1340
G01 X81.7294 Y40.1295
G01 X81.6990 Y40.1280
G01 X81.6686 Y40.1295
G01 X81.6385 Y40.1340
G01 X81.6090 Y40.1413
G01 X81.5804 Y40.1516
G01 X81.5529 Y40.1646
G01 X81.5268 Y40.1802
G01 X81.5023 Y40.1984
G01 X81.4798 Y40.2188
G01 X81.4594 Y40.2413
G01 X81.4412 Y40.2658
G01 X81.4256 Y40.2919
G01 X81.4126 Y40.3194
G01 X81.4023 Y40.3480
G01 X81.3950 Y40.3775
G01 X81.3905 Y40.4076
G01 X81.3890 Y40.4380
G01 X81.3905 Y40.4684
G01 X81.3950 Y40.4985
G01 X81.4023 Y40.5280
G01 X81.4126 Y40.5566
G01 X81.4256 Y40.5841
G01 X81.4412 Y40.6102
G01 X81.4594 Y40.6347
G01 X81.4798 Y40.6572
G01 X81.5023 Y40.6776
G01 X81.5268 Y40.6958
G01 X81.5529 Y40.7114
G01 X81.5804 Y40.7244
G01 X81.6090 Y40.7347
G01 X81.6385 Y40.7420
G01 X81.6686 Y40.7465
G01 X81.6990 Y40.7480
G01 X81.7294 Y40.7465
G01 X81.7595 Y40.7420
G01 X81.7890 Y40.7347
G01 X81.8176 Y40.7244
G01 X81.8451 Y40.7114
G01 X81.8712 Y40.6958
G01 X81.8957 Y40.6776
G01 X81.9182 Y40.6572
G01 X81.9386 Y40.6347
G01 X81.9568 Y40.6102
G01 X81.9724 Y40.5841
G01 X81.9854 Y40.5566
G01 X81.9957 Y40.5280
G01 X82.0030 Y40.4985
G01 X82.0075 Y40.4684
G01 X82.0090 Y40.4380
G00 X82.0090 Y40.4380
G01 F40.00
G01 Z-1.2000
G01 F80.00
G01 X82.0075 Y40.4076
G01 X82.0030 Y40.3775
G01 X81.9957 Y40.3480
G01 X81.9854 Y40.3194
G01 X81.9724 Y40.2919
G01 X81.9568 Y40.2658
G01 X81.9386 Y40.2413
G01 X81.9182 Y40.2188
G01 X81.8957 Y40.1984
G01 X81.8712 Y40.1802
G01 X81.8451 Y40.1646
G01 X81.8176 Y40.1516
G01 X81.7890 Y40.1413
G01 X81.7595 Y40.1340
G01 X81.7294 Y40.1295
G01 X81.6990 Y40.1280
G01 X81.6686 Y40.1295
G01 X81.6385 Y40.1340
G01 X81.6090 Y40.1413
G01 X81.5804 Y40.1516
G01 X81.5529 Y40.1646
G01 X81.5268 Y40.1802
G01 X81.5023 Y40.1984
G01 X81.4798 Y40.2188
G01 X81.4594 Y40.2413
G01 X81.4412 Y40.2658
G01 X81.4256 Y40.2919
G01 X81.4126 Y40.3194
G01 X81.4023 Y40.3480
G01 X81.3950 Y40.3775
G01 X81.3905 Y40.4076
G01 X81.3890 Y40.4380
G01 X81.3905 Y40.4684
G01 X81.3950 Y40.4985
G01 X81.4023 Y40.5280
G01 X81.4126 Y40.5566
G01 X81.4256 Y40.5841
G01 X81.4412 Y40.6102
G01 X81.4594 Y40.6347
G01 X81.4798 Y40.6572
G01 X81.5023 Y40.6776
G01 X81.5268 Y40.6958
G01 X81.5529 Y40.7114
G01 X81.5804 Y40.7244
G01 X81.6090 Y40.7347
G01 X81.6385 Y40.7420
G01 X81.6686 Y40.7465
G01 X81.6990 Y40.7480
G01 X81.7294 Y40.7465
G01 X81.7595 Y40.7420
G01 X81.7890 Y40.7347
G01 X81.8176 Y40.7244
G01 X81.8451 Y40.7114
G01 X81.8712 Y40.6958
G01 X81.8957 Y40.6776
G01 X81.9182 Y40.6572
G01 X81.9386 Y40.6347
G01 X81.9568 Y40.6102
G01 X81.9724 Y40.5841
G01 X81.9854 Y40.5566
G01 X81.9957 Y40.5280
G01 X82.0030 Y40.4985
G01 X82.0075 Y40.4684
G01 X82.0090 Y40.4380
G00 X82.0090 Y40.4380
G01 F40.00
G01 Z-1.4000
G01 F80.00
G01 X82.0075 Y40.4076
G01 X82.0030 Y40.3775
G01 X81.9957 Y40.3480
G01 X81.9854 Y40.3194
G01 X81.9724 Y40.2919
G01 X81.9568 Y40.2658
G01 X81.9386 Y40.2413
G01 X81.9182 Y40.2188
G01 X81.8957 Y40.1984
G01 X81.8712 Y40.1802
G01 X81.8451 Y40.1646
G01 X81.8176 Y40.1516
G01 X81.7890 Y40.1413
G01 X81.7595 Y40.1340
G01 X81.7294 Y40.1295
G01 X81.6990 Y40.1280
G01 X81.6686 Y40.1295
G01 X81.6385 Y40.1340
G01 X81.6090 Y40.1413
G01 X81.5804 Y40.1516
G01 X81.5529 Y40.1646
G01 X81.5268 Y40.1802
G01 X81.5023 Y40.1984
G01 X81.4798 Y40.2188
G01 X81.4594 Y40.2413
G01 X81.4412 Y40.2658
G01 X81.4256 Y40.2919
G01 X81.4126 Y40.3194
G01 X81.4023 Y40.3480
G01 X81.3950 Y40.3775
G01 X81.3905 Y40.4076
G01 X81.3890 Y40.4380
G01 X81.3905 Y40.4684
G01 X81.3950 Y40.4985
G01 X81.4023 Y40.5280
G01 X81.4126 Y40.5566
G01 X81.4256 Y40.5841
G01 X81.4412 Y40.6102
G01 X81.4594 Y40.6347
G01 X81.4798 Y40.6572
G01 X81.5023 Y40.6776
G01 X81.5268 Y40.6958
G01 X81.5529 Y40.7114
G01 X81.5804 Y40.7244
G01 X81.6090 Y40.7347
G01 X81.6385 Y40.7420
G01 X81.6686 Y40.7465
G01 X81.6990 Y40.7480
G01 X81.7294 Y40.7465
G01 X81.7595 Y40.7420
G01 X81.7890 Y40.7347
G01 X81.8176 Y40.7244
G01 X81.8451 Y40.7114
G01 X81.8712 Y40.6958
G01 X81.8957 Y40.6776
G01 X81.9182 Y40.6572
G01 X81.9386 Y40.6347
G01 X81.9568 Y40.6102
G01 X81.9724 Y40.5841
G01 X81.9854 Y40.5566
G01 X81.9957 Y40.5280
G01 X82.0030 Y40.4985
G01 X82.0075 Y40.4684
G01 X82.0090 Y40.4380
G00 X82.0090 Y40.4380
G01 F40.00
G01 Z-1.6000
G01 F80.00
G01 X82.0075 Y40.4076
G01 X82.0030 Y40.3775
G01 X81.9957 Y40.3480
G01 X81.9854 Y40.3194
G01 X81.9724 Y40.2919
G01 X81.9568 Y40.2658
G01 X81.9386 Y40.2413
G01 X81.9182 Y40.2188
G01 X81.8957 Y40.1984
G01 X81.8712 Y40.1802
G01 X81.8451 Y40.1646
G01 X81.8176 Y40.1516
G01 X81.7890 Y40.1413
G01 X81.7595 Y40.1340
G01 X81.7294 Y40.1295
G01 X81.6990 Y40.1280
G01 X81.6686 Y40.1295
G01 X81.6385 Y40.1340
G01 X81.6090 Y40.1413
G01 X81.5804 Y40.1516
G01 X81.5529 Y40.1646
G01 X81.5268 Y40.1802
G01 X81.5023 Y40.1984
G01 X81.4798 Y40.2188
G01 X81.4594 Y40.2413
G01 X81.4412 Y40.2658
G01 X81.4256 Y40.2919
G01 X81.4126 Y40.3194
G01 X81.4023 Y40.3480
G01 X81.3950 Y40.3775
G01 X81.3905 Y40.4076
G01 X81.3890 Y40.4380
G01 X81.3905 Y40.4684
G01 X81.3950 Y40.4985
G01 X81.4023 Y40.5280
G01 X81.4126 Y40.5566
G01 X81.4256 Y40.5841
G01 X81.4412 Y40.6102
G01 X81.4594 Y40.6347
G01 X81.4798 Y40.6572
G01 X81.5023 Y40.6776
G01 X81.5268 Y40.6958
G01 X81.5529 Y40.7114
G01 X81.5804 Y40.7244
G01 X81.6090 Y40.7347
G01 X81.6385 Y40.7420
G01 X81.6686 Y40.7465
G01 X81.6990 Y40.7480
G01 X81.7294 Y40.7465
G01 X81.7595 Y40.7420
G01 X81.7890 Y40.7347
G01 X81.8176 Y40.7244
G01 X81.8451 Y40.7114
G01 X81.8712 Y40.6958
G01 X81.8957 Y40.6776
G01 X81.9182 Y40.6572
G01 X81.9386 Y40.6347
G01 X81.9568 Y40.6102
G01 X81.9724 Y40.5841
G01 X81.9854 Y40.5566
G01 X81.9957 Y40.5280
G01 X82.0030 Y40.4985
G01 X82.0075 Y40.4684
G01 X82.0090 Y40.4380
G00 X82.0090 Y40.4380
G01 F40.00
G01 Z-1.8000
G01 F80.00
G01 X82.0075 Y40.4076
G01 X82.0030 Y40.3775
G01 X81.9957 Y40.3480
G01 X81.9854 Y40.3194
G01 X81.9724 Y40.2919
G01 X81.9568 Y40.2658
G01 X81.9386 Y40.2413
G01 X81.9182 Y40.2188
G01 X81.8957 Y40.1984
G01 X81.8712 Y40.1802
G01 X81.8451 Y40.1646
G01 X81.8176 Y40.1516
G01 X81.7890 Y40.1413
G01 X81.7595 Y40.1340
G01 X81.7294 Y40.1295
G01 X81.6990 Y40.1280
G01 X81.6686 Y40.1295
G01 X81.6385 Y40.1340
G01 X81.6090 Y40.1413
G01 X81.5804 Y40.1516
G01 X81.5529 Y40.1646
G01 X81.5268 Y40.1802
G01 X81.5023 Y40.1984
G01 X81.4798 Y40.2188
G01 X81.4594 Y40.2413
G01 X81.4412 Y40.2658
G01 X81.4256 Y40.2919
G01 X81.4126 Y40.3194
G01 X81.4023 Y40.3480
G01 X81.3950 Y40.3775
G01 X81.3905 Y40.4076
G01 X81.3890 Y40.4380
G01 X81.3905 Y40.4684
G01 X81.3950 Y40.4985
G01 X81.4023 Y40.5280
G01 X81.4126 Y40.5566
G01 X81.4256 Y40.5841
G01 X81.4412 Y40.6102
G01 X81.4594 Y40.6347
G01 X81.4798 Y40.6572
G01 X81.5023 Y40.6776
G01 X81.5268 Y40.6958
G01 X81.5529 Y40.7114
G01 X81.5804 Y40.7244
G01 X81.6090 Y40.7347
G01 X81.6385 Y40.7420
G01 X81.6686 Y40.7465
G01 X81.6990 Y40.7480
G01 X81.7294 Y40.7465
G01 X81.7595 Y40.7420
G01 X81.7890 Y40.7347
G01 X81.8176 Y40.7244
G01 X81.8451 Y40.7114
G01 X81.8712 Y40.6958
G01 X81.8957 Y40.6776
G01 X81.9182 Y40.6572
G01 X81.9386 Y40.6347
G01 X81.9568 Y40.6102
G01 X81.9724 Y40.5841
G01 X81.9854 Y40.5566
G01 X81.9957 Y40.5280
G01 X82.0030 Y40.4985
G01 X82.0075 Y40.4684
G01 X82.0090 Y40.4380
G00 X82.0090 Y40.4380
G01 F40.00
G01 Z-1.9000
G01 F80.00
G01 X82.0075 Y40.4076
G01 X82.0030 Y40.3775
G01 X81.9957 Y40.3480
G01 X81.9854 Y40.3194
G01 X81.9724 Y40.2919
G01 X81.9568 Y40.2658
G01 X81.9386 Y40.2413
G01 X81.9182 Y40.2188
G01 X81.8957 Y40.1984
G01 X81.8712 Y40.1802
G01 X81.8451 Y40.1646
G01 X81.8176 Y40.1516
G01 X81.7890 Y40.1413
G01 X81.7595 Y40.1340
G01 X81.7294 Y40.1295
G01 X81.6990 Y40.1280
G01 X81.6686 Y40.1295
G01 X81.6385 Y40.1340
G01 X81.6090 Y40.1413
G01 X81.5804 Y40.1516
G01 X81.5529 Y40.1646
G01 X81.5268 Y40.1802
G01 X81.5023 Y40.1984
G01 X81.4798 Y40.2188
G01 X81.4594 Y40.2413
G01 X81.4412 Y40.2658
G01 X81.4256 Y40.2919
G01 X81.4126 Y40.3194
G01 X81.4023 Y40.3480
G01 X81.3950 Y40.3775
G01 X81.3905 Y40.4076
G01 X81.3890 Y40.4380
G01 X81.3905 Y40.4684
G01 X81.3950 Y40.4985
G01 X81.4023 Y40.5280
G01 X81.4126 Y40.5566
G01 X81.4256 Y40.5841
G01 X81.4412 Y40.6102
G01 X81.4594 Y40.6347
G01 X81.4798 Y40.6572
G01 X81.5023 Y40.6776
G01 X81.5268 Y40.6958
G01 X81.5529 Y40.7114
G01 X81.5804 Y40.7244
G01 X81.6090 Y40.7347
G01 X81.6385 Y40.7420
G01 X81.6686 Y40.7465
G01 X81.6990 Y40.7480
G01 X81.7294 Y40.7465
G01 X81.7595 Y40.7420
G01 X81.7890 Y40.7347
G01 X81.8176 Y40.7244
G01 X81.8451 Y40.7114
G01 X81.8712 Y40.6958
G01 X81.8957 Y40.6776
G01 X81.9182 Y40.6572
G01 X81.9386 Y40.6347
G01 X81.9568 Y40.6102
G01 X81.9724 Y40.5841
G01 X81.9854 Y40.5566
G01 X81.9957 Y40.5280
G01 X82.0030 Y40.4985
G01 X82.0075 Y40.4684
G01 X82.0090 Y40.4380
G00 Z2.0000
G00 X89.1600 Y39.8900
G01 F40.00
G01 Z-0.2000
G01 F80.00
G01 X89.1548 Y39.7851
G01 X89.1394 Y39.6813
G01 X89.1139 Y39.5794
G01 X89.0786 Y39.4805
G01 X89.0337 Y39.3856
G01 X88.9797 Y39.2955
G01 X88.9171 Y39.2112
G01 X88.8466 Y39.1334
G01 X88.7688 Y39.0629
G01 X88.6845 Y39.0003
G01 X88.5944 Y38.9463
G01 X88.4995 Y38.9014
G01 X88.4006 Y38.8661
G01 X88.2987 Y38.8406
G01 X88.1949 Y38.8252
G01 X88.0900 Y38.8200
G01 X87.9851 Y38.8252
G01 X87.8813 Y38.8406
G01 X87.7794 Y38.8661
G01 X87.6805 Y38.9014
G01 X87.5856 Y38.9463
G01 X87.4955 Y39.0003
G01 X87.4112 Y39.0629
G01 X87.3334 Y39.1334
G01 X87.2629 Y39.2112
G01 X87.2003 Y39.2955
G01 X87.1463 Y39.3856
G01 X87.1014 Y39.4805
G01 X87.0661 Y39.5794
G01 X87.0406 Y39.6813
G01 X87.0252 Y39.7851
G01 X87.0200 Y39.8900
G01 X87.0252 Y39.9949
G01 X87.0406 Y40.0987
G01 X87.0661 Y40.2006
G01 X87.1014 Y40.2995
G01 X87.1463 Y40.3944
G01 X87.2003 Y40.4845
G01 X87.2629 Y40.5688
G01 X87.3334 Y40.6466
G01 X87.4112 Y40.7171
G01 X87.4955 Y40.7797
G01 X87.5856 Y40.8337
G01 X87.6805 Y40.8786
G01 X87.7794 Y40.9139
G01 X87.8813 Y40.9394
G01 X87.9851 Y40.9548
G01 X88.0900 Y40.9600
G01 X88.1949 Y40.9548
G01 X88.2987 Y40.9394
G01 X88.4006 Y40.9139
G01 X88.4995 Y40.8786
G01 X88.5944 Y40.8337
G01 X88.6845 Y40.7797
G01 X88.7688 Y40.7171
G01 X88.8466 Y40.6466
G01 X88.9171 Y40.5688
G01 X88.9797 Y40.4845
G01 X89.0337 Y40.3944
G01 X89.0786 Y40.2995
G01 X89.1139 Y40.2006
G01 X89.1394 Y40.0987
G01 X89.1548 Y39.9949
G01 X89.1600 Y39.8900
G00 X89.1600 Y39.8900
G01 F40.00
G01 Z-0.4000
G01 F80.00
G01 X89.1548 Y39.7851
G01 X89.1394 Y39.6813
G01 X89.1139 Y39.5794
G01 X89.0786 Y39.4805
G01 X89.0337 Y39.3856
G01 X88.9797 Y39.2955
G01 X88.9171 Y39.2112
G01 X88.8466 Y39.1334
G01 X88.7688 Y39.0629
G01 X88.6845 Y39.0003
G01 X88.5944 Y38.9463
G01 X88.4995 Y38.9014
G01 X88.4006 Y38.8661
G01 X88.2987 Y38.8406
G01 X88.1949 Y38.8252
G01 X88.0900 Y38.8200
G01 X87.9851 Y38.8252
G01 X87.8813 Y38.8406
G01 X87.7794 Y38.8661
G01 X87.6805 Y38.9014
G01 X87.5856 Y38.9463
G01 X87.4955 Y39.0003
G01 X87.4112 Y39.0629
G01 X87.3334 Y39.1334
G01 X87.2629 Y39.2112
G01 X87.2003 Y39.2955
G01 X87.1463 Y39.3856
G01 X87.1014 Y39.4805
G01 X87.0661 Y39.5794
G01 X87.0406 Y39.6813
G01 X87.0252 Y39.7851
G01 X87.0200 Y39.8900
G01 X87.0252 Y39.9949
G01 X87.0406 Y40.0987
G01 X87.0661 Y40.2006
G01 X87.1014 Y40.2995
G01 X87.1463 Y40.3944
G01 X87.2003 Y40.4845
G01 X87.2629 Y40.5688
G01 X87.3334 Y40.6466
G01 X87.4112 Y40.7171
G01 X87.4955 Y40.7797
G01 X87.5856 Y40.8337
G01 X87.6805 Y40.8786
G01 X87.7794 Y40.9139
G01 X87.8813 Y40.9394
G01 X87.9851 Y40.9548
G01 X88.0900 Y40.9600
G01 X88.1949 Y40.9548
G01 X88.2987 Y40.9394
G01 X88.4006 Y40.9139
G01 X88.4995 Y40.8786
G01 X88.5944 Y40.8337
G01 X88.6845 Y40.7797
G01 X88.7688 Y40.7171
G01 X88.8466 Y40.6466
G01 X88.9171 Y40.5688
G01 X88.9797 Y40.4845
G01 X89.0337 Y40.3944
G01 X89.0786 Y40.2995
G01 X89.1139 Y40.2006
G01 X89.1394 Y40.0987
G01 X89.1548 Y39.9949
G01 X89.1600 Y39.8900
G00 X89.1600 Y39.8900
G01 F40.00
G01 Z-0.6000
G01 F80.00
G01 X89.1548 Y39.7851
G01 X89.1394 Y39.6813
G01 X89.1139 Y39.5794
G01 X89.0786 Y39.4805
G01 X89.0337 Y39.3856
G01 X88.9797 Y39.2955
G01 X88.9171 Y39.2112
G01 X88.8466 Y39.1334
G01 X88.7688 Y39.0629
G01 X88.6845 Y39.0003
G01 X88.5944 Y38.9463
G01 X88.4995 Y38.9014
G01 X88.4006 Y38.8661
G01 X88.2987 Y38.8406
G01 X88.1949 Y38.8252
G01 X88.0900 Y38.8200
G01 X87.9851 Y38.8252
G01 X87.8813 Y38.8406
G01 X87.7794 Y38.8661
G01 X87.6805 Y38.9014
G01 X87.5856 Y38.9463
G01 X87.4955 Y39.0003
G01 X87.4112 Y39.0629
G01 X87.3334 Y39.1334
G01 X87.2629 Y39.2112
G01 X87.2003 Y39.2955
G01 X87.1463 Y39.3856
G01 X87.1014 Y39.4805
G01 X87.0661 Y39.5794
G01 X87.0406 Y39.6813
G01 X87.0252 Y39.7851
G01 X87.0200 Y39.8900
G01 X87.0252 Y39.9949
G01 X87.0406 Y40.0987
G01 X87.0661 Y40.2006
G01 X87.1014 Y40.2995
G01 X87.1463 Y40.3944
G01 X87.2003 Y40.4845
G01 X87.2629 Y40.5688
G01 X87.3334 Y40.6466
G01 X87.4112 Y40.7171
G01 X87.4955 Y40.7797
G01 X87.5856 Y40.8337
G01 X87.6805 Y40.8786
G01 X87.7794 Y40.9139
G01 X87.8813 Y40.9394
G01 X87.9851 Y40.9548
G01 X88.0900 Y40.9600
G01 X88.1949 Y40.9548
G01 X88.2987 Y40.9394
G01 X88.4006 Y40.9139
G01 X88.4995 Y40.8786
G01 X88.5944 Y40.8337
G01 X88.6845 Y40.7797
G01 X88.7688 Y40.7171
G01 X88.8466 Y40.6466
G01 X88.9171 Y40.5688
G01 X88.9797 Y40.4845
G01 X89.0337 Y40.3944
G01 X89.0786 Y40.2995
G01 X89.1139 Y40.2006
G01 X89.1394 Y40.0987
G01 X89.1548 Y39.9949
G01 X89.1600 Y39.8900
G00 X89.1600 Y39.8900
G01 F40.00
G01 Z-0.8000
G01 F80.00
G01 X89.1548 Y39.7851
G01 X89.1394 Y39.6813
G01 X89.1139 Y39.5794
G01 X89.0786 Y39.4805
G01 X89.0337 Y39.3856
G01 X88.9797 Y39.2955
G01 X88.9171 Y39.2112
G01 X88.8466 Y39.1334
G01 X88.7688 Y39.0629
G01 X88.6845 Y39.0003
G01 X88.5944 Y38.9463
G01 X88.4995 Y38.9014
G01 X88.4006 Y38.8661
G01 X88.2987 Y38.8406
G01 X88.1949 Y38.8252
G01 X88.0900 Y38.8200
G01 X87.9851 Y38.8252
G01 X87.8813 Y38.8406
G01 X87.7794 Y38.8661
G01 X87.6805 Y38.9014
G01 X87.5856 Y38.9463
G01 X87.4955 Y39.0003
G01 X87.4112 Y39.0629
G01 X87.3334 Y39.1334
G01 X87.2629 Y39.2112
G01 X87.2003 Y39.2955
G01 X87.1463 Y39.3856
G01 X87.1014 Y39.4805
G01 X87.0661 Y39.5794
G01 X87.0406 Y39.6813
G01 X87.0252 Y39.7851
G01 X87.0200 Y39.8900
G01 X87.0252 Y39.9949
G01 X87.0406 Y40.0987
G01 X87.0661 Y40.2006
G01 X87.1014 Y40.2995
G01 X87.1463 Y40.3944
G01 X87.2003 Y40.4845
G01 X87.2629 Y40.5688
G01 X87.3334 Y40.6466
G01 X87.4112 Y40.7171
G01 X87.4955 Y40.7797
G01 X87.5856 Y40.8337
G01 X87.6805 Y40.8786
G01 X87.7794 Y40.9139
G01 X87.8813 Y40.9394
G01 X87.9851 Y40.9548
G01 X88.0900 Y40.9600
G01 X88.1949 Y40.9548
G01 X88.2987 Y40.9394
G01 X88.4006 Y40.9139
G01 X88.4995 Y40.8786
G01 X88.5944 Y40.8337
G01 X88.6845 Y40.7797
G01 X88.7688 Y40.7171
G01 X88.8466 Y40.6466
G01 X88.9171 Y40.5688
G01 X88.9797 Y40.4845
G01 X89.0337 Y40.3944
G01 X89.0786 Y40.2995
G01 X89.1139 Y40.2006
G01 X89.1394 Y40.0987
G01 X89.1548 Y39.9949
G01 X89.1600 Y39.8900
G00 X89.1600 Y39.8900
G01 F40.00
G01 Z-1.0000
G01 F80.00
G01 X89.1548 Y39.7851
G01 X89.1394 Y39.6813
G01 X89.1139 Y39.5794
G01 X89.0786 Y39.4805
G01 X89.0337 Y39.3856
G01 X88.9797 Y39.2955
G01 X88.9171 Y39.2112
G01 X88.8466 Y39.1334
G01 X88.7688 Y39.0629
G01 X88.6845 Y39.0003
G01 X88.5944 Y38.9463
G01 X88.4995 Y38.9014
G01 X88.4006 Y38.8661
G01 X88.2987 Y38.8406
G01 X88.1949 Y38.8252
G01 X88.0900 Y38.8200
G01 X87.9851 Y38.8252
G01 X87.8813 Y38.8406
G01 X87.7794 Y38.8661
G01 X87.6805 Y38.9014
G01 X87.5856 Y38.9463
G01 X87.4955 Y39.0003
G01 X87.4112 Y39.0629
G01 X87.3334 Y39.1334
G01 X87.2629 Y39.2112
G01 X87.2003 Y39.2955
G01 X87.1463 Y39.3856
G01 X87.1014 Y39.4805
G01 X87.0661 Y39.5794
G01 X87.0406 Y39.6813
G01 X87.0252 Y39.7851
G01 X87.0200 Y39.8900
G01 X87.0252 Y39.9949
G01 X87.0406 Y40.0987
G01 X87.0661 Y40.2006
G01 X87.1014 Y40.2995
G01 X87.1463 Y40.3944
G01 X87.2003 Y40.4845
G01 X87.2629 Y40.5688
G01 X87.3334 Y40.6466
G01 X87.4112 Y40.7171
G01 X87.4955 Y40.7797
G01 X87.5856 Y40.8337
G01 X87.6805 Y40.8786
G01 X87.7794 Y40.9139
G01 X87.8813 Y40.9394
G01 X87.9851 Y40.9548
G01 X88.0900 Y40.9600
G01 X88.1949 Y40.9548
G01 X88.2987 Y40.9394
G01 X88.4006 Y40.9139
G01 X88.4995 Y40.8786
G01 X88.5944 Y40.8337
G01 X88.6845 Y40.7797
G01 X88.7688 Y40.7171
G01 X88.8466 Y40.6466
G01 X88.9171 Y40.5688
G01 X88.9797 Y40.4845
G01 X89.0337 Y40.3944
G01 X89.0786 Y40.2995
G01 X89.1139 Y40.2006
G01 X89.1394 Y40.0987
G01 X89.1548 Y39.9949
G01 X89.1600 Y39.8900
G00 X89.1600 Y39.8900
G01 F40.00
G01 Z-1.2000
G01 F80.00
G01 X89.1548 Y39.7851
G01 X89.1394 Y39.6813
G01 X89.1139 Y39.5794
G01 X89.0786 Y39.4805
G01 X89.0337 Y39.3856
G01 X88.9797 Y39.2955
G01 X88.9171 Y39.2112
G01 X88.8466 Y39.1334
G01 X88.7688 Y39.0629
G01 X88.6845 Y39.0003
G01 X88.5944 Y38.9463
G01 X88.4995 Y38.9014
G01 X88.4006 Y38.8661
G01 X88.2987 Y38.8406
G01 X88.1949 Y38.8252
G01 X88.0900 Y38.8200
G01 X87.9851 Y38.8252
G01 X87.8813 Y38.8406
G01 X87.7794 Y38.8661
G01 X87.6805 Y38.9014
G01 X87.5856 Y38.9463
G01 X87.4955 Y39.0003
G01 X87.4112 Y39.0629
G01 X87.3334 Y39.1334
G01 X87.2629 Y39.2112
G01 X87.2003 Y39.2955
G01 X87.1463 Y39.3856
G01 X87.1014 Y39.4805
G01 X87.0661 Y39.5794
G01 X87.0406 Y39.6813
G01 X87.0252 Y39.7851
G01 X87.0200 Y39.8900
G01 X87.0252 Y39.9949
G01 X87.0406 Y40.0987
G01 X87.0661 Y40.2006
G01 X87.1014 Y40.2995
G01 X87.1463 Y40.3944
G01 X87.2003 Y40.4845
G01 X87.2629 Y40.5688
G01 X87.3334 Y40.6466
G01 X87.4112 Y40.7171
G01 X87.4955 Y40.7797
G01 X87.5856 Y40.8337
G01 X87.6805 Y40.8786
G01 X87.7794 Y40.9139
G01 X87.8813 Y40.9394
G01 X87.9851 Y40.9548
G01 X88.0900 Y40.9600
G01 X88.1949 Y40.9548
G01 X88.2987 Y40.9394
G01 X88.4006 Y40.9139
G01 X88.4995 Y40.8786
G01 X88.5944 Y40.8337
G01 X88.6845 Y40.7797
G01 X88.7688 Y40.7171
G01 X88.8466 Y40.6466
G01 X88.9171 Y40.5688
G01 X88.9797 Y40.4845
G01 X89.0337 Y40.3944
G01 X89.0786 Y40.2995
G01 X89.1139 Y40.2006
G01 X89.1394 Y40.0987
G01 X89.1548 Y39.9949
G01 X89.1600 Y39.8900
G00 X89.1600 Y39.8900
G01 F40.00
G01 Z-1.4000
G01 F80.00
G01 X89.1548 Y39.7851
G01 X89.1394 Y39.6813
G01 X89.1139 Y39.5794
G01 X89.0786 Y39.4805
G01 X89.0337 Y39.3856
G01 X88.9797 Y39.2955
G01 X88.9171 Y39.2112
G01 X88.8466 Y39.1334
G01 X88.7688 Y39.0629
G01 X88.6845 Y39.0003
G01 X88.5944 Y38.9463
G01 X88.4995 Y38.9014
G01 X88.4006 Y38.8661
G01 X88.2987 Y38.8406
G01 X88.1949 Y38.8252
G01 X88.0900 Y38.8200
G01 X87.9851 Y38.8252
G01 X87.8813 Y38.8406
G01 X87.7794 Y38.8661
G01 X87.6805 Y38.9014
G01 X87.5856 Y38.9463
G01 X87.4955 Y39.0003
G01 X87.4112 Y39.0629
G01 X87.3334 Y39.1334
G01 X87.2629 Y39.2112
G01 X87.2003 Y39.2955
G01 X87.1463 Y39.3856
G01 X87.1014 Y39.4805
G01 X87.0661 Y39.5794
G01 X87.0406 Y39.6813
G01 X87.0252 Y39.7851
G01 X87.0200 Y39.8900
G01 X87.0252 Y39.9949
G01 X87.0406 Y40.0987
G01 X87.0661 Y40.2006
G01 X87.1014 Y40.2995
G01 X87.1463 Y40.3944
G01 X87.2003 Y40.4845
G01 X87.2629 Y40.5688
G01 X87.3334 Y40.6466
G01 X87.4112 Y40.7171
G01 X87.4955 Y40.7797
G01 X87.5856 Y40.8337
G01 X87.6805 Y40.8786
G01 X87.7794 Y40.9139
G01 X87.8813 Y40.9394
G01 X87.9851 Y40.9548
G01 X88.0900 Y40.9600
G01 X88.1949 Y40.9548
G01 X88.2987 Y40.9394
G01 X88.4006 Y40.9139
G01 X88.4995 Y40.8786
G01 X88.5944 Y40.8337
G01 X88.6845 Y40.7797
G01 X88.7688 Y40.7171
G01 X88.8466 Y40.6466
G01 X88.9171 Y40.5688
G01 X88.9797 Y40.4845
G01 X89.0337 Y40.3944
G01 X89.0786 Y40.2995
G01 X89.1139 Y40.2006
G01 X89.1394 Y40.0987
G01 X89.1548 Y39.9949
G01 X89.1600 Y39.8900
G00 X89.1600 Y39.8900
G01 F40.00
G01 Z-1.6000
G01 F80.00
G01 X89.1548 Y39.7851
G01 X89.1394 Y39.6813
G01 X89.1139 Y39.5794
G01 X89.0786 Y39.4805
G01 X89.0337 Y39.3856
G01 X88.9797 Y39.2955
G01 X88.9171 Y39.2112
G01 X88.8466 Y39.1334
G01 X88.7688 Y39.0629
G01 X88.6845 Y39.0003
G01 X88.5944 Y38.9463
G01 X88.4995 Y38.9014
G01 X88.4006 Y38.8661
G01 X88.2987 Y38.8406
G01 X88.1949 Y38.8252
G01 X88.0900 Y38.8200
G01 X87.9851 Y38.8252
G01 X87.8813 Y38.8406
G01 X87.7794 Y38.8661
G01 X87.6805 Y38.9014
G01 X87.5856 Y38.9463
G01 X87.4955 Y39.0003
G01 X87.4112 Y39.0629
G01 X87.3334 Y39.1334
G01 X87.2629 Y39.2112
G01 X87.2003 Y39.2955
G01 X87.1463 Y39.3856
G01 X87.1014 Y39.4805
G01 X87.0661 Y39.5794
G01 X87.0406 Y39.6813
G01 X87.0252 Y39.7851
G01 X87.0200 Y39.8900
G01 X87.0252 Y39.9949
G01 X87.0406 Y40.0987
G01 X87.0661 Y40.2006
G01 X87.1014 Y40.2995
G01 X87.1463 Y40.3944
G01 X87.2003 Y40.4845
G01 X87.2629 Y40.5688
G01 X87.3334 Y40.6466
G01 X87.4112 Y40.7171
G01 X87.4955 Y40.7797
G01 X87.5856 Y40.8337
G01 X87.6805 Y40.8786
G01 X87.7794 Y40.9139
G01 X87.8813 Y40.9394
G01 X87.9851 Y40.9548
G01 X88.0900 Y40.9600
G01 X88.1949 Y40.9548
G01 X88.2987 Y40.9394
G01 X88.4006 Y40.9139
G01 X88.4995 Y40.8786
G01 X88.5944 Y40.8337
G01 X88.6845 Y40.7797
G01 X88.7688 Y40.7171
G01 X88.8466 Y40.6466
G01 X88.9171 Y40.5688
G01 X88.9797 Y40.4845
G01 X89.0337 Y40.3944
G01 X89.0786 Y40.2995
G01 X89.1139 Y40.2006
G01 X89.1394 Y40.0987
G01 X89.1548 Y39.9949
G01 X89.1600 Y39.8900
G00 X89.1600 Y39.8900
G01 F40.00
G01 Z-1.8000
G01 F80.00
G01 X89.1548 Y39.7851
G01 X89.1394 Y39.6813
G01 X89.1139 Y39.5794
G01 X89.0786 Y39.4805
G01 X89.0337 Y39.3856
G01 X88.9797 Y39.2955
G01 X88.9171 Y39.2112
G01 X88.8466 Y39.1334
G01 X88.7688 Y39.0629
G01 X88.6845 Y39.0003
G01 X88.5944 Y38.9463
G01 X88.4995 Y38.9014
G01 X88.4006 Y38.8661
G01 X88.2987 Y38.8406
G01 X88.1949 Y38.8252
G01 X88.0900 Y38.8200
G01 X87.9851 Y38.8252
G01 X87.8813 Y38.8406
G01 X87.7794 Y38.8661
G01 X87.6805 Y38.9014
G01 X87.5856 Y38.9463
G01 X87.4955 Y39.0003
G01 X87.4112 Y39.0629
G01 X87.3334 Y39.1334
G01 X87.2629 Y39.2112
G01 X87.2003 Y39.2955
G01 X87.1463 Y39.3856
G01 X87.1014 Y39.4805
G01 X87.0661 Y39.5794
G01 X87.0406 Y39.6813
