(G-CODE GENERATED BY FLATCAM v8.994 - www.flatcam.org - Version Date: 2020/11/7)

(Name: Sensorbox-NPTH.drl_mill_cnc)
(Type: G-code from Geometry)
(Units: MM)

(Created on Tuesday, 06 February 2024 at 12:57)

(This preprocessor is the default preprocessor used by FlatCAM.)
(It is made to work with MACH3 compatible motion controllers.)

(TOOL DIAMETER: 0.8 mm)
(Feedrate_XY: 80.0 mm/min)
(Feedrate_Z: 40.0 mm/min)
(Feedrate rapids 1500.0 mm/min)

(Z_Cut: -2.4 mm)
(Z_Move: 2.0 mm)
(Z Start: None mm)
(Z End: 15.0 mm)
(X,Y End: None mm)
(Steps per circle: 64)
(Preprocessor Geometry: default)

(X range:    3.8000 ...  106.5890  mm)
(Y range:    3.8000 ...   66.2000  mm)

(Spindle Speed: 20000.0 RPM)
G21
G90
G94

G01 F80.00

M5
G00 Z15.0000
G00 X0.0000 Y0.0000
T1
M6    
(MSG, Change to Tool Dia = 0.8000)
M0
G00 Z15.0000

M03 S20000.0
G01 F80.00
G00 X6.2000 Y5.0000
G01 F40.00
G01 Z-2.4000
G01 F80.00
G01 X6.1942 Y4.8824
G01 X6.1769 Y4.7659
G01 X6.1483 Y4.6517
G01 X6.1087 Y4.5408
G01 X6.0583 Y4.4343
G01 X5.9978 Y4.3333
G01 X5.9276 Y4.2387
G01 X5.8485 Y4.1515
G01 X5.7613 Y4.0724
G01 X5.6667 Y4.0022
G01 X5.5657 Y3.9417
G01 X5.4592 Y3.8913
G01 X5.3483 Y3.8517
G01 X5.2341 Y3.8231
G01 X5.1176 Y3.8058
G01 X5.0000 Y3.8000
G01 X4.8824 Y3.8058
G01 X4.7659 Y3.8231
G01 X4.6517 Y3.8517
G01 X4.5408 Y3.8913
G01 X4.4343 Y3.9417
G01 X4.3333 Y4.0022
G01 X4.2387 Y4.0724
G01 X4.1515 Y4.1515
G01 X4.0724 Y4.2387
G01 X4.0022 Y4.3333
G01 X3.9417 Y4.4343
G01 X3.8913 Y4.5408
G01 X3.8517 Y4.6517
G01 X3.8231 Y4.7659
G01 X3.8058 Y4.8824
G01 X3.8000 Y5.0000
G01 X3.8058 Y5.1176
G01 X3.8231 Y5.2341
G01 X3.8517 Y5.3483
G01 X3.8913 Y5.4592
G01 X3.9417 Y5.5657
G01 X4.0022 Y5.6667
G01 X4.0724 Y5.7613
G01 X4.1515 Y5.8485
G01 X4.2387 Y5.9276
G01 X4.3333 Y5.9978
G01 X4.4343 Y6.0583
G01 X4.5408 Y6.1087
G01 X4.6517 Y6.1483
G01 X4.7659 Y6.1769
G01 X4.8824 Y6.1942
G01 X5.0000 Y6.2000
G01 X5.1176 Y6.1942
G01 X5.2341 Y6.1769
G01 X5.3483 Y6.1483
G01 X5.4592 Y6.1087
G01 X5.5657 Y6.0583
G01 X5.6667 Y5.9978
G01 X5.7613 Y5.9276
G01 X5.8485 Y5.8485
G01 X5.9276 Y5.7613
G01 X5.9978 Y5.6667
G01 X6.0583 Y5.5657
G01 X6.1087 Y5.4592
G01 X6.1483 Y5.3483
G01 X6.1769 Y5.2341
G01 X6.1942 Y5.1176
G01 X6.2000 Y5.0000
G00 Z2.0000
G00 X49.1190 Y25.7980
G01 F40.00
G01 Z-2.4000
G01 F80.00
G01 X49.1165 Y25.7480
G01 X49.1092 Y25.6985
G01 X49.0970 Y25.6500
G01 X49.0802 Y25.6028
G01 X49.0588 Y25.5576
G01 X49.0330 Y25.5147
G01 X49.0032 Y25.4745
G01 X48.9696 Y25.4374
G01 X48.9325 Y25.4038
G01 X48.8923 Y25.3740
G01 X48.8494 Y25.3482
G01 X48.8042 Y25.3268
G01 X48.7570 Y25.3100
G01 X48.7085 Y25.2978
G01 X48.6590 Y25.2905
G01 X48.6090 Y25.2880
G01 X48.5590 Y25.2905
G01 X48.5095 Y25.2978
G01 X48.4610 Y25.3100
G01 X48.4138 Y25.3268
G01 X48.3686 Y25.3482
G01 X48.3257 Y25.3740
G01 X48.2855 Y25.4038
G01 X48.2484 Y25.4374
G01 X48.2148 Y25.4745
G01 X48.1850 Y25.5147
G01 X48.1592 Y25.5576
G01 X48.1378 Y25.6028
G01 X48.1210 Y25.6500
G01 X48.1088 Y25.6985
G01 X48.1015 Y25.7480
G01 X48.0990 Y25.7980
G01 X48.1015 Y25.8480
G01 X48.1088 Y25.8975
G01 X48.1210 Y25.9460
G01 X48.1378 Y25.9932
G01 X48.1592 Y26.0384
G01 X48.1850 Y26.0813
G01 X48.2148 Y26.1215
G01 X48.2484 Y26.1586
G01 X48.2855 Y26.1922
G01 X48.3257 Y26.2220
G01 X48.3686 Y26.2478
G01 X48.4138 Y26.2692
G01 X48.4610 Y26.2860
G01 X48.5095 Y26.2982
G01 X48.5590 Y26.3055
G01 X48.6090 Y26.3080
G01 X48.6590 Y26.3055
G01 X48.7085 Y26.2982
G01 X48.7570 Y26.2860
G01 X48.8042 Y26.2692
G01 X48.8494 Y26.2478
G01 X48.8923 Y26.2220
G01 X48.9325 Y26.1922
G01 X48.9696 Y26.1586
G01 X49.0032 Y26.1215
G01 X49.0330 Y26.0813
G01 X49.0588 Y26.0384
G01 X49.0802 Y25.9932
G01 X49.0970 Y25.9460
G01 X49.1092 Y25.8975
G01 X49.1165 Y25.8480
G01 X49.1190 Y25.7980
G00 Z2.0000
G00 X49.1190 Y40.4880
G01 F40.00
G01 Z-2.4000
G01 F80.00
G01 X49.1165 Y40.4380
G01 X49.1092 Y40.3885
G01 X49.0970 Y40.3400
G01 X49.0802 Y40.2928
G01 X49.0588 Y40.2476
G01 X49.0330 Y40.2047
G01 X49.0032 Y40.1645
G01 X48.9696 Y40.1274
G01 X48.9325 Y40.0938
G01 X48.8923 Y40.0640
G01 X48.8494 Y40.0382
G01 X48.8042 Y40.0168
G01 X48.7570 Y40.0000
G01 X48.7085 Y39.9878
G01 X48.6590 Y39.9805
G01 X48.6090 Y39.9780
G01 X48.5590 Y39.9805
G01 X48.5095 Y39.9878
G01 X48.4610 Y40.0000
G01 X48.4138 Y40.0168
G01 X48.3686 Y40.0382
G01 X48.3257 Y40.0640
G01 X48.2855 Y40.0938
G01 X48.2484 Y40.1274
G01 X48.2148 Y40.1645
G01 X48.1850 Y40.2047
G01 X48.1592 Y40.2476
G01 X48.1378 Y40.2928
G01 X48.1210 Y40.3400
G01 X48.1088 Y40.3885
G01 X48.1015 Y40.4380
G01 X48.0990 Y40.4880
G01 X48.1015 Y40.5380
G01 X48.1088 Y40.5875
G01 X48.1210 Y40.6360
G01 X48.1378 Y40.6832
G01 X48.1592 Y40.7284
G01 X48.1850 Y40.7713
G01 X48.2148 Y40.8115
G01 X48.2484 Y40.8486
G01 X48.2855 Y40.8822
G01 X48.3257 Y40.9120
G01 X48.3686 Y40.9378
G01 X48.4138 Y40.9592
G01 X48.4610 Y40.9760
G01 X48.5095 Y40.9882
G01 X48.5590 Y40.9955
G01 X48.6090 Y40.9980
G01 X48.6590 Y40.9955
G01 X48.7085 Y40.9882
G01 X48.7570 Y40.9760
G01 X48.8042 Y40.9592
G01 X48.8494 Y40.9378
G01 X48.8923 Y40.9120
G01 X48.9325 Y40.8822
G01 X48.9696 Y40.8486
G01 X49.0032 Y40.8115
G01 X49.0330 Y40.7713
G01 X49.0588 Y40.7284
G01 X49.0802 Y40.6832
G01 X49.0970 Y40.6360
G01 X49.1092 Y40.5875
G01 X49.1165 Y40.5380
G01 X49.1190 Y40.4880
G00 Z2.0000
G00 X67.2290 Y40.4780
G01 F40.00
G01 Z-2.4000
G01 F80.00
G01 X67.2265 Y40.4280
G01 X67.2192 Y40.3785
G01 X67.2070 Y40.3300
G01 X67.1902 Y40.2828
G01 X67.1688 Y40.2376
G01 X67.1430 Y40.1947
G01 X67.1132 Y40.1545
G01 X67.0796 Y40.1174
G01 X67.0425 Y40.0838
G01 X67.0023 Y40.0540
G01 X66.9594 Y40.0282
G01 X66.9142 Y40.0068
G01 X66.8670 Y39.9900
G01 X66.8185 Y39.9778
G01 X66.7690 Y39.9705
G01 X66.7190 Y39.9680
G01 X66.6690 Y39.9705
G01 X66.6195 Y39.9778
G01 X66.5710 Y39.9900
G01 X66.5238 Y40.0068
G01 X66.4786 Y40.0282
G01 X66.4357 Y40.0540
G01 X66.3955 Y40.0838
G01 X66.3584 Y40.1174
G01 X66.3248 Y40.1545
G01 X66.2950 Y40.1947
G01 X66.2692 Y40.2376
G01 X66.2478 Y40.2828
G01 X66.2310 Y40.3300
G01 X66.2188 Y40.3785
G01 X66.2115 Y40.4280
G01 X66.2090 Y40.4780
G01 X66.2115 Y40.5280
G01 X66.2188 Y40.5775
G01 X66.2310 Y40.6260
G01 X66.2478 Y40.6732
G01 X66.2692 Y40.7184
G01 X66.2950 Y40.7613
G01 X66.3248 Y40.8015
G01 X66.3584 Y40.8386
G01 X66.3955 Y40.8722
G01 X66.4357 Y40.9020
G01 X66.4786 Y40.9278
G01 X66.5238 Y40.9492
G01 X66.5710 Y40.9660
G01 X66.6195 Y40.9782
G01 X66.6690 Y40.9855
G01 X66.7190 Y40.9880
G01 X66.7690 Y40.9855
G01 X66.8185 Y40.9782
G01 X66.8670 Y40.9660
G01 X66.9142 Y40.9492
G01 X66.9594 Y40.9278
G01 X67.0023 Y40.9020
G01 X67.0425 Y40.8722
G01 X67.0796 Y40.8386
G01 X67.1132 Y40.8015
G01 X67.1430 Y40.7613
G01 X67.1688 Y40.7184
G01 X67.1902 Y40.6732
G01 X67.2070 Y40.6260
G01 X67.2192 Y40.5775
G01 X67.2265 Y40.5280
G01 X67.2290 Y40.4780
G00 Z2.0000
G00 X72.0990 Y44.9500
G01 F40.00
G01 Z-2.4000
G01 F80.00
G01 X72.0932 Y44.8325
G01 X72.0760 Y44.7161
G01 X72.0474 Y44.6019
G01 X72.0077 Y44.4912
G01 X71.9574 Y44.3848
G01 X71.8969 Y44.2839
G01 X71.8268 Y44.1894
G01 X71.7478 Y44.1022
G01 X71.6606 Y44.0232
G01 X71.5661 Y43.9531
G01 X71.4652 Y43.8926
G01 X71.3588 Y43.8423
G01 X71.2481 Y43.8026
G01 X71.1339 Y43.7740
G01 X71.0175 Y43.7568
G01 X70.9000 Y43.7510
G01 X70.7825 Y43.7568
G01 X70.6661 Y43.7740
G01 X70.5519 Y43.8026
G01 X70.4412 Y43.8423
G01 X70.3348 Y43.8926
G01 X70.2339 Y43.9531
G01 X70.1394 Y44.0232
G01 X70.0522 Y44.1022
G01 X69.9732 Y44.1894
G01 X69.9031 Y44.2839
G01 X69.8426 Y44.3848
G01 X69.7923 Y44.4912
G01 X69.7526 Y44.6019
G01 X69.7240 Y44.7161
G01 X69.7068 Y44.8325
G01 X69.7010 Y44.9500
G01 X69.7068 Y45.0675
G01 X69.7240 Y45.1839
G01 X69.7526 Y45.2981
G01 X69.7923 Y45.4088
G01 X69.8426 Y45.5152
G01 X69.9031 Y45.6161
G01 X69.9732 Y45.7106
G01 X70.0522 Y45.7978
G01 X70.1394 Y45.8768
G01 X70.2339 Y45.9469
G01 X70.3348 Y46.0074
G01 X70.4412 Y46.0577
G01 X70.5519 Y46.0974
G01 X70.6661 Y46.1260
G01 X70.7825 Y46.1432
G01 X70.9000 Y46.1490
G01 X71.0175 Y46.1432
G01 X71.1339 Y46.1260
G01 X71.2481 Y46.0974
G01 X71.3588 Y46.0577
G01 X71.4652 Y46.0074
G01 X71.5661 Y45.9469
G01 X71.6606 Y45.8768
G01 X71.7478 Y45.7978
G01 X71.8268 Y45.7106
G01 X71.8969 Y45.6161
G01 X71.9574 Y45.5152
G01 X72.0077 Y45.4088
G01 X72.0474 Y45.2981
G01 X72.0760 Y45.1839
G01 X72.0932 Y45.0675
G01 X72.0990 Y44.9500
G00 Z2.0000
G00 X82.2090 Y40.4380
G01 F40.00
G01 Z-2.4000
G01 F80.00
G01 X82.2065 Y40.3880
G01 X82.1992 Y40.3385
G01 X82.1870 Y40.2900
G01 X82.1702 Y40.2428
G01 X82.1488 Y40.1976
G01 X82.1230 Y40.1547
G01 X82.0932 Y40.1145
G01 X82.0596 Y40.0774
G01 X82.0225 Y40.0438
G01 X81.9823 Y40.0140
G01 X81.9394 Y39.9882
G01 X81.8942 Y39.9668
G01 X81.8470 Y39.9500
G01 X81.7985 Y39.9378
G01 X81.7490 Y39.9305
G01 X81.6990 Y39.9280
G01 X81.6490 Y39.9305
G01 X81.5995 Y39.9378
G01 X81.5510 Y39.9500
G01 X81.5038 Y39.9668
G01 X81.4586 Y39.9882
G01 X81.4157 Y40.0140
G01 X81.3755 Y40.0438
G01 X81.3384 Y40.0774
G01 X81.3048 Y40.1145
G01 X81.2750 Y40.1547
G01 X81.2492 Y40.1976
G01 X81.2278 Y40.2428
G01 X81.2110 Y40.2900
G01 X81.1988 Y40.3385
G01 X81.1915 Y40.3880
G01 X81.1890 Y40.4380
G01 X81.1915 Y40.4880
G01 X81.1988 Y40.5375
G01 X81.2110 Y40.5860
G01 X81.2278 Y40.6332
G01 X81.2492 Y40.6784
G01 X81.2750 Y40.7213
G01 X81.3048 Y40.7615
G01 X81.3384 Y40.7986
G01 X81.3755 Y40.8322
G01 X81.4157 Y40.8620
G01 X81.4586 Y40.8878
G01 X81.5038 Y40.9092
G01 X81.5510 Y40.9260
G01 X81.5995 Y40.9382
G01 X81.6490 Y40.9455
G01 X81.6990 Y40.9480
G01 X81.7490 Y40.9455
G01 X81.7985 Y40.9382
G01 X81.8470 Y40.9260
G01 X81.8942 Y40.9092
G01 X81.9394 Y40.8878
G01 X81.9823 Y40.8620
G01 X82.0225 Y40.8322
G01 X82.0596 Y40.7986
G01 X82.0932 Y40.7615
G01 X82.1230 Y40.7213
G01 X82.1488 Y40.6784
G01 X82.1702 Y40.6332
G01 X82.1870 Y40.5860
G01 X82.1992 Y40.5375
G01 X82.2065 Y40.4880
G01 X82.2090 Y40.4380
G00 Z2.0000
G00 X89.3600 Y39.8900
G01 F40.00
G01 Z-2.4000
G01 F80.00
G01 X89.3539 Y39.7655
G01 X89.3356 Y39.6422
G01 X89.3053 Y39.5213
G01 X89.2633 Y39.4040
G01 X89.2100 Y39.2913
G01 X89.1460 Y39.1844
G01 X89.0717 Y39.0843
G01 X88.9880 Y38.9920
G01 X88.8957 Y38.9083
G01 X88.7956 Y38.8340
G01 X88.6887 Y38.7700
G01 X88.5760 Y38.7167
G01 X88.4587 Y38.6747
G01 X88.3378 Y38.6444
G01 X88.2145 Y38.6261
G01 X88.0900 Y38.6200
G01 X87.9655 Y38.6261
G01 X87.8422 Y38.6444
G01 X87.7213 Y38.6747
G01 X87.6040 Y38.7167
G01 X87.4913 Y38.7700
G01 X87.3844 Y38.8340
G01 X87.2843 Y38.9083
G01 X87.1920 Y38.9920
G01 X87.1083 Y39.0843
G01 X87.0340 Y39.1844
G01 X86.9700 Y39.2913
G01 X86.9167 Y39.4040
G01 X86.8747 Y39.5213
G01 X86.8444 Y39.6422
G01 X86.8261 Y39.7655
G01 X86.8200 Y39.8900
G01 X86.8261 Y40.0145
G01 X86.8444 Y40.1378
G01 X86.8747 Y40.2587
G01 X86.9167 Y40.3760
G01 X86.9700 Y40.4887
G01 X87.0340 Y40.5956
G01 X87.1083 Y40.6957
G01 X87.1920 Y40.7880
G01 X87.2843 Y40.8717
G01 X87.3844 Y40.9460
G01 X87.4913 Y41.0100
G01 X87.6040 Y41.0633
G01 X87.7213 Y41.1053
G01 X87.8422 Y41.1356
G01 X87.9655 Y41.1539
G01 X88.0900 Y41.1600
G01 X88.2145 Y41.1539
G01 X88.3378 Y41.1356
G01 X88.4587 Y41.1053
G01 X88.5760 Y41.0633
G01 X88.6887 Y41.0100
G01 X88.7956 Y40.9460
G01 X88.8957 Y40.8717
G01 X88.9880 Y40.7880
G01 X89.0717 Y40.6957
G01 X89.1460 Y40.5956
G01 X89.2100 Y40.4887
G01 X89.2633 Y40.3760
G01 X89.3053 Y40.2587
G01 X89.3356 Y40.1378
G01 X89.3539 Y40.0145
G01 X89.3600 Y39.8900
G00 Z2.0000
G00 X94.4890 Y45.2000
G01 F40.00
G01 Z-2.4000
G01 F80.00
G01 X94.4832 Y45.0825
G01 X94.4660 Y44.9661
G01 X94.4374 Y44.8519
G01 X94.3977 Y44.7412
G01 X94.3474 Y44.6348
G01 X94.2869 Y44.5339
G01 X94.2168 Y44.4394
G01 X94.1378 Y44.3522
G01 X94.0506 Y44.2732
G01 X93.9561 Y44.2031
G01 X93.8552 Y44.1426
G01 X93.7488 Y44.0923
G01 X93.6381 Y44.0526
G01 X93.5239 Y44.0240
G01 X93.4075 Y44.0068
G01 X93.2900 Y44.0010
G01 X93.1725 Y44.0068
G01 X93.0561 Y44.0240
G01 X92.9419 Y44.0526
G01 X92.8312 Y44.0923
G01 X92.7248 Y44.1426
G01 X92.6239 Y44.2031
G01 X92.5294 Y44.2732
G01 X92.4422 Y44.3522
G01 X92.3632 Y44.4394
G01 X92.2931 Y44.5339
G01 X92.2326 Y44.6348
G01 X92.1823 Y44.7412
G01 X92.1426 Y44.8519
G01 X92.1140 Y44.9661
G01 X92.0968 Y45.0825
G01 X92.0910 Y45.2000
G01 X92.0968 Y45.3175
G01 X92.1140 Y45.4339
G01 X92.1426 Y45.5481
G01 X92.1823 Y45.6588
G01 X92.2326 Y45.7652
G01 X92.2931 Y45.8661
G01 X92.3632 Y45.9606
G01 X92.4422 Y46.0478
G01 X92.5294 Y46.1268
G01 X92.6239 Y46.1969
G01 X92.7248 Y46.2574
G01 X92.8312 Y46.3077
G01 X92.9419 Y46.3474
G01 X93.0561 Y46.3760
G01 X93.1725 Y46.3932
G01 X93.2900 Y46.3990
G01 X93.4075 Y46.3932
G01 X93.5239 Y46.3760
G01 X93.6381 Y46.3474
G01 X93.7488 Y46.3077
G01 X93.8552 Y46.2574
G01 X93.9561 Y46.1969
G01 X94.0506 Y46.1268
G01 X94.1378 Y46.0478
G01 X94.2168 Y45.9606
G01 X94.2869 Y45.8661
G01 X94.3474 Y45.7652
G01 X94.3977 Y45.6588
G01 X94.4374 Y45.5481
G01 X94.4660 Y45.4339
G01 X94.4832 Y45.3175
G01 X94.4890 Y45.2000
G00 Z2.0000
G00 X104.3300 Y40.0200
G01 F40.00
G01 Z-2.4000
G01 F80.00
G01 X104.3239 Y39.8955
G01 X104.3056 Y39.7722
G01 X104.2753 Y39.6513
G01 X104.2333 Y39.5340
G01 X104.1800 Y39.4213
G01 X104.1160 Y39.3144
G01 X104.0417 Y39.2143
G01 X103.9580 Y39.1220
G01 X103.8657 Y39.0383
G01 X103.7656 Y38.9640
G01 X103.6587 Y38.9000
G01 X103.5460 Y38.8467
G01 X103.4287 Y38.8047
G01 X103.3078 Y38.7744
G01 X103.1845 Y38.7561
G01 X103.0600 Y38.7500
G01 X102.9355 Y38.7561
G01 X102.8122 Y38.7744
G01 X102.6913 Y38.8047
G01 X102.5740 Y38.8467
G01 X102.4613 Y38.9000
G01 X102.3544 Y38.9640
G01 X102.2543 Y39.0383
G01 X102.1620 Y39.1220
G01 X102.0783 Y39.2143
G01 X102.0040 Y39.3144
G01 X101.9400 Y39.4213
G01 X101.8867 Y39.5340
G01 X101.8447 Y39.6513
G01 X101.8144 Y39.7722
G01 X101.7961 Y39.8955
G01 X101.7900 Y40.0200
G01 X101.7961 Y40.1445
G01 X101.8144 Y40.2678
G01 X101.8447 Y40.3887
G01 X101.8867 Y40.5060
G01 X101.9400 Y40.6187
G01 X102.0040 Y40.7256
G01 X102.0783 Y40.8257
G01 X102.1620 Y40.9180
G01 X102.2543 Y41.0017
G01 X102.3544 Y41.0760
G01 X102.4613 Y41.1400
G01 X102.5740 Y41.1933
G01 X102.6913 Y41.2353
G01 X102.8122 Y41.2656
G01 X102.9355 Y41.2839
G01 X103.0600 Y41.2900
G01 X103.1845 Y41.2839
G01 X103.3078 Y41.2656
G01 X103.4287 Y41.2353
G01 X103.5460 Y41.1933
G01 X103.6587 Y41.1400
G01 X103.7656 Y41.0760
G01 X103.8657 Y41.0017
G01 X103.9580 Y40.9180
G01 X104.0417 Y40.8257
G01 X104.1160 Y40.7256
G01 X104.1800 Y40.6187
G01 X104.2333 Y40.5060
G01 X104.2753 Y40.3887
G01 X104.3056 Y40.2678
G01 X104.3239 Y40.1445
G01 X104.3300 Y40.0200
G00 Z2.0000
G00 X104.9750 Y34.1800
G01 F40.00
G01 Z-2.4000
G01 F80.00
G01 X104.9584 Y33.8414
G01 X104.9086 Y33.5060
G01 X104.8262 Y33.1771
G01 X104.7120 Y32.8578
G01 X104.5670 Y32.5513
G01 X104.3927 Y32.2605
G01 X104.1908 Y31.9882
G01 X103.9631 Y31.7369
G01 X103.7118 Y31.5092
G01 X103.4395 Y31.3073
G01 X103.1487 Y31.1330
G01 X102.8422 Y30.9880
G01 X102.5229 Y30.8738
G01 X102.1940 Y30.7914
G01 X101.8586 Y30.7416
G01 X101.5200 Y30.7250
G01 X101.1814 Y30.7416
G01 X100.8460 Y30.7914
G01 X100.5171 Y30.8738
G01 X100.1978 Y30.9880
G01 X99.8913 Y31.1330
G01 X99.6005 Y31.3073
G01 X99.3282 Y31.5092
G01 X99.0769 Y31.7369
G01 X98.8492 Y31.9882
G01 X98.6473 Y32.2605
G01 X98.4730 Y32.5513
G01 X98.3280 Y32.8578
G01 X98.2138 Y33.1771
G01 X98.1314 Y33.5060
G01 X98.0816 Y33.8414
G01 X98.0650 Y34.1800
G01 X98.0816 Y34.5186
G01 X98.1314 Y34.8540
G01 X98.2138 Y35.1829
G01 X98.3280 Y35.5022
G01 X98.4730 Y35.8087
G01 X98.6473 Y36.0995
G01 X98.8492 Y36.3718
G01 X99.0769 Y36.6231
G01 X99.3282 Y36.8508
G01 X99.6005 Y37.0527
G01 X99.8913 Y37.2270
G01 X100.1978 Y37.3720
G01 X100.5171 Y37.4862
G01 X100.8460 Y37.5686
G01 X101.1814 Y37.6184
G01 X101.5200 Y37.6350
G01 X101.8586 Y37.6184
G01 X102.1940 Y37.5686
G01 X102.5229 Y37.4862
G01 X102.8422 Y37.3720
G01 X103.1487 Y37.2270
G01 X103.4395 Y37.0527
G01 X103.7118 Y36.8508
G01 X103.9631 Y36.6231
G01 X104.1908 Y36.3718
G01 X104.3927 Y36.0995
G01 X104.5670 Y35.8087
G01 X104.7120 Y35.5022
G01 X104.8262 Y35.1829
G01 X104.9086 Y34.8540
G01 X104.9584 Y34.5186
G01 X104.9750 Y34.1800
G00 Z2.0000
G00 X101.3400 Y22.5900
G01 F40.00
G01 Z-2.4000
G01 F80.00
G01 X101.3122 Y22.0244
G01 X101.2291 Y21.4643
G01 X101.0915 Y20.9151
G01 X100.9008 Y20.3819
G01 X100.6587 Y19.8700
G01 X100.3676 Y19.3844
G01 X100.0303 Y18.9296
G01 X99.6500 Y18.5100
G01 X99.2304 Y18.1297
G01 X98.7756 Y17.7924
G01 X98.2900 Y17.5013
G01 X97.7781 Y17.2592
G01 X97.2449 Y17.0685
G01 X96.6957 Y16.9309
G01 X96.1356 Y16.8478
G01 X95.5700 Y16.8200
G01 X95.0044 Y16.8478
G01 X94.4443 Y16.9309
G01 X93.8951 Y17.0685
G01 X93.3619 Y17.2592
G01 X92.8500 Y17.5013
G01 X92.3644 Y17.7924
G01 X91.9096 Y18.1297
G01 X91.4900 Y18.5100
G01 X91.1097 Y18.9296
G01 X90.7724 Y19.3844
G01 X90.4813 Y19.8700
G01 X90.2392 Y20.3819
G01 X90.0485 Y20.9151
G01 X89.9109 Y21.4643
G01 X89.8278 Y22.0244
G01 X89.8000 Y22.5900
G01 X89.8278 Y23.1556
G01 X89.9109 Y23.7157
G01 X90.0485 Y24.2649
G01 X90.2392 Y24.7981
G01 X90.4813 Y25.3100
G01 X90.7724 Y25.7956
G01 X91.1097 Y26.2504
G01 X91.4900 Y26.6700
G01 X91.9096 Y27.0503
G01 X92.3644 Y27.3876
G01 X92.8500 Y27.6787
G01 X93.3619 Y27.9208
G01 X93.8951 Y28.1115
G01 X94.4443 Y28.2491
G01 X95.0044 Y28.3322
G01 X95.5700 Y28.3600
G01 X96.1356 Y28.3322
G01 X96.6957 Y28.2491
G01 X97.2449 Y28.1115
G01 X97.7781 Y27.9208
G01 X98.2900 Y27.6787
G01 X98.7756 Y27.3876
G01 X99.2304 Y27.0503
G01 X99.6500 Y26.6700
G01 X100.0303 Y26.2504
G01 X100.3676 Y25.7956
G01 X100.6587 Y25.3100
G01 X100.9008 Y24.7981
G01 X101.0915 Y24.2649
G01 X101.2291 Y23.7157
G01 X101.3122 Y23.1556
G01 X101.3400 Y22.5900
G00 Z2.0000
G00 X105.0200 Y12.0600
G01 F40.00
G01 Z-2.4000
G01 F80.00
G01 X105.0139 Y11.9355
G01 X104.9956 Y11.8122
G01 X104.9653 Y11.6913
G01 X104.9233 Y11.5740
G01 X104.8700 Y11.4613
G01 X104.8060 Y11.3544
G01 X104.7317 Y11.2543
G01 X104.6480 Y11.1620
G01 X104.5557 Y11.0783
G01 X104.4556 Y11.0040
G01 X104.3487 Y10.9400
G01 X104.2360 Y10.8867
G01 X104.1187 Y10.8447
G01 X103.9978 Y10.8144
G01 X103.8745 Y10.7961
G01 X103.7500 Y10.7900
G01 X103.6255 Y10.7961
G01 X103.5022 Y10.8144
G01 X103.3813 Y10.8447
G01 X103.2640 Y10.8867
G01 X103.1513 Y10.9400
G01 X103.0444 Y11.0040
G01 X102.9443 Y11.0783
G01 X102.8520 Y11.1620
G01 X102.7683 Y11.2543
G01 X102.6940 Y11.3544
G01 X102.6300 Y11.4613
G01 X102.5767 Y11.5740
G01 X102.5347 Y11.6913
G01 X102.5044 Y11.8122
G01 X102.4861 Y11.9355
G01 X102.4800 Y12.0600
G01 X102.4861 Y12.1845
G01 X102.5044 Y12.3078
G01 X102.5347 Y12.4287
G01 X102.5767 Y12.5460
G01 X102.6300 Y12.6587
G01 X102.6940 Y12.7656
G01 X102.7683 Y12.8657
G01 X102.8520 Y12.9580
G01 X102.9443 Y13.0417
G01 X103.0444 Y13.1160
G01 X103.1513 Y13.1800
G01 X103.2640 Y13.2333
G01 X103.3813 Y13.2753
G01 X103.5022 Y13.3056
G01 X103.6255 Y13.3239
G01 X103.7500 Y13.3300
G01 X103.8745 Y13.3239
G01 X103.9978 Y13.3056
G01 X104.1187 Y13.2753
G01 X104.2360 Y13.2333
G01 X104.3487 Y13.1800
G01 X104.4556 Y13.1160
G01 X104.5557 Y13.0417
G01 X104.6480 Y12.9580
G01 X104.7317 Y12.8657
G01 X104.8060 Y12.7656
G01 X104.8700 Y12.6587
G01 X104.9233 Y12.5460
G01 X104.9653 Y12.4287
G01 X104.9956 Y12.3078
G01 X105.0139 Y12.1845
G01 X105.0200 Y12.0600
G00 Z2.0000
G00 X106.2000 Y5.0000
G01 F40.00
G01 Z-2.4000
G01 F80.00
G01 X106.1942 Y4.8824
G01 X106.1769 Y4.7659
G01 X106.1483 Y4.6517
G01 X106.1087 Y4.5408
G01 X106.0583 Y4.4343
G01 X105.9978 Y4.3333
G01 X105.9276 Y4.2387
G01 X105.8485 Y4.1515
G01 X105.7613 Y4.0724
G01 X105.6667 Y4.0022
G01 X105.5657 Y3.9417
G01 X105.4592 Y3.8913
G01 X105.3483 Y3.8517
G01 X105.2341 Y3.8231
G01 X105.1176 Y3.8058
G01 X105.0000 Y3.8000
G01 X104.8824 Y3.8058
G01 X104.7659 Y3.8231
G01 X104.6517 Y3.8517
G01 X104.5408 Y3.8913
G01 X104.4343 Y3.9417
G01 X104.3333 Y4.0022
G01 X104.2387 Y4.0724
G01 X104.1515 Y4.1515
G01 X104.0724 Y4.2387
G01 X104.0022 Y4.3333
G01 X103.9417 Y4.4343
G01 X103.8913 Y4.5408
G01 X103.8517 Y4.6517
G01 X103.8231 Y4.7659
G01 X103.8058 Y4.8824
G01 X103.8000 Y5.0000
G01 X103.8058 Y5.1176
G01 X103.8231 Y5.2341
G01 X103.8517 Y5.3483
G01 X103.8913 Y5.4592
G01 X103.9417 Y5.5657
G01 X104.0022 Y5.6667
G01 X104.0724 Y5.7613
G01 X104.1515 Y5.8485
G01 X104.2387 Y5.9276
G01 X104.3333 Y5.9978
G01 X104.4343 Y6.0583
G01 X104.5408 Y6.1087
G01 X104.6517 Y6.1483
G01 X104.7659 Y6.1769
G01 X104.8824 Y6.1942
G01 X105.0000 Y6.2000
G01 X105.1176 Y6.1942
G01 X105.2341 Y6.1769
G01 X105.3483 Y6.1483
G01 X105.4592 Y6.1087
G01 X105.5657 Y6.0583
G01 X105.6667 Y5.9978
G01 X105.7613 Y5.9276
G01 X105.8485 Y5.8485
G01 X105.9276 Y5.7613
G01 X105.9978 Y5.6667
G01 X106.0583 Y5.5657
G01 X106.1087 Y5.4592
G01 X106.1483 Y5.3483
G01 X106.1769 Y5.2341
G01 X106.1942 Y5.1176
G01 X106.2000 Y5.0000
G00 Z2.0000
G00 X89.4700 Y12.1000
G01 F40.00
G01 Z-2.4000
G01 F80.00
G01 X89.4639 Y11.9755
G01 X89.4456 Y11.8522
G01 X89.4153 Y11.7313
G01 X89.3733 Y11.6140
G01 X89.3200 Y11.5013
G01 X89.2560 Y11.3944
G01 X89.1817 Y11.2943
G01 X89.0980 Y11.2020
G01 X89.0057 Y11.1183
G01 X88.9056 Y11.0440
G01 X88.7987 Y10.9800
G01 X88.6860 Y10.9267
G01 X88.5687 Y10.8847
G01 X88.4478 Y10.8544
G01 X88.3245 Y10.8361
G01 X88.2000 Y10.8300
G01 X88.0755 Y10.8361
G01 X87.9522 Y10.8544
G01 X87.8313 Y10.8847
G01 X87.7140 Y10.9267
G01 X87.6013 Y10.9800
G01 X87.4944 Y11.0440
G01 X87.3943 Y11.1183
G01 X87.3020 Y11.2020
G01 X87.2183 Y11.2943
G01 X87.1440 Y11.3944
G01 X87.0800 Y11.5013
G01 X87.0267 Y11.6140
G01 X86.9847 Y11.7313
G01 X86.9544 Y11.8522
G01 X86.9361 Y11.9755
G01 X86.9300 Y12.1000
G01 X86.9361 Y12.2245
G01 X86.9544 Y12.3478
G01 X86.9847 Y12.4687
G01 X87.0267 Y12.5860
G01 X87.0800 Y12.6987
G01 X87.1440 Y12.8056
G01 X87.2183 Y12.9057
G01 X87.3020 Y12.9980
G01 X87.3943 Y13.0817
G01 X87.4944 Y13.1560
G01 X87.6013 Y13.2200
G01 X87.7140 Y13.2733
G01 X87.8313 Y13.3153
G01 X87.9522 Y13.3456
G01 X88.0755 Y13.3639
G01 X88.2000 Y13.3700
G01 X88.3245 Y13.3639
G01 X88.4478 Y13.3456
G01 X88.5687 Y13.3153
G01 X88.6860 Y13.2733
G01 X88.7987 Y13.2200
G01 X88.9056 Y13.1560
G01 X89.0057 Y13.0817
G01 X89.0980 Y12.9980
G01 X89.1817 Y12.9057
G01 X89.2560 Y12.8056
G01 X89.3200 Y12.6987
G01 X89.3733 Y12.5860
G01 X89.4153 Y12.4687
G01 X89.4456 Y12.3478
G01 X89.4639 Y12.2245
G01 X89.4700 Y12.1000
G00 Z2.0000
G00 X82.2490 Y25.6980
G01 F40.00
G01 Z-2.4000
G01 F80.00
G01 X82.2465 Y25.6480
G01 X82.2392 Y25.5985
G01 X82.2270 Y25.5500
G01 X82.2102 Y25.5028
G01 X82.1888 Y25.4576
G01 X82.1630 Y25.4147
G01 X82.1332 Y25.3745
G01 X82.0996 Y25.3374
G01 X82.0625 Y25.3038
G01 X82.0223 Y25.2740
G01 X81.9794 Y25.2482
G01 X81.9342 Y25.2268
G01 X81.8870 Y25.2100
G01 X81.8385 Y25.1978
G01 X81.7890 Y25.1905
G01 X81.7390 Y25.1880
G01 X81.6890 Y25.1905
G01 X81.6395 Y25.1978
G01 X81.5910 Y25.2100
G01 X81.5438 Y25.2268
G01 X81.4986 Y25.2482
G01 X81.4557 Y25.2740
G01 X81.4155 Y25.3038
G01 X81.3784 Y25.3374
G01 X81.3448 Y25.3745
G01 X81.3150 Y25.4147
G01 X81.2892 Y25.4576
G01 X81.2678 Y25.5028
G01 X81.2510 Y25.5500
G01 X81.2388 Y25.5985
G01 X81.2315 Y25.6480
G01 X81.2290 Y25.6980
G01 X81.2315 Y25.7480
G01 X81.2388 Y25.7975
G01 X81.2510 Y25.8460
G01 X81.2678 Y25.8932
G01 X81.2892 Y25.9384
G01 X81.3150 Y25.9813
G01 X81.3448 Y26.0215
G01 X81.3784 Y26.0586
G01 X81.4155 Y26.0922
G01 X81.4557 Y26.1220
G01 X81.4986 Y26.1478
G01 X81.5438 Y26.1692
G01 X81.5910 Y26.1860
G01 X81.6395 Y26.1982
G01 X81.6890 Y26.2055
G01 X81.7390 Y26.2080
G01 X81.7890 Y26.2055
G01 X81.8385 Y26.1982
G01 X81.8870 Y26.1860
G01 X81.9342 Y26.1692
G01 X81.9794 Y26.1478
G01 X82.0223 Y26.1220
G01 X82.0625 Y26.0922
G01 X82.0996 Y26.0586
G01 X82.1332 Y26.0215
G01 X82.1630 Y25.9813
G01 X82.1888 Y25.9384
G01 X82.2102 Y25.8932
G01 X82.2270 Y25.8460
G01 X82.2392 Y25.7975
G01 X82.2465 Y25.7480
G01 X82.2490 Y25.6980
G00 Z2.0000
G00 X77.0990 Y33.0080
G01 F40.00
G01 Z-2.4000
G01 F80.00
G01 X77.0737 Y32.4934
G01 X76.9981 Y31.9838
G01 X76.8729 Y31.4840
G01 X76.6994 Y30.9989
G01 X76.4791 Y30.5332
G01 X76.2142 Y30.0913
G01 X75.9073 Y29.6774
G01 X75.5613 Y29.2957
G01 X75.1796 Y28.9497
G01 X74.7657 Y28.6428
G01 X74.3238 Y28.3779
G01 X73.8581 Y28.1576
G01 X73.3730 Y27.9841
G01 X72.8732 Y27.8589
G01 X72.3636 Y27.7833
G01 X71.8490 Y27.7580
G01 X71.3344 Y27.7833
G01 X70.8248 Y27.8589
G01 X70.3250 Y27.9841
G01 X69.8399 Y28.1576
G01 X69.3742 Y28.3779
G01 X68.9323 Y28.6428
G01 X68.5184 Y28.9497
G01 X68.1367 Y29.2957
G01 X67.7907 Y29.6774
G01 X67.4838 Y30.0913
G01 X67.2189 Y30.5332
G01 X66.9986 Y30.9989
G01 X66.8251 Y31.4840
G01 X66.6999 Y31.9838
G01 X66.6243 Y32.4934
G01 X66.5990 Y33.0080
G01 X66.6243 Y33.5226
G01 X66.6999 Y34.0322
G01 X66.8251 Y34.5320
G01 X66.9986 Y35.0171
G01 X67.2189 Y35.4828
G01 X67.4838 Y35.9247
G01 X67.7907 Y36.3386
G01 X68.1367 Y36.7203
G01 X68.5184 Y37.0663
G01 X68.9323 Y37.3732
G01 X69.3742 Y37.6381
G01 X69.8399 Y37.8584
G01 X70.3250 Y38.0319
G01 X70.8248 Y38.1571
G01 X71.3344 Y38.2327
G01 X71.8490 Y38.2580
G01 X72.3636 Y38.2327
G01 X72.8732 Y38.1571
G01 X73.3730 Y38.0319
G01 X73.8581 Y37.8584
G01 X74.3238 Y37.6381
G01 X74.7657 Y37.3732
G01 X75.1796 Y37.0663
G01 X75.5613 Y36.7203
G01 X75.9073 Y36.3386
G01 X76.2142 Y35.9247
G01 X76.4791 Y35.4828
G01 X76.6994 Y35.0171
G01 X76.8729 Y34.5320
G01 X76.9981 Y34.0322
G01 X77.0737 Y33.5226
G01 X77.0990 Y33.0080
G00 Z2.0000
G00 X67.2190 Y25.7180
G01 F40.00
G01 Z-2.4000
G01 F80.00
G01 X67.2165 Y25.6680
G01 X67.2092 Y25.6185
G01 X67.1970 Y25.5700
G01 X67.1802 Y25.5228
G01 X67.1588 Y25.4776
G01 X67.1330 Y25.4347
G01 X67.1032 Y25.3945
G01 X67.0696 Y25.3574
G01 X67.0325 Y25.3238
G01 X66.9923 Y25.2940
G01 X66.9494 Y25.2682
G01 X66.9042 Y25.2468
G01 X66.8570 Y25.2300
G01 X66.8085 Y25.2178
G01 X66.7590 Y25.2105
G01 X66.7090 Y25.2080
G01 X66.6590 Y25.2105
G01 X66.6095 Y25.2178
G01 X66.5610 Y25.2300
G01 X66.5138 Y25.2468
G01 X66.4686 Y25.2682
G01 X66.4257 Y25.2940
G01 X66.3855 Y25.3238
G01 X66.3484 Y25.3574
G01 X66.3148 Y25.3945
G01 X66.2850 Y25.4347
G01 X66.2592 Y25.4776
G01 X66.2378 Y25.5228
G01 X66.2210 Y25.5700
G01 X66.2088 Y25.6185
G01 X66.2015 Y25.6680
G01 X66.1990 Y25.7180
G01 X66.2015 Y25.7680
G01 X66.2088 Y25.8175
G01 X66.2210 Y25.8660
G01 X66.2378 Y25.9132
G01 X66.2592 Y25.9584
G01 X66.2850 Y26.0013
G01 X66.3148 Y26.0415
G01 X66.3484 Y26.0786
G01 X66.3855 Y26.1122
G01 X66.4257 Y26.1420
G01 X66.4686 Y26.1678
G01 X66.5138 Y26.1892
G01 X66.5610 Y26.2060
G01 X66.6095 Y26.2182
G01 X66.6590 Y26.2255
G01 X66.7090 Y26.2280
G01 X66.7590 Y26.2255
G01 X66.8085 Y26.2182
G01 X66.8570 Y26.2060
G01 X66.9042 Y26.1892
G01 X66.9494 Y26.1678
G01 X66.9923 Y26.1420
G01 X67.0325 Y26.1122
G01 X67.0696 Y26.0786
G01 X67.1032 Y26.0415
G01 X67.1330 Y26.0013
G01 X67.1588 Y25.9584
G01 X67.1802 Y25.9132
G01 X67.1970 Y25.8660
G01 X67.2092 Y25.8175
G01 X67.2165 Y25.7680
G01 X67.2190 Y25.7180
G00 Z2.0000
G00 X106.5890 Y47.8300
G01 F40.00
G01 Z-2.4000
G01 F80.00
G01 X106.5832 Y47.7125
G01 X106.5660 Y47.5961
G01 X106.5374 Y47.4819
G01 X106.4977 Y47.3712
G01 X106.4474 Y47.2648
G01 X106.3869 Y47.1639
G01 X106.3168 Y47.0694
G01 X106.2378 Y46.9822
G01 X106.1506 Y46.9032
G01 X106.0561 Y46.8331
G01 X105.9552 Y46.7726
G01 X105.8488 Y46.7223
G01 X105.7381 Y46.6826
G01 X105.6239 Y46.6540
G01 X105.5075 Y46.6368
G01 X105.3900 Y46.6310
G01 X105.2725 Y46.6368
G01 X105.1561 Y46.6540
G01 X105.0419 Y46.6826
G01 X104.9312 Y46.7223
G01 X104.8248 Y46.7726
G01 X104.7239 Y46.8331
G01 X104.6294 Y46.9032
G01 X104.5422 Y46.9822
G01 X104.4632 Y47.0694
G01 X104.3931 Y47.1639
G01 X104.3326 Y47.2648
G01 X104.2823 Y47.3712
G01 X104.2426 Y47.4819
G01 X104.2140 Y47.5961
G01 X104.1968 Y47.7125
G01 X104.1910 Y47.8300
G01 X104.1968 Y47.9475
G01 X104.2140 Y48.0639
G01 X104.2426 Y48.1781
G01 X104.2823 Y48.2888
G01 X104.3326 Y48.3952
G01 X104.3931 Y48.4961
G01 X104.4632 Y48.5906
G01 X104.5422 Y48.6778
G01 X104.6294 Y48.7568
G01 X104.7239 Y48.8269
G01 X104.8248 Y48.8874
G01 X104.9312 Y48.9377
G01 X105.0419 Y48.9774
G01 X105.1561 Y49.0060
G01 X105.2725 Y49.0232
G01 X105.3900 Y49.0290
G01 X105.5075 Y49.0232
G01 X105.6239 Y49.0060
G01 X105.7381 Y48.9774
G01 X105.8488 Y48.9377
G01 X105.9552 Y48.8874
G01 X106.0561 Y48.8269
G01 X106.1506 Y48.7568
G01 X106.2378 Y48.6778
G01 X106.3168 Y48.5906
G01 X106.3869 Y48.4961
G01 X106.4474 Y48.3952
G01 X106.4977 Y48.2888
G01 X106.5374 Y48.1781
G01 X106.5660 Y48.0639
G01 X106.5832 Y47.9475
G01 X106.5890 Y47.8300
G00 Z2.0000
G00 X106.2000 Y65.0000
G01 F40.00
G01 Z-2.4000
G01 F80.00
G01 X106.1942 Y64.8824
G01 X106.1769 Y64.7659
G01 X106.1483 Y64.6517
G01 X106.1087 Y64.5408
G01 X106.0583 Y64.4343
G01 X105.9978 Y64.3333
G01 X105.9276 Y64.2387
G01 X105.8485 Y64.1515
G01 X105.7613 Y64.0724
G01 X105.6667 Y64.0022
G01 X105.5657 Y63.9417
G01 X105.4592 Y63.8913
G01 X105.3483 Y63.8517
G01 X105.2341 Y63.8231
G01 X105.1176 Y63.8058
G01 X105.0000 Y63.8000
G01 X104.8824 Y63.8058
G01 X104.7659 Y63.8231
G01 X104.6517 Y63.8517
G01 X104.5408 Y63.8913
G01 X104.4343 Y63.9417
G01 X104.3333 Y64.0022
G01 X104.2387 Y64.0724
G01 X104.1515 Y64.1515
G01 X104.0724 Y64.2387
G01 X104.0022 Y64.3333
G01 X103.9417 Y64.4343
G01 X103.8913 Y64.5408
G01 X103.8517 Y64.6517
G01 X103.8231 Y64.7659
G01 X103.8058 Y64.8824
G01 X103.8000 Y65.0000
G01 X103.8058 Y65.1176
G01 X103.8231 Y65.2341
G01 X103.8517 Y65.3483
G01 X103.8913 Y65.4592
G01 X103.9417 Y65.5657
G01 X104.0022 Y65.6667
G01 X104.0724 Y65.7613
G01 X104.1515 Y65.8485
G01 X104.2387 Y65.9276
G01 X104.3333 Y65.9978
G01 X104.4343 Y66.0583
G01 X104.5408 Y66.1087
G01 X104.6517 Y66.1483
G01 X104.7659 Y66.1769
G01 X104.8824 Y66.1942
G01 X105.0000 Y66.2000
G01 X105.1176 Y66.1942
G01 X105.2341 Y66.1769
G01 X105.3483 Y66.1483
G01 X105.4592 Y66.1087
G01 X105.5657 Y66.0583
G01 X105.6667 Y65.9978
G01 X105.7613 Y65.9276
G01 X105.8485 Y65.8485
G01 X105.9276 Y65.7613
G01 X105.9978 Y65.6667
G01 X106.0583 Y65.5657
G01 X106.1087 Y65.4592
G01 X106.1483 Y65.3483
G01 X106.1769 Y65.2341
G01 X106.1942 Y65.1176
G01 X106.2000 Y65.0000
G00 Z2.0000
G00 X6.2000 Y65.0000
G01 F40.00
G01 Z-2.4000
G01 F80.00
G01 X6.1942 Y64.8824
G01 X6.1769 Y64.7659
G01 X6.1483 Y64.6517
G01 X6.1087 Y64.5408
G01 X6.0583 Y64.4343
G01 X5.9978 Y64.3333
G01 X5.9276 Y64.2387
G01 X5.8485 Y64.1515
G01 X5.7613 Y64.0724
G01 X5.6667 Y64.0022
G01 X5.5657 Y63.9417
G01 X5.4592 Y63.8913
G01 X5.3483 Y63.8517
G01 X5.2341 Y63.8231
G01 X5.1176 Y63.8058
G01 X5.0000 Y63.8000
G01 X4.8824 Y63.8058
G01 X4.7659 Y63.8231
G01 X4.6517 Y63.8517
G01 X4.5408 Y63.8913
G01 X4.4343 Y63.9417
G01 X4.3333 Y64.0022
G01 X4.2387 Y64.0724
G01 X4.1515 Y64.1515
G01 X4.0724 Y64.2387
G01 X4.0022 Y64.3333
G01 X3.9417 Y64.4343
G01 X3.8913 Y64.5408
G01 X3.8517 Y64.6517
G01 X3.8231 Y64.7659
G01 X3.8058 Y64.8824
G01 X3.8000 Y65.0000
G01 X3.8058 Y65.1176
G01 X3.8231 Y65.2341
G01 X3.8517 Y65.3483
G01 X3.8913 Y65.4592
G01 X3.9417 Y65.5657
G01 X4.0022 Y65.6667
G01 X4.0724 Y65.7613
G01 X4.1515 Y65.8485
G01 X4.2387 Y65.9276
G01 X4.3333 Y65.9978
G01 X4.4343 Y66.0583
G01 X4.5408 Y66.1087
G01 X4.6517 Y66.1483
G01 X4.7659 Y66.1769
G01 X4.8824 Y66.1942
G01 X5.0000 Y66.2000
G01 X5.1176 Y66.1942
G01 X5.2341 Y66.1769
G01 X5.3483 Y66.1483
G01 X5.4592 Y66.1087
G01 X5.5657 Y66.0583
G01 X5.6667 Y65.9978
G01 X5.7613 Y65.9276
G01 X5.8485 Y65.8485
G01 X5.9276 Y65.7613
G01 X5.9978 Y65.6667
G01 X6.0583 Y65.5657
G01 X6.1087 Y65.4592
G01 X6.1483 Y65.3483
G01 X6.1769 Y65.2341
G01 X6.1942 Y65.1176
G01 X6.2000 Y65.0000
G00 Z2.0000
M05
G00 Z2.0000
G00 Z15.00


