(G-CODE GENERATED BY FLATCAM v8.994 - www.flatcam.org - Version Date: 2020/11/7)

(Name: Sensorbox-PTH.drl_mill_5_cnc)
(Type: G-code from Geometry)
(Units: MM)

(Created on Monday, 19 February 2024 at 14:19)

(This preprocessor is the default preprocessor used by FlatCAM.)
(It is made to work with MACH3 compatible motion controllers.)

(TOOL DIAMETER: 1.2 mm)
(Feedrate_XY: 60.0 mm/min)
(Feedrate_Z: 60.0 mm/min)
(Feedrate rapids 1500.0 mm/min)

(Z_Cut: -1.8 mm)
(Z_Move: 2.0 mm)
(Z Start: None mm)
(Z End: 15.0 mm)
(X,Y End: None mm)
(Steps per circle: 64)
(Preprocessor Geometry: default)

(X range:   12.0170 ...  106.5000  mm)
(Y range:    2.0950 ...   49.4200  mm)

(Spindle Speed: 20000.0 RPM)
G21
G90
G94

G01 F60.00

M5
G00 Z15.0000
G00 X0.0000 Y0.0000
T1
M6    
(MSG, Change to Tool Dia = 1.2000)
M0
G00 Z15.0000

M03 S20000.0
G01 F60.00
G00 X13.4350 Y2.0950
G01 F60.00
G01 Z-1.8000
G01 F60.00
G01 X13.4350 Y2.0950
G01 X13.4350 Y2.0950
G01 X13.4350 Y2.0950
G01 X13.4350 Y2.0950
G00 Z2.0000
G00 X18.0850 Y2.1530
G01 F60.00
G01 Z-1.8000
G01 F60.00
G01 X18.0850 Y2.1530
G01 X18.0850 Y2.1530
G01 X18.0850 Y2.1530
G01 X18.0850 Y2.1530
G00 Z2.0000
G00 X18.2310 Y15.5370
G01 F60.00
G01 Z-1.8000
G01 F60.00
G01 X18.2310 Y15.5370
G01 X18.2310 Y15.5370
G01 X18.2310 Y15.5370
G01 X18.2310 Y15.5370
G00 Z2.0000
G00 X13.5810 Y15.4780
G01 F60.00
G01 Z-1.8000
G01 F60.00
G01 X13.5810 Y15.4780
G01 X13.5810 Y15.4780
G01 X13.5810 Y15.4780
G01 X13.5810 Y15.4780
G00 Z2.0000
G00 X14.6070 Y22.9890
G01 F60.00
G01 Z-1.8000
G01 F60.00
G01 X14.6070 Y22.9890
G01 X14.6070 Y22.9890
G01 X14.6070 Y22.9890
G01 X14.6070 Y22.9890
G00 Z2.0000
G00 X12.0170 Y22.9890
G01 F60.00
G01 Z-1.8000
G01 F60.00
G01 X12.0170 Y22.9890
G01 X12.0170 Y22.9890
G01 X12.0170 Y22.9890
G01 X12.0170 Y22.9890
G00 Z2.0000
G00 X17.2070 Y22.9690
G01 F60.00
G01 Z-1.8000
G01 F60.00
G01 X17.2070 Y22.9690
G01 X17.2070 Y22.9690
G01 X17.2070 Y22.9690
G01 X17.2070 Y22.9690
G00 Z2.0000
G00 X53.7000 Y20.9000
G01 F60.00
G01 Z-1.8000
G01 F60.00
G01 X53.7000 Y20.9000
G01 X53.7000 Y20.9000
G01 X53.7000 Y20.9000
G01 X53.7000 Y20.9000
G00 Z2.0000
G00 X53.7580 Y16.2500
G01 F60.00
G01 Z-1.8000
G01 F60.00
G01 X53.7580 Y16.2500
G01 X53.7580 Y16.2500
G01 X53.7580 Y16.2500
G01 X53.7580 Y16.2500
G00 Z2.0000
G00 X67.1420 Y16.1040
G01 F60.00
G01 Z-1.8000
G01 F60.00
G01 X67.1420 Y16.1040
G01 X67.1420 Y16.1040
G01 X67.1420 Y16.1040
G01 X67.1420 Y16.1040
G00 Z2.0000
G00 X67.0830 Y20.7540
G01 F60.00
G01 Z-1.8000
G01 F60.00
G01 X67.0830 Y20.7540
G01 X67.0830 Y20.7540
G01 X67.0830 Y20.7540
G01 X67.0830 Y20.7540
G00 Z2.0000
G00 X91.8100 Y29.5800
G01 F60.00
G01 Z-1.8000
G01 F60.00
G01 X91.8100 Y29.5800
G01 X91.8100 Y29.5800
G01 X91.8100 Y29.5800
G01 X91.8100 Y29.5800
G00 Z2.0000
G00 X94.4000 Y29.5800
G01 F60.00
G01 Z-1.8000
G01 F60.00
G01 X94.4000 Y29.5800
G01 X94.4000 Y29.5800
G01 X94.4000 Y29.5800
G01 X94.4000 Y29.5800
G00 Z2.0000
G00 X97.0000 Y29.6000
G01 F60.00
G01 Z-1.8000
G01 F60.00
G01 X97.0000 Y29.6000
G01 X97.0000 Y29.6000
G01 X97.0000 Y29.6000
G01 X97.0000 Y29.6000
G00 Z2.0000
G00 X99.5800 Y29.6000
G01 F60.00
G01 Z-1.8000
G01 F60.00
G01 X99.5800 Y29.6000
G01 X99.5800 Y29.6000
G01 X99.5800 Y29.6000
G01 X99.5800 Y29.6000
G00 Z2.0000
G00 X98.7300 Y12.9000
G01 F60.00
G01 Z-1.8000
G01 F60.00
G01 X98.7300 Y12.9000
G01 X98.7300 Y12.9000
G01 X98.7300 Y12.9000
G01 X98.7300 Y12.9000
G00 Z2.0000
G00 X101.3200 Y12.9000
G01 F60.00
G01 Z-1.8000
G01 F60.00
G01 X101.3200 Y12.9000
G01 X101.3200 Y12.9000
G01 X101.3200 Y12.9000
G01 X101.3200 Y12.9000
G00 Z2.0000
G00 X103.9200 Y12.8800
G01 F60.00
G01 Z-1.8000
G01 F60.00
G01 X103.9200 Y12.8800
G01 X103.9200 Y12.8800
G01 X103.9200 Y12.8800
G01 X103.9200 Y12.8800
G00 Z2.0000
G00 X106.5000 Y12.8800
G01 F60.00
G01 Z-1.8000
G01 F60.00
G01 X106.5000 Y12.8800
G01 X106.5000 Y12.8800
G01 X106.5000 Y12.8800
G01 X106.5000 Y12.8800
G00 Z2.0000
G00 X78.7500 Y49.4000
G01 F60.00
G01 Z-1.8000
G01 F60.00
G01 X78.7500 Y49.4000
G01 X78.7500 Y49.4000
G01 X78.7500 Y49.4000
G01 X78.7500 Y49.4000
G00 Z2.0000
G00 X76.1600 Y49.4000
G01 F60.00
G01 Z-1.8000
G01 F60.00
G01 X76.1600 Y49.4000
G01 X76.1600 Y49.4000
G01 X76.1600 Y49.4000
G01 X76.1600 Y49.4000
G00 Z2.0000
G00 X73.5600 Y49.4200
G01 F60.00
G01 Z-1.8000
G01 F60.00
G01 X73.5600 Y49.4200
G01 X73.5600 Y49.4200
G01 X73.5600 Y49.4200
G01 X73.5600 Y49.4200
G00 Z2.0000
M05
G00 Z2.0000
G00 Z15.00


