(G-CODE GENERATED BY FLATCAM v8.994 - www.flatcam.org - Version Date: 2020/11/7)

(Name: Sensorbox-PTH.drl_mill_1_cnc)
(Type: G-code from Geometry)
(Units: MM)

(Created on Monday, 19 February 2024 at 14:16)

(This preprocessor is the default preprocessor used by FlatCAM.)
(It is made to work with MACH3 compatible motion controllers.)

(TOOL DIAMETER: 0.7 mm)
(Feedrate_XY: 60.0 mm/min)
(Feedrate_Z: 60.0 mm/min)
(Feedrate rapids 1500.0 mm/min)

(Z_Cut: -1.8 mm)
(Z_Move: 2.0 mm)
(Z Start: None mm)
(Z End: 15.0 mm)
(X,Y End: None mm)
(Steps per circle: 64)
(Preprocessor Geometry: default)

(X range:   49.1150 ...   49.1650  mm)
(Y range:   48.2500 ...   50.8400  mm)

(Spindle Speed: 20000.0 RPM)
G21
G90
G94

G01 F60.00

M5
G00 Z15.0000
G00 X0.0000 Y0.0000
T1
M6    
(MSG, Change to Tool Dia = 0.7000)
M0
G00 Z15.0000

M03 S20000.0
G01 F60.00
G00 X49.1650 Y48.2750
G01 F60.00
G01 Z-1.8000
G01 F60.00
G01 X49.1645 Y48.2701
G01 X49.1631 Y48.2654
G01 X49.1608 Y48.2611
G01 X49.1577 Y48.2573
G01 X49.1539 Y48.2542
G01 X49.1496 Y48.2519
G01 X49.1449 Y48.2505
G01 X49.1400 Y48.2500
G01 X49.1351 Y48.2505
G01 X49.1304 Y48.2519
G01 X49.1261 Y48.2542
G01 X49.1223 Y48.2573
G01 X49.1192 Y48.2611
G01 X49.1169 Y48.2654
G01 X49.1155 Y48.2701
G01 X49.1150 Y48.2750
G01 X49.1155 Y48.2799
G01 X49.1169 Y48.2846
G01 X49.1192 Y48.2889
G01 X49.1223 Y48.2927
G01 X49.1261 Y48.2958
G01 X49.1304 Y48.2981
G01 X49.1351 Y48.2995
G01 X49.1400 Y48.3000
G01 X49.1449 Y48.2995
G01 X49.1496 Y48.2981
G01 X49.1539 Y48.2958
G01 X49.1577 Y48.2927
G01 X49.1608 Y48.2889
G01 X49.1631 Y48.2846
G01 X49.1645 Y48.2799
G01 X49.1650 Y48.2750
G00 Z2.0000
G00 X49.1650 Y49.5450
G01 F60.00
G01 Z-1.8000
G01 F60.00
G01 X49.1645 Y49.5401
G01 X49.1631 Y49.5354
G01 X49.1608 Y49.5311
G01 X49.1577 Y49.5273
G01 X49.1539 Y49.5242
G01 X49.1496 Y49.5219
G01 X49.1449 Y49.5205
G01 X49.1400 Y49.5200
G01 X49.1351 Y49.5205
G01 X49.1304 Y49.5219
G01 X49.1261 Y49.5242
G01 X49.1223 Y49.5273
G01 X49.1192 Y49.5311
G01 X49.1169 Y49.5354
G01 X49.1155 Y49.5401
G01 X49.1150 Y49.5450
G01 X49.1155 Y49.5499
G01 X49.1169 Y49.5546
G01 X49.1192 Y49.5589
G01 X49.1223 Y49.5627
G01 X49.1261 Y49.5658
G01 X49.1304 Y49.5681
G01 X49.1351 Y49.5695
G01 X49.1400 Y49.5700
G01 X49.1449 Y49.5695
G01 X49.1496 Y49.5681
G01 X49.1539 Y49.5658
G01 X49.1577 Y49.5627
G01 X49.1608 Y49.5589
G01 X49.1631 Y49.5546
G01 X49.1645 Y49.5499
G01 X49.1650 Y49.5450
G00 Z2.0000
G00 X49.1650 Y50.8150
G01 F60.00
G01 Z-1.8000
G01 F60.00
G01 X49.1645 Y50.8101
G01 X49.1631 Y50.8054
G01 X49.1608 Y50.8011
G01 X49.1577 Y50.7973
G01 X49.1539 Y50.7942
G01 X49.1496 Y50.7919
G01 X49.1449 Y50.7905
G01 X49.1400 Y50.7900
G01 X49.1351 Y50.7905
G01 X49.1304 Y50.7919
G01 X49.1261 Y50.7942
G01 X49.1223 Y50.7973
G01 X49.1192 Y50.8011
G01 X49.1169 Y50.8054
G01 X49.1155 Y50.8101
G01 X49.1150 Y50.8150
G01 X49.1155 Y50.8199
G01 X49.1169 Y50.8246
G01 X49.1192 Y50.8289
G01 X49.1223 Y50.8327
G01 X49.1261 Y50.8358
G01 X49.1304 Y50.8381
G01 X49.1351 Y50.8395
G01 X49.1400 Y50.8400
G01 X49.1449 Y50.8395
G01 X49.1496 Y50.8381
G01 X49.1539 Y50.8358
G01 X49.1577 Y50.8327
G01 X49.1608 Y50.8289
G01 X49.1631 Y50.8246
G01 X49.1645 Y50.8199
G01 X49.1650 Y50.8150
G00 Z2.0000
M05
G00 Z2.0000
G00 Z15.00


