(G-CODE GENERATED BY FLATCAM v8.994 - www.flatcam.org - Version Date: 2020/11/7)

(Name: Sensorbox-User_1.gbr_cutout_1_cnc)
(Type: G-code from Geometry)
(Units: MM)

(Created on Tuesday, 06 February 2024 at 13:16)

(This preprocessor is the default preprocessor used by FlatCAM.)
(It is made to work with MACH3 compatible motion controllers.)

(TOOL DIAMETER: 1.0 mm)
(Feedrate_XY: 80.0 mm/min)
(Feedrate_Z: 40.0 mm/min)
(Feedrate rapids 2000.0 mm/min)

(Z_Cut: -2.2 mm)
(DepthPerCut: 0.2 mm <=>11 passes)
(Z_Move: 2.0 mm)
(Z Start: None mm)
(Z End: 15.0 mm)
(X,Y End: None mm)
(Steps per circle: 64)
(Preprocessor Geometry: default)

(X range:   97.0550 ...  105.8750  mm)
(Y range:   29.7550 ...   38.5650  mm)

(Spindle Speed: 0.0 RPM)
G21
G90
G94

G01 F80.00

M5
G00 Z15.0000
G00 X0.0000 Y0.0000
T1
M6    
(MSG, Change to Tool Dia = 1.0000)
M0
G00 Z15.0000

M03
G01 F80.00
G00 X97.5551 Y30.3801
G01 F40.00
G01 Z-0.2000
G01 F80.00
G01 X97.5550 Y37.9339
G01 X97.5551 Y37.9393
G01 X97.5569 Y37.9580
G01 X97.5593 Y37.9700
G01 X97.5628 Y37.9817
G01 X97.5675 Y37.9930
G01 X97.5732 Y38.0037
G01 X97.5800 Y38.0139
G01 X97.5877 Y38.0233
G01 X97.5963 Y38.0320
G01 X97.6057 Y38.0398
G01 X97.6158 Y38.0466
G01 X97.6266 Y38.0523
G01 X97.6379 Y38.0570
G01 X97.6495 Y38.0606
G01 X97.6615 Y38.0630
G01 X97.6798 Y38.0648
G01 X97.6866 Y38.0650
G01 X105.2439 Y38.0650
G01 X105.2493 Y38.0649
G01 X105.2680 Y38.0631
G01 X105.2800 Y38.0607
G01 X105.2917 Y38.0572
G01 X105.3030 Y38.0525
G01 X105.3137 Y38.0468
G01 X105.3239 Y38.0400
G01 X105.3333 Y38.0323
G01 X105.3420 Y38.0237
G01 X105.3498 Y38.0143
G01 X105.3566 Y38.0042
G01 X105.3623 Y37.9934
G01 X105.3670 Y37.9821
G01 X105.3706 Y37.9705
G01 X105.3730 Y37.9585
G01 X105.3748 Y37.9402
G01 X105.3750 Y37.9334
G01 X105.3750 Y30.3861
G01 X105.3749 Y30.3807
G01 X105.3731 Y30.3620
G01 X105.3707 Y30.3500
G01 X105.3672 Y30.3383
G01 X105.3625 Y30.3270
G01 X105.3568 Y30.3163
G01 X105.3500 Y30.3061
G01 X105.3423 Y30.2967
G01 X105.3337 Y30.2880
G01 X105.3243 Y30.2802
G01 X105.3142 Y30.2734
G01 X105.3034 Y30.2677
G01 X105.2921 Y30.2630
G01 X105.2805 Y30.2594
G01 X105.2685 Y30.2570
G01 X105.2502 Y30.2552
G01 X105.2434 Y30.2550
G01 X97.6861 Y30.2550
G01 X97.6807 Y30.2551
G01 X97.6620 Y30.2569
G01 X97.6500 Y30.2593
G01 X97.6383 Y30.2628
G01 X97.6270 Y30.2675
G01 X97.6163 Y30.2732
G01 X97.6061 Y30.2800
G01 X97.5967 Y30.2877
G01 X97.5880 Y30.2963
G01 X97.5802 Y30.3057
G01 X97.5734 Y30.3158
G01 X97.5677 Y30.3266
G01 X97.5630 Y30.3379
G01 X97.5594 Y30.3495
G01 X97.5570 Y30.3615
G01 X97.5551 Y30.3801
G00 X97.5551 Y30.3801
G01 F40.00
G01 Z-0.4000
G01 F80.00
G01 X97.5550 Y37.9339
G01 X97.5551 Y37.9393
G01 X97.5569 Y37.9580
G01 X97.5593 Y37.9700
G01 X97.5628 Y37.9817
G01 X97.5675 Y37.9930
G01 X97.5732 Y38.0037
G01 X97.5800 Y38.0139
G01 X97.5877 Y38.0233
G01 X97.5963 Y38.0320
G01 X97.6057 Y38.0398
G01 X97.6158 Y38.0466
G01 X97.6266 Y38.0523
G01 X97.6379 Y38.0570
G01 X97.6495 Y38.0606
G01 X97.6615 Y38.0630
G01 X97.6798 Y38.0648
G01 X97.6866 Y38.0650
G01 X105.2439 Y38.0650
G01 X105.2493 Y38.0649
G01 X105.2680 Y38.0631
G01 X105.2800 Y38.0607
G01 X105.2917 Y38.0572
G01 X105.3030 Y38.0525
G01 X105.3137 Y38.0468
G01 X105.3239 Y38.0400
G01 X105.3333 Y38.0323
G01 X105.3420 Y38.0237
G01 X105.3498 Y38.0143
G01 X105.3566 Y38.0042
G01 X105.3623 Y37.9934
G01 X105.3670 Y37.9821
G01 X105.3706 Y37.9705
G01 X105.3730 Y37.9585
G01 X105.3748 Y37.9402
G01 X105.3750 Y37.9334
G01 X105.3750 Y30.3861
G01 X105.3749 Y30.3807
G01 X105.3731 Y30.3620
G01 X105.3707 Y30.3500
G01 X105.3672 Y30.3383
G01 X105.3625 Y30.3270
G01 X105.3568 Y30.3163
G01 X105.3500 Y30.3061
G01 X105.3423 Y30.2967
G01 X105.3337 Y30.2880
G01 X105.3243 Y30.2802
G01 X105.3142 Y30.2734
G01 X105.3034 Y30.2677
G01 X105.2921 Y30.2630
G01 X105.2805 Y30.2594
G01 X105.2685 Y30.2570
G01 X105.2502 Y30.2552
G01 X105.2434 Y30.2550
G01 X97.6861 Y30.2550
G01 X97.6807 Y30.2551
G01 X97.6620 Y30.2569
G01 X97.6500 Y30.2593
G01 X97.6383 Y30.2628
G01 X97.6270 Y30.2675
G01 X97.6163 Y30.2732
G01 X97.6061 Y30.2800
G01 X97.5967 Y30.2877
G01 X97.5880 Y30.2963
G01 X97.5802 Y30.3057
G01 X97.5734 Y30.3158
G01 X97.5677 Y30.3266
G01 X97.5630 Y30.3379
G01 X97.5594 Y30.3495
G01 X97.5570 Y30.3615
G01 X97.5551 Y30.3801
G00 X97.5551 Y30.3801
G01 F40.00
G01 Z-0.6000
G01 F80.00
G01 X97.5550 Y37.9339
G01 X97.5551 Y37.9393
G01 X97.5569 Y37.9580
G01 X97.5593 Y37.9700
G01 X97.5628 Y37.9817
G01 X97.5675 Y37.9930
G01 X97.5732 Y38.0037
G01 X97.5800 Y38.0139
G01 X97.5877 Y38.0233
G01 X97.5963 Y38.0320
G01 X97.6057 Y38.0398
G01 X97.6158 Y38.0466
G01 X97.6266 Y38.0523
G01 X97.6379 Y38.0570
G01 X97.6495 Y38.0606
G01 X97.6615 Y38.0630
G01 X97.6798 Y38.0648
G01 X97.6866 Y38.0650
G01 X105.2439 Y38.0650
G01 X105.2493 Y38.0649
G01 X105.2680 Y38.0631
G01 X105.2800 Y38.0607
G01 X105.2917 Y38.0572
G01 X105.3030 Y38.0525
G01 X105.3137 Y38.0468
G01 X105.3239 Y38.0400
G01 X105.3333 Y38.0323
G01 X105.3420 Y38.0237
G01 X105.3498 Y38.0143
G01 X105.3566 Y38.0042
G01 X105.3623 Y37.9934
G01 X105.3670 Y37.9821
G01 X105.3706 Y37.9705
G01 X105.3730 Y37.9585
G01 X105.3748 Y37.9402
G01 X105.3750 Y37.9334
G01 X105.3750 Y30.3861
G01 X105.3749 Y30.3807
G01 X105.3731 Y30.3620
G01 X105.3707 Y30.3500
G01 X105.3672 Y30.3383
G01 X105.3625 Y30.3270
G01 X105.3568 Y30.3163
G01 X105.3500 Y30.3061
G01 X105.3423 Y30.2967
G01 X105.3337 Y30.2880
G01 X105.3243 Y30.2802
G01 X105.3142 Y30.2734
G01 X105.3034 Y30.2677
G01 X105.2921 Y30.2630
G01 X105.2805 Y30.2594
G01 X105.2685 Y30.2570
G01 X105.2502 Y30.2552
G01 X105.2434 Y30.2550
G01 X97.6861 Y30.2550
G01 X97.6807 Y30.2551
G01 X97.6620 Y30.2569
G01 X97.6500 Y30.2593
G01 X97.6383 Y30.2628
G01 X97.6270 Y30.2675
G01 X97.6163 Y30.2732
G01 X97.6061 Y30.2800
G01 X97.5967 Y30.2877
G01 X97.5880 Y30.2963
G01 X97.5802 Y30.3057
G01 X97.5734 Y30.3158
G01 X97.5677 Y30.3266
G01 X97.5630 Y30.3379
G01 X97.5594 Y30.3495
G01 X97.5570 Y30.3615
G01 X97.5551 Y30.3801
G00 X97.5551 Y30.3801
G01 F40.00
G01 Z-0.8000
G01 F80.00
G01 X97.5550 Y37.9339
G01 X97.5551 Y37.9393
G01 X97.5569 Y37.9580
G01 X97.5593 Y37.9700
G01 X97.5628 Y37.9817
G01 X97.5675 Y37.9930
G01 X97.5732 Y38.0037
G01 X97.5800 Y38.0139
G01 X97.5877 Y38.0233
G01 X97.5963 Y38.0320
G01 X97.6057 Y38.0398
G01 X97.6158 Y38.0466
G01 X97.6266 Y38.0523
G01 X97.6379 Y38.0570
G01 X97.6495 Y38.0606
G01 X97.6615 Y38.0630
G01 X97.6798 Y38.0648
G01 X97.6866 Y38.0650
G01 X105.2439 Y38.0650
G01 X105.2493 Y38.0649
G01 X105.2680 Y38.0631
G01 X105.2800 Y38.0607
G01 X105.2917 Y38.0572
G01 X105.3030 Y38.0525
G01 X105.3137 Y38.0468
G01 X105.3239 Y38.0400
G01 X105.3333 Y38.0323
G01 X105.3420 Y38.0237
G01 X105.3498 Y38.0143
G01 X105.3566 Y38.0042
G01 X105.3623 Y37.9934
G01 X105.3670 Y37.9821
G01 X105.3706 Y37.9705
G01 X105.3730 Y37.9585
G01 X105.3748 Y37.9402
G01 X105.3750 Y37.9334
G01 X105.3750 Y30.3861
G01 X105.3749 Y30.3807
G01 X105.3731 Y30.3620
G01 X105.3707 Y30.3500
G01 X105.3672 Y30.3383
G01 X105.3625 Y30.3270
G01 X105.3568 Y30.3163
G01 X105.3500 Y30.3061
G01 X105.3423 Y30.2967
G01 X105.3337 Y30.2880
G01 X105.3243 Y30.2802
G01 X105.3142 Y30.2734
G01 X105.3034 Y30.2677
G01 X105.2921 Y30.2630
G01 X105.2805 Y30.2594
G01 X105.2685 Y30.2570
G01 X105.2502 Y30.2552
G01 X105.2434 Y30.2550
G01 X97.6861 Y30.2550
G01 X97.6807 Y30.2551
G01 X97.6620 Y30.2569
G01 X97.6500 Y30.2593
G01 X97.6383 Y30.2628
G01 X97.6270 Y30.2675
G01 X97.6163 Y30.2732
G01 X97.6061 Y30.2800
G01 X97.5967 Y30.2877
G01 X97.5880 Y30.2963
G01 X97.5802 Y30.3057
G01 X97.5734 Y30.3158
G01 X97.5677 Y30.3266
G01 X97.5630 Y30.3379
G01 X97.5594 Y30.3495
G01 X97.5570 Y30.3615
G01 X97.5551 Y30.3801
G00 X97.5551 Y30.3801
G01 F40.00
G01 Z-1.0000
G01 F80.00
G01 X97.5550 Y37.9339
G01 X97.5551 Y37.9393
G01 X97.5569 Y37.9580
G01 X97.5593 Y37.9700
G01 X97.5628 Y37.9817
G01 X97.5675 Y37.9930
G01 X97.5732 Y38.0037
G01 X97.5800 Y38.0139
G01 X97.5877 Y38.0233
G01 X97.5963 Y38.0320
G01 X97.6057 Y38.0398
G01 X97.6158 Y38.0466
G01 X97.6266 Y38.0523
G01 X97.6379 Y38.0570
G01 X97.6495 Y38.0606
G01 X97.6615 Y38.0630
G01 X97.6798 Y38.0648
G01 X97.6866 Y38.0650
G01 X105.2439 Y38.0650
G01 X105.2493 Y38.0649
G01 X105.2680 Y38.0631
G01 X105.2800 Y38.0607
G01 X105.2917 Y38.0572
G01 X105.3030 Y38.0525
G01 X105.3137 Y38.0468
G01 X105.3239 Y38.0400
G01 X105.3333 Y38.0323
G01 X105.3420 Y38.0237
G01 X105.3498 Y38.0143
G01 X105.3566 Y38.0042
G01 X105.3623 Y37.9934
G01 X105.3670 Y37.9821
G01 X105.3706 Y37.9705
G01 X105.3730 Y37.9585
G01 X105.3748 Y37.9402
G01 X105.3750 Y37.9334
G01 X105.3750 Y30.3861
G01 X105.3749 Y30.3807
G01 X105.3731 Y30.3620
G01 X105.3707 Y30.3500
G01 X105.3672 Y30.3383
G01 X105.3625 Y30.3270
G01 X105.3568 Y30.3163
G01 X105.3500 Y30.3061
G01 X105.3423 Y30.2967
G01 X105.3337 Y30.2880
G01 X105.3243 Y30.2802
G01 X105.3142 Y30.2734
G01 X105.3034 Y30.2677
G01 X105.2921 Y30.2630
G01 X105.2805 Y30.2594
G01 X105.2685 Y30.2570
G01 X105.2502 Y30.2552
G01 X105.2434 Y30.2550
G01 X97.6861 Y30.2550
G01 X97.6807 Y30.2551
G01 X97.6620 Y30.2569
G01 X97.6500 Y30.2593
G01 X97.6383 Y30.2628
G01 X97.6270 Y30.2675
G01 X97.6163 Y30.2732
G01 X97.6061 Y30.2800
G01 X97.5967 Y30.2877
G01 X97.5880 Y30.2963
G01 X97.5802 Y30.3057
G01 X97.5734 Y30.3158
G01 X97.5677 Y30.3266
G01 X97.5630 Y30.3379
G01 X97.5594 Y30.3495
G01 X97.5570 Y30.3615
G01 X97.5551 Y30.3801
G00 X97.5551 Y30.3801
G01 F40.00
G01 Z-1.2000
G01 F80.00
G01 X97.5550 Y37.9339
G01 X97.5551 Y37.9393
G01 X97.5569 Y37.9580
G01 X97.5593 Y37.9700
G01 X97.5628 Y37.9817
G01 X97.5675 Y37.9930
G01 X97.5732 Y38.0037
G01 X97.5800 Y38.0139
G01 X97.5877 Y38.0233
G01 X97.5963 Y38.0320
G01 X97.6057 Y38.0398
G01 X97.6158 Y38.0466
G01 X97.6266 Y38.0523
G01 X97.6379 Y38.0570
G01 X97.6495 Y38.0606
G01 X97.6615 Y38.0630
G01 X97.6798 Y38.0648
G01 X97.6866 Y38.0650
G01 X105.2439 Y38.0650
G01 X105.2493 Y38.0649
G01 X105.2680 Y38.0631
G01 X105.2800 Y38.0607
G01 X105.2917 Y38.0572
G01 X105.3030 Y38.0525
G01 X105.3137 Y38.0468
G01 X105.3239 Y38.0400
G01 X105.3333 Y38.0323
G01 X105.3420 Y38.0237
G01 X105.3498 Y38.0143
G01 X105.3566 Y38.0042
G01 X105.3623 Y37.9934
G01 X105.3670 Y37.9821
G01 X105.3706 Y37.9705
G01 X105.3730 Y37.9585
G01 X105.3748 Y37.9402
G01 X105.3750 Y37.9334
G01 X105.3750 Y30.3861
G01 X105.3749 Y30.3807
G01 X105.3731 Y30.3620
G01 X105.3707 Y30.3500
G01 X105.3672 Y30.3383
G01 X105.3625 Y30.3270
G01 X105.3568 Y30.3163
G01 X105.3500 Y30.3061
G01 X105.3423 Y30.2967
G01 X105.3337 Y30.2880
G01 X105.3243 Y30.2802
G01 X105.3142 Y30.2734
G01 X105.3034 Y30.2677
G01 X105.2921 Y30.2630
G01 X105.2805 Y30.2594
G01 X105.2685 Y30.2570
G01 X105.2502 Y30.2552
G01 X105.2434 Y30.2550
G01 X97.6861 Y30.2550
G01 X97.6807 Y30.2551
G01 X97.6620 Y30.2569
G01 X97.6500 Y30.2593
G01 X97.6383 Y30.2628
G01 X97.6270 Y30.2675
G01 X97.6163 Y30.2732
G01 X97.6061 Y30.2800
G01 X97.5967 Y30.2877
G01 X97.5880 Y30.2963
G01 X97.5802 Y30.3057
G01 X97.5734 Y30.3158
G01 X97.5677 Y30.3266
G01 X97.5630 Y30.3379
G01 X97.5594 Y30.3495
G01 X97.5570 Y30.3615
G01 X97.5551 Y30.3801
G00 X97.5551 Y30.3801
G01 F40.00
G01 Z-1.4000
G01 F80.00
G01 X97.5550 Y37.9339
G01 X97.5551 Y37.9393
G01 X97.5569 Y37.9580
G01 X97.5593 Y37.9700
G01 X97.5628 Y37.9817
G01 X97.5675 Y37.9930
G01 X97.5732 Y38.0037
G01 X97.5800 Y38.0139
G01 X97.5877 Y38.0233
G01 X97.5963 Y38.0320
G01 X97.6057 Y38.0398
G01 X97.6158 Y38.0466
G01 X97.6266 Y38.0523
G01 X97.6379 Y38.0570
G01 X97.6495 Y38.0606
G01 X97.6615 Y38.0630
G01 X97.6798 Y38.0648
G01 X97.6866 Y38.0650
G01 X105.2439 Y38.0650
G01 X105.2493 Y38.0649
G01 X105.2680 Y38.0631
G01 X105.2800 Y38.0607
G01 X105.2917 Y38.0572
G01 X105.3030 Y38.0525
G01 X105.3137 Y38.0468
G01 X105.3239 Y38.0400
G01 X105.3333 Y38.0323
G01 X105.3420 Y38.0237
G01 X105.3498 Y38.0143
G01 X105.3566 Y38.0042
G01 X105.3623 Y37.9934
G01 X105.3670 Y37.9821
G01 X105.3706 Y37.9705
G01 X105.3730 Y37.9585
G01 X105.3748 Y37.9402
G01 X105.3750 Y37.9334
G01 X105.3750 Y30.3861
G01 X105.3749 Y30.3807
G01 X105.3731 Y30.3620
G01 X105.3707 Y30.3500
G01 X105.3672 Y30.3383
G01 X105.3625 Y30.3270
G01 X105.3568 Y30.3163
G01 X105.3500 Y30.3061
G01 X105.3423 Y30.2967
G01 X105.3337 Y30.2880
G01 X105.3243 Y30.2802
G01 X105.3142 Y30.2734
G01 X105.3034 Y30.2677
G01 X105.2921 Y30.2630
G01 X105.2805 Y30.2594
G01 X105.2685 Y30.2570
G01 X105.2502 Y30.2552
G01 X105.2434 Y30.2550
G01 X97.6861 Y30.2550
G01 X97.6807 Y30.2551
G01 X97.6620 Y30.2569
G01 X97.6500 Y30.2593
G01 X97.6383 Y30.2628
G01 X97.6270 Y30.2675
G01 X97.6163 Y30.2732
G01 X97.6061 Y30.2800
G01 X97.5967 Y30.2877
G01 X97.5880 Y30.2963
G01 X97.5802 Y30.3057
G01 X97.5734 Y30.3158
G01 X97.5677 Y30.3266
G01 X97.5630 Y30.3379
G01 X97.5594 Y30.3495
G01 X97.5570 Y30.3615
G01 X97.5551 Y30.3801
G00 X97.5551 Y30.3801
G01 F40.00
G01 Z-1.6000
G01 F80.00
G01 X97.5550 Y37.9339
G01 X97.5551 Y37.9393
G01 X97.5569 Y37.9580
G01 X97.5593 Y37.9700
G01 X97.5628 Y37.9817
G01 X97.5675 Y37.9930
G01 X97.5732 Y38.0037
G01 X97.5800 Y38.0139
G01 X97.5877 Y38.0233
G01 X97.5963 Y38.0320
G01 X97.6057 Y38.0398
G01 X97.6158 Y38.0466
G01 X97.6266 Y38.0523
G01 X97.6379 Y38.0570
G01 X97.6495 Y38.0606
G01 X97.6615 Y38.0630
G01 X97.6798 Y38.0648
G01 X97.6866 Y38.0650
G01 X105.2439 Y38.0650
G01 X105.2493 Y38.0649
G01 X105.2680 Y38.0631
G01 X105.2800 Y38.0607
G01 X105.2917 Y38.0572
G01 X105.3030 Y38.0525
G01 X105.3137 Y38.0468
G01 X105.3239 Y38.0400
G01 X105.3333 Y38.0323
G01 X105.3420 Y38.0237
G01 X105.3498 Y38.0143
G01 X105.3566 Y38.0042
G01 X105.3623 Y37.9934
G01 X105.3670 Y37.9821
G01 X105.3706 Y37.9705
G01 X105.3730 Y37.9585
G01 X105.3748 Y37.9402
G01 X105.3750 Y37.9334
G01 X105.3750 Y30.3861
G01 X105.3749 Y30.3807
G01 X105.3731 Y30.3620
G01 X105.3707 Y30.3500
G01 X105.3672 Y30.3383
G01 X105.3625 Y30.3270
G01 X105.3568 Y30.3163
G01 X105.3500 Y30.3061
G01 X105.3423 Y30.2967
G01 X105.3337 Y30.2880
G01 X105.3243 Y30.2802
G01 X105.3142 Y30.2734
G01 X105.3034 Y30.2677
G01 X105.2921 Y30.2630
G01 X105.2805 Y30.2594
G01 X105.2685 Y30.2570
G01 X105.2502 Y30.2552
G01 X105.2434 Y30.2550
G01 X97.6861 Y30.2550
G01 X97.6807 Y30.2551
G01 X97.6620 Y30.2569
G01 X97.6500 Y30.2593
G01 X97.6383 Y30.2628
G01 X97.6270 Y30.2675
G01 X97.6163 Y30.2732
G01 X97.6061 Y30.2800
G01 X97.5967 Y30.2877
G01 X97.5880 Y30.2963
G01 X97.5802 Y30.3057
G01 X97.5734 Y30.3158
G01 X97.5677 Y30.3266
G01 X97.5630 Y30.3379
G01 X97.5594 Y30.3495
G01 X97.5570 Y30.3615
G01 X97.5551 Y30.3801
G00 X97.5551 Y30.3801
G01 F40.00
G01 Z-1.8000
G01 F80.00
G01 X97.5550 Y37.9339
G01 X97.5551 Y37.9393
G01 X97.5569 Y37.9580
G01 X97.5593 Y37.9700
G01 X97.5628 Y37.9817
G01 X97.5675 Y37.9930
G01 X97.5732 Y38.0037
G01 X97.5800 Y38.0139
G01 X97.5877 Y38.0233
G01 X97.5963 Y38.0320
G01 X97.6057 Y38.0398
G01 X97.6158 Y38.0466
G01 X97.6266 Y38.0523
G01 X97.6379 Y38.0570
G01 X97.6495 Y38.0606
G01 X97.6615 Y38.0630
G01 X97.6798 Y38.0648
G01 X97.6866 Y38.0650
G01 X105.2439 Y38.0650
G01 X105.2493 Y38.0649
G01 X105.2680 Y38.0631
G01 X105.2800 Y38.0607
G01 X105.2917 Y38.0572
G01 X105.3030 Y38.0525
G01 X105.3137 Y38.0468
G01 X105.3239 Y38.0400
G01 X105.3333 Y38.0323
G01 X105.3420 Y38.0237
G01 X105.3498 Y38.0143
G01 X105.3566 Y38.0042
G01 X105.3623 Y37.9934
G01 X105.3670 Y37.9821
G01 X105.3706 Y37.9705
G01 X105.3730 Y37.9585
G01 X105.3748 Y37.9402
G01 X105.3750 Y37.9334
G01 X105.3750 Y30.3861
G01 X105.3749 Y30.3807
G01 X105.3731 Y30.3620
G01 X105.3707 Y30.3500
G01 X105.3672 Y30.3383
G01 X105.3625 Y30.3270
G01 X105.3568 Y30.3163
G01 X105.3500 Y30.3061
G01 X105.3423 Y30.2967
G01 X105.3337 Y30.2880
G01 X105.3243 Y30.2802
G01 X105.3142 Y30.2734
G01 X105.3034 Y30.2677
G01 X105.2921 Y30.2630
G01 X105.2805 Y30.2594
G01 X105.2685 Y30.2570
G01 X105.2502 Y30.2552
G01 X105.2434 Y30.2550
G01 X97.6861 Y30.2550
G01 X97.6807 Y30.2551
G01 X97.6620 Y30.2569
G01 X97.6500 Y30.2593
G01 X97.6383 Y30.2628
G01 X97.6270 Y30.2675
G01 X97.6163 Y30.2732
G01 X97.6061 Y30.2800
G01 X97.5967 Y30.2877
G01 X97.5880 Y30.2963
G01 X97.5802 Y30.3057
G01 X97.5734 Y30.3158
G01 X97.5677 Y30.3266
G01 X97.5630 Y30.3379
G01 X97.5594 Y30.3495
G01 X97.5570 Y30.3615
G01 X97.5551 Y30.3801
G00 X97.5551 Y30.3801
G01 F40.00
G01 Z-2.0000
G01 F80.00
G01 X97.5550 Y37.9339
G01 X97.5551 Y37.9393
G01 X97.5569 Y37.9580
G01 X97.5593 Y37.9700
G01 X97.5628 Y37.9817
G01 X97.5675 Y37.9930
G01 X97.5732 Y38.0037
G01 X97.5800 Y38.0139
G01 X97.5877 Y38.0233
G01 X97.5963 Y38.0320
G01 X97.6057 Y38.0398
G01 X97.6158 Y38.0466
G01 X97.6266 Y38.0523
G01 X97.6379 Y38.0570
G01 X97.6495 Y38.0606
G01 X97.6615 Y38.0630
G01 X97.6798 Y38.0648
G01 X97.6866 Y38.0650
G01 X105.2439 Y38.0650
G01 X105.2493 Y38.0649
G01 X105.2680 Y38.0631
G01 X105.2800 Y38.0607
G01 X105.2917 Y38.0572
G01 X105.3030 Y38.0525
G01 X105.3137 Y38.0468
G01 X105.3239 Y38.0400
G01 X105.3333 Y38.0323
G01 X105.3420 Y38.0237
G01 X105.3498 Y38.0143
G01 X105.3566 Y38.0042
G01 X105.3623 Y37.9934
G01 X105.3670 Y37.9821
G01 X105.3706 Y37.9705
G01 X105.3730 Y37.9585
G01 X105.3748 Y37.9402
G01 X105.3750 Y37.9334
G01 X105.3750 Y30.3861
G01 X105.3749 Y30.3807
G01 X105.3731 Y30.3620
G01 X105.3707 Y30.3500
G01 X105.3672 Y30.3383
G01 X105.3625 Y30.3270
G01 X105.3568 Y30.3163
G01 X105.3500 Y30.3061
G01 X105.3423 Y30.2967
G01 X105.3337 Y30.2880
G01 X105.3243 Y30.2802
G01 X105.3142 Y30.2734
G01 X105.3034 Y30.2677
G01 X105.2921 Y30.2630
G01 X105.2805 Y30.2594
G01 X105.2685 Y30.2570
G01 X105.2502 Y30.2552
G01 X105.2434 Y30.2550
G01 X97.6861 Y30.2550
G01 X97.6807 Y30.2551
G01 X97.6620 Y30.2569
G01 X97.6500 Y30.2593
G01 X97.6383 Y30.2628
G01 X97.6270 Y30.2675
G01 X97.6163 Y30.2732
G01 X97.6061 Y30.2800
G01 X97.5967 Y30.2877
G01 X97.5880 Y30.2963
G01 X97.5802 Y30.3057
G01 X97.5734 Y30.3158
G01 X97.5677 Y30.3266
G01 X97.5630 Y30.3379
G01 X97.5594 Y30.3495
G01 X97.5570 Y30.3615
G01 X97.5551 Y30.3801
G00 X97.5551 Y30.3801
G01 F40.00
G01 Z-2.2000
G01 F80.00
G01 X97.5550 Y37.9339
G01 X97.5551 Y37.9393
G01 X97.5569 Y37.9580
G01 X97.5593 Y37.9700
G01 X97.5628 Y37.9817
G01 X97.5675 Y37.9930
G01 X97.5732 Y38.0037
G01 X97.5800 Y38.0139
G01 X97.5877 Y38.0233
G01 X97.5963 Y38.0320
G01 X97.6057 Y38.0398
G01 X97.6158 Y38.0466
G01 X97.6266 Y38.0523
G01 X97.6379 Y38.0570
G01 X97.6495 Y38.0606
G01 X97.6615 Y38.0630
G01 X97.6798 Y38.0648
G01 X97.6866 Y38.0650
G01 X105.2439 Y38.0650
G01 X105.2493 Y38.0649
G01 X105.2680 Y38.0631
G01 X105.2800 Y38.0607
G01 X105.2917 Y38.0572
G01 X105.3030 Y38.0525
G01 X105.3137 Y38.0468
G01 X105.3239 Y38.0400
G01 X105.3333 Y38.0323
G01 X105.3420 Y38.0237
G01 X105.3498 Y38.0143
G01 X105.3566 Y38.0042
G01 X105.3623 Y37.9934
G01 X105.3670 Y37.9821
G01 X105.3706 Y37.9705
G01 X105.3730 Y37.9585
G01 X105.3748 Y37.9402
G01 X105.3750 Y37.9334
G01 X105.3750 Y30.3861
G01 X105.3749 Y30.3807
G01 X105.3731 Y30.3620
G01 X105.3707 Y30.3500
G01 X105.3672 Y30.3383
G01 X105.3625 Y30.3270
G01 X105.3568 Y30.3163
G01 X105.3500 Y30.3061
G01 X105.3423 Y30.2967
G01 X105.3337 Y30.2880
G01 X105.3243 Y30.2802
G01 X105.3142 Y30.2734
G01 X105.3034 Y30.2677
G01 X105.2921 Y30.2630
G01 X105.2805 Y30.2594
G01 X105.2685 Y30.2570
G01 X105.2502 Y30.2552
G01 X105.2434 Y30.2550
G01 X97.6861 Y30.2550
G01 X97.6807 Y30.2551
G01 X97.6620 Y30.2569
G01 X97.6500 Y30.2593
G01 X97.6383 Y30.2628
G01 X97.6270 Y30.2675
G01 X97.6163 Y30.2732
G01 X97.6061 Y30.2800
G01 X97.5967 Y30.2877
G01 X97.5880 Y30.2963
G01 X97.5802 Y30.3057
G01 X97.5734 Y30.3158
G01 X97.5677 Y30.3266
G01 X97.5630 Y30.3379
G01 X97.5594 Y30.3495
G01 X97.5570 Y30.3615
G01 X97.5551 Y30.3801
G00 Z2.0000
M05
G00 Z2.0000
G00 Z15.00


