(G-CODE GENERATED BY FLATCAM v8.994 - www.flatcam.org - Version Date: 2020/11/7)

(Name: Sensorbox-F_Cu.gbr_iso_combined_cnc)
(Type: G-code from Geometry)
(Units: MM)

(Created on Monday, 05 February 2024 at 10:25)

(This preprocessor is the default preprocessor used by FlatCAM.)
(It is made to work with MACH3 compatible motion controllers.)

(TOOL DIAMETER: 0.2176 mm)
(Feedrate_XY: 80.0 mm/min)
(Feedrate_Z: 40.0 mm/min)
(Feedrate rapids 1500.0 mm/min)

(Z_Cut: -0.0499 mm)
(Z_Move: 2.0 mm)
(Z Start: None mm)
(Z End: 15.0 mm)
(X,Y End: None mm)
(Steps per circle: 64)
(Preprocessor Geometry: default)

(X range:   -0.1083 ...  110.1083  mm)
(Y range:   -0.1083 ...   70.1083  mm)

(Spindle Speed: 20000.0 RPM)
G21
G90
G94

G01 F80.00

M5
G00 Z15.0000
G00 X0.0000 Y0.0000
T2
M6    
(MSG, Change to Tool Dia = 0.2176)
M0
G00 Z15.0000

M03 S20000.0
G01 F80.00
G00 X-0.2099 Y0.0688
G01 F40.00
G01 Z-0.0499
G01 F80.00
G01 X-0.2132 Y0.0833
G01 X-0.2149 Y0.0935
G01 X-0.2166 Y0.1090
G01 X-0.2171 Y0.1239
G01 X-0.2171 Y69.8761
G01 X-0.2166 Y69.8910
G01 X-0.2156 Y69.9013
G01 X-0.2132 Y69.9167
G01 X-0.2099 Y69.9312
G01 X-0.1900 Y70.0042
G01 X-0.1864 Y70.0145
G01 X-0.1823 Y70.0245
G01 X-0.1778 Y70.0344
G01 X-0.1727 Y70.0439
G01 X-0.1671 Y70.0533
G01 X-0.1580 Y70.0667
G01 X-0.1478 Y70.0794
G01 X-0.1405 Y70.0875
G01 X-0.0835 Y70.1442
G01 X-0.0710 Y70.1547
G01 X-0.0623 Y70.1611
G01 X-0.0533 Y70.1671
G01 X-0.0392 Y70.1753
G01 X-0.0295 Y70.1801
G01 X-0.0145 Y70.1864
G01 X0.0010 Y70.1916
G01 X0.0782 Y70.2121
G01 X0.0987 Y70.2156
G01 X0.1090 Y70.2166
G01 X0.1239 Y70.2171
G01 X109.8761 Y70.2171
G01 X109.8910 Y70.2166
G01 X109.9013 Y70.2156
G01 X109.9167 Y70.2132
G01 X109.9312 Y70.2099
G01 X110.0042 Y70.1900
G01 X110.0145 Y70.1864
G01 X110.0245 Y70.1823
G01 X110.0344 Y70.1778
G01 X110.0439 Y70.1727
G01 X110.0533 Y70.1671
G01 X110.0667 Y70.1580
G01 X110.0753 Y70.1513
G01 X110.0875 Y70.1405
G01 X110.1442 Y70.0835
G01 X110.1547 Y70.0710
G01 X110.1611 Y70.0623
G01 X110.1671 Y70.0533
G01 X110.1753 Y70.0392
G01 X110.1823 Y70.0245
G01 X110.1883 Y70.0094
G01 X110.1916 Y69.9990
G01 X110.2121 Y69.9218
G01 X110.2156 Y69.9013
G01 X110.2166 Y69.8910
G01 X110.2171 Y69.8761
G01 X110.2171 Y0.1239
G01 X110.2166 Y0.1090
G01 X110.2156 Y0.0987
G01 X110.2132 Y0.0833
G01 X110.2099 Y0.0688
G01 X110.1900 Y-0.0042
G01 X110.1864 Y-0.0145
G01 X110.1823 Y-0.0245
G01 X110.1778 Y-0.0344
G01 X110.1727 Y-0.0439
G01 X110.1671 Y-0.0533
G01 X110.1580 Y-0.0667
G01 X110.1478 Y-0.0794
G01 X110.1405 Y-0.0875
G01 X110.0835 Y-0.1442
G01 X110.0710 Y-0.1547
G01 X110.0623 Y-0.1611
G01 X110.0533 Y-0.1671
G01 X110.0392 Y-0.1753
G01 X110.0245 Y-0.1823
G01 X110.0145 Y-0.1864
G01 X109.9990 Y-0.1916
G01 X109.9218 Y-0.2121
G01 X109.9013 Y-0.2156
G01 X109.8910 Y-0.2166
G01 X109.8761 Y-0.2171
G01 X0.1239 Y-0.2171
G01 X0.1090 Y-0.2166
G01 X0.0987 Y-0.2156
G01 X0.0782 Y-0.2121
G01 X0.0055 Y-0.1929
G01 X-0.0094 Y-0.1883
G01 X-0.0245 Y-0.1823
G01 X-0.0344 Y-0.1778
G01 X-0.0439 Y-0.1727
G01 X-0.0533 Y-0.1671
G01 X-0.0623 Y-0.1611
G01 X-0.0710 Y-0.1547
G01 X-0.0794 Y-0.1478
G01 X-0.0909 Y-0.1372
G01 X-0.1442 Y-0.0835
G01 X-0.1513 Y-0.0753
G01 X-0.1580 Y-0.0667
G01 X-0.1642 Y-0.0578
G01 X-0.1700 Y-0.0486
G01 X-0.1753 Y-0.0392
G01 X-0.1801 Y-0.0295
G01 X-0.1844 Y-0.0195
G01 X-0.1883 Y-0.0094
G01 X-0.1929 Y0.0055
G01 X-0.2099 Y0.0688
G00 Z2.0000
G00 X3.1458 Y4.9322
G01 F40.00
G01 Z-0.0499
G01 F80.00
G01 X3.1557 Y5.2029
G01 X3.2049 Y5.4693
G01 X3.2923 Y5.7257
G01 X3.4162 Y5.9666
G01 X3.5738 Y6.1869
G01 X3.7618 Y6.3819
G01 X3.9762 Y6.5474
G01 X4.2124 Y6.6800
G01 X4.4655 Y6.7768
G01 X4.7298 Y6.8357
G01 X4.9324 Y6.8505
G01 X5.1354 Y6.8505
G01 X5.4034 Y6.8111
G01 X5.6628 Y6.7330
G01 X5.9081 Y6.6180
G01 X6.1340 Y6.4686
G01 X6.3357 Y6.2878
G01 X6.5090 Y6.0796
G01 X6.6501 Y5.8484
G01 X6.7561 Y5.5991
G01 X6.8246 Y5.3370
G01 X6.8542 Y5.0678
G01 X6.8443 Y4.7971
G01 X6.7951 Y4.5307
G01 X6.7077 Y4.2743
G01 X6.5838 Y4.0334
G01 X6.4262 Y3.8131
G01 X6.2382 Y3.6181
G01 X6.0238 Y3.4526
G01 X5.7876 Y3.3200
G01 X5.5346 Y3.2232
G01 X5.2702 Y3.1643
G01 X5.0676 Y3.1495
G01 X4.8646 Y3.1495
G01 X4.5966 Y3.1889
G01 X4.3372 Y3.2670
G01 X4.0919 Y3.3820
G01 X3.8660 Y3.5314
G01 X3.6643 Y3.7122
G01 X3.4910 Y3.9204
G01 X3.3499 Y4.1516
G01 X3.3314 Y4.1951
G01 X3.2439 Y4.4009
G01 X3.1754 Y4.6630
G01 X3.1458 Y4.9322
G00 Z2.0000
G00 X6.4824 Y17.0900
G01 F40.00
G01 Z-0.0499
G01 F80.00
G01 X6.4821 Y49.2007
G01 X6.4849 Y49.2604
G01 X6.4856 Y49.2704
G01 X6.4868 Y49.2803
G01 X6.4959 Y49.3400
G01 X6.5104 Y49.3987
G01 X6.5131 Y49.4084
G01 X6.5162 Y49.4179
G01 X6.5368 Y49.4747
G01 X6.5624 Y49.5295
G01 X6.5669 Y49.5384
G01 X6.5978 Y49.5904
G01 X6.6031 Y49.5988
G01 X6.6089 Y49.6070
G01 X6.6451 Y49.6554
G01 X6.6887 Y49.7038
G01 X8.5962 Y51.6113
G01 X8.6446 Y51.6549
G01 X8.6930 Y51.6911
G01 X8.7096 Y51.7022
G01 X8.7616 Y51.7331
G01 X8.7705 Y51.7376
G01 X8.8253 Y51.7632
G01 X8.8821 Y51.7838
G01 X8.8967 Y51.7884
G01 X8.9502 Y51.8019
G01 X8.9698 Y51.8058
G01 X9.0296 Y51.8144
G01 X9.0396 Y51.8151
G01 X9.0993 Y51.8179
G01 X21.1007 Y51.8179
G01 X21.1604 Y51.8151
G01 X21.1704 Y51.8144
G01 X21.2302 Y51.8058
G01 X21.2453 Y51.8030
G01 X21.2987 Y51.7896
G01 X21.3179 Y51.7838
G01 X21.3747 Y51.7632
G01 X21.4337 Y51.7356
G01 X21.4471 Y51.7282
G01 X21.4904 Y51.7022
G01 X21.5070 Y51.6911
G01 X21.5554 Y51.6549
G01 X21.6004 Y51.6145
G01 X23.2173 Y49.9979
G01 X27.8171 Y49.9979
G01 X27.8252 Y50.0096
G01 X27.8318 Y50.0180
G01 X27.8388 Y50.0261
G01 X27.8499 Y50.0376
G01 X27.8579 Y50.0448
G01 X27.8704 Y50.0548
G01 X27.8791 Y50.0609
G01 X27.8927 Y50.0693
G01 X27.9070 Y50.0767
G01 X27.9167 Y50.0810
G01 X27.9267 Y50.0849
G01 X27.9420 Y50.0897
G01 X27.9523 Y50.0923
G01 X27.9628 Y50.0944
G01 X27.9734 Y50.0960
G01 X27.9893 Y50.0973
G01 X27.9993 Y50.0976
G01 X30.0007 Y50.0976
G01 X30.0213 Y50.0966
G01 X30.0372 Y50.0944
G01 X30.0529 Y50.0911
G01 X30.0632 Y50.0882
G01 X30.0733 Y50.0849
G01 X30.0882 Y50.0789
G01 X30.1026 Y50.0719
G01 X30.1164 Y50.0638
G01 X30.1296 Y50.0548
G01 X30.1421 Y50.0448
G01 X30.1539 Y50.0339
G01 X30.1648 Y50.0221
G01 X30.1715 Y50.0139
G01 X30.1779 Y50.0053
G01 X30.1866 Y49.9919
G01 X30.1944 Y49.9778
G01 X30.2010 Y49.9633
G01 X30.2066 Y49.9483
G01 X30.2111 Y49.9329
G01 X30.2144 Y49.9172
G01 X30.2166 Y49.9013
G01 X30.2176 Y49.8807
G01 X30.2176 Y48.6793
G01 X30.2166 Y48.6587
G01 X30.2144 Y48.6428
G01 X30.2123 Y48.6323
G01 X30.2097 Y48.6220
G01 X30.2049 Y48.6067
G01 X30.1989 Y48.5918
G01 X30.1919 Y48.5774
G01 X30.1838 Y48.5636
G01 X30.1748 Y48.5504
G01 X30.1648 Y48.5379
G01 X30.1539 Y48.5261
G01 X30.1421 Y48.5152
G01 X30.1339 Y48.5084
G01 X30.1253 Y48.5021
G01 X30.1119 Y48.4934
G01 X30.0978 Y48.4856
G01 X30.0833 Y48.4790
G01 X30.0683 Y48.4734
G01 X30.0529 Y48.4689
G01 X30.0372 Y48.4656
G01 X30.0213 Y48.4634
G01 X30.0007 Y48.4624
G01 X27.9993 Y48.4624
G01 X27.9893 Y48.4627
G01 X27.9787 Y48.4634
G01 X27.9681 Y48.4647
G01 X27.9575 Y48.4666
G01 X27.9420 Y48.4703
G01 X27.9317 Y48.4734
G01 X27.9167 Y48.4790
G01 X27.9022 Y48.4856
G01 X27.8927 Y48.4907
G01 X27.8791 Y48.4991
G01 X27.8704 Y48.5052
G01 X27.8579 Y48.5152
G01 X27.8499 Y48.5224
G01 X27.8388 Y48.5339
G01 X27.8318 Y48.5419
G01 X27.8252 Y48.5504
G01 X27.8171 Y48.5621
G01 X22.9193 Y48.5621
G01 X22.8596 Y48.5649
G01 X22.8496 Y48.5656
G01 X22.8397 Y48.5668
G01 X22.7800 Y48.5759
G01 X22.7213 Y48.5904
G01 X22.7021 Y48.5962
G01 X22.6453 Y48.6168
G01 X22.5905 Y48.6424
G01 X22.5816 Y48.6469
G01 X22.5296 Y48.6778
G01 X22.5130 Y48.6889
G01 X22.4646 Y48.7251
G01 X22.4196 Y48.7655
G01 X20.8027 Y50.3821
G01 X9.3973 Y50.3821
G01 X7.9179 Y48.9027
G01 X7.9179 Y17.3973
G01 X9.8973 Y15.4179
G01 X17.5053 Y15.4178
G01 X17.5704 Y15.4144
G01 X17.6302 Y15.4058
G01 X17.6453 Y15.4030
G01 X17.6987 Y15.3896
G01 X17.7179 Y15.3838
G01 X17.7747 Y15.3632
G01 X17.8295 Y15.3376
G01 X17.8384 Y15.3331
G01 X17.8904 Y15.3022
G01 X17.8988 Y15.2969
G01 X17.9512 Y15.2582
G01 X17.9630 Y15.2484
G01 X18.0071 Y15.2081
G01 X20.0113 Y13.2038
G01 X20.0549 Y13.1554
G01 X20.0911 Y13.1070
G01 X20.0969 Y13.0988
G01 X20.1022 Y13.0904
G01 X20.1331 Y13.0384
G01 X20.1611 Y12.9796
G01 X20.1668 Y12.9654
G01 X20.1869 Y12.9084
G01 X20.1896 Y12.8987
G01 X20.2041 Y12.8400
G01 X20.2132 Y12.7803
G01 X20.2144 Y12.7704
G01 X20.2151 Y12.7604
G01 X20.2179 Y12.7007
G01 X20.2179 Y7.8973
G01 X22.1973 Y5.9179
G01 X71.9027 Y5.9179
G01 X72.8421 Y6.8573
G01 X72.8421 Y19.5980
G01 X72.7954 Y19.6326
G01 X72.7835 Y19.6422
G01 X72.7028 Y19.7153
G01 X72.6921 Y19.7263
G01 X72.6253 Y19.8000
G01 X72.6154 Y19.8117
G01 X72.5534 Y19.8953
G01 X72.5422 Y19.9120
G01 X72.4862 Y20.0060
G01 X72.4372 Y20.1091
G01 X72.4315 Y20.1234
G01 X72.3980 Y20.2170
G01 X72.3921 Y20.2362
G01 X72.3658 Y20.3425
G01 X72.3495 Y20.4507
G01 X72.3475 Y20.4706
G01 X72.3424 Y20.5800
G01 X72.3475 Y20.6894
G01 X72.3488 Y20.7047
G01 X72.3658 Y20.8175
G01 X72.3921 Y20.9238
G01 X72.3948 Y20.9335
G01 X72.3980 Y20.9430
G01 X72.4351 Y21.0460
G01 X72.4391 Y21.0551
G01 X72.4862 Y21.1540
G01 X72.5422 Y21.2480
G01 X72.5476 Y21.2565
G01 X72.5534 Y21.2647
G01 X72.6188 Y21.3524
G01 X72.6921 Y21.4337
G01 X72.6990 Y21.4410
G01 X72.7063 Y21.4479
G01 X72.7876 Y21.5212
G01 X72.8753 Y21.5866
G01 X72.8835 Y21.5924
G01 X72.8920 Y21.5978
G01 X72.9860 Y21.6538
G01 X73.0849 Y21.7009
G01 X73.0940 Y21.7049
G01 X73.1034 Y21.7085
G01 X73.2065 Y21.7452
G01 X73.2162 Y21.7479
G01 X73.3225 Y21.7742
G01 X73.4307 Y21.7905
G01 X73.4407 Y21.7917
G01 X73.4506 Y21.7925
G01 X73.5600 Y21.7976
G01 X73.6694 Y21.7925
G01 X73.6893 Y21.7905
G01 X73.7975 Y21.7742
G01 X73.9038 Y21.7479
G01 X73.9135 Y21.7452
G01 X73.9230 Y21.7420
G01 X74.0260 Y21.7049
G01 X74.1250 Y21.6583
G01 X74.1427 Y21.6489
G01 X74.2365 Y21.5924
G01 X74.3246 Y21.5274
G01 X74.3400 Y21.5147
G01 X74.4137 Y21.4479
G01 X74.4279 Y21.4337
G01 X74.5012 Y21.3524
G01 X74.5666 Y21.2647
G01 X74.5724 Y21.2565
G01 X74.5778 Y21.2480
G01 X74.6338 Y21.1540
G01 X74.6809 Y21.0551
G01 X74.6849 Y21.0460
G01 X74.6885 Y21.0366
G01 X74.7252 Y20.9335
G01 X74.7279 Y20.9238
G01 X74.7542 Y20.8175
G01 X74.7705 Y20.7093
G01 X74.7717 Y20.6993
G01 X74.7774 Y20.5900
G01 X74.7774 Y20.5700
G01 X74.7717 Y20.4607
G01 X74.7559 Y20.3523
G01 X74.7520 Y20.3327
G01 X74.7252 Y20.2265
G01 X74.6885 Y20.1234
G01 X74.6809 Y20.1049
G01 X74.6363 Y20.0108
G01 X74.6289 Y19.9973
G01 X74.5724 Y19.9035
G01 X74.5074 Y19.8154
G01 X74.4978 Y19.8035
G01 X74.4279 Y19.7263
G01 X74.4172 Y19.7153
G01 X74.3365 Y19.6422
G01 X74.3246 Y19.6326
G01 X74.2779 Y19.5980
G01 X74.2779 Y6.5593
G01 X74.2751 Y6.4996
G01 X74.2744 Y6.4896
G01 X74.2658 Y6.4298
G01 X74.2619 Y6.4102
G01 X74.2496 Y6.3613
G01 X74.2453 Y6.3465
G01 X74.2232 Y6.2853
G01 X74.1976 Y6.2305
G01 X74.1882 Y6.2129
G01 X74.1569 Y6.1612
G01 X74.1211 Y6.1125
G01 X74.1084 Y6.0970
G01 X74.0681 Y6.0529
G01 X72.7038 Y4.6887
G01 X72.6554 Y4.6451
G01 X72.6070 Y4.6089
G01 X72.5988 Y4.6031
G01 X72.5904 Y4.5978
G01 X72.5384 Y4.5669
G01 X72.4839 Y4.5408
G01 X72.4747 Y4.5368
G01 X72.4654 Y4.5332
G01 X72.4084 Y4.5131
G01 X72.3498 Y4.4981
G01 X72.3400 Y4.4959
G01 X72.2803 Y4.4868
G01 X72.2704 Y4.4856
G01 X72.2100 Y4.4824
G01 X21.8993 Y4.4821
G01 X21.8396 Y4.4849
G01 X21.8296 Y4.4856
G01 X21.7698 Y4.4942
G01 X21.7547 Y4.4970
G01 X21.7013 Y4.5104
G01 X21.6821 Y4.5162
G01 X21.6253 Y4.5368
G01 X21.5705 Y4.5624
G01 X21.5616 Y4.5669
G01 X21.5096 Y4.5978
G01 X21.4930 Y4.6089
G01 X21.4446 Y4.6451
G01 X21.3962 Y4.6887
G01 X18.9919 Y7.0929
G01 X18.9516 Y7.1370
G01 X18.9451 Y7.1446
G01 X18.9089 Y7.1930
G01 X18.8978 Y7.2096
G01 X18.8695 Y7.2569
G01 X18.8624 Y7.2705
G01 X18.8389 Y7.3204
G01 X18.8332 Y7.3346
G01 X18.8131 Y7.3916
G01 X18.7981 Y7.4502
G01 X18.7942 Y7.4698
G01 X18.7856 Y7.5296
G01 X18.7822 Y7.5947
G01 X18.7821 Y12.4027
G01 X17.2027 Y13.9821
G01 X9.5993 Y13.9821
G01 X9.5396 Y13.9849
G01 X9.5197 Y13.9868
G01 X9.4600 Y13.9959
G01 X9.3967 Y14.0116
G01 X9.3821 Y14.0162
G01 X9.3253 Y14.0368
G01 X9.2705 Y14.0624
G01 X9.2529 Y14.0718
G01 X9.2012 Y14.1031
G01 X9.1525 Y14.1389
G01 X9.1405 Y14.1485
G01 X9.0962 Y14.1887
G01 X6.6887 Y16.5962
G01 X6.6451 Y16.6446
G01 X6.6089 Y16.6930
G01 X6.6031 Y16.7012
G01 X6.5978 Y16.7096
G01 X6.5669 Y16.7616
G01 X6.5624 Y16.7705
G01 X6.5368 Y16.8253
G01 X6.5332 Y16.8346
G01 X6.5131 Y16.8916
G01 X6.4981 Y16.9502
G01 X6.4959 Y16.9600
G01 X6.4868 Y17.0197
G01 X6.4856 Y17.0296
G01 X6.4824 Y17.0900
G00 Z2.0000
G00 X8.1824 Y34.0900
G01 F40.00
G01 Z-0.0499
G01 F80.00
G01 X8.1821 Y48.4007
G01 X8.1849 Y48.4604
G01 X8.1856 Y48.4704
G01 X8.1942 Y48.5302
G01 X8.1970 Y48.5453
G01 X8.2104 Y48.5987
G01 X8.2162 Y48.6179
G01 X8.2368 Y48.6747
G01 X8.2624 Y48.7295
G01 X8.2669 Y48.7384
G01 X8.2978 Y48.7904
G01 X8.3031 Y48.7988
G01 X8.3389 Y48.8475
G01 X8.3516 Y48.8630
G01 X8.3919 Y48.9071
G01 X9.5929 Y50.1081
G01 X9.6405 Y50.1515
G01 X9.6525 Y50.1611
G01 X9.6930 Y50.1911
G01 X9.7096 Y50.2022
G01 X9.7616 Y50.2331
G01 X9.7705 Y50.2376
G01 X9.8253 Y50.2632
G01 X9.8821 Y50.2838
G01 X9.9013 Y50.2896
G01 X9.9600 Y50.3041
G01 X10.0243 Y50.3138
G01 X10.0396 Y50.3151
G01 X10.0993 Y50.3179
G01 X20.4053 Y50.3178
G01 X20.4704 Y50.3144
G01 X20.4803 Y50.3132
G01 X20.5400 Y50.3041
G01 X20.5987 Y50.2896
G01 X20.6084 Y50.2869
G01 X20.6654 Y50.2668
G01 X20.6796 Y50.2611
G01 X20.7337 Y50.2356
G01 X20.7471 Y50.2282
G01 X20.7904 Y50.2022
G01 X20.8070 Y50.1911
G01 X20.8512 Y50.1582
G01 X20.8630 Y50.1484
G01 X20.9071 Y50.1081
G01 X23.0173 Y47.9979
G01 X27.8171 Y47.9979
G01 X27.8252 Y48.0096
G01 X27.8318 Y48.0180
G01 X27.8388 Y48.0261
G01 X27.8499 Y48.0376
G01 X27.8579 Y48.0448
G01 X27.8704 Y48.0548
G01 X27.8791 Y48.0609
G01 X27.8927 Y48.0693
G01 X27.9070 Y48.0767
G01 X27.9167 Y48.0810
G01 X27.9267 Y48.0849
G01 X27.9420 Y48.0897
G01 X27.9523 Y48.0923
G01 X27.9628 Y48.0944
G01 X27.9734 Y48.0960
G01 X27.9893 Y48.0973
G01 X27.9993 Y48.0976
G01 X30.0007 Y48.0976
G01 X30.0213 Y48.0966
G01 X30.0319 Y48.0953
G01 X30.0425 Y48.0934
G01 X30.0529 Y48.0911
G01 X30.0632 Y48.0882
G01 X30.0783 Y48.0830
G01 X30.0930 Y48.0767
G01 X30.1073 Y48.0693
G01 X30.1209 Y48.0609
G01 X30.1296 Y48.0548
G01 X30.1421 Y48.0448
G01 X30.1539 Y48.0339
G01 X30.1648 Y48.0221
G01 X30.1748 Y48.0096
G01 X30.1838 Y47.9964
G01 X30.1919 Y47.9826
G01 X30.1989 Y47.9682
G01 X30.2049 Y47.9533
G01 X30.2097 Y47.9380
G01 X30.2123 Y47.9277
G01 X30.2153 Y47.9119
G01 X30.2170 Y47.8960
G01 X30.2176 Y47.8807
G01 X30.2176 Y46.6793
G01 X30.2166 Y46.6587
G01 X30.2153 Y46.6481
G01 X30.2134 Y46.6375
G01 X30.2097 Y46.6220
G01 X30.2066 Y46.6117
G01 X30.2030 Y46.6017
G01 X30.1967 Y46.5870
G01 X30.1893 Y46.5727
G01 X30.1809 Y46.5591
G01 X30.1715 Y46.5461
G01 X30.1612 Y46.5339
G01 X30.1500 Y46.5224
G01 X30.1380 Y46.5118
G01 X30.1253 Y46.5021
G01 X30.1119 Y46.4934
G01 X30.0978 Y46.4856
G01 X30.0833 Y46.4790
G01 X30.0683 Y46.4734
G01 X30.0529 Y46.4689
G01 X30.0372 Y46.4656
G01 X30.0213 Y46.4634
G01 X30.0007 Y46.4624
G01 X27.9993 Y46.4624
G01 X27.9893 Y46.4627
G01 X27.9787 Y46.4634
G01 X27.9681 Y46.4647
G01 X27.9575 Y46.4666
G01 X27.9420 Y46.4703
G01 X27.9317 Y46.4734
G01 X27.9167 Y46.4790
G01 X27.9022 Y46.4856
G01 X27.8927 Y46.4907
G01 X27.8791 Y46.4991
G01 X27.8704 Y46.5052
G01 X27.8579 Y46.5152
G01 X27.8499 Y46.5224
G01 X27.8388 Y46.5339
G01 X27.8318 Y46.5419
G01 X27.8252 Y46.5504
G01 X27.8171 Y46.5621
G01 X22.7193 Y46.5621
G01 X22.6596 Y46.5649
G01 X22.6496 Y46.5656
G01 X22.5898 Y46.5742
G01 X22.5747 Y46.5770
G01 X22.5116 Y46.5931
G01 X22.4546 Y46.6132
G01 X22.4361 Y46.6208
G01 X22.3816 Y46.6469
G01 X22.3296 Y46.6778
G01 X22.3130 Y46.6889
G01 X22.2646 Y46.7251
G01 X22.2162 Y46.7687
G01 X20.1027 Y48.8821
G01 X10.3973 Y48.8821
G01 X9.6179 Y48.1027
G01 X9.6179 Y34.3973
G01 X10.1639 Y33.8513
G01 X47.7967 Y33.8513
G01 X47.8627 Y33.9238
G01 X47.9364 Y33.9909
G01 X47.9518 Y34.0036
G01 X48.0239 Y34.0570
G01 X48.0405 Y34.0681
G01 X48.1261 Y34.1191
G01 X48.2161 Y34.1620
G01 X48.2346 Y34.1696
G01 X48.3285 Y34.2030
G01 X48.3382 Y34.2056
G01 X48.4349 Y34.2296
G01 X48.5335 Y34.2445
G01 X48.5434 Y34.2457
G01 X48.6429 Y34.2509
G01 X48.6583 Y34.2510
G01 X48.7625 Y34.2457
G01 X48.7724 Y34.2445
G01 X48.8710 Y34.2296
G01 X48.9677 Y34.2056
G01 X48.9774 Y34.2030
G01 X48.9869 Y34.1998
G01 X49.0806 Y34.1660
G01 X49.1709 Y34.1236
G01 X49.1798 Y34.1191
G01 X49.1885 Y34.1142
G01 X49.2739 Y34.0627
G01 X49.3541 Y34.0036
G01 X49.3620 Y33.9974
G01 X49.3695 Y33.9909
G01 X49.4432 Y33.9238
G01 X49.5103 Y33.8501
G01 X49.5169 Y33.8425
G01 X49.5230 Y33.8346
G01 X49.5822 Y33.7544
G01 X49.6337 Y33.6690
G01 X49.6386 Y33.6603
G01 X49.6431 Y33.6514
G01 X49.6855 Y33.5612
G01 X49.7193 Y33.4674
G01 X49.7224 Y33.4579
G01 X49.7469 Y33.3613
G01 X49.7491 Y33.3515
G01 X49.7640 Y33.2530
G01 X49.7652 Y33.2430
G01 X49.7703 Y33.1435
G01 X49.7705 Y33.1281
G01 X49.7652 Y33.0239
G01 X49.7640 Y33.0140
G01 X49.7491 Y32.9155
G01 X49.7251 Y32.8187
G01 X49.7224 Y32.8091
G01 X49.7193 Y32.7996
G01 X49.6855 Y32.7058
G01 X49.6431 Y32.6156
G01 X49.6386 Y32.6066
G01 X49.6337 Y32.5979
G01 X49.5822 Y32.5126
G01 X49.5230 Y32.4324
G01 X49.5169 Y32.4245
G01 X49.5103 Y32.4169
G01 X49.4432 Y32.3432
G01 X49.3695 Y32.2761
G01 X49.3620 Y32.2696
G01 X49.2821 Y32.2100
G01 X49.2739 Y32.2042
G01 X49.1885 Y32.1528
G01 X49.1798 Y32.1478
G01 X49.1709 Y32.1433
G01 X49.0806 Y32.1009
G01 X48.9869 Y32.0671
G01 X48.9774 Y32.0640
G01 X48.8808 Y32.0395
G01 X48.8710 Y32.0374
G01 X48.7724 Y32.0225
G01 X48.7625 Y32.0213
G01 X48.6583 Y32.0159
G01 X48.6429 Y32.0161
G01 X48.5434 Y32.0213
G01 X48.5335 Y32.0225
G01 X48.4349 Y32.0374
G01 X48.3382 Y32.0613
G01 X48.3285 Y32.0640
G01 X48.2346 Y32.0973
G01 X48.2161 Y32.1050
G01 X48.1261 Y32.1478
G01 X48.0405 Y32.1989
G01 X48.0239 Y32.2100
G01 X47.9518 Y32.2634
G01 X47.9364 Y32.2761
G01 X47.8627 Y32.3432
G01 X47.7967 Y32.4156
G01 X9.8612 Y32.4157
G01 X9.7962 Y32.4191
G01 X9.7862 Y32.4203
G01 X9.7265 Y32.4294
G01 X9.6678 Y32.4439
G01 X9.6581 Y32.4465
G01 X9.6486 Y32.4497
G01 X9.5918 Y32.4703
G01 X9.5371 Y32.4959
G01 X9.5281 Y32.5004
G01 X9.4761 Y32.5312
G01 X9.4677 Y32.5366
G01 X9.4595 Y32.5424
G01 X9.4111 Y32.5786
G01 X9.4035 Y32.5851
G01 X9.3594 Y32.6254
G01 X8.3919 Y33.5929
G01 X8.3516 Y33.6370
G01 X8.3451 Y33.6446
G01 X8.3089 Y33.6930
G01 X8.3031 Y33.7012
G01 X8.2718 Y33.7529
G01 X8.2644 Y33.7663
G01 X8.2408 Y33.8161
G01 X8.2332 Y33.8346
G01 X8.2131 Y33.8916
G01 X8.1981 Y33.9502
G01 X8.1959 Y33.9600
G01 X8.1868 Y34.0197
G01 X8.1856 Y34.0296
G01 X8.1824 Y34.0900
G00 Z2.0000
G00 X10.5168 Y46.7605
G01 F40.00
G01 Z-0.0499
G01 F80.00
G01 X11.0168 Y46.7605
G01 X11.0168 Y46.0105
G01 X11.7668 Y46.0105
G01 X11.7668 Y45.5105
G01 X10.9723 Y45.5105
G01 X10.9657 Y45.5109
G01 X10.9171 Y45.5161
G01 X10.9022 Y45.5196
G01 X10.7830 Y45.5641
G01 X10.7676 Y45.5725
G01 X10.6667 Y45.6480
G01 X10.6543 Y45.6604
G01 X10.5788 Y45.7613
G01 X10.5704 Y45.7767
G01 X10.5259 Y45.8959
G01 X10.5224 Y45.9109
G01 X10.5172 Y45.9594
G01 X10.5168 Y45.9660
G01 X10.5168 Y46.7605
G00 Z2.0000
G00 X13.3963 Y46.8812
G01 F40.00
G01 Z-0.0499
G01 F80.00
G01 X13.3943 Y46.9012
G01 X13.3892 Y47.0105
G01 X13.3943 Y47.1199
G01 X13.3951 Y47.1299
G01 X13.3963 Y47.1398
G01 X13.4126 Y47.2481
G01 X13.4390 Y47.3543
G01 X13.4448 Y47.3735
G01 X13.4783 Y47.4671
G01 X13.4859 Y47.4856
G01 X13.5330 Y47.5845
G01 X13.5890 Y47.6785
G01 X13.6002 Y47.6952
G01 X13.6656 Y47.7830
G01 X13.7389 Y47.8643
G01 X13.7458 Y47.8715
G01 X13.7531 Y47.8784
G01 X13.8344 Y47.9517
G01 X13.9222 Y48.0172
G01 X13.9388 Y48.0283
G01 X14.0328 Y48.0844
G01 X14.1317 Y48.1314
G01 X14.1502 Y48.1391
G01 X14.2439 Y48.1726
G01 X14.2630 Y48.1784
G01 X14.3693 Y48.2047
G01 X14.4775 Y48.2211
G01 X14.4875 Y48.2223
G01 X14.4975 Y48.2230
G01 X14.6068 Y48.2281
G01 X14.7162 Y48.2230
G01 X14.7315 Y48.2217
G01 X14.8444 Y48.2047
G01 X14.9506 Y48.1784
G01 X14.9603 Y48.1757
G01 X14.9698 Y48.1726
G01 X15.0728 Y48.1354
G01 X15.0819 Y48.1314
G01 X15.1808 Y48.0844
G01 X15.2748 Y48.0283
G01 X15.2833 Y48.0229
G01 X15.2915 Y48.0172
G01 X15.3793 Y47.9517
G01 X15.4605 Y47.8784
G01 X15.4678 Y47.8715
G01 X15.5446 Y47.7871
G01 X15.5542 Y47.7751
G01 X15.6192 Y47.6870
G01 X15.6246 Y47.6785
G01 X15.6807 Y47.5845
G01 X15.7277 Y47.4856
G01 X15.7317 Y47.4765
G01 X15.7689 Y47.3735
G01 X15.7735 Y47.3588
G01 X15.8010 Y47.2481
G01 X15.8173 Y47.1398
G01 X15.8190 Y47.1245
G01 X15.8242 Y47.0205
G01 X15.8244 Y47.0052
G01 X15.8190 Y46.8965
G01 X15.8173 Y46.8812
G01 X15.8088 Y46.8237
G01 X16.6347 Y45.9979
G01 X27.8171 Y45.9979
G01 X27.8252 Y46.0096
G01 X27.8318 Y46.0180
G01 X27.8388 Y46.0261
G01 X27.8499 Y46.0376
G01 X27.8579 Y46.0448
G01 X27.8704 Y46.0548
G01 X27.8791 Y46.0609
G01 X27.8927 Y46.0693
G01 X27.9070 Y46.0767
G01 X27.9167 Y46.0810
G01 X27.9267 Y46.0849
G01 X27.9420 Y46.0897
G01 X27.9523 Y46.0923
G01 X27.9628 Y46.0944
G01 X27.9734 Y46.0960
G01 X27.9893 Y46.0973
G01 X27.9993 Y46.0976
G01 X30.0007 Y46.0976
G01 X30.0213 Y46.0966
G01 X30.0319 Y46.0953
G01 X30.0425 Y46.0934
G01 X30.0580 Y46.0897
G01 X30.0733 Y46.0849
G01 X30.0833 Y46.0810
G01 X30.0930 Y46.0767
G01 X30.1073 Y46.0693
G01 X30.1164 Y46.0638
G01 X30.1253 Y46.0579
G01 X30.1380 Y46.0482
G01 X30.1461 Y46.0412
G01 X30.1539 Y46.0339
G01 X30.1648 Y46.0221
G01 X30.1715 Y46.0139
G01 X30.1779 Y46.0053
G01 X30.1866 Y45.9919
G01 X30.1944 Y45.9778
G01 X30.2010 Y45.9633
G01 X30.2049 Y45.9533
G01 X30.2082 Y45.9432
G01 X30.2123 Y45.9277
G01 X30.2144 Y45.9172
G01 X30.2160 Y45.9066
G01 X30.2170 Y45.8960
G01 X30.2176 Y45.8807
G01 X30.2176 Y44.6793
G01 X30.2170 Y44.6640
G01 X30.2160 Y44.6534
G01 X30.2134 Y44.6375
G01 X30.2111 Y44.6271
G01 X30.2082 Y44.6168
G01 X30.2049 Y44.6067
G01 X30.2010 Y44.5967
G01 X30.1967 Y44.5870
G01 X30.1919 Y44.5774
G01 X30.1866 Y44.5681
G01 X30.1809 Y44.5591
G01 X30.1715 Y44.5461
G01 X30.1648 Y44.5379
G01 X30.1576 Y44.5299
G01 X30.1461 Y44.5188
G01 X30.1380 Y44.5118
G01 X30.1296 Y44.5052
G01 X30.1209 Y44.4991
G01 X30.1119 Y44.4934
G01 X30.1026 Y44.4881
G01 X30.0930 Y44.4833
G01 X30.0783 Y44.4770
G01 X30.0632 Y44.4718
G01 X30.0529 Y44.4689
G01 X30.0425 Y44.4666
G01 X30.0319 Y44.4647
G01 X30.0213 Y44.4634
G01 X30.0007 Y44.4624
G01 X27.9993 Y44.4624
G01 X27.9893 Y44.4627
G01 X27.9787 Y44.4634
G01 X27.9681 Y44.4647
G01 X27.9575 Y44.4666
G01 X27.9420 Y44.4703
G01 X27.9317 Y44.4734
G01 X27.9167 Y44.4790
G01 X27.9022 Y44.4856
G01 X27.8927 Y44.4907
G01 X27.8791 Y44.4991
G01 X27.8704 Y44.5052
G01 X27.8579 Y44.5152
G01 X27.8499 Y44.5224
G01 X27.8388 Y44.5339
G01 X27.8318 Y44.5419
G01 X27.8252 Y44.5504
G01 X27.8171 Y44.5621
G01 X16.3367 Y44.5621
G01 X16.2770 Y44.5649
G01 X16.2617 Y44.5662
G01 X16.1973 Y44.5759
G01 X16.1386 Y44.5904
G01 X16.1194 Y44.5962
G01 X16.0626 Y44.6168
G01 X16.0079 Y44.6424
G01 X15.9989 Y44.6469
G01 X15.9470 Y44.6778
G01 X15.9303 Y44.6889
G01 X15.8898 Y44.7189
G01 X15.8778 Y44.7285
G01 X15.8302 Y44.7719
G01 X14.7936 Y45.8085
G01 X14.7361 Y45.8000
G01 X14.7208 Y45.7983
G01 X14.6122 Y45.7930
G01 X14.5968 Y45.7932
G01 X14.4928 Y45.7983
G01 X14.4775 Y45.8000
G01 X14.3693 Y45.8163
G01 X14.2585 Y45.8439
G01 X14.2439 Y45.8485
G01 X14.1409 Y45.8856
G01 X14.1317 Y45.8897
G01 X14.0328 Y45.9367
G01 X13.9388 Y45.9928
G01 X13.9303 Y45.9981
G01 X13.9222 Y46.0039
G01 X13.8344 Y46.0693
G01 X13.7531 Y46.1426
G01 X13.7458 Y46.1495
G01 X13.7389 Y46.1568
G01 X13.6656 Y46.2381
G01 X13.6002 Y46.3259
G01 X13.5944 Y46.3341
G01 X13.5890 Y46.3425
G01 X13.5330 Y46.4365
G01 X13.4859 Y46.5354
G01 X13.4819 Y46.5446
G01 X13.4783 Y46.5539
G01 X13.4416 Y46.6571
G01 X13.4390 Y46.6667
G01 X13.4126 Y46.7730
G01 X13.3963 Y46.8812
G00 Z2.0000
G00 X15.9963 Y46.9012
G01 F40.00
G01 Z-0.0499
G01 F80.00
G01 X15.9943 Y46.9212
G01 X15.9892 Y47.0305
G01 X15.9943 Y47.1399
G01 X15.9951 Y47.1499
G01 X15.9963 Y47.1598
G01 X16.0126 Y47.2681
G01 X16.0390 Y47.3743
G01 X16.0416 Y47.3840
G01 X16.0448 Y47.3935
G01 X16.0819 Y47.4965
G01 X16.0859 Y47.5056
G01 X16.1330 Y47.6045
G01 X16.1890 Y47.6985
G01 X16.1944 Y47.7070
G01 X16.2002 Y47.7152
G01 X16.2656 Y47.8030
G01 X16.3389 Y47.8843
G01 X16.3458 Y47.8915
G01 X16.3531 Y47.8984
G01 X16.4344 Y47.9717
G01 X16.5222 Y48.0372
G01 X16.5303 Y48.0429
G01 X16.5388 Y48.0483
G01 X16.6328 Y48.1044
G01 X16.7317 Y48.1514
G01 X16.7409 Y48.1554
G01 X16.7502 Y48.1591
G01 X16.8534 Y48.1957
G01 X16.8630 Y48.1984
G01 X16.9693 Y48.2247
G01 X17.0775 Y48.2411
G01 X17.0875 Y48.2423
G01 X17.0975 Y48.2430
G01 X17.2068 Y48.2481
G01 X17.3162 Y48.2430
G01 X17.3262 Y48.2423
G01 X17.3361 Y48.2411
G01 X17.4444 Y48.2247
G01 X17.5506 Y48.1984
G01 X17.5603 Y48.1957
G01 X17.5698 Y48.1926
G01 X17.6728 Y48.1554
G01 X17.6819 Y48.1514
G01 X17.7808 Y48.1044
G01 X17.8748 Y48.0483
G01 X17.8833 Y48.0429
G01 X17.8915 Y48.0372
G01 X17.9793 Y47.9717
G01 X18.0605 Y47.8984
G01 X18.0678 Y47.8915
G01 X18.0747 Y47.8843
G01 X18.1480 Y47.8030
G01 X18.2135 Y47.7152
G01 X18.2192 Y47.7070
G01 X18.2246 Y47.6985
G01 X18.2807 Y47.6045
G01 X18.3277 Y47.5056
G01 X18.3317 Y47.4965
G01 X18.3354 Y47.4871
G01 X18.3720 Y47.3840
G01 X18.3747 Y47.3743
G01 X18.4010 Y47.2681
G01 X18.4173 Y47.1598
G01 X18.4186 Y47.1499
G01 X18.4193 Y47.1399
G01 X18.4244 Y47.0305
G01 X18.4193 Y46.9212
G01 X18.4186 Y46.9112
G01 X18.4173 Y46.9012
G01 X18.4010 Y46.7930
G01 X18.3747 Y46.6867
G01 X18.3720 Y46.6771
G01 X18.3689 Y46.6676
G01 X18.3317 Y46.5646
G01 X18.3277 Y46.5554
G01 X18.2807 Y46.4565
G01 X18.2246 Y46.3625
G01 X18.2192 Y46.3541
G01 X18.2135 Y46.3459
G01 X18.1480 Y46.2581
G01 X18.0747 Y46.1768
G01 X18.0678 Y46.1695
G01 X18.0605 Y46.1626
G01 X17.9793 Y46.0893
G01 X17.8915 Y46.0239
G01 X17.8833 Y46.0181
G01 X17.8748 Y46.0128
G01 X17.7808 Y45.9567
G01 X17.6819 Y45.9097
G01 X17.6728 Y45.9056
G01 X17.6634 Y45.9020
G01 X17.5603 Y45.8653
G01 X17.5506 Y45.8627
G01 X17.4444 Y45.8363
G01 X17.3361 Y45.8200
G01 X17.3262 Y45.8188
G01 X17.3162 Y45.8180
G01 X17.2068 Y45.8129
G01 X17.0975 Y45.8180
G01 X17.0875 Y45.8188
G01 X17.0775 Y45.8200
G01 X16.9693 Y45.8363
G01 X16.8630 Y45.8627
G01 X16.8534 Y45.8653
G01 X16.8439 Y45.8685
G01 X16.7409 Y45.9056
G01 X16.7317 Y45.9097
G01 X16.6328 Y45.9567
G01 X16.5388 Y46.0128
G01 X16.5303 Y46.0181
G01 X16.5222 Y46.0239
G01 X16.4344 Y46.0893
G01 X16.3531 Y46.1626
G01 X16.3458 Y46.1695
G01 X16.3389 Y46.1768
G01 X16.2656 Y46.2581
G01 X16.2002 Y46.3459
G01 X16.1944 Y46.3541
G01 X16.1890 Y46.3625
G01 X16.1330 Y46.4565
G01 X16.0859 Y46.5554
G01 X16.0819 Y46.5646
G01 X16.0783 Y46.5739
G01 X16.0416 Y46.6771
G01 X16.0390 Y46.6867
G01 X16.0126 Y46.7930
G01 X15.9963 Y46.9012
G00 Z2.0000
G00 X20.8868 Y43.1197
G01 F40.00
G01 Z-0.0499
G01 F80.00
G01 X20.8849 Y43.1396
G01 X20.8821 Y43.2000
G01 X20.8849 Y43.2604
G01 X20.8856 Y43.2704
G01 X20.8868 Y43.2803
G01 X20.8959 Y43.3400
G01 X20.9104 Y43.3987
G01 X20.9131 Y43.4084
G01 X20.9162 Y43.4179
G01 X20.9368 Y43.4747
G01 X20.9624 Y43.5295
G01 X20.9669 Y43.5384
G01 X20.9978 Y43.5904
G01 X21.0031 Y43.5988
G01 X21.0089 Y43.6070
G01 X21.0451 Y43.6554
G01 X21.0855 Y43.7004
G01 X21.0924 Y43.7076
G01 X21.0996 Y43.7145
G01 X21.1446 Y43.7549
G01 X21.1930 Y43.7911
G01 X21.2012 Y43.7969
G01 X21.2096 Y43.8022
G01 X21.2616 Y43.8331
G01 X21.2705 Y43.8376
G01 X21.3253 Y43.8632
G01 X21.3346 Y43.8668
G01 X21.3916 Y43.8869
G01 X21.4502 Y43.9019
G01 X21.4600 Y43.9041
G01 X21.5197 Y43.9132
G01 X21.5350 Y43.9149
G01 X21.5993 Y43.9179
G01 X23.7534 Y43.9179
G01 X23.7697 Y43.9292
G01 X23.7959 Y43.9450
G01 X23.8093 Y43.9524
G01 X23.8461 Y43.9695
G01 X23.8842 Y43.9834
G01 X23.8944 Y43.9865
G01 X23.9240 Y43.9939
G01 X23.9436 Y43.9978
G01 X23.9792 Y44.0029
G01 X24.0243 Y44.0051
G01 X24.9850 Y44.0049
G01 X25.0208 Y44.0029
G01 X25.0610 Y43.9971
G01 X25.0715 Y43.9950
G01 X25.1011 Y43.9877
G01 X25.1158 Y43.9834
G01 X25.1539 Y43.9695
G01 X25.1907 Y43.9524
G01 X25.2041 Y43.9450
G01 X25.2303 Y43.9292
G01 X25.2466 Y43.9179
G01 X25.8534 Y43.9179
G01 X25.8697 Y43.9292
G01 X25.8959 Y43.9450
G01 X25.9093 Y43.9524
G01 X25.9461 Y43.9695
G01 X25.9842 Y43.9834
G01 X25.9944 Y43.9865
G01 X26.0240 Y43.9939
G01 X26.0390 Y43.9971
G01 X26.0792 Y44.0029
G01 X26.1150 Y44.0049
G01 X27.0757 Y44.0051
G01 X27.1208 Y44.0029
G01 X27.1563 Y43.9979
G01 X27.8171 Y43.9979
G01 X27.8252 Y44.0096
G01 X27.8318 Y44.0180
G01 X27.8388 Y44.0261
G01 X27.8499 Y44.0376
G01 X27.8579 Y44.0448
G01 X27.8704 Y44.0548
G01 X27.8791 Y44.0609
G01 X27.8927 Y44.0693
G01 X27.9070 Y44.0767
G01 X27.9167 Y44.0810
G01 X27.9267 Y44.0849
G01 X27.9420 Y44.0897
G01 X27.9523 Y44.0923
G01 X27.9628 Y44.0944
G01 X27.9734 Y44.0960
G01 X27.9893 Y44.0973
G01 X27.9993 Y44.0976
G01 X30.0007 Y44.0976
G01 X30.0213 Y44.0966
G01 X30.0319 Y44.0953
G01 X30.0425 Y44.0934
G01 X30.0529 Y44.0911
G01 X30.0632 Y44.0882
G01 X30.0733 Y44.0849
G01 X30.0833 Y44.0810
G01 X30.0930 Y44.0767
G01 X30.1026 Y44.0719
G01 X30.1119 Y44.0666
G01 X30.1209 Y44.0609
G01 X30.1296 Y44.0548
G01 X30.1380 Y44.0482
G01 X30.1500 Y44.0376
G01 X30.1576 Y44.0300
G01 X30.1648 Y44.0221
G01 X30.1715 Y44.0139
G01 X30.1779 Y44.0053
G01 X30.1866 Y43.9919
G01 X30.1919 Y43.9826
G01 X30.1967 Y43.9730
G01 X30.2010 Y43.9633
G01 X30.2049 Y43.9533
G01 X30.2097 Y43.9380
G01 X30.2123 Y43.9277
G01 X30.2144 Y43.9172
G01 X30.2160 Y43.9066
G01 X30.2170 Y43.8960
G01 X30.2176 Y43.8807
G01 X30.2176 Y42.6793
G01 X30.2170 Y42.6640
G01 X30.2153 Y42.6481
G01 X30.2123 Y42.6323
G01 X30.2097 Y42.6220
G01 X30.2066 Y42.6117
G01 X30.2030 Y42.6017
G01 X30.1989 Y42.5918
G01 X30.1919 Y42.5774
G01 X30.1866 Y42.5681
G01 X30.1809 Y42.5591
G01 X30.1715 Y42.5461
G01 X30.1648 Y42.5379
G01 X30.1576 Y42.5299
G01 X30.1461 Y42.5188
G01 X30.1339 Y42.5084
G01 X30.1253 Y42.5021
G01 X30.1164 Y42.4962
G01 X30.1026 Y42.4881
G01 X30.0930 Y42.4833
G01 X30.0833 Y42.4790
G01 X30.0683 Y42.4734
G01 X30.0580 Y42.4703
G01 X30.0477 Y42.4677
G01 X30.0319 Y42.4647
G01 X30.0160 Y42.4630
G01 X30.0007 Y42.4624
G01 X27.9993 Y42.4624
G01 X27.9893 Y42.4627
G01 X27.9787 Y42.4634
G01 X27.9681 Y42.4647
G01 X27.9575 Y42.4666
G01 X27.9420 Y42.4703
G01 X27.9317 Y42.4734
G01 X27.9167 Y42.4790
G01 X27.9022 Y42.4856
G01 X27.8927 Y42.4907
G01 X27.8791 Y42.4991
G01 X27.8704 Y42.5052
G01 X27.8579 Y42.5152
G01 X27.8499 Y42.5224
G01 X27.8388 Y42.5339
G01 X27.8318 Y42.5419
G01 X27.8252 Y42.5504
G01 X27.8171 Y42.5621
G01 X27.4334 Y42.5621
G01 X27.4126 Y42.5391
G01 X27.4018 Y42.5281
G01 X27.3757 Y42.5045
G01 X27.3638 Y42.4949
G01 X27.3348 Y42.4737
G01 X27.3041 Y42.4550
G01 X27.2907 Y42.4476
G01 X27.2631 Y42.4345
G01 X27.2490 Y42.4285
G01 X27.2107 Y42.4150
G01 X27.1760 Y42.4061
G01 X27.1662 Y42.4039
G01 X27.1308 Y42.3984
G01 X27.1208 Y42.3971
G01 X27.0757 Y42.3949
G01 X26.1243 Y42.3949
G01 X26.0845 Y42.3967
G01 X26.0692 Y42.3984
G01 X26.0390 Y42.4029
G01 X26.0285 Y42.4050
G01 X25.9893 Y42.4150
G01 X25.9554 Y42.4269
G01 X25.9411 Y42.4326
G01 X25.9046 Y42.4501
G01 X25.8697 Y42.4708
G01 X25.8534 Y42.4821
G01 X25.2466 Y42.4821
G01 X25.2303 Y42.4708
G01 X25.2041 Y42.4550
G01 X25.1907 Y42.4476
G01 X25.1539 Y42.4305
G01 X25.1158 Y42.4166
G01 X25.1056 Y42.4135
G01 X25.0760 Y42.4061
G01 X25.0610 Y42.4029
G01 X25.0208 Y42.3971
G01 X24.9850 Y42.3951
G01 X24.0243 Y42.3949
G01 X23.9792 Y42.3971
G01 X23.9436 Y42.4022
G01 X23.9240 Y42.4061
G01 X23.8944 Y42.4135
G01 X23.8842 Y42.4166
G01 X23.8461 Y42.4305
G01 X23.8093 Y42.4476
G01 X23.7959 Y42.4550
G01 X23.7697 Y42.4708
G01 X23.7534 Y42.4821
G01 X21.5993 Y42.4821
G01 X21.5350 Y42.4851
G01 X21.5197 Y42.4868
G01 X21.4600 Y42.4959
G01 X21.4013 Y42.5104
G01 X21.3821 Y42.5162
G01 X21.3302 Y42.5348
G01 X21.3161 Y42.5408
G01 X21.2616 Y42.5669
G01 X21.2096 Y42.5978
G01 X21.2012 Y42.6031
G01 X21.1930 Y42.6089
G01 X21.1446 Y42.6451
G01 X21.0996 Y42.6855
G01 X21.0924 Y42.6924
G01 X21.0855 Y42.6996
G01 X21.0451 Y42.7446
G01 X21.0089 Y42.7930
G01 X20.9978 Y42.8096
G01 X20.9695 Y42.8569
G01 X20.9624 Y42.8705
G01 X20.9368 Y42.9253
G01 X20.9332 Y42.9346
G01 X20.9131 Y42.9916
G01 X20.8981 Y43.0502
G01 X20.8959 Y43.0600
G01 X20.8868 Y43.1197
G00 Z2.0000
G00 X23.2750 Y40.8750
G01 F40.00
G01 Z-0.0499
G01 F80.00
G01 X23.7707 Y40.8750
G01 X23.7762 Y40.7630
G01 X23.7798 Y40.7387
G01 X23.7856 Y40.7156
G01 X23.7940 Y40.6918
G01 X23.8045 Y40.6697
G01 X23.8168 Y40.6492
G01 X23.8318 Y40.6289
G01 X23.8482 Y40.6107
G01 X23.8659 Y40.5947
G01 X23.8861 Y40.5796
G01 X23.9078 Y40.5667
G01 X23.9293 Y40.5565
G01 X23.9518 Y40.5485
G01 X23.9762 Y40.5423
G01 X24.0005 Y40.5387
G01 X24.0257 Y40.5375
G01 X24.2500 Y40.5375
G01 X24.2500 Y40.0375
G01 X23.9782 Y40.0375
G01 X23.9719 Y40.0378
G01 X23.8790 Y40.0473
G01 X23.8659 Y40.0501
G01 X23.7127 Y40.1009
G01 X23.6997 Y40.1069
G01 X23.5628 Y40.1914
G01 X23.5515 Y40.2003
G01 X23.4378 Y40.3140
G01 X23.4289 Y40.3253
G01 X23.3444 Y40.4622
G01 X23.3384 Y40.4752
G01 X23.2876 Y40.6284
G01 X23.2848 Y40.6415
G01 X23.2753 Y40.7344
G01 X23.2750 Y40.7407
G01 X23.2750 Y40.8750
G00 Z2.0000
G00 X24.7500 Y40.5375
G01 F40.00
G01 Z-0.0499
G01 F80.00
G01 X24.9743 Y40.5375
G01 X24.9995 Y40.5387
G01 X25.0238 Y40.5423
G01 X25.0482 Y40.5485
G01 X25.0707 Y40.5565
G01 X25.0922 Y40.5667
G01 X25.1139 Y40.5796
G01 X25.1341 Y40.5947
G01 X25.1518 Y40.6107
G01 X25.1682 Y40.6289
G01 X25.1829 Y40.6486
G01 X25.1951 Y40.6691
G01 X25.2060 Y40.6918
G01 X25.2144 Y40.7156
G01 X25.2202 Y40.7387
G01 X25.2238 Y40.7630
G01 X25.2293 Y40.8750
G01 X25.8707 Y40.8750
G01 X25.8762 Y40.7630
G01 X25.8798 Y40.7387
G01 X25.8856 Y40.7156
G01 X25.8940 Y40.6918
G01 X25.9045 Y40.6697
G01 X25.9168 Y40.6492
G01 X25.9318 Y40.6289
G01 X25.9482 Y40.6107
G01 X25.9659 Y40.5947
G01 X25.9861 Y40.5796
G01 X26.0078 Y40.5667
G01 X26.0293 Y40.5565
G01 X26.0518 Y40.5485
G01 X26.0762 Y40.5423
G01 X26.1005 Y40.5387
G01 X26.1257 Y40.5375
G01 X26.3500 Y40.5375
G01 X26.3500 Y40.0375
G01 X26.0782 Y40.0375
G01 X26.0719 Y40.0378
G01 X25.9790 Y40.0473
G01 X25.9659 Y40.0501
G01 X25.8127 Y40.1009
G01 X25.7997 Y40.1069
G01 X25.6628 Y40.1914
G01 X25.6515 Y40.2003
G01 X25.6377 Y40.2142
G01 X25.5827 Y40.2459
G01 X25.5814 Y40.2463
G01 X25.5179 Y40.2462
G01 X25.4623 Y40.2142
G01 X25.4485 Y40.2003
G01 X25.4372 Y40.1914
G01 X25.3003 Y40.1069
G01 X25.2873 Y40.1009
G01 X25.1341 Y40.0501
G01 X25.1210 Y40.0473
G01 X25.0281 Y40.0378
G01 X25.0218 Y40.0375
G01 X24.7500 Y40.0375
G01 X24.7500 Y40.5375
G00 Z2.0000
G00 X26.8500 Y40.0375
G01 F40.00
G01 Z-0.0499
G01 F80.00
G01 X26.8500 Y40.5375
G01 X27.0743 Y40.5375
G01 X27.0995 Y40.5387
G01 X27.1244 Y40.5425
G01 X27.1476 Y40.5483
G01 X27.1700 Y40.5563
G01 X27.1928 Y40.5670
G01 X27.2139 Y40.5796
G01 X27.2341 Y40.5947
G01 X27.2518 Y40.6107
G01 X27.2682 Y40.6289
G01 X27.2829 Y40.6486
G01 X27.2951 Y40.6691
G01 X27.3060 Y40.6918
G01 X27.3144 Y40.7156
G01 X27.3202 Y40.7387
G01 X27.3238 Y40.7630
G01 X27.3293 Y40.8750
G01 X27.8250 Y40.8750
G01 X27.8250 Y40.7407
G01 X27.8247 Y40.7344
G01 X27.8152 Y40.6415
G01 X27.8124 Y40.6284
G01 X27.7616 Y40.4752
G01 X27.7556 Y40.4622
G01 X27.6711 Y40.3253
G01 X27.6622 Y40.3140
G01 X27.5485 Y40.2003
G01 X27.5372 Y40.1914
G01 X27.4003 Y40.1069
G01 X27.3873 Y40.1009
G01 X27.2341 Y40.0501
G01 X27.2210 Y40.0473
G01 X27.1281 Y40.0378
G01 X27.1218 Y40.0375
G01 X26.8500 Y40.0375
G00 Z2.0000
G00 X31.3993 Y40.5824
G01 F40.00
G01 Z-0.0499
G01 F80.00
G01 X31.3787 Y40.5834
G01 X31.3681 Y40.5847
G01 X31.3575 Y40.5866
G01 X31.3471 Y40.5889
G01 X31.3368 Y40.5918
G01 X31.3267 Y40.5951
G01 X31.3167 Y40.5990
G01 X31.3022 Y40.6056
G01 X31.2927 Y40.6107
G01 X31.2836 Y40.6162
G01 X31.2747 Y40.6221
G01 X31.2661 Y40.6284
G01 X31.2579 Y40.6352
G01 X31.2499 Y40.6424
G01 X31.2424 Y40.6499
G01 X31.2352 Y40.6579
G01 X31.2284 Y40.6661
G01 X31.2221 Y40.6747
G01 X31.2134 Y40.6881
G01 X31.2081 Y40.6974
G01 X31.2033 Y40.7070
G01 X31.1990 Y40.7167
G01 X31.1951 Y40.7267
G01 X31.1918 Y40.7368
G01 X31.1889 Y40.7471
G01 X31.1866 Y40.7575
G01 X31.1847 Y40.7681
G01 X31.1830 Y40.7840
G01 X31.1824 Y40.7993
G01 X31.1824 Y42.8007
G01 X31.1830 Y42.8160
G01 X31.1840 Y42.8266
G01 X31.1866 Y42.8425
G01 X31.1889 Y42.8529
G01 X31.1918 Y42.8632
G01 X31.1970 Y42.8783
G01 X31.2011 Y42.8882
G01 X31.2081 Y42.9026
G01 X31.2162 Y42.9164
G01 X31.2221 Y42.9253
G01 X31.2318 Y42.9380
G01 X31.2388 Y42.9461
G01 X31.2499 Y42.9576
G01 X31.2579 Y42.9648
G01 X31.2704 Y42.9748
G01 X31.2836 Y42.9838
G01 X31.2974 Y42.9919
G01 X31.3118 Y42.9989
G01 X31.3217 Y43.0030
G01 X31.3368 Y43.0082
G01 X31.3471 Y43.0111
G01 X31.3628 Y43.0144
G01 X31.3734 Y43.0160
G01 X31.3893 Y43.0173
G01 X31.3993 Y43.0176
G01 X32.6053 Y43.0175
G01 X32.6213 Y43.0166
G01 X32.6319 Y43.0153
G01 X32.6425 Y43.0134
G01 X32.6529 Y43.0111
G01 X32.6632 Y43.0082
G01 X32.6783 Y43.0030
G01 X32.6882 Y42.9989
G01 X32.7026 Y42.9919
G01 X32.7119 Y42.9866
G01 X32.7253 Y42.9779
G01 X32.7339 Y42.9715
G01 X32.7461 Y42.9612
G01 X32.7539 Y42.9539
G01 X32.7648 Y42.9421
G01 X32.7748 Y42.9296
G01 X32.7838 Y42.9164
G01 X32.7919 Y42.9026
G01 X32.7967 Y42.8930
G01 X32.8030 Y42.8783
G01 X32.8066 Y42.8683
G01 X32.8111 Y42.8529
G01 X32.8144 Y42.8372
G01 X32.8166 Y42.8213
G01 X32.8173 Y42.8107
G01 X32.8176 Y42.8007
G01 X32.8176 Y40.7993
G01 X32.8170 Y40.7840
G01 X32.8160 Y40.7734
G01 X32.8144 Y40.7628
G01 X32.8111 Y40.7471
G01 X32.8066 Y40.7317
G01 X32.8030 Y40.7217
G01 X32.7967 Y40.7070
G01 X32.7919 Y40.6974
G01 X32.7838 Y40.6836
G01 X32.7748 Y40.6704
G01 X32.7648 Y40.6579
G01 X32.7576 Y40.6499
G01 X32.7461 Y40.6388
G01 X32.7380 Y40.6318
G01 X32.7253 Y40.6221
G01 X32.7164 Y40.6162
G01 X32.7073 Y40.6107
G01 X32.6930 Y40.6033
G01 X32.6783 Y40.5970
G01 X32.6683 Y40.5934
G01 X32.6580 Y40.5903
G01 X32.6425 Y40.5866
G01 X32.6319 Y40.5847
G01 X32.6160 Y40.5830
G01 X32.6007 Y40.5824
G01 X31.3993 Y40.5824
G00 Z2.0000
G00 X30.8995 Y42.8479
G01 F40.00
G01 Z-0.0499
G01 F80.00
G01 X30.9059 Y42.9075
G01 X30.9562 Y43.0423
G01 X31.0425 Y43.1575
G01 X31.1577 Y43.2438
G01 X31.2925 Y43.2941
G01 X31.3521 Y43.3005
G01 X32.6479 Y43.3005
G01 X32.7075 Y43.2941
G01 X32.8423 Y43.2438
G01 X32.9257 Y43.1814
G01 X32.9730 Y43.1598
G01 X32.9743 Y43.1595
G01 X33.0264 Y43.1595
G01 X33.0743 Y43.1814
G01 X33.1577 Y43.2438
G01 X33.2925 Y43.2941
G01 X33.3521 Y43.3005
G01 X34.6479 Y43.3005
G01 X34.7075 Y43.2941
G01 X34.8423 Y43.2438
G01 X34.9257 Y43.1814
G01 X34.9730 Y43.1598
G01 X34.9743 Y43.1595
G01 X35.0264 Y43.1595
G01 X35.0743 Y43.1814
G01 X35.1577 Y43.2438
G01 X35.2925 Y43.2941
G01 X35.3521 Y43.3005
G01 X36.6479 Y43.3005
G01 X36.7075 Y43.2941
G01 X36.8423 Y43.2438
G01 X36.9257 Y43.1814
G01 X36.9730 Y43.1598
G01 X36.9743 Y43.1595
G01 X37.0264 Y43.1595
G01 X37.0743 Y43.1814
G01 X37.1577 Y43.2438
G01 X37.2925 Y43.2941
G01 X37.3521 Y43.3005
G01 X38.6479 Y43.3005
G01 X38.7075 Y43.2941
G01 X38.8423 Y43.2438
G01 X38.9257 Y43.1814
G01 X38.9730 Y43.1598
G01 X38.9743 Y43.1595
G01 X39.0264 Y43.1595
G01 X39.0743 Y43.1814
G01 X39.1577 Y43.2438
G01 X39.2925 Y43.2941
G01 X39.3521 Y43.3005
G01 X40.6479 Y43.3005
G01 X40.7075 Y43.2941
G01 X40.8423 Y43.2438
G01 X40.9257 Y43.1814
G01 X40.9730 Y43.1598
G01 X40.9743 Y43.1595
G01 X41.0264 Y43.1595
G01 X41.0743 Y43.1814
G01 X41.1577 Y43.2438
G01 X41.2925 Y43.2941
G01 X41.3521 Y43.3005
G01 X42.6479 Y43.3005
G01 X42.7075 Y43.2941
G01 X42.8423 Y43.2438
G01 X42.9575 Y43.1575
G01 X43.0438 Y43.0423
G01 X43.0941 Y42.9075
G01 X43.1005 Y42.8479
G01 X43.1005 Y40.7521
G01 X43.0941 Y40.6925
G01 X43.0438 Y40.5577
G01 X42.9575 Y40.4425
G01 X42.8423 Y40.3562
G01 X42.7075 Y40.3059
G01 X42.6479 Y40.2995
G01 X41.3521 Y40.2995
G01 X41.2925 Y40.3059
G01 X41.1577 Y40.3562
G01 X41.0743 Y40.4186
G01 X41.0270 Y40.4402
G01 X41.0257 Y40.4405
G01 X40.9736 Y40.4405
G01 X40.9257 Y40.4186
G01 X40.8423 Y40.3562
G01 X40.7075 Y40.3059
G01 X40.6479 Y40.2995
G01 X39.3521 Y40.2995
G01 X39.2925 Y40.3059
G01 X39.1577 Y40.3562
G01 X39.0743 Y40.4186
G01 X39.0270 Y40.4402
G01 X39.0257 Y40.4405
G01 X38.9736 Y40.4405
G01 X38.9257 Y40.4186
G01 X38.8423 Y40.3562
G01 X38.7075 Y40.3059
G01 X38.6479 Y40.2995
G01 X37.3521 Y40.2995
G01 X37.2925 Y40.3059
G01 X37.1577 Y40.3562
G01 X37.0743 Y40.4186
G01 X37.0270 Y40.4402
G01 X37.0257 Y40.4405
G01 X36.9736 Y40.4405
G01 X36.9257 Y40.4186
G01 X36.8423 Y40.3562
G01 X36.7075 Y40.3059
G01 X36.6479 Y40.2995
G01 X35.3521 Y40.2995
G01 X35.2925 Y40.3059
G01 X35.1577 Y40.3562
G01 X35.0743 Y40.4186
G01 X35.0270 Y40.4402
G01 X35.0257 Y40.4405
G01 X34.9736 Y40.4405
G01 X34.9257 Y40.4186
G01 X34.8423 Y40.3562
G01 X34.7075 Y40.3059
G01 X34.6479 Y40.2995
G01 X33.3521 Y40.2995
G01 X33.2925 Y40.3059
G01 X33.1577 Y40.3562
G01 X33.0743 Y40.4186
G01 X33.0270 Y40.4402
G01 X33.0257 Y40.4405
G01 X32.9736 Y40.4405
G01 X32.9257 Y40.4186
G01 X32.8423 Y40.3562
G01 X32.7075 Y40.3059
G01 X32.6479 Y40.2995
G01 X31.3521 Y40.2995
G01 X31.2925 Y40.3059
G01 X31.1577 Y40.3562
G01 X31.0425 Y40.4425
G01 X30.9562 Y40.5577
G01 X30.9059 Y40.6925
G01 X30.8995 Y40.7521
G01 X30.8995 Y42.8479
G00 Z2.0000
G00 X33.1824 Y42.8007
G01 F40.00
G01 Z-0.0499
G01 F80.00
G01 X33.1834 Y42.8213
G01 X33.1847 Y42.8319
G01 X33.1866 Y42.8425
G01 X33.1889 Y42.8529
G01 X33.1918 Y42.8632
G01 X33.1951 Y42.8733
G01 X33.1990 Y42.8833
G01 X33.2033 Y42.8930
G01 X33.2081 Y42.9026
G01 X33.2162 Y42.9164
G01 X33.2221 Y42.9253
G01 X33.2284 Y42.9339
G01 X33.2352 Y42.9421
G01 X33.2424 Y42.9500
G01 X33.2499 Y42.9576
G01 X33.2579 Y42.9648
G01 X33.2704 Y42.9748
G01 X33.2791 Y42.9809
G01 X33.2881 Y42.9866
G01 X33.2974 Y42.9919
G01 X33.3070 Y42.9967
G01 X33.3167 Y43.0010
G01 X33.3267 Y43.0049
G01 X33.3420 Y43.0097
G01 X33.3523 Y43.0123
G01 X33.3628 Y43.0144
G01 X33.3734 Y43.0160
G01 X33.3840 Y43.0170
G01 X33.3993 Y43.0176
G01 X34.6007 Y43.0176
G01 X34.6160 Y43.0170
G01 X34.6266 Y43.0160
G01 X34.6372 Y43.0144
G01 X34.6529 Y43.0111
G01 X34.6632 Y43.0082
G01 X34.6783 Y43.0030
G01 X34.6882 Y42.9989
G01 X34.6978 Y42.9944
G01 X34.7073 Y42.9893
G01 X34.7164 Y42.9838
G01 X34.7253 Y42.9779
G01 X34.7380 Y42.9682
G01 X34.7461 Y42.9612
G01 X34.7539 Y42.9539
G01 X34.7612 Y42.9461
G01 X34.7715 Y42.9339
G01 X34.7779 Y42.9253
G01 X34.7866 Y42.9119
G01 X34.7944 Y42.8978
G01 X34.8010 Y42.8833
G01 X34.8066 Y42.8683
G01 X34.8111 Y42.8529
G01 X34.8144 Y42.8372
G01 X34.8166 Y42.8213
G01 X34.8175 Y42.8053
G01 X34.8175 Y40.7947
G01 X34.8170 Y40.7840
G01 X34.8160 Y40.7734
G01 X34.8144 Y40.7628
G01 X34.8111 Y40.7471
G01 X34.8066 Y40.7317
G01 X34.8030 Y40.7217
G01 X34.7967 Y40.7070
G01 X34.7919 Y40.6974
G01 X34.7838 Y40.6836
G01 X34.7779 Y40.6747
G01 X34.7715 Y40.6661
G01 X34.7612 Y40.6539
G01 X34.7539 Y40.6461
G01 X34.7461 Y40.6388
G01 X34.7380 Y40.6318
G01 X34.7253 Y40.6221
G01 X34.7119 Y40.6134
G01 X34.6978 Y40.6056
G01 X34.6833 Y40.5990
G01 X34.6683 Y40.5934
G01 X34.6529 Y40.5889
G01 X34.6372 Y40.5856
G01 X34.6213 Y40.5834
G01 X34.6053 Y40.5825
G01 X33.3947 Y40.5825
G01 X33.3787 Y40.5834
G01 X33.3681 Y40.5847
G01 X33.3575 Y40.5866
G01 X33.3471 Y40.5889
G01 X33.3368 Y40.5918
G01 X33.3217 Y40.5970
G01 X33.3118 Y40.6011
G01 X33.2974 Y40.6081
G01 X33.2881 Y40.6134
G01 X33.2747 Y40.6221
G01 X33.2661 Y40.6284
G01 X33.2579 Y40.6352
G01 X33.2461 Y40.6461
G01 X33.2388 Y40.6539
G01 X33.2318 Y40.6619
G01 X33.2221 Y40.6747
G01 X33.2134 Y40.6881
G01 X33.2056 Y40.7022
G01 X33.1990 Y40.7167
G01 X33.1934 Y40.7317
G01 X33.1889 Y40.7471
G01 X33.1856 Y40.7628
G01 X33.1834 Y40.7787
G01 X33.1825 Y40.7947
G01 X33.1824 Y42.8007
G00 Z2.0000
G00 X35.1824 Y42.8007
G01 F40.00
G01 Z-0.0499
G01 F80.00
G01 X35.1834 Y42.8213
G01 X35.1847 Y42.8319
G01 X35.1866 Y42.8425
G01 X35.1889 Y42.8529
G01 X35.1918 Y42.8632
G01 X35.1951 Y42.8733
G01 X35.1990 Y42.8833
G01 X35.2033 Y42.8930
G01 X35.2081 Y42.9026
G01 X35.2162 Y42.9164
G01 X35.2221 Y42.9253
G01 X35.2284 Y42.9339
G01 X35.2352 Y42.9421
G01 X35.2424 Y42.9500
G01 X35.2499 Y42.9576
G01 X35.2579 Y42.9648
G01 X35.2704 Y42.9748
G01 X35.2791 Y42.9809
G01 X35.2881 Y42.9866
G01 X35.2974 Y42.9919
G01 X35.3070 Y42.9967
G01 X35.3167 Y43.0010
G01 X35.3267 Y43.0049
G01 X35.3420 Y43.0097
G01 X35.3523 Y43.0123
G01 X35.3628 Y43.0144
G01 X35.3734 Y43.0160
G01 X35.3840 Y43.0170
G01 X35.3993 Y43.0176
G01 X36.6007 Y43.0176
G01 X36.6160 Y43.0170
G01 X36.6266 Y43.0160
G01 X36.6372 Y43.0144
G01 X36.6529 Y43.0111
G01 X36.6632 Y43.0082
G01 X36.6783 Y43.0030
G01 X36.6882 Y42.9989
G01 X36.6978 Y42.9944
G01 X36.7073 Y42.9893
G01 X36.7164 Y42.9838
G01 X36.7253 Y42.9779
G01 X36.7380 Y42.9682
G01 X36.7461 Y42.9612
G01 X36.7539 Y42.9539
G01 X36.7612 Y42.9461
G01 X36.7715 Y42.9339
G01 X36.7779 Y42.9253
G01 X36.7866 Y42.9119
G01 X36.7944 Y42.8978
G01 X36.8010 Y42.8833
G01 X36.8066 Y42.8683
G01 X36.8111 Y42.8529
G01 X36.8144 Y42.8372
G01 X36.8166 Y42.8213
G01 X36.8175 Y42.8053
G01 X36.8175 Y40.7947
G01 X36.8170 Y40.7840
G01 X36.8160 Y40.7734
G01 X36.8144 Y40.7628
G01 X36.8111 Y40.7471
G01 X36.8066 Y40.7317
G01 X36.8030 Y40.7217
G01 X36.7967 Y40.7070
G01 X36.7919 Y40.6974
G01 X36.7838 Y40.6836
G01 X36.7779 Y40.6747
G01 X36.7715 Y40.6661
G01 X36.7612 Y40.6539
G01 X36.7539 Y40.6461
G01 X36.7461 Y40.6388
G01 X36.7380 Y40.6318
G01 X36.7253 Y40.6221
G01 X36.7119 Y40.6134
G01 X36.6978 Y40.6056
G01 X36.6833 Y40.5990
G01 X36.6683 Y40.5934
G01 X36.6529 Y40.5889
G01 X36.6372 Y40.5856
G01 X36.6213 Y40.5834
G01 X36.6053 Y40.5825
G01 X35.3947 Y40.5825
G01 X35.3787 Y40.5834
G01 X35.3681 Y40.5847
G01 X35.3575 Y40.5866
G01 X35.3471 Y40.5889
G01 X35.3368 Y40.5918
G01 X35.3217 Y40.5970
G01 X35.3118 Y40.6011
G01 X35.2974 Y40.6081
G01 X35.2881 Y40.6134
G01 X35.2747 Y40.6221
G01 X35.2661 Y40.6284
G01 X35.2579 Y40.6352
G01 X35.2461 Y40.6461
G01 X35.2388 Y40.6539
G01 X35.2318 Y40.6619
G01 X35.2221 Y40.6747
G01 X35.2134 Y40.6881
G01 X35.2056 Y40.7022
G01 X35.1990 Y40.7167
G01 X35.1934 Y40.7317
G01 X35.1889 Y40.7471
G01 X35.1856 Y40.7628
G01 X35.1834 Y40.7787
G01 X35.1825 Y40.7947
G01 X35.1824 Y42.8007
G00 Z2.0000
G00 X37.1824 Y42.8007
G01 F40.00
G01 Z-0.0499
G01 F80.00
G01 X37.1834 Y42.8213
G01 X37.1847 Y42.8319
G01 X37.1866 Y42.8425
G01 X37.1889 Y42.8529
G01 X37.1918 Y42.8632
G01 X37.1951 Y42.8733
G01 X37.1990 Y42.8833
G01 X37.2033 Y42.8930
G01 X37.2081 Y42.9026
G01 X37.2162 Y42.9164
G01 X37.2221 Y42.9253
G01 X37.2284 Y42.9339
G01 X37.2352 Y42.9421
G01 X37.2424 Y42.9500
G01 X37.2499 Y42.9576
G01 X37.2579 Y42.9648
G01 X37.2704 Y42.9748
G01 X37.2791 Y42.9809
G01 X37.2881 Y42.9866
G01 X37.2974 Y42.9919
G01 X37.3070 Y42.9967
G01 X37.3167 Y43.0010
G01 X37.3267 Y43.0049
G01 X37.3420 Y43.0097
G01 X37.3523 Y43.0123
G01 X37.3628 Y43.0144
G01 X37.3734 Y43.0160
G01 X37.3840 Y43.0170
G01 X37.3993 Y43.0176
G01 X38.6007 Y43.0176
G01 X38.6160 Y43.0170
G01 X38.6266 Y43.0160
G01 X38.6372 Y43.0144
G01 X38.6529 Y43.0111
G01 X38.6632 Y43.0082
G01 X38.6783 Y43.0030
G01 X38.6882 Y42.9989
G01 X38.6978 Y42.9944
G01 X38.7073 Y42.9893
G01 X38.7164 Y42.9838
G01 X38.7253 Y42.9779
G01 X38.7380 Y42.9682
G01 X38.7461 Y42.9612
G01 X38.7539 Y42.9539
G01 X38.7612 Y42.9461
G01 X38.7715 Y42.9339
G01 X38.7779 Y42.9253
G01 X38.7866 Y42.9119
G01 X38.7944 Y42.8978
G01 X38.8010 Y42.8833
G01 X38.8066 Y42.8683
G01 X38.8111 Y42.8529
G01 X38.8144 Y42.8372
G01 X38.8166 Y42.8213
G01 X38.8175 Y42.8053
G01 X38.8175 Y40.7947
G01 X38.8170 Y40.7840
G01 X38.8160 Y40.7734
G01 X38.8144 Y40.7628
G01 X38.8111 Y40.7471
G01 X38.8066 Y40.7317
G01 X38.8030 Y40.7217
G01 X38.7967 Y40.7070
G01 X38.7919 Y40.6974
G01 X38.7838 Y40.6836
G01 X38.7779 Y40.6747
G01 X38.7715 Y40.6661
G01 X38.7612 Y40.6539
G01 X38.7539 Y40.6461
G01 X38.7461 Y40.6388
G01 X38.7380 Y40.6318
G01 X38.7253 Y40.6221
G01 X38.7119 Y40.6134
G01 X38.6978 Y40.6056
G01 X38.6833 Y40.5990
G01 X38.6683 Y40.5934
G01 X38.6529 Y40.5889
G01 X38.6372 Y40.5856
G01 X38.6213 Y40.5834
G01 X38.6053 Y40.5825
G01 X37.3947 Y40.5825
G01 X37.3787 Y40.5834
G01 X37.3681 Y40.5847
G01 X37.3575 Y40.5866
G01 X37.3471 Y40.5889
G01 X37.3368 Y40.5918
G01 X37.3217 Y40.5970
G01 X37.3118 Y40.6011
G01 X37.2974 Y40.6081
G01 X37.2881 Y40.6134
G01 X37.2747 Y40.6221
G01 X37.2661 Y40.6284
G01 X37.2579 Y40.6352
G01 X37.2461 Y40.6461
G01 X37.2388 Y40.6539
G01 X37.2318 Y40.6619
G01 X37.2221 Y40.6747
G01 X37.2134 Y40.6881
G01 X37.2056 Y40.7022
G01 X37.1990 Y40.7167
G01 X37.1934 Y40.7317
G01 X37.1889 Y40.7471
G01 X37.1856 Y40.7628
G01 X37.1834 Y40.7787
G01 X37.1825 Y40.7947
G01 X37.1824 Y42.8007
G00 Z2.0000
G00 X39.1824 Y42.8007
G01 F40.00
G01 Z-0.0499
G01 F80.00
G01 X39.1834 Y42.8213
G01 X39.1847 Y42.8319
G01 X39.1866 Y42.8425
G01 X39.1889 Y42.8529
G01 X39.1918 Y42.8632
G01 X39.1951 Y42.8733
G01 X39.1990 Y42.8833
G01 X39.2033 Y42.8930
G01 X39.2081 Y42.9026
G01 X39.2162 Y42.9164
G01 X39.2221 Y42.9253
G01 X39.2284 Y42.9339
G01 X39.2352 Y42.9421
G01 X39.2424 Y42.9500
G01 X39.2499 Y42.9576
G01 X39.2579 Y42.9648
G01 X39.2704 Y42.9748
G01 X39.2791 Y42.9809
G01 X39.2881 Y42.9866
G01 X39.2974 Y42.9919
G01 X39.3070 Y42.9967
G01 X39.3167 Y43.0010
G01 X39.3267 Y43.0049
G01 X39.3420 Y43.0097
G01 X39.3523 Y43.0123
G01 X39.3628 Y43.0144
G01 X39.3734 Y43.0160
G01 X39.3840 Y43.0170
G01 X39.3993 Y43.0176
G01 X40.6007 Y43.0176
G01 X40.6160 Y43.0170
G01 X40.6266 Y43.0160
G01 X40.6372 Y43.0144
G01 X40.6529 Y43.0111
G01 X40.6632 Y43.0082
G01 X40.6783 Y43.0030
G01 X40.6882 Y42.9989
G01 X40.6978 Y42.9944
G01 X40.7073 Y42.9893
G01 X40.7164 Y42.9838
G01 X40.7253 Y42.9779
G01 X40.7380 Y42.9682
G01 X40.7461 Y42.9612
G01 X40.7539 Y42.9539
G01 X40.7612 Y42.9461
G01 X40.7715 Y42.9339
G01 X40.7779 Y42.9253
G01 X40.7866 Y42.9119
G01 X40.7944 Y42.8978
G01 X40.8010 Y42.8833
G01 X40.8066 Y42.8683
G01 X40.8111 Y42.8529
G01 X40.8144 Y42.8372
G01 X40.8166 Y42.8213
G01 X40.8175 Y42.8053
G01 X40.8175 Y40.7947
G01 X40.8170 Y40.7840
G01 X40.8160 Y40.7734
G01 X40.8144 Y40.7628
G01 X40.8111 Y40.7471
G01 X40.8066 Y40.7317
G01 X40.8030 Y40.7217
G01 X40.7967 Y40.7070
G01 X40.7919 Y40.6974
G01 X40.7838 Y40.6836
G01 X40.7779 Y40.6747
G01 X40.7715 Y40.6661
G01 X40.7612 Y40.6539
G01 X40.7539 Y40.6461
G01 X40.7461 Y40.6388
G01 X40.7380 Y40.6318
G01 X40.7253 Y40.6221
G01 X40.7119 Y40.6134
G01 X40.6978 Y40.6056
G01 X40.6833 Y40.5990
G01 X40.6683 Y40.5934
G01 X40.6529 Y40.5889
G01 X40.6372 Y40.5856
G01 X40.6213 Y40.5834
G01 X40.6053 Y40.5825
G01 X39.3947 Y40.5825
G01 X39.3787 Y40.5834
G01 X39.3681 Y40.5847
G01 X39.3575 Y40.5866
G01 X39.3471 Y40.5889
G01 X39.3368 Y40.5918
G01 X39.3217 Y40.5970
G01 X39.3118 Y40.6011
G01 X39.2974 Y40.6081
G01 X39.2881 Y40.6134
G01 X39.2747 Y40.6221
G01 X39.2661 Y40.6284
G01 X39.2579 Y40.6352
G01 X39.2461 Y40.6461
G01 X39.2388 Y40.6539
G01 X39.2318 Y40.6619
G01 X39.2221 Y40.6747
G01 X39.2134 Y40.6881
G01 X39.2056 Y40.7022
G01 X39.1990 Y40.7167
G01 X39.1934 Y40.7317
G01 X39.1889 Y40.7471
G01 X39.1856 Y40.7628
G01 X39.1834 Y40.7787
G01 X39.1825 Y40.7947
G01 X39.1824 Y42.8007
G00 Z2.0000
G00 X41.1824 Y42.8007
G01 F40.00
G01 Z-0.0499
G01 F80.00
G01 X41.1834 Y42.8213
G01 X41.1847 Y42.8319
G01 X41.1866 Y42.8425
G01 X41.1889 Y42.8529
G01 X41.1918 Y42.8632
G01 X41.1951 Y42.8733
G01 X41.1990 Y42.8833
G01 X41.2033 Y42.8930
G01 X41.2081 Y42.9026
G01 X41.2162 Y42.9164
G01 X41.2221 Y42.9253
G01 X41.2284 Y42.9339
G01 X41.2352 Y42.9421
G01 X41.2424 Y42.9500
G01 X41.2499 Y42.9576
G01 X41.2579 Y42.9648
G01 X41.2704 Y42.9748
G01 X41.2791 Y42.9809
G01 X41.2881 Y42.9866
G01 X41.2974 Y42.9919
G01 X41.3070 Y42.9967
G01 X41.3167 Y43.0010
G01 X41.3267 Y43.0049
G01 X41.3420 Y43.0097
G01 X41.3523 Y43.0123
G01 X41.3628 Y43.0144
G01 X41.3734 Y43.0160
G01 X41.3840 Y43.0170
G01 X41.3993 Y43.0176
G01 X42.6007 Y43.0176
G01 X42.6160 Y43.0170
G01 X42.6266 Y43.0160
G01 X42.6372 Y43.0144
G01 X42.6529 Y43.0111
G01 X42.6632 Y43.0082
G01 X42.6783 Y43.0030
G01 X42.6882 Y42.9989
G01 X42.6978 Y42.9944
G01 X42.7073 Y42.9893
G01 X42.7164 Y42.9838
G01 X42.7253 Y42.9779
G01 X42.7380 Y42.9682
G01 X42.7461 Y42.9612
G01 X42.7539 Y42.9539
G01 X42.7612 Y42.9461
G01 X42.7715 Y42.9339
G01 X42.7779 Y42.9253
G01 X42.7866 Y42.9119
G01 X42.7944 Y42.8978
G01 X42.8010 Y42.8833
G01 X42.8066 Y42.8683
G01 X42.8111 Y42.8529
G01 X42.8144 Y42.8372
G01 X42.8166 Y42.8213
G01 X42.8175 Y42.8053
G01 X42.8175 Y40.7947
G01 X42.8170 Y40.7840
G01 X42.8160 Y40.7734
G01 X42.8144 Y40.7628
G01 X42.8111 Y40.7471
G01 X42.8066 Y40.7317
G01 X42.8030 Y40.7217
G01 X42.7967 Y40.7070
G01 X42.7919 Y40.6974
G01 X42.7838 Y40.6836
G01 X42.7779 Y40.6747
G01 X42.7715 Y40.6661
G01 X42.7612 Y40.6539
G01 X42.7539 Y40.6461
G01 X42.7461 Y40.6388
G01 X42.7380 Y40.6318
G01 X42.7253 Y40.6221
G01 X42.7119 Y40.6134
G01 X42.6978 Y40.6056
G01 X42.6833 Y40.5990
G01 X42.6683 Y40.5934
G01 X42.6529 Y40.5889
G01 X42.6372 Y40.5856
G01 X42.6213 Y40.5834
G01 X42.6053 Y40.5825
G01 X41.3947 Y40.5825
G01 X41.3787 Y40.5834
G01 X41.3681 Y40.5847
G01 X41.3575 Y40.5866
G01 X41.3471 Y40.5889
G01 X41.3368 Y40.5918
G01 X41.3217 Y40.5970
G01 X41.3118 Y40.6011
G01 X41.2974 Y40.6081
G01 X41.2881 Y40.6134
G01 X41.2747 Y40.6221
G01 X41.2661 Y40.6284
G01 X41.2579 Y40.6352
G01 X41.2461 Y40.6461
G01 X41.2388 Y40.6539
G01 X41.2318 Y40.6619
G01 X41.2221 Y40.6747
G01 X41.2134 Y40.6881
G01 X41.2056 Y40.7022
G01 X41.1990 Y40.7167
G01 X41.1934 Y40.7317
G01 X41.1889 Y40.7471
G01 X41.1856 Y40.7628
G01 X41.1834 Y40.7787
G01 X41.1825 Y40.7947
G01 X41.1824 Y42.8007
G00 Z2.0000
G00 X43.5000 Y43.0300
G01 F40.00
G01 Z-0.0499
G01 F80.00
G01 X44.0000 Y43.0300
G01 X44.0000 Y42.6800
G01 X44.7500 Y42.6800
G01 X44.7500 Y42.1800
G01 X43.9555 Y42.1800
G01 X43.9489 Y42.1804
G01 X43.9003 Y42.1856
G01 X43.8854 Y42.1891
G01 X43.7662 Y42.2335
G01 X43.7508 Y42.2420
G01 X43.6499 Y42.3175
G01 X43.6375 Y42.3299
G01 X43.5620 Y42.4308
G01 X43.5535 Y42.4462
G01 X43.5091 Y42.5654
G01 X43.5056 Y42.5803
G01 X43.5004 Y42.6289
G01 X43.5000 Y42.6355
G01 X43.5000 Y43.0300
G00 Z2.0000
G00 X43.9993 Y44.4624
G01 F40.00
G01 Z-0.0499
G01 F80.00
G01 X43.9787 Y44.4634
G01 X43.9681 Y44.4647
G01 X43.9575 Y44.4666
G01 X43.9471 Y44.4689
G01 X43.9368 Y44.4718
G01 X43.9267 Y44.4751
G01 X43.9167 Y44.4790
G01 X43.9070 Y44.4833
G01 X43.8974 Y44.4881
G01 X43.8836 Y44.4962
G01 X43.8747 Y44.5021
G01 X43.8661 Y44.5084
G01 X43.8579 Y44.5152
G01 X43.8499 Y44.5224
G01 X43.8424 Y44.5299
G01 X43.8352 Y44.5379
G01 X43.8284 Y44.5461
G01 X43.8221 Y44.5547
G01 X43.8134 Y44.5681
G01 X43.8081 Y44.5774
G01 X43.8033 Y44.5870
G01 X43.7990 Y44.5967
G01 X43.7951 Y44.6067
G01 X43.7918 Y44.6168
G01 X43.7889 Y44.6271
G01 X43.7866 Y44.6375
G01 X43.7847 Y44.6481
G01 X43.7834 Y44.6587
G01 X43.7827 Y44.6693
G01 X43.7824 Y44.6793
G01 X43.7824 Y45.8807
G01 X43.7834 Y45.9013
G01 X43.7856 Y45.9172
G01 X43.7889 Y45.9329
G01 X43.7918 Y45.9432
G01 X43.7970 Y45.9583
G01 X43.8033 Y45.9730
G01 X43.8107 Y45.9873
G01 X43.8191 Y46.0009
G01 X43.8284 Y46.0139
G01 X43.8388 Y46.0261
G01 X43.8499 Y46.0376
G01 X43.8619 Y46.0482
G01 X43.8704 Y46.0548
G01 X43.8836 Y46.0638
G01 X43.8974 Y46.0719
G01 X43.9118 Y46.0789
G01 X43.9267 Y46.0849
G01 X43.9368 Y46.0882
G01 X43.9471 Y46.0911
G01 X43.9628 Y46.0944
G01 X43.9787 Y46.0966
G01 X43.9993 Y46.0976
G01 X46.0053 Y46.0975
G01 X46.0160 Y46.0970
G01 X46.0266 Y46.0960
G01 X46.0372 Y46.0944
G01 X46.0529 Y46.0911
G01 X46.0632 Y46.0882
G01 X46.0733 Y46.0849
G01 X46.0882 Y46.0789
G01 X46.0978 Y46.0744
G01 X46.1119 Y46.0666
G01 X46.1209 Y46.0609
G01 X46.1296 Y46.0548
G01 X46.1380 Y46.0482
G01 X46.1461 Y46.0412
G01 X46.1539 Y46.0339
G01 X46.1612 Y46.0261
G01 X46.1684 Y46.0179
G01 X46.5669 Y46.0179
G01 X46.5852 Y46.0425
G01 X46.5920 Y46.0507
G01 X46.6124 Y46.0734
G01 X46.6232 Y46.0844
G01 X46.6534 Y46.1115
G01 X46.6820 Y46.1330
G01 X46.6947 Y46.1417
G01 X46.7296 Y46.1624
G01 X46.7385 Y46.1669
G01 X46.7711 Y46.1820
G01 X46.7804 Y46.1856
G01 X46.8143 Y46.1975
G01 X46.8490 Y46.2064
G01 X46.8640 Y46.2096
G01 X46.9042 Y46.2154
G01 X46.9493 Y46.2176
G01 X47.6600 Y46.2174
G01 X47.6958 Y46.2154
G01 X47.7360 Y46.2096
G01 X47.7465 Y46.2075
G01 X47.7761 Y46.2002
G01 X47.7908 Y46.1959
G01 X47.8289 Y46.1820
G01 X47.8657 Y46.1649
G01 X47.8751 Y46.1598
G01 X47.9013 Y46.1442
G01 X47.9180 Y46.1330
G01 X47.9466 Y46.1115
G01 X47.9542 Y46.1049
G01 X47.9806 Y46.0806
G01 X48.0049 Y46.0542
G01 X48.0115 Y46.0466
G01 X48.0330 Y46.0180
G01 X48.0442 Y46.0013
G01 X48.0598 Y45.9751
G01 X48.0649 Y45.9657
G01 X48.0820 Y45.9289
G01 X48.0943 Y45.8952
G01 X48.1002 Y45.8761
G01 X48.1075 Y45.8465
G01 X48.1096 Y45.8360
G01 X48.1154 Y45.7958
G01 X48.1175 Y45.7553
G01 X48.1176 Y44.8493
G01 X48.1154 Y44.8042
G01 X48.1141 Y44.7942
G01 X48.1086 Y44.7588
G01 X48.0990 Y44.7194
G01 X48.0943 Y44.7048
G01 X48.0820 Y44.6711
G01 X48.0669 Y44.6385
G01 X48.0598 Y44.6249
G01 X48.0388 Y44.5902
G01 X48.0148 Y44.5575
G01 X48.0049 Y44.5458
G01 X47.9806 Y44.5194
G01 X47.9542 Y44.4951
G01 X47.9425 Y44.4852
G01 X47.9098 Y44.4612
G01 X47.8751 Y44.4402
G01 X47.8615 Y44.4331
G01 X47.8289 Y44.4180
G01 X47.7952 Y44.4057
G01 X47.7761 Y44.3998
G01 X47.7465 Y44.3925
G01 X47.7360 Y44.3904
G01 X47.6958 Y44.3846
G01 X47.6553 Y44.3825
G01 X46.9493 Y44.3824
G01 X46.9095 Y44.3842
G01 X46.8942 Y44.3859
G01 X46.8640 Y44.3904
G01 X46.8535 Y44.3925
G01 X46.8194 Y44.4010
G01 X46.8048 Y44.4057
G01 X46.7760 Y44.4160
G01 X46.7619 Y44.4220
G01 X46.7296 Y44.4376
G01 X46.6987 Y44.4558
G01 X46.6858 Y44.4642
G01 X46.6575 Y44.4852
G01 X46.6458 Y44.4951
G01 X46.6232 Y44.5156
G01 X46.6124 Y44.5266
G01 X46.5920 Y44.5493
G01 X46.5852 Y44.5575
G01 X46.5669 Y44.5821
G01 X46.1944 Y44.5821
G01 X46.1866 Y44.5681
G01 X46.1779 Y44.5547
G01 X46.1715 Y44.5461
G01 X46.1612 Y44.5339
G01 X46.1539 Y44.5261
G01 X46.1421 Y44.5152
G01 X46.1296 Y44.5052
G01 X46.1164 Y44.4962
G01 X46.1073 Y44.4907
G01 X46.0930 Y44.4833
G01 X46.0783 Y44.4770
G01 X46.0632 Y44.4718
G01 X46.0477 Y44.4677
G01 X46.0372 Y44.4656
G01 X46.0266 Y44.4640
G01 X46.0107 Y44.4627
G01 X46.0007 Y44.4624
G01 X43.9993 Y44.4624
G00 Z2.0000
G00 X43.9993 Y46.4624
G01 F40.00
G01 Z-0.0499
G01 F80.00
G01 X43.9787 Y46.4634
G01 X43.9681 Y46.4647
G01 X43.9575 Y46.4666
G01 X43.9471 Y46.4689
G01 X43.9368 Y46.4718
G01 X43.9267 Y46.4751
G01 X43.9167 Y46.4790
G01 X43.9070 Y46.4833
G01 X43.8974 Y46.4881
G01 X43.8836 Y46.4962
G01 X43.8747 Y46.5021
G01 X43.8661 Y46.5084
G01 X43.8579 Y46.5152
G01 X43.8499 Y46.5224
G01 X43.8424 Y46.5299
G01 X43.8352 Y46.5379
G01 X43.8284 Y46.5461
G01 X43.8221 Y46.5547
G01 X43.8134 Y46.5681
G01 X43.8081 Y46.5774
G01 X43.8033 Y46.5870
G01 X43.7990 Y46.5967
G01 X43.7951 Y46.6067
G01 X43.7918 Y46.6168
G01 X43.7889 Y46.6271
G01 X43.7866 Y46.6375
G01 X43.7847 Y46.6481
G01 X43.7834 Y46.6587
G01 X43.7827 Y46.6693
G01 X43.7824 Y46.6793
G01 X43.7824 Y47.8807
G01 X43.7834 Y47.9013
G01 X43.7856 Y47.9172
G01 X43.7889 Y47.9329
G01 X43.7918 Y47.9432
G01 X43.7970 Y47.9583
G01 X43.8033 Y47.9730
G01 X43.8107 Y47.9873
G01 X43.8191 Y48.0009
G01 X43.8284 Y48.0139
G01 X43.8388 Y48.0261
G01 X43.8499 Y48.0376
G01 X43.8619 Y48.0482
G01 X43.8704 Y48.0548
G01 X43.8836 Y48.0638
G01 X43.8974 Y48.0719
G01 X43.9118 Y48.0789
G01 X43.9267 Y48.0849
G01 X43.9368 Y48.0882
G01 X43.9471 Y48.0911
G01 X43.9628 Y48.0944
G01 X43.9787 Y48.0966
G01 X43.9993 Y48.0976
G01 X46.0053 Y48.0975
G01 X46.0160 Y48.0970
G01 X46.0266 Y48.0960
G01 X46.0372 Y48.0944
G01 X46.0529 Y48.0911
G01 X46.0632 Y48.0882
G01 X46.0733 Y48.0849
G01 X46.0882 Y48.0789
G01 X46.0978 Y48.0744
G01 X46.1119 Y48.0666
G01 X46.1209 Y48.0609
G01 X46.1296 Y48.0548
G01 X46.1380 Y48.0482
G01 X46.1461 Y48.0412
G01 X46.1539 Y48.0339
G01 X46.1612 Y48.0261
G01 X46.1684 Y48.0179
G01 X46.5669 Y48.0179
G01 X46.5852 Y48.0425
G01 X46.5920 Y48.0507
G01 X46.6124 Y48.0734
G01 X46.6232 Y48.0844
G01 X46.6534 Y48.1115
G01 X46.6820 Y48.1330
G01 X46.6947 Y48.1417
G01 X46.7296 Y48.1624
G01 X46.7385 Y48.1669
G01 X46.7711 Y48.1820
G01 X46.7804 Y48.1856
G01 X46.8143 Y48.1975
G01 X46.8490 Y48.2064
G01 X46.8640 Y48.2096
G01 X46.9042 Y48.2154
G01 X46.9493 Y48.2176
G01 X47.6600 Y48.2174
G01 X47.6958 Y48.2154
G01 X47.7360 Y48.2096
G01 X47.7465 Y48.2075
G01 X47.7761 Y48.2002
G01 X47.7908 Y48.1959
G01 X47.8289 Y48.1820
G01 X47.8657 Y48.1649
G01 X47.8751 Y48.1598
G01 X47.9013 Y48.1442
G01 X47.9180 Y48.1330
G01 X47.9466 Y48.1115
G01 X47.9542 Y48.1049
G01 X47.9806 Y48.0806
G01 X48.0049 Y48.0542
G01 X48.0115 Y48.0466
G01 X48.0330 Y48.0180
G01 X48.0442 Y48.0013
G01 X48.0598 Y47.9751
G01 X48.0649 Y47.9657
G01 X48.0820 Y47.9289
G01 X48.0943 Y47.8952
G01 X48.1002 Y47.8761
G01 X48.1075 Y47.8465
G01 X48.1096 Y47.8360
G01 X48.1154 Y47.7958
G01 X48.1175 Y47.7553
G01 X48.1176 Y46.8493
G01 X48.1154 Y46.8042
G01 X48.1141 Y46.7942
G01 X48.1086 Y46.7588
G01 X48.0990 Y46.7194
G01 X48.0943 Y46.7048
G01 X48.0820 Y46.6711
G01 X48.0669 Y46.6385
G01 X48.0598 Y46.6249
G01 X48.0388 Y46.5902
G01 X48.0148 Y46.5575
G01 X48.0049 Y46.5458
G01 X47.9806 Y46.5194
G01 X47.9542 Y46.4951
G01 X47.9425 Y46.4852
G01 X47.9098 Y46.4612
G01 X47.8751 Y46.4402
G01 X47.8615 Y46.4331
G01 X47.8289 Y46.4180
G01 X47.7952 Y46.4057
G01 X47.7761 Y46.3998
G01 X47.7465 Y46.3925
G01 X47.7360 Y46.3904
G01 X47.6958 Y46.3846
G01 X47.6553 Y46.3825
G01 X46.9493 Y46.3824
G01 X46.9095 Y46.3842
G01 X46.8942 Y46.3859
G01 X46.8640 Y46.3904
G01 X46.8535 Y46.3925
G01 X46.8194 Y46.4010
G01 X46.8048 Y46.4057
G01 X46.7760 Y46.4160
G01 X46.7619 Y46.4220
G01 X46.7296 Y46.4376
G01 X46.6987 Y46.4558
G01 X46.6858 Y46.4642
G01 X46.6575 Y46.4852
G01 X46.6458 Y46.4951
G01 X46.6232 Y46.5156
G01 X46.6124 Y46.5266
G01 X46.5920 Y46.5493
G01 X46.5852 Y46.5575
G01 X46.5669 Y46.5821
G01 X46.1944 Y46.5821
G01 X46.1866 Y46.5681
G01 X46.1779 Y46.5547
G01 X46.1715 Y46.5461
G01 X46.1612 Y46.5339
G01 X46.1539 Y46.5261
G01 X46.1421 Y46.5152
G01 X46.1296 Y46.5052
G01 X46.1164 Y46.4962
G01 X46.1073 Y46.4907
G01 X46.0930 Y46.4833
G01 X46.0783 Y46.4770
G01 X46.0632 Y46.4718
G01 X46.0477 Y46.4677
G01 X46.0372 Y46.4656
G01 X46.0266 Y46.4640
G01 X46.0107 Y46.4627
G01 X46.0007 Y46.4624
G01 X43.9993 Y46.4624
G00 Z2.0000
G00 X43.9993 Y48.4624
G01 F40.00
G01 Z-0.0499
G01 F80.00
G01 X43.9787 Y48.4634
G01 X43.9681 Y48.4647
G01 X43.9575 Y48.4666
G01 X43.9471 Y48.4689
G01 X43.9368 Y48.4718
G01 X43.9267 Y48.4751
G01 X43.9167 Y48.4790
G01 X43.9070 Y48.4833
G01 X43.8974 Y48.4881
G01 X43.8881 Y48.4934
G01 X43.8791 Y48.4991
G01 X43.8704 Y48.5052
G01 X43.8619 Y48.5118
G01 X43.8539 Y48.5188
G01 X43.8461 Y48.5261
G01 X43.8388 Y48.5339
G01 X43.8318 Y48.5419
G01 X43.8252 Y48.5504
G01 X43.8191 Y48.5591
G01 X43.8134 Y48.5681
G01 X43.8081 Y48.5774
G01 X43.8033 Y48.5870
G01 X43.7990 Y48.5967
G01 X43.7951 Y48.6067
G01 X43.7918 Y48.6168
G01 X43.7889 Y48.6271
G01 X43.7866 Y48.6375
G01 X43.7847 Y48.6481
G01 X43.7834 Y48.6587
G01 X43.7824 Y48.6793
G01 X43.7824 Y49.8807
G01 X43.7830 Y49.8960
G01 X43.7847 Y49.9119
G01 X43.7866 Y49.9225
G01 X43.7889 Y49.9329
G01 X43.7934 Y49.9483
G01 X43.7990 Y49.9633
G01 X43.8033 Y49.9730
G01 X43.8081 Y49.9826
G01 X43.8162 Y49.9964
G01 X43.8221 Y50.0053
G01 X43.8284 Y50.0139
G01 X43.8388 Y50.0261
G01 X43.8461 Y50.0339
G01 X43.8539 Y50.0412
G01 X43.8661 Y50.0515
G01 X43.8747 Y50.0579
G01 X43.8836 Y50.0638
G01 X43.8974 Y50.0719
G01 X43.9070 Y50.0767
G01 X43.9167 Y50.0810
G01 X43.9267 Y50.0849
G01 X43.9368 Y50.0882
G01 X43.9471 Y50.0911
G01 X43.9575 Y50.0934
G01 X43.9734 Y50.0960
G01 X43.9840 Y50.0970
G01 X43.9947 Y50.0975
G01 X46.0007 Y50.0976
G01 X46.0160 Y50.0970
G01 X46.0319 Y50.0953
G01 X46.0477 Y50.0923
G01 X46.0632 Y50.0882
G01 X46.0783 Y50.0830
G01 X46.0930 Y50.0767
G01 X46.1073 Y50.0693
G01 X46.1209 Y50.0609
G01 X46.1339 Y50.0515
G01 X46.1461 Y50.0412
G01 X46.1576 Y50.0300
G01 X46.1682 Y50.0180
G01 X46.1779 Y50.0053
G01 X46.1866 Y49.9919
G01 X46.1944 Y49.9778
G01 X46.2010 Y49.9633
G01 X46.2066 Y49.9484
G01 X50.4984 Y49.9484
G01 X50.5270 Y49.9693
G01 X50.5577 Y49.9880
G01 X50.5664 Y49.9929
G01 X50.5753 Y49.9974
G01 X50.6079 Y50.0125
G01 X50.6416 Y50.0249
G01 X50.6562 Y50.0295
G01 X50.6858 Y50.0370
G01 X50.7055 Y50.0409
G01 X50.7410 Y50.0459
G01 X50.7861 Y50.0481
G01 X51.6968 Y50.0479
G01 X51.7326 Y50.0459
G01 X51.7728 Y50.0401
G01 X51.7833 Y50.0380
G01 X51.8129 Y50.0307
G01 X51.8276 Y50.0264
G01 X51.8658 Y50.0125
G01 X51.9025 Y49.9954
G01 X51.9119 Y49.9903
G01 X51.9381 Y49.9747
G01 X51.9551 Y49.9634
G01 X52.8415 Y49.9634
G01 X52.9276 Y50.0412
G01 X53.0153 Y50.1066
G01 X53.0235 Y50.1124
G01 X53.0320 Y50.1178
G01 X53.1260 Y50.1738
G01 X53.2249 Y50.2209
G01 X53.2340 Y50.2249
G01 X53.2434 Y50.2285
G01 X53.3465 Y50.2652
G01 X53.3562 Y50.2679
G01 X53.4625 Y50.2942
G01 X53.5707 Y50.3105
G01 X53.5807 Y50.3117
G01 X53.5906 Y50.3125
G01 X53.7000 Y50.3176
G01 X53.8094 Y50.3125
G01 X53.8193 Y50.3117
G01 X53.8293 Y50.3105
G01 X53.9375 Y50.2942
G01 X54.0438 Y50.2679
G01 X54.0535 Y50.2652
G01 X54.0630 Y50.2620
G01 X54.1660 Y50.2249
G01 X54.1751 Y50.2209
G01 X54.2740 Y50.1738
G01 X54.3680 Y50.1178
G01 X54.3765 Y50.1124
G01 X54.3847 Y50.1066
G01 X54.4724 Y50.0412
G01 X54.5585 Y49.9634
G01 X66.1013 Y49.9634
G01 X66.1360 Y50.0101
G01 X66.1456 Y50.0220
G01 X66.2187 Y50.1027
G01 X66.2296 Y50.1134
G01 X66.3068 Y50.1833
G01 X66.3188 Y50.1929
G01 X66.4069 Y50.2579
G01 X66.5007 Y50.3144
G01 X66.5141 Y50.3218
G01 X66.6083 Y50.3664
G01 X66.6268 Y50.3740
G01 X66.7299 Y50.4107
G01 X66.8361 Y50.4375
G01 X66.8557 Y50.4414
G01 X66.9640 Y50.4572
G01 X67.0734 Y50.4629
G01 X67.0887 Y50.4630
G01 X67.2027 Y50.4572
G01 X67.2127 Y50.4560
G01 X67.3209 Y50.4397
G01 X67.4272 Y50.4134
G01 X67.4368 Y50.4107
G01 X67.4463 Y50.4076
G01 X67.5493 Y50.3704
G01 X67.5585 Y50.3664
G01 X67.6574 Y50.3193
G01 X67.7514 Y50.2633
G01 X67.7598 Y50.2579
G01 X67.7680 Y50.2522
G01 X67.8558 Y50.1867
G01 X67.9371 Y50.1134
G01 X67.9444 Y50.1065
G01 X67.9513 Y50.0992
G01 X68.0246 Y50.0179
G01 X68.0900 Y49.9302
G01 X68.0958 Y49.9220
G01 X68.1011 Y49.9135
G01 X68.1572 Y49.8195
G01 X68.2042 Y49.7206
G01 X68.2083 Y49.7115
G01 X68.2119 Y49.7021
G01 X68.2486 Y49.5990
G01 X68.2512 Y49.5893
G01 X68.2776 Y49.4830
G01 X68.2939 Y49.3748
G01 X68.2951 Y49.3649
G01 X68.3009 Y49.2508
G01 X68.3007 Y49.2355
G01 X68.2951 Y49.1262
G01 X68.2939 Y49.1162
G01 X68.2776 Y49.0080
G01 X68.2512 Y48.9017
G01 X68.2486 Y48.8921
G01 X68.2454 Y48.8825
G01 X68.2083 Y48.7795
G01 X68.2042 Y48.7704
G01 X68.1572 Y48.6715
G01 X68.1011 Y48.5775
G01 X68.0958 Y48.5690
G01 X68.0900 Y48.5608
G01 X68.0246 Y48.4731
G01 X67.9513 Y48.3918
G01 X67.9444 Y48.3845
G01 X67.9371 Y48.3776
G01 X67.8558 Y48.3043
G01 X67.7680 Y48.2389
G01 X67.7598 Y48.2331
G01 X67.7514 Y48.2277
G01 X67.6574 Y48.1717
G01 X67.5585 Y48.1246
G01 X67.5493 Y48.1206
G01 X67.5400 Y48.1170
G01 X67.4368 Y48.0803
G01 X67.4272 Y48.0776
G01 X67.3209 Y48.0513
G01 X67.2127 Y48.0350
G01 X67.2027 Y48.0338
G01 X67.0887 Y48.0280
G01 X67.0734 Y48.0281
G01 X66.9640 Y48.0338
G01 X66.8557 Y48.0496
G01 X66.8361 Y48.0535
G01 X66.7299 Y48.0803
G01 X66.6268 Y48.1170
G01 X66.6083 Y48.1246
G01 X66.5141 Y48.1692
G01 X66.5007 Y48.1766
G01 X66.4069 Y48.2331
G01 X66.3188 Y48.2981
G01 X66.3068 Y48.3077
G01 X66.2296 Y48.3776
G01 X66.2187 Y48.3883
G01 X66.1456 Y48.4690
G01 X66.1360 Y48.4810
G01 X66.1013 Y48.5277
G01 X54.7747 Y48.5277
G01 X54.7689 Y48.5173
G01 X54.7178 Y48.4320
G01 X54.7066 Y48.4153
G01 X54.6412 Y48.3276
G01 X54.5679 Y48.2463
G01 X54.5537 Y48.2321
G01 X54.4724 Y48.1588
G01 X54.3847 Y48.0934
G01 X54.3680 Y48.0822
G01 X54.2740 Y48.0262
G01 X54.1751 Y47.9791
G01 X54.1566 Y47.9715
G01 X54.0535 Y47.9348
G01 X54.0438 Y47.9321
G01 X53.9375 Y47.9058
G01 X53.8293 Y47.8895
G01 X53.8094 Y47.8875
G01 X53.7000 Y47.8824
G01 X53.5906 Y47.8875
G01 X53.5707 Y47.8895
G01 X53.4625 Y47.9058
G01 X53.3562 Y47.9321
G01 X53.3465 Y47.9348
G01 X53.2434 Y47.9715
G01 X53.2249 Y47.9791
G01 X53.1260 Y48.0262
G01 X53.0320 Y48.0822
G01 X53.0153 Y48.0934
G01 X52.9276 Y48.1588
G01 X52.8463 Y48.2321
G01 X52.8321 Y48.2463
G01 X52.7588 Y48.3276
G01 X52.6934 Y48.4153
G01 X52.6822 Y48.4320
G01 X52.6311 Y48.5173
G01 X52.6253 Y48.5277
G01 X51.9933 Y48.5277
G01 X51.9835 Y48.5191
G01 X51.9756 Y48.5129
G01 X51.9510 Y48.4947
G01 X51.9381 Y48.4864
G01 X51.9119 Y48.4707
G01 X51.9025 Y48.4657
G01 X51.8749 Y48.4526
G01 X51.8608 Y48.4465
G01 X51.8226 Y48.4331
G01 X51.7878 Y48.4241
G01 X51.7780 Y48.4219
G01 X51.7426 Y48.4164
G01 X51.7326 Y48.4152
G01 X51.6875 Y48.4129
G01 X50.7861 Y48.4129
G01 X50.7463 Y48.4147
G01 X50.7357 Y48.4158
G01 X50.7055 Y48.4202
G01 X50.6858 Y48.4241
G01 X50.6511 Y48.4331
G01 X50.6128 Y48.4465
G01 X50.6030 Y48.4506
G01 X50.5753 Y48.4636
G01 X50.5617 Y48.4707
G01 X50.5270 Y48.4917
G01 X50.4984 Y48.5127
G01 X46.1391 Y48.5127
G01 X46.1253 Y48.5021
G01 X46.1119 Y48.4934
G01 X46.0978 Y48.4856
G01 X46.0882 Y48.4811
G01 X46.0783 Y48.4770
G01 X46.0632 Y48.4718
G01 X46.0529 Y48.4689
G01 X46.0425 Y48.4666
G01 X46.0319 Y48.4647
G01 X46.0213 Y48.4634
G01 X46.0053 Y48.4625
G01 X43.9993 Y48.4624
G00 Z2.0000
G00 X43.9993 Y50.4624
G01 F40.00
G01 Z-0.0499
G01 F80.00
G01 X43.9787 Y50.4634
G01 X43.9681 Y50.4647
G01 X43.9575 Y50.4666
G01 X43.9471 Y50.4689
G01 X43.9368 Y50.4718
G01 X43.9267 Y50.4751
G01 X43.9167 Y50.4790
G01 X43.9070 Y50.4833
G01 X43.8974 Y50.4881
G01 X43.8836 Y50.4962
G01 X43.8747 Y50.5021
G01 X43.8661 Y50.5084
G01 X43.8579 Y50.5152
G01 X43.8499 Y50.5224
G01 X43.8424 Y50.5299
G01 X43.8352 Y50.5379
G01 X43.8284 Y50.5461
G01 X43.8221 Y50.5547
G01 X43.8134 Y50.5681
G01 X43.8081 Y50.5774
G01 X43.8033 Y50.5870
G01 X43.7990 Y50.5967
G01 X43.7951 Y50.6067
G01 X43.7918 Y50.6168
G01 X43.7889 Y50.6271
G01 X43.7866 Y50.6375
G01 X43.7847 Y50.6481
G01 X43.7834 Y50.6587
G01 X43.7827 Y50.6693
G01 X43.7824 Y50.6793
G01 X43.7824 Y51.8807
G01 X43.7834 Y51.9013
G01 X43.7856 Y51.9172
G01 X43.7889 Y51.9329
G01 X43.7918 Y51.9432
G01 X43.7970 Y51.9583
G01 X43.8033 Y51.9730
G01 X43.8081 Y51.9826
G01 X43.8162 Y51.9964
G01 X43.8252 Y52.0096
G01 X43.8352 Y52.0221
G01 X43.8461 Y52.0339
G01 X43.8579 Y52.0448
G01 X43.8704 Y52.0548
G01 X43.8836 Y52.0638
G01 X43.8974 Y52.0719
G01 X43.9070 Y52.0767
G01 X43.9217 Y52.0830
G01 X43.9368 Y52.0882
G01 X43.9471 Y52.0911
G01 X43.9575 Y52.0934
G01 X43.9681 Y52.0953
G01 X43.9787 Y52.0966
G01 X43.9993 Y52.0976
G01 X46.0007 Y52.0976
G01 X46.0107 Y52.0973
G01 X46.0266 Y52.0960
G01 X46.0372 Y52.0944
G01 X46.0477 Y52.0923
G01 X46.0580 Y52.0897
G01 X46.0683 Y52.0866
G01 X46.0833 Y52.0810
G01 X46.0978 Y52.0744
G01 X46.1073 Y52.0693
G01 X46.1209 Y52.0609
G01 X46.1296 Y52.0548
G01 X46.1380 Y52.0482
G01 X46.1500 Y52.0376
G01 X46.1576 Y52.0300
G01 X46.1682 Y52.0180
G01 X46.1748 Y52.0096
G01 X46.1829 Y51.9979
G01 X49.5827 Y51.9979
G01 X50.5821 Y52.9973
G01 X50.5821 Y61.7007
G01 X50.5849 Y61.7604
G01 X50.5856 Y61.7704
G01 X50.5942 Y61.8302
G01 X50.5970 Y61.8453
G01 X50.6131 Y61.9084
G01 X50.6332 Y61.9654
G01 X50.6408 Y61.9839
G01 X50.6669 Y62.0384
G01 X50.6978 Y62.0904
G01 X50.7089 Y62.1070
G01 X50.7451 Y62.1554
G01 X50.7516 Y62.1630
G01 X50.7919 Y62.2071
G01 X52.6962 Y64.1113
G01 X52.7405 Y64.1515
G01 X52.7525 Y64.1611
G01 X52.8012 Y64.1969
G01 X52.8529 Y64.2282
G01 X52.8705 Y64.2376
G01 X52.9253 Y64.2632
G01 X52.9821 Y64.2838
G01 X52.9967 Y64.2884
G01 X53.0600 Y64.3041
G01 X53.1197 Y64.3132
G01 X53.1396 Y64.3151
G01 X53.1993 Y64.3179
G01 X84.5007 Y64.3179
G01 X84.5650 Y64.3149
G01 X84.5803 Y64.3132
G01 X84.6400 Y64.3041
G01 X84.6987 Y64.2896
G01 X84.7179 Y64.2838
G01 X84.7698 Y64.2652
G01 X84.7839 Y64.2592
G01 X84.8384 Y64.2331
G01 X84.8904 Y64.2022
G01 X84.8988 Y64.1969
G01 X84.9070 Y64.1911
G01 X84.9554 Y64.1549
G01 X85.0038 Y64.1113
G01 X86.7613 Y62.3538
G01 X86.8015 Y62.3095
G01 X86.8111 Y62.2975
G01 X86.8469 Y62.2488
G01 X86.8782 Y62.1971
G01 X86.8876 Y62.1795
G01 X86.9132 Y62.1247
G01 X86.9338 Y62.0679
G01 X86.9384 Y62.0533
G01 X86.9541 Y61.9900
G01 X86.9632 Y61.9303
G01 X86.9651 Y61.9104
G01 X86.9679 Y61.8507
G01 X86.9679 Y58.5620
G01 X87.0146 Y58.5274
G01 X87.0265 Y58.5178
G01 X87.1072 Y58.4447
G01 X87.1179 Y58.4337
G01 X87.1847 Y58.3600
G01 X87.1946 Y58.3483
G01 X87.2624 Y58.2565
G01 X87.3189 Y58.1627
G01 X87.3283 Y58.1450
G01 X87.3728 Y58.0509
G01 X87.3785 Y58.0366
G01 X87.4152 Y57.9335
G01 X87.4420 Y57.8273
G01 X87.4459 Y57.8077
G01 X87.4617 Y57.6993
G01 X87.4674 Y57.5900
G01 X87.4674 Y57.5700
G01 X87.4617 Y57.4607
G01 X87.4605 Y57.4507
G01 X87.4442 Y57.3425
G01 X87.4179 Y57.2362
G01 X87.4152 Y57.2265
G01 X87.4120 Y57.2170
G01 X87.3749 Y57.1140
G01 X87.3283 Y57.0150
G01 X87.3213 Y57.0013
G01 X87.2624 Y56.9035
G01 X87.1974 Y56.8154
G01 X87.1878 Y56.8035
G01 X87.1179 Y56.7263
G01 X87.1072 Y56.7153
G01 X87.0265 Y56.6422
G01 X87.0146 Y56.6326
G01 X86.9679 Y56.5980
G01 X86.9679 Y55.5625
G01 X86.9869 Y55.5084
G01 X87.0019 Y55.4498
G01 X87.0041 Y55.4400
G01 X87.0132 Y55.3803
G01 X87.0144 Y55.3704
G01 X87.0151 Y55.3604
G01 X87.0179 Y55.3000
G01 X87.0151 Y55.2396
G01 X87.0144 Y55.2296
G01 X87.0132 Y55.2197
G01 X87.0041 Y55.1600
G01 X86.9896 Y55.1013
G01 X86.9869 Y55.0916
G01 X86.9838 Y55.0821
G01 X86.9632 Y55.0253
G01 X86.9376 Y54.9705
G01 X86.9331 Y54.9616
G01 X86.9022 Y54.9096
G01 X86.8911 Y54.8930
G01 X86.8549 Y54.8446
G01 X86.8145 Y54.7996
G01 X86.8004 Y54.7855
G01 X86.7554 Y54.7451
G01 X86.7070 Y54.7089
G01 X86.6988 Y54.7031
G01 X86.6904 Y54.6978
G01 X86.6384 Y54.6669
G01 X86.5839 Y54.6408
G01 X86.5654 Y54.6332
G01 X86.5084 Y54.6131
G01 X86.4498 Y54.5981
G01 X86.4400 Y54.5959
G01 X86.3803 Y54.5868
G01 X86.3604 Y54.5849
G01 X86.3100 Y54.5824
G01 X86.2947 Y54.5822
G01 X86.2296 Y54.5856
G01 X86.1698 Y54.5942
G01 X86.1502 Y54.5981
G01 X86.0916 Y54.6131
G01 X86.0821 Y54.6162
G01 X86.0253 Y54.6368
G01 X85.9705 Y54.6624
G01 X85.9529 Y54.6718
G01 X85.9096 Y54.6978
G01 X85.8968 Y54.7061
G01 X85.8446 Y54.7451
G01 X85.7962 Y54.7887
G01 X85.7387 Y54.8462
G01 X85.6985 Y54.8905
G01 X85.6889 Y54.9025
G01 X85.6589 Y54.9430
G01 X85.6478 Y54.9596
G01 X85.6169 Y55.0116
G01 X85.5889 Y55.0704
G01 X85.5832 Y55.0846
G01 X85.5631 Y55.1416
G01 X85.5481 Y55.2002
G01 X85.5459 Y55.2100
G01 X85.5368 Y55.2697
G01 X85.5356 Y55.2796
G01 X85.5324 Y55.3400
G01 X85.5321 Y56.5980
G01 X85.4854 Y56.6326
G01 X85.4735 Y56.6422
G01 X85.3928 Y56.7153
G01 X85.3821 Y56.7263
G01 X85.3122 Y56.8035
G01 X85.3026 Y56.8154
G01 X85.2376 Y56.9035
G01 X85.1787 Y57.0013
G01 X85.1717 Y57.0150
G01 X85.1251 Y57.1140
G01 X85.1215 Y57.1234
G01 X85.0848 Y57.2265
G01 X85.0821 Y57.2362
G01 X85.0558 Y57.3425
G01 X85.0395 Y57.4507
G01 X85.0383 Y57.4607
G01 X85.0326 Y57.5700
G01 X85.0326 Y57.5900
G01 X85.0383 Y57.6993
G01 X85.0541 Y57.8077
G01 X85.0580 Y57.8273
G01 X85.0848 Y57.9335
G01 X85.1215 Y58.0366
G01 X85.1272 Y58.0509
G01 X85.1762 Y58.1540
G01 X85.2322 Y58.2480
G01 X85.2434 Y58.2647
G01 X85.3054 Y58.3483
G01 X85.3153 Y58.3600
G01 X85.3821 Y58.4337
G01 X85.3928 Y58.4447
G01 X85.4735 Y58.5178
G01 X85.4854 Y58.5274
G01 X85.5321 Y58.5620
G01 X85.5321 Y61.5527
G01 X84.2027 Y62.8821
G01 X53.4973 Y62.8821
G01 X52.0179 Y61.4027
G01 X52.0178 Y52.6947
G01 X52.0144 Y52.6296
G01 X52.0058 Y52.5698
G01 X52.0030 Y52.5547
G01 X51.9896 Y52.5013
G01 X51.9838 Y52.4821
G01 X51.9632 Y52.4253
G01 X51.9376 Y52.3705
G01 X51.9331 Y52.3616
G01 X51.9022 Y52.3096
G01 X51.8969 Y52.3012
G01 X51.8582 Y52.2488
G01 X51.8484 Y52.2370
G01 X51.8081 Y52.1929
G01 X50.3804 Y50.7655
G01 X50.3354 Y50.7251
G01 X50.2870 Y50.6889
G01 X50.2704 Y50.6778
G01 X50.2184 Y50.6469
G01 X50.1639 Y50.6208
G01 X50.1454 Y50.6132
G01 X50.0884 Y50.5931
G01 X50.0253 Y50.5770
G01 X50.0102 Y50.5742
G01 X49.9504 Y50.5656
G01 X49.9404 Y50.5649
G01 X49.8807 Y50.5621
G01 X46.1829 Y50.5621
G01 X46.1748 Y50.5504
G01 X46.1682 Y50.5419
G01 X46.1576 Y50.5299
G01 X46.1500 Y50.5224
G01 X46.1380 Y50.5118
G01 X46.1296 Y50.5052
G01 X46.1164 Y50.4962
G01 X46.1073 Y50.4907
G01 X46.0978 Y50.4856
G01 X46.0833 Y50.4790
G01 X46.0683 Y50.4734
G01 X46.0580 Y50.4703
G01 X46.0477 Y50.4677
G01 X46.0319 Y50.4647
G01 X46.0213 Y50.4634
G01 X46.0107 Y50.4627
G01 X46.0007 Y50.4624
G01 X43.9993 Y50.4624
G00 Z2.0000
G00 X43.9993 Y52.4624
G01 F40.00
G01 Z-0.0499
G01 F80.00
G01 X43.9787 Y52.4634
G01 X43.9681 Y52.4647
G01 X43.9575 Y52.4666
G01 X43.9471 Y52.4689
G01 X43.9368 Y52.4718
G01 X43.9267 Y52.4751
G01 X43.9167 Y52.4790
G01 X43.9070 Y52.4833
G01 X43.8974 Y52.4881
G01 X43.8836 Y52.4962
G01 X43.8747 Y52.5021
G01 X43.8661 Y52.5084
G01 X43.8579 Y52.5152
G01 X43.8499 Y52.5224
G01 X43.8424 Y52.5299
G01 X43.8352 Y52.5379
G01 X43.8284 Y52.5461
G01 X43.8221 Y52.5547
G01 X43.8134 Y52.5681
G01 X43.8081 Y52.5774
G01 X43.8033 Y52.5870
G01 X43.7990 Y52.5967
G01 X43.7951 Y52.6067
G01 X43.7918 Y52.6168
G01 X43.7889 Y52.6271
G01 X43.7866 Y52.6375
G01 X43.7847 Y52.6481
G01 X43.7834 Y52.6587
G01 X43.7827 Y52.6693
G01 X43.7824 Y52.6793
G01 X43.7824 Y53.8807
G01 X43.7834 Y53.9013
G01 X43.7856 Y53.9172
G01 X43.7877 Y53.9277
G01 X43.7903 Y53.9380
G01 X43.7951 Y53.9533
G01 X43.8011 Y53.9682
G01 X43.8081 Y53.9826
G01 X43.8162 Y53.9964
G01 X43.8221 Y54.0053
G01 X43.8318 Y54.0180
G01 X43.8388 Y54.0261
G01 X43.8499 Y54.0376
G01 X43.8619 Y54.0482
G01 X43.8704 Y54.0548
G01 X43.8836 Y54.0638
G01 X43.8974 Y54.0719
G01 X43.9118 Y54.0789
G01 X43.9217 Y54.0830
G01 X43.9317 Y54.0866
G01 X43.9420 Y54.0897
G01 X43.9523 Y54.0923
G01 X43.9628 Y54.0944
G01 X43.9734 Y54.0960
G01 X43.9840 Y54.0970
G01 X43.9993 Y54.0976
G01 X46.0053 Y54.0975
G01 X46.0213 Y54.0966
G01 X46.0319 Y54.0953
G01 X46.0425 Y54.0934
G01 X46.0580 Y54.0897
G01 X46.0683 Y54.0866
G01 X46.0833 Y54.0810
G01 X46.0978 Y54.0744
G01 X46.1073 Y54.0693
G01 X46.1209 Y54.0609
G01 X46.1296 Y54.0548
G01 X46.1380 Y54.0482
G01 X46.1500 Y54.0376
G01 X46.1576 Y54.0300
G01 X46.1682 Y54.0180
G01 X46.1748 Y54.0096
G01 X46.1829 Y53.9979
G01 X48.3827 Y53.9979
G01 X49.1821 Y54.7973
G01 X49.1821 Y62.9007
G01 X49.1849 Y62.9604
G01 X49.1868 Y62.9803
G01 X49.1959 Y63.0400
G01 X49.2104 Y63.0987
G01 X49.2162 Y63.1179
G01 X49.2368 Y63.1747
G01 X49.2624 Y63.2295
G01 X49.2718 Y63.2471
G01 X49.3031 Y63.2988
G01 X49.3389 Y63.3475
G01 X49.3485 Y63.3595
G01 X49.3887 Y63.4038
G01 X51.5929 Y65.6081
G01 X51.6370 Y65.6484
G01 X51.6446 Y65.6549
G01 X51.6930 Y65.6911
G01 X51.7096 Y65.7022
G01 X51.7616 Y65.7331
G01 X51.7705 Y65.7376
G01 X51.8253 Y65.7632
G01 X51.8821 Y65.7838
G01 X51.9013 Y65.7896
G01 X51.9502 Y65.8019
G01 X51.9652 Y65.8050
G01 X52.0296 Y65.8144
G01 X52.0396 Y65.8151
G01 X52.0993 Y65.8179
G01 X98.8007 Y65.8179
G01 X98.8650 Y65.8149
G01 X98.8803 Y65.8132
G01 X98.9400 Y65.8041
G01 X98.9987 Y65.7896
G01 X99.0179 Y65.7838
G01 X99.0698 Y65.7652
G01 X99.0839 Y65.7592
G01 X99.1384 Y65.7331
G01 X99.1904 Y65.7022
G01 X99.1988 Y65.6969
G01 X99.2070 Y65.6911
G01 X99.2554 Y65.6549
G01 X99.2630 Y65.6484
G01 X99.3071 Y65.6081
G01 X101.8313 Y63.0838
G01 X101.8749 Y63.0354
G01 X101.9111 Y62.9870
G01 X101.9222 Y62.9704
G01 X101.9531 Y62.9184
G01 X101.9576 Y62.9095
G01 X101.9832 Y62.8547
G01 X102.0038 Y62.7979
G01 X102.0096 Y62.7787
G01 X102.0219 Y62.7298
G01 X102.0250 Y62.7148
G01 X102.0344 Y62.6504
G01 X102.0351 Y62.6404
G01 X102.0379 Y62.5807
G01 X102.0379 Y58.0820
G01 X102.0846 Y58.0474
G01 X102.0965 Y58.0378
G01 X102.1772 Y57.9647
G01 X102.1879 Y57.9537
G01 X102.2547 Y57.8800
G01 X102.2646 Y57.8683
G01 X102.3324 Y57.7765
G01 X102.3889 Y57.6827
G01 X102.3983 Y57.6650
G01 X102.4428 Y57.5709
G01 X102.4485 Y57.5566
G01 X102.4852 Y57.4535
G01 X102.5120 Y57.3473
G01 X102.5159 Y57.3277
G01 X102.5317 Y57.2193
G01 X102.5374 Y57.1100
G01 X102.5374 Y57.0900
G01 X102.5317 Y56.9807
G01 X102.5305 Y56.9707
G01 X102.5142 Y56.8625
G01 X102.4879 Y56.7562
G01 X102.4852 Y56.7465
G01 X102.4820 Y56.7370
G01 X102.4449 Y56.6340
G01 X102.4409 Y56.6249
G01 X102.3938 Y56.5260
G01 X102.3378 Y56.4320
G01 X102.3324 Y56.4235
G01 X102.3266 Y56.4153
G01 X102.2612 Y56.3276
G01 X102.1879 Y56.2463
G01 X102.1810 Y56.2390
G01 X102.1000 Y56.1653
G01 X102.0846 Y56.1526
G01 X101.9965 Y56.0876
G01 X101.9027 Y56.0311
G01 X101.8850 Y56.0217
G01 X101.7951 Y55.9791
G01 X101.7766 Y55.9715
G01 X101.6735 Y55.9348
G01 X101.6638 Y55.9321
G01 X101.5575 Y55.9058
G01 X101.4493 Y55.8895
G01 X101.4393 Y55.8883
G01 X101.3300 Y55.8826
G01 X101.3147 Y55.8825
G01 X101.2007 Y55.8883
G01 X101.1907 Y55.8895
G01 X101.0825 Y55.9058
G01 X100.9762 Y55.9321
G01 X100.9665 Y55.9348
G01 X100.9570 Y55.9380
G01 X100.8540 Y55.9751
G01 X100.8449 Y55.9791
G01 X100.7460 Y56.0262
G01 X100.6520 Y56.0822
G01 X100.6435 Y56.0876
G01 X100.6353 Y56.0934
G01 X100.5476 Y56.1588
G01 X100.4663 Y56.2321
G01 X100.4521 Y56.2463
G01 X100.3853 Y56.3200
G01 X100.3726 Y56.3354
G01 X100.3076 Y56.4235
G01 X100.2511 Y56.5173
G01 X100.2417 Y56.5350
G01 X100.1951 Y56.6340
G01 X100.1915 Y56.6434
G01 X100.1548 Y56.7465
G01 X100.1521 Y56.7562
G01 X100.1258 Y56.8625
G01 X100.1088 Y56.9753
G01 X100.1075 Y56.9906
G01 X100.1024 Y57.1000
G01 X100.1075 Y57.2094
G01 X100.1095 Y57.2293
G01 X100.1258 Y57.3375
G01 X100.1521 Y57.4438
G01 X100.1580 Y57.4630
G01 X100.1915 Y57.5566
G01 X100.1972 Y57.5709
G01 X100.2462 Y57.6740
G01 X100.3022 Y57.7680
G01 X100.3134 Y57.7847
G01 X100.3754 Y57.8683
G01 X100.3853 Y57.8800
G01 X100.4521 Y57.9537
G01 X100.4628 Y57.9647
G01 X100.5435 Y58.0378
G01 X100.5554 Y58.0474
G01 X100.6021 Y58.0820
G01 X100.6021 Y62.2827
G01 X98.5027 Y64.3821
G01 X88.7330 Y64.3821
G01 X89.2281 Y63.8871
G01 X89.2684 Y63.8430
G01 X89.2782 Y63.8312
G01 X89.3139 Y63.7832
G01 X89.3222 Y63.7704
G01 X89.3531 Y63.7184
G01 X89.3792 Y63.6639
G01 X89.3868 Y63.6454
G01 X89.4069 Y63.5884
G01 X89.4219 Y63.5298
G01 X89.4250 Y63.5148
G01 X89.4344 Y63.4504
G01 X89.4351 Y63.4404
G01 X89.4379 Y63.3807
G01 X89.4379 Y58.5520
G01 X89.4846 Y58.5174
G01 X89.4965 Y58.5078
G01 X89.5772 Y58.4347
G01 X89.5879 Y58.4237
G01 X89.6578 Y58.3465
G01 X89.6674 Y58.3346
G01 X89.7324 Y58.2465
G01 X89.7889 Y58.1527
G01 X89.7963 Y58.1392
G01 X89.8409 Y58.0451
G01 X89.8485 Y58.0266
G01 X89.8852 Y57.9235
G01 X89.9120 Y57.8173
G01 X89.9159 Y57.7977
G01 X89.9317 Y57.6893
G01 X89.9325 Y57.6794
G01 X89.9376 Y57.5700
G01 X89.9325 Y57.4606
G01 X89.9317 Y57.4507
G01 X89.9305 Y57.4407
G01 X89.9142 Y57.3325
G01 X89.8879 Y57.2262
G01 X89.8852 Y57.2165
G01 X89.8820 Y57.2070
G01 X89.8449 Y57.1040
G01 X89.8409 Y57.0949
G01 X89.7938 Y56.9960
G01 X89.7378 Y56.9020
G01 X89.7324 Y56.8935
G01 X89.7266 Y56.8853
G01 X89.6612 Y56.7976
G01 X89.5879 Y56.7163
G01 X89.5810 Y56.7090
G01 X89.5737 Y56.7021
G01 X89.4924 Y56.6288
G01 X89.4047 Y56.5634
G01 X89.3965 Y56.5576
G01 X89.3880 Y56.5522
G01 X89.2940 Y56.4962
G01 X89.1951 Y56.4491
G01 X89.1860 Y56.4451
G01 X89.1766 Y56.4415
G01 X89.0735 Y56.4048
G01 X89.0638 Y56.4021
G01 X88.9575 Y56.3758
G01 X88.8493 Y56.3595
G01 X88.8393 Y56.3583
G01 X88.8294 Y56.3575
G01 X88.7200 Y56.3524
G01 X88.6106 Y56.3575
G01 X88.6007 Y56.3583
G01 X88.5907 Y56.3595
G01 X88.4825 Y56.3758
G01 X88.3762 Y56.4021
G01 X88.3665 Y56.4048
G01 X88.3570 Y56.4080
G01 X88.2540 Y56.4451
G01 X88.2449 Y56.4491
G01 X88.1460 Y56.4962
G01 X88.0520 Y56.5522
G01 X88.0435 Y56.5576
G01 X88.0353 Y56.5634
G01 X87.9476 Y56.6288
G01 X87.8663 Y56.7021
G01 X87.8521 Y56.7163
G01 X87.7853 Y56.7900
G01 X87.7726 Y56.8054
G01 X87.7076 Y56.8935
G01 X87.6511 Y56.9873
G01 X87.6417 Y57.0050
G01 X87.5951 Y57.1040
G01 X87.5915 Y57.1134
G01 X87.5548 Y57.2165
G01 X87.5521 Y57.2262
G01 X87.5258 Y57.3325
G01 X87.5095 Y57.4407
G01 X87.5083 Y57.4507
G01 X87.5026 Y57.5600
G01 X87.5026 Y57.5800
G01 X87.5083 Y57.6893
G01 X87.5241 Y57.7977
G01 X87.5280 Y57.8173
G01 X87.5548 Y57.9235
G01 X87.5915 Y58.0266
G01 X87.5972 Y58.0409
G01 X87.6462 Y58.1440
G01 X87.7022 Y58.2380
G01 X87.7134 Y58.2547
G01 X87.7754 Y58.3383
G01 X87.7853 Y58.3500
G01 X87.8521 Y58.4237
G01 X87.8628 Y58.4347
G01 X87.9435 Y58.5078
G01 X87.9554 Y58.5174
G01 X88.0021 Y58.5520
G01 X88.0021 Y63.0827
G01 X86.7027 Y64.3821
G01 X52.3973 Y64.3821
G01 X50.6179 Y62.6027
G01 X50.6178 Y54.4947
G01 X50.6144 Y54.4296
G01 X50.6058 Y54.3698
G01 X50.6019 Y54.3502
G01 X50.5869 Y54.2916
G01 X50.5838 Y54.2821
G01 X50.5632 Y54.2253
G01 X50.5376 Y54.1705
G01 X50.5282 Y54.1529
G01 X50.5022 Y54.1096
G01 X50.4939 Y54.0968
G01 X50.4549 Y54.0446
G01 X50.4484 Y54.0370
G01 X50.4081 Y53.9929
G01 X49.1838 Y52.7687
G01 X49.1395 Y52.7285
G01 X49.1275 Y52.7189
G01 X49.0788 Y52.6831
G01 X49.0271 Y52.6518
G01 X49.0095 Y52.6424
G01 X48.9547 Y52.6168
G01 X48.8979 Y52.5962
G01 X48.8787 Y52.5904
G01 X48.8200 Y52.5759
G01 X48.7603 Y52.5668
G01 X48.7404 Y52.5649
G01 X48.6807 Y52.5621
G01 X46.1829 Y52.5621
G01 X46.1748 Y52.5504
G01 X46.1682 Y52.5419
G01 X46.1576 Y52.5299
G01 X46.1500 Y52.5224
G01 X46.1380 Y52.5118
G01 X46.1296 Y52.5052
G01 X46.1164 Y52.4962
G01 X46.1073 Y52.4907
G01 X46.0978 Y52.4856
G01 X46.0833 Y52.4790
G01 X46.0683 Y52.4734
G01 X46.0580 Y52.4703
G01 X46.0477 Y52.4677
G01 X46.0319 Y52.4647
G01 X46.0213 Y52.4634
G01 X46.0053 Y52.4625
G01 X43.9993 Y52.4624
G00 Z2.0000
G00 X43.9993 Y56.4624
G01 F40.00
G01 Z-0.0499
G01 F80.00
G01 X43.9787 Y56.4634
G01 X43.9681 Y56.4647
G01 X43.9575 Y56.4666
G01 X43.9471 Y56.4689
G01 X43.9368 Y56.4718
G01 X43.9217 Y56.4770
G01 X43.9070 Y56.4833
G01 X43.8974 Y56.4881
G01 X43.8881 Y56.4934
G01 X43.8747 Y56.5021
G01 X43.8661 Y56.5084
G01 X43.8579 Y56.5152
G01 X43.8499 Y56.5224
G01 X43.8424 Y56.5299
G01 X43.8352 Y56.5379
G01 X43.8284 Y56.5461
G01 X43.8221 Y56.5547
G01 X43.8162 Y56.5636
G01 X43.8081 Y56.5774
G01 X43.8011 Y56.5918
G01 X43.7970 Y56.6017
G01 X43.7934 Y56.6117
G01 X43.7889 Y56.6271
G01 X43.7866 Y56.6375
G01 X43.7847 Y56.6481
G01 X43.7830 Y56.6640
G01 X43.7824 Y56.6793
G01 X43.7824 Y57.8807
G01 X43.7830 Y57.8960
G01 X43.7847 Y57.9119
G01 X43.7877 Y57.9277
G01 X43.7918 Y57.9432
G01 X43.7951 Y57.9533
G01 X43.8011 Y57.9682
G01 X43.8081 Y57.9826
G01 X43.8162 Y57.9964
G01 X43.8252 Y58.0096
G01 X43.8352 Y58.0221
G01 X43.8461 Y58.0339
G01 X43.8579 Y58.0448
G01 X43.8661 Y58.0515
G01 X43.8747 Y58.0579
G01 X43.8881 Y58.0666
G01 X43.9022 Y58.0744
G01 X43.9167 Y58.0810
G01 X43.9317 Y58.0866
G01 X43.9420 Y58.0897
G01 X43.9523 Y58.0923
G01 X43.9681 Y58.0953
G01 X43.9787 Y58.0966
G01 X43.9893 Y58.0973
G01 X44.2821 Y58.0976
G01 X44.2822 Y60.9353
G01 X44.2851 Y60.9950
G01 X44.2868 Y61.0103
G01 X44.2959 Y61.0700
G01 X44.3104 Y61.1287
G01 X44.3162 Y61.1479
G01 X44.3368 Y61.2047
G01 X44.3644 Y61.2637
G01 X44.3718 Y61.2771
G01 X44.3978 Y61.3204
G01 X44.4089 Y61.3370
G01 X44.4451 Y61.3854
G01 X44.4516 Y61.3930
G01 X44.4919 Y61.4371
G01 X46.8929 Y63.8381
G01 X46.9370 Y63.8784
G01 X46.9446 Y63.8849
G01 X46.9930 Y63.9211
G01 X47.0096 Y63.9322
G01 X47.0616 Y63.9631
G01 X47.0705 Y63.9676
G01 X47.1253 Y63.9932
G01 X47.1821 Y64.0138
G01 X47.2013 Y64.0196
G01 X47.2600 Y64.0341
G01 X47.3197 Y64.0432
G01 X47.3296 Y64.0444
G01 X47.3396 Y64.0451
G01 X47.4000 Y64.0479
G01 X47.4604 Y64.0451
G01 X47.4803 Y64.0432
G01 X47.5400 Y64.0341
G01 X47.5987 Y64.0196
G01 X47.6179 Y64.0138
G01 X47.6747 Y63.9932
G01 X47.7337 Y63.9656
G01 X47.7471 Y63.9582
G01 X47.7988 Y63.9269
G01 X47.8070 Y63.9211
G01 X47.8554 Y63.8849
G01 X47.9004 Y63.8445
G01 X47.9076 Y63.8376
G01 X47.9145 Y63.8304
G01 X47.9549 Y63.7854
G01 X47.9911 Y63.7370
G01 X47.9969 Y63.7288
G01 X48.0022 Y63.7204
G01 X48.0331 Y63.6684
G01 X48.0592 Y63.6139
G01 X48.0632 Y63.6047
G01 X48.0838 Y63.5479
G01 X48.0896 Y63.5287
G01 X48.1041 Y63.4700
G01 X48.1132 Y63.4103
G01 X48.1149 Y63.3950
G01 X48.1179 Y63.3300
G01 X48.1151 Y63.2696
G01 X48.1132 Y63.2497
G01 X48.1058 Y63.1998
G01 X48.1030 Y63.1847
G01 X48.0884 Y63.1267
G01 X48.0838 Y63.1121
G01 X48.0652 Y63.0602
G01 X48.0592 Y63.0461
G01 X48.0331 Y62.9916
G01 X48.0022 Y62.9396
G01 X47.9911 Y62.9230
G01 X47.9549 Y62.8746
G01 X47.9484 Y62.8670
G01 X47.9081 Y62.8229
G01 X45.7179 Y60.6327
G01 X45.7179 Y58.0976
G01 X46.0053 Y58.0975
G01 X46.0213 Y58.0966
G01 X46.0372 Y58.0944
G01 X46.0477 Y58.0923
G01 X46.0632 Y58.0882
G01 X46.0783 Y58.0830
G01 X46.0882 Y58.0789
G01 X46.1026 Y58.0719
G01 X46.1119 Y58.0666
G01 X46.1253 Y58.0579
G01 X46.1339 Y58.0515
G01 X46.1461 Y58.0412
G01 X46.1539 Y58.0339
G01 X46.1648 Y58.0221
G01 X46.1715 Y58.0139
G01 X46.1809 Y58.0009
G01 X46.1866 Y57.9919
G01 X46.1944 Y57.9778
G01 X46.1989 Y57.9682
G01 X46.2030 Y57.9583
G01 X46.2082 Y57.9432
G01 X46.2123 Y57.9277
G01 X46.2153 Y57.9119
G01 X46.2170 Y57.8960
G01 X46.2176 Y57.8807
G01 X46.2176 Y56.6793
G01 X46.2170 Y56.6640
G01 X46.2160 Y56.6534
G01 X46.2134 Y56.6375
G01 X46.2111 Y56.6271
G01 X46.2082 Y56.6168
G01 X46.2049 Y56.6067
G01 X46.1989 Y56.5918
G01 X46.1944 Y56.5822
G01 X46.1866 Y56.5681
G01 X46.1779 Y56.5547
G01 X46.1715 Y56.5461
G01 X46.1612 Y56.5339
G01 X46.1539 Y56.5261
G01 X46.1421 Y56.5152
G01 X46.1296 Y56.5052
G01 X46.1164 Y56.4962
G01 X46.1026 Y56.4881
G01 X46.0930 Y56.4833
G01 X46.0783 Y56.4770
G01 X46.0683 Y56.4734
G01 X46.0529 Y56.4689
G01 X46.0372 Y56.4656
G01 X46.0213 Y56.4634
G01 X46.0107 Y56.4627
G01 X46.0007 Y56.4624
G01 X43.9993 Y56.4624
G00 Z2.0000
G00 X41.8824 Y56.6700
G01 F40.00
G01 Z-0.0499
G01 F80.00
G01 X41.8822 Y63.4053
G01 X41.8856 Y63.4704
G01 X41.8942 Y63.5302
G01 X41.8981 Y63.5498
G01 X41.9131 Y63.6084
G01 X41.9162 Y63.6179
G01 X41.9368 Y63.6747
G01 X41.9624 Y63.7295
G01 X41.9718 Y63.7471
G01 X41.9978 Y63.7904
G01 X42.0061 Y63.8032
G01 X42.0451 Y63.8554
G01 X42.0516 Y63.8630
G01 X42.0919 Y63.9071
G01 X43.2996 Y65.1145
G01 X43.3446 Y65.1549
G01 X43.3930 Y65.1911
G01 X43.4096 Y65.2022
G01 X43.4616 Y65.2331
G01 X43.5161 Y65.2592
G01 X43.5346 Y65.2668
G01 X43.5916 Y65.2869
G01 X43.6502 Y65.3019
G01 X43.6698 Y65.3058
G01 X43.7296 Y65.3144
G01 X43.7396 Y65.3151
G01 X43.7993 Y65.3179
G01 X47.9007 Y65.3176
G01 X47.9213 Y65.3166
G01 X47.9372 Y65.3144
G01 X47.9529 Y65.3111
G01 X47.9683 Y65.3066
G01 X47.9833 Y65.3010
G01 X47.9978 Y65.2944
G01 X48.0119 Y65.2866
G01 X48.0253 Y65.2779
G01 X48.0339 Y65.2715
G01 X48.0461 Y65.2612
G01 X48.0539 Y65.2539
G01 X48.0612 Y65.2461
G01 X48.0682 Y65.2380
G01 X48.0779 Y65.2253
G01 X48.0838 Y65.2164
G01 X48.0893 Y65.2073
G01 X48.0944 Y65.1978
G01 X48.1010 Y65.1833
G01 X48.1049 Y65.1733
G01 X48.1082 Y65.1632
G01 X48.1111 Y65.1529
G01 X48.1144 Y65.1372
G01 X48.1160 Y65.1266
G01 X48.1170 Y65.1160
G01 X48.1176 Y65.1007
G01 X48.1176 Y64.6105
G01 X48.1179 Y64.6000
G01 X48.1176 Y64.5895
G01 X48.1175 Y64.0947
G01 X48.1166 Y64.0787
G01 X48.1144 Y64.0628
G01 X48.1111 Y64.0471
G01 X48.1082 Y64.0368
G01 X48.1030 Y64.0217
G01 X48.0967 Y64.0070
G01 X48.0893 Y63.9927
G01 X48.0809 Y63.9791
G01 X48.0715 Y63.9661
G01 X48.0648 Y63.9579
G01 X48.0539 Y63.9461
G01 X48.0421 Y63.9352
G01 X48.0296 Y63.9252
G01 X48.0164 Y63.9162
G01 X48.0073 Y63.9107
G01 X47.9930 Y63.9033
G01 X47.9833 Y63.8990
G01 X47.9733 Y63.8951
G01 X47.9632 Y63.8918
G01 X47.9477 Y63.8877
G01 X47.9372 Y63.8856
G01 X47.9266 Y63.8840
G01 X47.9160 Y63.8830
G01 X47.9007 Y63.8824
G01 X44.0973 Y63.8821
G01 X43.3179 Y63.1027
G01 X43.3179 Y56.9773
G01 X44.1976 Y56.0976
G01 X46.0053 Y56.0975
G01 X46.0213 Y56.0966
G01 X46.0319 Y56.0953
G01 X46.0425 Y56.0934
G01 X46.0529 Y56.0911
G01 X46.0632 Y56.0882
G01 X46.0783 Y56.0830
G01 X46.0882 Y56.0789
G01 X46.0978 Y56.0744
G01 X46.1119 Y56.0666
G01 X46.1253 Y56.0579
G01 X46.1339 Y56.0515
G01 X46.1421 Y56.0448
G01 X46.1500 Y56.0376
G01 X46.1576 Y56.0300
G01 X46.1648 Y56.0221
G01 X46.1715 Y56.0139
G01 X46.1779 Y56.0053
G01 X46.1838 Y55.9964
G01 X46.1919 Y55.9826
G01 X46.1967 Y55.9730
G01 X46.2010 Y55.9633
G01 X46.2049 Y55.9533
G01 X46.2082 Y55.9432
G01 X46.2123 Y55.9277
G01 X46.2144 Y55.9172
G01 X46.2160 Y55.9066
G01 X46.2170 Y55.8960
G01 X46.2175 Y55.8853
G01 X46.2175 Y54.6747
G01 X46.2166 Y54.6587
G01 X46.2144 Y54.6428
G01 X46.2111 Y54.6271
G01 X46.2066 Y54.6117
G01 X46.2010 Y54.5967
G01 X46.1944 Y54.5822
G01 X46.1866 Y54.5681
G01 X46.1779 Y54.5547
G01 X46.1715 Y54.5461
G01 X46.1648 Y54.5379
G01 X46.1539 Y54.5261
G01 X46.1461 Y54.5188
G01 X46.1380 Y54.5118
G01 X46.1253 Y54.5021
G01 X46.1164 Y54.4962
G01 X46.1026 Y54.4881
G01 X46.0930 Y54.4833
G01 X46.0783 Y54.4770
G01 X46.0683 Y54.4734
G01 X46.0529 Y54.4689
G01 X46.0372 Y54.4656
G01 X46.0266 Y54.4640
G01 X46.0160 Y54.4630
G01 X46.0053 Y54.4625
G01 X43.9993 Y54.4624
G01 X43.9840 Y54.4630
G01 X43.9734 Y54.4640
G01 X43.9575 Y54.4666
G01 X43.9471 Y54.4689
G01 X43.9368 Y54.4718
G01 X43.9267 Y54.4751
G01 X43.9118 Y54.4811
G01 X43.9022 Y54.4856
G01 X43.8927 Y54.4907
G01 X43.8836 Y54.4962
G01 X43.8704 Y54.5052
G01 X43.8579 Y54.5152
G01 X43.8499 Y54.5224
G01 X43.8424 Y54.5299
G01 X43.8352 Y54.5379
G01 X43.8284 Y54.5461
G01 X43.8191 Y54.5591
G01 X43.8107 Y54.5727
G01 X43.8018 Y54.5902
G01 X43.7916 Y54.5931
G01 X43.7821 Y54.5962
G01 X43.7253 Y54.6168
G01 X43.6705 Y54.6424
G01 X43.6529 Y54.6518
G01 X43.6012 Y54.6831
G01 X43.5525 Y54.7189
G01 X43.5405 Y54.7285
G01 X43.4962 Y54.7687
G01 X42.0855 Y56.1796
G01 X42.0451 Y56.2246
G01 X42.0089 Y56.2730
G01 X42.0031 Y56.2812
G01 X41.9978 Y56.2896
G01 X41.9669 Y56.3416
G01 X41.9408 Y56.3961
G01 X41.9368 Y56.4053
G01 X41.9332 Y56.4146
G01 X41.9131 Y56.4716
G01 X41.8981 Y56.5302
G01 X41.8959 Y56.5400
G01 X41.8868 Y56.5997
G01 X41.8856 Y56.6096
G01 X41.8824 Y56.6700
G00 Z2.0000
G00 X41.5947 Y63.3745
G01 F40.00
G01 Z-0.0499
G01 F80.00
G01 X41.5992 Y63.4339
G01 X41.5995 Y63.4433
G01 X41.5995 Y63.5017
G01 X41.6056 Y63.5315
G01 X41.6077 Y63.5465
G01 X41.6101 Y63.5774
G01 X41.6268 Y63.6359
G01 X41.6287 Y63.6438
G01 X41.6405 Y63.7011
G01 X41.6466 Y63.7154
G01 X41.6527 Y63.7397
G01 X41.6560 Y63.7389
G01 X41.6579 Y63.7444
G01 X41.6661 Y63.7730
G01 X41.6737 Y63.7876
G01 X41.6896 Y63.8313
G01 X41.6953 Y63.8293
G01 X41.7207 Y63.8881
G01 X41.7384 Y63.9135
G01 X41.7462 Y63.9264
G01 X41.7603 Y63.9534
G01 X41.7979 Y63.9995
G01 X41.8035 Y64.0071
G01 X41.8369 Y64.0551
G01 X41.9029 Y64.1178
G01 X43.0417 Y65.2566
G01 X43.0525 Y65.2688
G01 X43.0711 Y65.2929
G01 X43.1153 Y65.3309
G01 X43.1228 Y65.3377
G01 X43.1645 Y65.3794
G01 X43.1760 Y65.3870
G01 X43.1957 Y65.4052
G01 X43.1983 Y65.4025
G01 X43.2020 Y65.4052
G01 X43.2255 Y65.4254
G01 X43.2766 Y65.4538
G01 X43.2846 Y65.4586
G01 X43.3344 Y65.4914
G01 X43.3361 Y65.4921
G01 X43.3763 Y65.5182
G01 X43.3807 Y65.5116
G01 X43.4034 Y65.5242
G01 X43.4602 Y65.5420
G01 X43.4690 Y65.5452
G01 X43.5234 Y65.5669
G01 X43.5533 Y65.5722
G01 X43.5680 Y65.5758
G01 X43.5976 Y65.5851
G01 X43.6558 Y65.5910
G01 X43.6651 Y65.5923
G01 X43.7236 Y65.6028
G01 X43.8146 Y65.6005
G01 X47.9479 Y65.6005
G01 X48.0075 Y65.5941
G01 X48.1423 Y65.5438
G01 X48.2575 Y65.4575
G01 X48.3438 Y65.3423
G01 X48.3941 Y65.2075
G01 X48.4005 Y65.1479
G01 X48.4005 Y64.6863
G01 X48.4019 Y64.6669
G01 X48.4044 Y64.6509
G01 X48.4005 Y64.5708
G01 X48.4005 Y64.0521
G01 X48.3941 Y63.9925
G01 X48.3447 Y63.8601
G01 X48.3378 Y63.8497
G01 X48.3342 Y63.8428
G01 X48.3324 Y63.8353
G01 X48.3134 Y63.7847
G01 X48.3235 Y63.7368
G01 X48.3236 Y63.7257
G01 X48.3296 Y63.7122
G01 X48.3529 Y63.6355
G01 X48.3791 Y63.5589
G01 X48.3807 Y63.5496
G01 X48.3863 Y63.5235
G01 X48.3945 Y63.4409
G01 X48.4051 Y63.3572
G01 X48.4047 Y63.3417
G01 X48.4051 Y63.3273
G01 X48.3967 Y63.2419
G01 X48.3900 Y63.1540
G01 X48.3866 Y63.1396
G01 X48.3853 Y63.1316
G01 X48.3599 Y63.0478
G01 X48.3343 Y62.9583
G01 X48.3276 Y62.9430
G01 X48.2848 Y62.8629
G01 X48.2406 Y62.7784
G01 X48.2339 Y62.7690
G01 X48.1109 Y62.6191
G01 X48.0779 Y62.5921
G01 X48.0679 Y62.5830
G01 X46.0373 Y60.5524
G01 X46.0099 Y60.5117
G01 X46.0005 Y60.4635
G01 X46.0005 Y58.4965
G01 X46.0127 Y58.4430
G01 X46.0467 Y58.3999
G01 X46.0960 Y58.3758
G01 X46.1099 Y58.3732
G01 X46.2423 Y58.3238
G01 X46.3575 Y58.2375
G01 X46.4438 Y58.1223
G01 X46.4941 Y57.9875
G01 X46.5005 Y57.9279
G01 X46.5005 Y56.6321
G01 X46.4941 Y56.5725
G01 X46.4438 Y56.4377
G01 X46.3814 Y56.3543
G01 X46.3595 Y56.3064
G01 X46.3595 Y56.2536
G01 X46.3814 Y56.2057
G01 X46.4438 Y56.1223
G01 X46.4941 Y55.9875
G01 X46.5005 Y55.9279
G01 X46.5005 Y54.6321
G01 X46.4941 Y54.5725
G01 X46.4476 Y54.4478
G01 X46.4407 Y54.3890
G01 X46.4619 Y54.3338
G01 X46.5058 Y54.2951
G01 X46.5069 Y54.2945
G01 X46.5638 Y54.2805
G01 X48.2142 Y54.2805
G01 X48.2617 Y54.2899
G01 X48.3024 Y54.3173
G01 X48.8632 Y54.8781
G01 X48.8901 Y54.9183
G01 X48.8995 Y54.9658
G01 X48.8995 Y62.8281
G01 X48.8985 Y62.8443
G01 X48.8947 Y62.8745
G01 X48.8992 Y62.9339
G01 X48.8995 Y62.9433
G01 X48.8995 Y63.0017
G01 X48.9056 Y63.0315
G01 X48.9077 Y63.0465
G01 X48.9101 Y63.0774
G01 X48.9268 Y63.1359
G01 X48.9287 Y63.1438
G01 X48.9405 Y63.2011
G01 X48.9466 Y63.2154
G01 X48.9527 Y63.2397
G01 X48.9560 Y63.2389
G01 X48.9579 Y63.2444
G01 X48.9661 Y63.2730
G01 X48.9737 Y63.2876
G01 X48.9896 Y63.3313
G01 X48.9953 Y63.3293
G01 X49.0207 Y63.3881
G01 X49.0384 Y63.4135
G01 X49.0462 Y63.4264
G01 X49.0603 Y63.4534
G01 X49.0979 Y63.4995
G01 X49.1035 Y63.5071
G01 X49.1369 Y63.5551
G01 X49.2029 Y63.6178
G01 X51.3417 Y65.7566
G01 X51.3525 Y65.7688
G01 X51.3711 Y65.7929
G01 X51.4154 Y65.8309
G01 X51.4228 Y65.8377
G01 X51.4645 Y65.8794
G01 X51.4760 Y65.8870
G01 X51.4957 Y65.9052
G01 X51.4983 Y65.9025
G01 X51.5028 Y65.9060
G01 X51.5255 Y65.9254
G01 X51.5766 Y65.9538
G01 X51.5846 Y65.9586
G01 X51.6344 Y65.9914
G01 X51.6362 Y65.9921
G01 X51.6763 Y66.0182
G01 X51.6807 Y66.0116
G01 X51.7034 Y66.0242
G01 X51.7602 Y66.0420
G01 X51.7690 Y66.0452
G01 X51.8233 Y66.0669
G01 X51.8533 Y66.0722
G01 X51.8680 Y66.0758
G01 X51.8976 Y66.0851
G01 X51.9557 Y66.0910
G01 X51.9651 Y66.0923
G01 X52.0236 Y66.1028
G01 X52.1146 Y66.1005
G01 X86.9281 Y66.1005
G01 X86.9443 Y66.1015
G01 X86.9745 Y66.1053
G01 X87.0328 Y66.1009
G01 X87.0433 Y66.1005
G01 X98.7281 Y66.1005
G01 X98.7443 Y66.1015
G01 X98.7745 Y66.1053
G01 X98.8339 Y66.1008
G01 X98.8433 Y66.1005
G01 X98.9017 Y66.1005
G01 X98.9315 Y66.0944
G01 X98.9465 Y66.0923
G01 X98.9774 Y66.0899
G01 X99.0358 Y66.0732
G01 X99.0438 Y66.0713
G01 X99.1011 Y66.0595
G01 X99.1154 Y66.0534
G01 X99.1397 Y66.0473
G01 X99.1389 Y66.0440
G01 X99.1444 Y66.0421
G01 X99.1730 Y66.0339
G01 X99.1877 Y66.0263
G01 X99.2313 Y66.0104
G01 X99.2293 Y66.0047
G01 X99.2880 Y65.9793
G01 X99.3135 Y65.9616
G01 X99.3264 Y65.9538
G01 X99.3534 Y65.9397
G01 X99.3995 Y65.9021
G01 X99.4071 Y65.8965
G01 X99.4551 Y65.8631
G01 X99.5178 Y65.7971
G01 X101.9766 Y63.3383
G01 X101.9888 Y63.3275
G01 X102.0129 Y63.3089
G01 X102.0508 Y63.2647
G01 X102.0577 Y63.2572
G01 X102.0994 Y63.2155
G01 X102.1070 Y63.2040
G01 X102.1252 Y63.1843
G01 X102.1225 Y63.1818
G01 X102.1260 Y63.1772
G01 X102.1454 Y63.1545
G01 X102.1738 Y63.1034
G01 X102.1786 Y63.0954
G01 X102.2114 Y63.0456
G01 X102.2121 Y63.0439
G01 X102.2382 Y63.0036
G01 X102.2316 Y62.9993
G01 X102.2442 Y62.9766
G01 X102.2617 Y62.9208
G01 X102.2648 Y62.9119
G01 X102.2869 Y62.8567
G01 X102.2922 Y62.8267
G01 X102.2958 Y62.8120
G01 X102.3051 Y62.7824
G01 X102.3111 Y62.7232
G01 X102.3124 Y62.7139
G01 X102.3228 Y62.6564
G01 X102.3205 Y62.5654
G01 X102.3205 Y58.2770
G01 X102.3290 Y58.2320
G01 X102.3533 Y58.1930
G01 X102.5082 Y58.0248
G01 X102.5147 Y58.0148
G01 X102.5535 Y57.9770
G01 X102.6047 Y57.9594
G01 X102.6586 Y57.9653
G01 X102.7131 Y57.9733
G01 X103.0564 Y57.6301
G01 X102.9961 Y57.5027
G01 X102.9631 Y57.4103
G01 X102.9392 Y57.3151
G01 X102.9249 Y57.2187
G01 X102.9200 Y57.1200
G01 X102.9249 Y57.0213
G01 X102.9392 Y56.9249
G01 X102.9631 Y56.8297
G01 X102.9961 Y56.7373
G01 X103.0564 Y56.6099
G01 X102.7040 Y56.2575
G01 X102.6213 Y56.2663
G01 X102.5702 Y56.2487
G01 X102.5315 Y56.2109
G01 X102.5082 Y56.1752
G01 X102.3397 Y55.9923
G01 X102.1435 Y55.8395
G01 X101.9248 Y55.7212
G01 X101.6896 Y55.6404
G01 X101.4443 Y55.5995
G01 X101.1957 Y55.5995
G01 X100.9504 Y55.6404
G01 X100.7152 Y55.7212
G01 X100.4965 Y55.8395
G01 X100.3003 Y55.9923
G01 X100.1329 Y56.1741
G01 X100.1259 Y56.1835
G01 X100.1207 Y56.1873
G01 X100.0840 Y56.2211
G01 X100.0250 Y56.2360
G01 X99.9660 Y56.2211
G01 X99.9241 Y56.1835
G01 X99.9166 Y56.1736
G01 X99.7509 Y55.9935
G01 X99.7419 Y55.9856
G01 X99.7374 Y55.9776
G01 X99.7131 Y55.9478
G01 X99.7005 Y55.8933
G01 X99.7005 Y55.3559
G01 X99.7012 Y55.3424
G01 X99.7053 Y55.3000
G01 X99.7012 Y55.2576
G01 X99.7005 Y55.2454
G01 X99.7005 Y55.1983
G01 X99.6917 Y55.1555
G01 X99.6898 Y55.1427
G01 X99.6860 Y55.1039
G01 X99.6726 Y55.0596
G01 X99.6698 Y55.0486
G01 X99.6595 Y54.9989
G01 X99.6438 Y54.9621
G01 X99.6393 Y54.9499
G01 X99.6288 Y54.9153
G01 X99.6053 Y54.8713
G01 X99.6007 Y54.8618
G01 X99.5793 Y54.8120
G01 X99.5584 Y54.7819
G01 X99.5513 Y54.7702
G01 X99.5359 Y54.7415
G01 X99.5020 Y54.7001
G01 X99.4961 Y54.6923
G01 X99.4631 Y54.6449
G01 X99.4393 Y54.6223
G01 X99.4293 Y54.6115
G01 X99.4109 Y54.5891
G01 X99.3672 Y54.5532
G01 X99.3604 Y54.5473
G01 X99.3156 Y54.5047
G01 X99.2908 Y54.4893
G01 X99.2782 Y54.4802
G01 X99.2585 Y54.4641
G01 X99.1984 Y54.4317
G01 X99.1429 Y54.3971
G01 X99.1383 Y54.3954
G01 X99.1043 Y54.3749
G01 X99.1012 Y54.3800
G01 X99.0847 Y54.3712
G01 X99.0165 Y54.3503
G01 X98.9521 Y54.3264
G01 X98.9302 Y54.3230
G01 X98.9136 Y54.3193
G01 X98.8961 Y54.3140
G01 X98.8223 Y54.3065
G01 X98.7509 Y54.2956
G01 X98.7324 Y54.2965
G01 X98.7146 Y54.2961
G01 X98.7000 Y54.2947
G01 X98.6233 Y54.3021
G01 X98.5477 Y54.3059
G01 X98.5332 Y54.3096
G01 X98.5150 Y54.3129
G01 X98.5033 Y54.3142
G01 X98.4274 Y54.3371
G01 X98.3514 Y54.3568
G01 X98.3404 Y54.3619
G01 X98.3225 Y54.3690
G01 X98.3136 Y54.3721
G01 X98.2424 Y54.4101
G01 X98.1695 Y54.4458
G01 X98.1618 Y54.4513
G01 X98.1394 Y54.4658
G01 X98.0752 Y54.5184
G01 X98.0085 Y54.5701
G01 X97.9978 Y54.5813
G01 X97.9874 Y54.5912
G01 X97.9330 Y54.6575
G01 X97.8755 Y54.7244
G01 X97.8678 Y54.7370
G01 X97.8630 Y54.7436
G01 X97.8217 Y54.8208
G01 X97.7765 Y54.9022
G01 X97.7704 Y54.9177
G01 X97.7441 Y55.0047
G01 X97.7155 Y55.0956
G01 X97.7137 Y55.1070
G01 X97.6947 Y55.3000
G01 X97.6988 Y55.3424
G01 X97.6995 Y55.3559
G01 X97.6995 Y55.9549
G01 X97.6910 Y56.0006
G01 X97.6667 Y56.0395
G01 X97.5418 Y56.1752
G01 X97.4058 Y56.3834
G01 X97.3059 Y56.6111
G01 X97.2449 Y56.8522
G01 X97.2244 Y57.1000
G01 X97.2449 Y57.3478
G01 X97.3059 Y57.5889
G01 X97.4058 Y57.8166
G01 X97.5418 Y58.0248
G01 X97.7103 Y58.2077
G01 X97.9065 Y58.3605
G01 X98.1252 Y58.4788
G01 X98.3604 Y58.5596
G01 X98.6057 Y58.6005
G01 X98.8543 Y58.6005
G01 X99.0996 Y58.5596
G01 X99.3348 Y58.4788
G01 X99.5535 Y58.3605
G01 X99.7497 Y58.2077
G01 X99.9171 Y58.0259
G01 X99.9241 Y58.0165
G01 X99.9292 Y58.0128
G01 X99.9660 Y57.9789
G01 X100.0250 Y57.9640
G01 X100.0840 Y57.9789
G01 X100.1259 Y58.0165
G01 X100.1334 Y58.0264
G01 X100.2867 Y58.1930
G01 X100.3110 Y58.2320
G01 X100.3195 Y58.2770
G01 X100.3195 Y62.1136
G01 X100.3101 Y62.1617
G01 X100.2827 Y62.2024
G01 X98.4224 Y64.0627
G01 X98.3817 Y64.0901
G01 X98.3342 Y64.0995
G01 X89.6762 Y64.0995
G01 X89.6140 Y64.0831
G01 X89.5687 Y64.0384
