(G-CODE GENERATED BY FLATCAM v8.994 - www.flatcam.org - Version Date: 2020/11/7)

(Name: Sensorbox-F_Cu.gbr_ncc_cnc)
(Type: G-code from Geometry)
(Units: MM)

(Created on Monday, 05 February 2024 at 12:42)

(This preprocessor is the default preprocessor used by FlatCAM.)
(It is made to work with MACH3 compatible motion controllers.)

(TOOL DIAMETER: 0.2176 mm)
(Feedrate_XY: 100.0 mm/min)
(Feedrate_Z: 40.0 mm/min)
(Feedrate rapids 1500.0 mm/min)

(Z_Cut: -0.0499 mm)
(Z_Move: 2.0 mm)
(Z Start: None mm)
(Z End: 15.0 mm)
(X,Y End: None mm)
(Steps per circle: 64)
(Preprocessor Geometry: default)

(X range:   -0.8907 ...  110.8907  mm)
(Y range:   -0.8907 ...   70.8907  mm)

(Spindle Speed: 20000.0 RPM)
G21
G90
G94

G01 F100.00

M5
G00 Z15.0000
G00 X0.0000 Y0.0000
T1
M6    
(MSG, Change to Tool Dia = 0.2176)
M0
G00 Z15.0000

M03 S20000.0
G01 F100.00
G00 X-0.1764 Y-0.1807
G01 F40.00
G01 Z-0.0499
G01 F100.00
G01 X-0.5995 Y-0.1859
G01 X-0.8398 Y-0.1830
G00 Z2.0000
G00 X-0.8749 Y-0.0520
G01 F40.00
G01 Z-0.0499
G01 F100.00
G01 X-0.5995 Y-0.0554
G01 X-0.2699 Y-0.0513
G00 Z2.0000
G00 X-0.2989 Y0.0492
G01 F40.00
G01 Z-0.0499
G01 F100.00
G01 X-0.2804 Y-0.0202
G01 X-0.2722 Y-0.0455
G01 X-0.2690 Y-0.0534
G01 X-0.2580 Y-0.0777
G01 X-0.2434 Y-0.1033
G01 X-0.2386 Y-0.1104
G01 X-0.2229 Y-0.1318
G01 X-0.2032 Y-0.1538
G01 X-0.1538 Y-0.2032
G01 X-0.1340 Y-0.2210
G01 X-0.1273 Y-0.2263
G01 X-0.1057 Y-0.2419
G01 X-0.0827 Y-0.2553
G01 X-0.0726 Y-0.2605
G01 X-0.0508 Y-0.2701
G01 X-0.0428 Y-0.2731
G01 X-0.0174 Y-0.2812
G01 X0.0446 Y-0.2978
G01 X0.0662 Y-0.3027
G01 X0.0756 Y-0.3043
G01 X0.0976 Y-0.3071
G01 X0.1245 Y-0.3083
G01 X109.8755 Y-0.3083
G01 X109.9024 Y-0.3071
G01 X109.9315 Y-0.3032
G01 X109.9554 Y-0.2978
G01 X110.0202 Y-0.2804
G01 X110.0482 Y-0.2712
G01 X110.0726 Y-0.2605
G01 X110.0827 Y-0.2553
G01 X110.1057 Y-0.2419
G01 X110.1318 Y-0.2229
G01 X110.1517 Y-0.2052
G01 X110.2032 Y-0.1538
G01 X110.2229 Y-0.1318
G01 X110.2386 Y-0.1104
G01 X110.2434 Y-0.1033
G01 X110.2567 Y-0.0802
G01 X110.2690 Y-0.0534
G01 X110.2731 Y-0.0428
G01 X110.2812 Y-0.0174
G01 X110.2984 Y0.0469
G01 X110.3036 Y0.0709
G01 X110.3066 Y0.0929
G01 X110.3074 Y0.1023
G01 X110.3083 Y0.1245
G01 X110.3083 Y69.8755
G01 X110.3071 Y69.9024
G01 X110.3032 Y69.9315
G01 X110.2978 Y69.9554
G01 X110.2804 Y70.0202
G01 X110.2712 Y70.0482
G01 X110.2605 Y70.0726
G01 X110.2553 Y70.0827
G01 X110.2419 Y70.1057
G01 X110.2229 Y70.1318
G01 X110.2052 Y70.1517
G01 X110.1538 Y70.2032
G01 X110.1318 Y70.2229
G01 X110.1104 Y70.2386
G01 X110.1033 Y70.2434
G01 X110.0802 Y70.2567
G01 X110.0534 Y70.2690
G01 X110.0428 Y70.2731
G01 X110.0174 Y70.2812
G01 X109.9531 Y70.2984
G01 X109.9291 Y70.3036
G01 X109.9071 Y70.3066
G01 X109.8977 Y70.3074
G01 X109.8755 Y70.3083
G01 X0.1245 Y70.3083
G01 X0.0976 Y70.3071
G01 X0.0685 Y70.3032
G01 X0.0446 Y70.2978
G01 X-0.0202 Y70.2804
G01 X-0.0482 Y70.2712
G01 X-0.0726 Y70.2605
G01 X-0.0827 Y70.2553
G01 X-0.1057 Y70.2419
G01 X-0.1318 Y70.2229
G01 X-0.1517 Y70.2052
G01 X-0.2032 Y70.1538
G01 X-0.2210 Y70.1340
G01 X-0.2263 Y70.1273
G01 X-0.2419 Y70.1057
G01 X-0.2567 Y70.0802
G01 X-0.2690 Y70.0534
G01 X-0.2731 Y70.0428
G01 X-0.2812 Y70.0174
G01 X-0.2984 Y69.9531
G01 X-0.3036 Y69.9291
G01 X-0.3066 Y69.9071
G01 X-0.3074 Y69.8977
G01 X-0.3083 Y69.8755
G01 X-0.3083 Y0.1245
G01 X-0.3074 Y0.1023
G01 X-0.3066 Y0.0929
G01 X-0.3036 Y0.0709
G01 X-0.2989 Y0.0492
G00 Z2.0000
G00 X-0.3048 Y0.0788
G01 F40.00
G01 Z-0.0499
G01 F100.00
G01 X-0.5995 Y0.0752
G01 X-0.8907 Y0.0788
G01 X-0.8907 Y0.2093
G01 X-0.5995 Y0.2058
G01 X-0.3083 Y0.2093
G01 X-0.3083 Y0.3399
G01 X-0.5995 Y0.3363
G01 X-0.8907 Y0.3399
G01 X-0.8907 Y0.4705
G01 X-0.5995 Y0.4669
G01 X-0.3083 Y0.4705
G01 X-0.3083 Y0.6010
G01 X-0.5995 Y0.5974
G01 X-0.8907 Y0.6010
G01 X-0.8907 Y0.7316
G01 X-0.5995 Y0.7280
G01 X-0.3083 Y0.7316
G01 X-0.3083 Y0.8621
G01 X-0.5995 Y0.8586
G01 X-0.8907 Y0.8621
G01 X-0.8907 Y0.9927
G01 X-0.5995 Y0.9891
G01 X-0.3083 Y0.9927
G01 X-0.3083 Y1.1233
G01 X-0.5995 Y1.1197
G01 X-0.8907 Y1.1233
G01 X-0.8907 Y1.2538
G01 X-0.5995 Y1.2502
G01 X-0.3083 Y1.2538
G01 X-0.3083 Y1.3844
G01 X-0.5995 Y1.3808
G01 X-0.8907 Y1.3844
G01 X-0.8907 Y1.5149
G01 X-0.5995 Y1.5114
G01 X-0.3083 Y1.5149
G01 X-0.3083 Y1.6455
G01 X-0.5995 Y1.6419
G01 X-0.8907 Y1.6455
G01 X-0.8907 Y1.7761
G01 X-0.5995 Y1.7725
G01 X-0.3083 Y1.7761
G01 X-0.3083 Y1.9066
G01 X-0.5995 Y1.9030
G01 X-0.8907 Y1.9066
G01 X-0.8907 Y2.0372
G01 X-0.5995 Y2.0336
G01 X-0.3083 Y2.0372
G01 X-0.3083 Y2.1677
G01 X-0.5995 Y2.1642
G01 X-0.8907 Y2.1677
G01 X-0.8907 Y2.2983
G01 X-0.5995 Y2.2947
G01 X-0.3083 Y2.2983
G01 X-0.3083 Y2.4289
G01 X-0.5995 Y2.4253
G01 X-0.8907 Y2.4289
G01 X-0.8907 Y2.5594
G01 X-0.5995 Y2.5558
G01 X-0.3083 Y2.5594
G01 X-0.3083 Y2.6900
G01 X-0.5995 Y2.6864
G01 X-0.8907 Y2.6900
G01 X-0.8907 Y2.8205
G01 X-0.5995 Y2.8170
G01 X-0.3083 Y2.8205
G01 X-0.3083 Y2.9511
G01 X-0.5995 Y2.9475
G01 X-0.8907 Y2.9511
G01 X-0.8907 Y3.0817
G01 X-0.5995 Y3.0781
G01 X-0.3083 Y3.0817
G01 X-0.3083 Y3.2122
G01 X-0.5995 Y3.2086
G01 X-0.8907 Y3.2122
G01 X-0.8907 Y3.3428
G01 X-0.5995 Y3.3392
G01 X-0.3083 Y3.3428
G01 X-0.3083 Y3.4733
G01 X-0.5995 Y3.4698
G01 X-0.8907 Y3.4733
G01 X-0.8907 Y3.6039
G01 X-0.5995 Y3.6003
G01 X-0.3083 Y3.6039
G01 X-0.3083 Y3.7345
G01 X-0.5995 Y3.7309
G01 X-0.8907 Y3.7345
G01 X-0.8907 Y3.8650
G01 X-0.5995 Y3.8614
G01 X-0.3083 Y3.8650
G01 X-0.3083 Y3.9956
G01 X-0.5995 Y3.9920
G01 X-0.8907 Y3.9956
G01 X-0.8907 Y4.1261
G01 X-0.5995 Y4.1226
G01 X-0.3083 Y4.1261
G01 X-0.3083 Y4.2567
G01 X-0.5995 Y4.2531
G01 X-0.8907 Y4.2567
G01 X-0.8907 Y4.3873
G01 X-0.5995 Y4.3837
G01 X-0.3083 Y4.3873
G01 X-0.3083 Y4.5178
G01 X-0.5995 Y4.5142
G01 X-0.8907 Y4.5178
G01 X-0.8907 Y4.6484
G01 X-0.5995 Y4.6448
G01 X-0.3083 Y4.6484
G01 X-0.3083 Y4.7789
G01 X-0.5995 Y4.7754
G01 X-0.8907 Y4.7789
G01 X-0.8907 Y4.9095
G01 X-0.5995 Y4.9059
G01 X-0.3083 Y4.9095
G01 X-0.3083 Y5.0401
G01 X-0.5995 Y5.0365
G01 X-0.8907 Y5.0401
G01 X-0.8907 Y5.1706
G01 X-0.5995 Y5.1670
G01 X-0.3083 Y5.1706
G01 X-0.3083 Y5.3012
G01 X-0.5995 Y5.2976
G01 X-0.8907 Y5.3012
G01 X-0.8907 Y5.4317
G01 X-0.5995 Y5.4282
G01 X-0.3083 Y5.4317
G01 X-0.3083 Y5.5623
G01 X-0.5995 Y5.5587
G01 X-0.8907 Y5.5623
G01 X-0.8907 Y5.6929
G01 X-0.5995 Y5.6893
G01 X-0.3083 Y5.6929
G01 X-0.3083 Y5.8234
G01 X-0.5995 Y5.8198
G01 X-0.8907 Y5.8234
G01 X-0.8907 Y5.9540
G01 X-0.5995 Y5.9504
G01 X-0.3083 Y5.9540
G01 X-0.3083 Y6.0845
G01 X-0.5995 Y6.0810
G01 X-0.8907 Y6.0845
G01 X-0.8907 Y6.2151
G01 X-0.5995 Y6.2115
G01 X-0.3083 Y6.2151
G01 X-0.3083 Y6.3457
G01 X-0.5995 Y6.3421
G01 X-0.8907 Y6.3457
G01 X-0.8907 Y6.4762
G01 X-0.5995 Y6.4726
G01 X-0.3083 Y6.4762
G01 X-0.3083 Y6.6068
G01 X-0.5995 Y6.6032
G01 X-0.8907 Y6.6068
G01 X-0.8907 Y6.7373
G01 X-0.5995 Y6.7338
G01 X-0.3083 Y6.7373
G01 X-0.3083 Y6.8679
G01 X-0.5995 Y6.8643
G01 X-0.8907 Y6.8679
G01 X-0.8907 Y6.9985
G01 X-0.5995 Y6.9949
G01 X-0.3083 Y6.9985
G01 X-0.3083 Y7.1290
G01 X-0.5995 Y7.1254
G01 X-0.8907 Y7.1290
G01 X-0.8907 Y7.2596
G01 X-0.5995 Y7.2560
G01 X-0.3083 Y7.2596
G01 X-0.3083 Y7.3901
G01 X-0.5995 Y7.3866
G01 X-0.8907 Y7.3901
G01 X-0.8907 Y7.5207
G01 X-0.5995 Y7.5171
G01 X-0.3083 Y7.5207
G01 X-0.3083 Y7.6513
G01 X-0.5995 Y7.6477
G01 X-0.8907 Y7.6513
G01 X-0.8907 Y7.7818
G01 X-0.5995 Y7.7782
G01 X-0.3083 Y7.7818
G01 X-0.3083 Y7.9124
G01 X-0.5995 Y7.9088
G01 X-0.8907 Y7.9124
G01 X-0.8907 Y8.0429
G01 X-0.5995 Y8.0394
G01 X-0.3083 Y8.0429
G01 X-0.3083 Y8.1735
G01 X-0.5995 Y8.1699
G01 X-0.8907 Y8.1735
G01 X-0.8907 Y8.3041
G01 X-0.5995 Y8.3005
G01 X-0.3083 Y8.3041
G01 X-0.3083 Y8.4346
G01 X-0.5995 Y8.4310
G01 X-0.8907 Y8.4346
G01 X-0.8907 Y8.5652
G01 X-0.5995 Y8.5616
G01 X-0.3083 Y8.5652
G01 X-0.3083 Y8.6957
G01 X-0.5995 Y8.6922
G01 X-0.8907 Y8.6957
G01 X-0.8907 Y8.8263
G01 X-0.5995 Y8.8227
G01 X-0.3083 Y8.8263
G01 X-0.3083 Y8.9569
G01 X-0.5995 Y8.9533
G01 X-0.8907 Y8.9569
G01 X-0.8907 Y9.0874
G01 X-0.5995 Y9.0838
G01 X-0.3083 Y9.0874
G01 X-0.3083 Y9.2180
G01 X-0.5995 Y9.2144
G01 X-0.8907 Y9.2180
G01 X-0.8907 Y9.3485
G01 X-0.5995 Y9.3450
G01 X-0.3083 Y9.3485
G01 X-0.3083 Y9.4791
G01 X-0.5995 Y9.4755
G01 X-0.8907 Y9.4791
G01 X-0.8907 Y9.6097
G01 X-0.5995 Y9.6061
G01 X-0.3083 Y9.6097
G01 X-0.3083 Y9.7402
G01 X-0.5995 Y9.7366
G01 X-0.8907 Y9.7402
G01 X-0.8907 Y9.8708
G01 X-0.5995 Y9.8672
G01 X-0.3083 Y9.8708
G01 X-0.3083 Y10.0013
G01 X-0.5995 Y9.9978
G01 X-0.8907 Y10.0013
G01 X-0.8907 Y10.1319
G01 X-0.5995 Y10.1283
G01 X-0.3083 Y10.1319
G01 X-0.3083 Y10.2625
G01 X-0.5995 Y10.2589
G01 X-0.8907 Y10.2625
G01 X-0.8907 Y10.3930
G01 X-0.5995 Y10.3894
G01 X-0.3083 Y10.3930
G01 X-0.3083 Y10.5236
G01 X-0.5995 Y10.5200
G01 X-0.8907 Y10.5236
G01 X-0.8907 Y10.6541
G01 X-0.5995 Y10.6506
G01 X-0.3083 Y10.6541
G01 X-0.3083 Y10.7847
G01 X-0.5995 Y10.7811
G01 X-0.8907 Y10.7847
G01 X-0.8907 Y10.9153
G01 X-0.5995 Y10.9117
G01 X-0.3083 Y10.9153
G01 X-0.3083 Y11.0458
G01 X-0.5995 Y11.0422
G01 X-0.8907 Y11.0458
G01 X-0.8907 Y11.1764
G01 X-0.5995 Y11.1728
G01 X-0.3083 Y11.1764
G01 X-0.3083 Y11.3069
G01 X-0.5995 Y11.3034
G01 X-0.8907 Y11.3069
G01 X-0.8907 Y11.4375
G01 X-0.5995 Y11.4339
G01 X-0.3083 Y11.4375
G01 X-0.3083 Y11.5681
G01 X-0.5995 Y11.5645
G01 X-0.8907 Y11.5681
G01 X-0.8907 Y11.6986
G01 X-0.5995 Y11.6950
G01 X-0.3083 Y11.6986
G01 X-0.3083 Y11.8292
G01 X-0.5995 Y11.8256
G01 X-0.8907 Y11.8292
G01 X-0.8907 Y11.9597
G01 X-0.5995 Y11.9562
G01 X-0.3083 Y11.9597
G01 X-0.3083 Y12.0903
G01 X-0.5995 Y12.0867
G01 X-0.8907 Y12.0903
G01 X-0.8907 Y12.2209
G01 X-0.5995 Y12.2173
G01 X-0.3083 Y12.2209
G01 X-0.3083 Y12.3514
G01 X-0.5995 Y12.3478
G01 X-0.8907 Y12.3514
G01 X-0.8907 Y12.4820
G01 X-0.5995 Y12.4784
G01 X-0.3083 Y12.4820
G01 X-0.3083 Y12.6125
G01 X-0.5995 Y12.6090
G01 X-0.8907 Y12.6125
G01 X-0.8907 Y12.7431
G01 X-0.5995 Y12.7395
G01 X-0.3083 Y12.7431
G01 X-0.3083 Y12.8737
G01 X-0.5995 Y12.8701
G01 X-0.8907 Y12.8737
G01 X-0.8907 Y13.0042
G01 X-0.5995 Y13.0006
G01 X-0.3083 Y13.0042
G01 X-0.3083 Y13.1348
G01 X-0.5995 Y13.1312
G01 X-0.8907 Y13.1348
G01 X-0.8907 Y13.2653
G01 X-0.5995 Y13.2618
G01 X-0.3083 Y13.2653
G01 X-0.3083 Y13.3959
G01 X-0.5995 Y13.3923
G01 X-0.8907 Y13.3959
G01 X-0.8907 Y13.5265
G01 X-0.5995 Y13.5229
G01 X-0.3083 Y13.5265
G01 X-0.3083 Y13.6570
G01 X-0.5995 Y13.6534
G01 X-0.8907 Y13.6570
G01 X-0.8907 Y13.7876
G01 X-0.5995 Y13.7840
G01 X-0.3083 Y13.7876
G01 X-0.3083 Y13.9181
G01 X-0.5995 Y13.9146
G01 X-0.8907 Y13.9181
G01 X-0.8907 Y14.0487
G01 X-0.5995 Y14.0451
G01 X-0.3083 Y14.0487
G01 X-0.3083 Y14.1793
G01 X-0.5995 Y14.1757
G01 X-0.8907 Y14.1793
G01 X-0.8907 Y14.3098
G01 X-0.5995 Y14.3062
G01 X-0.3083 Y14.3098
G01 X-0.3083 Y14.4404
G01 X-0.5995 Y14.4368
G01 X-0.8907 Y14.4404
G01 X-0.8907 Y14.5709
G01 X-0.5995 Y14.5674
G01 X-0.3083 Y14.5709
G01 X-0.3083 Y14.7015
G01 X-0.5995 Y14.6979
G01 X-0.8907 Y14.7015
G01 X-0.8907 Y14.8321
G01 X-0.5995 Y14.8285
G01 X-0.3083 Y14.8321
G01 X-0.3083 Y14.9626
G01 X-0.5995 Y14.9590
G01 X-0.8907 Y14.9626
G01 X-0.8907 Y15.0932
G01 X-0.5995 Y15.0896
G01 X-0.3083 Y15.0932
G01 X-0.3083 Y15.2237
G01 X-0.5995 Y15.2202
G01 X-0.8907 Y15.2237
G01 X-0.8907 Y15.3543
G01 X-0.5995 Y15.3507
G01 X-0.3083 Y15.3543
G01 X-0.3083 Y15.4849
G01 X-0.5995 Y15.4813
G01 X-0.8907 Y15.4849
G01 X-0.8907 Y15.6154
G01 X-0.5995 Y15.6118
G01 X-0.3083 Y15.6154
G01 X-0.3083 Y15.7460
G01 X-0.5995 Y15.7424
G01 X-0.8907 Y15.7460
G01 X-0.8907 Y15.8765
G01 X-0.5995 Y15.8730
G01 X-0.3083 Y15.8765
G01 X-0.3083 Y16.0071
G01 X-0.5995 Y16.0035
G01 X-0.8907 Y16.0071
G01 X-0.8907 Y16.1377
G01 X-0.5995 Y16.1341
G01 X-0.3083 Y16.1377
G01 X-0.3083 Y16.2682
G01 X-0.5995 Y16.2646
G01 X-0.8907 Y16.2682
G01 X-0.8907 Y16.3988
G01 X-0.5995 Y16.3952
G01 X-0.3083 Y16.3988
G01 X-0.3083 Y16.5293
G01 X-0.5995 Y16.5258
G01 X-0.8907 Y16.5293
G01 X-0.8907 Y16.6599
G01 X-0.5995 Y16.6563
G01 X-0.3083 Y16.6599
G01 X-0.3083 Y16.7905
G01 X-0.5995 Y16.7869
G01 X-0.8907 Y16.7905
G01 X-0.8907 Y16.9210
G01 X-0.5995 Y16.9174
G01 X-0.3083 Y16.9210
G01 X-0.3083 Y17.0516
G01 X-0.5995 Y17.0480
G01 X-0.8907 Y17.0516
G01 X-0.8907 Y17.1821
G01 X-0.5995 Y17.1786
G01 X-0.3083 Y17.1821
G01 X-0.3083 Y17.3127
G01 X-0.5995 Y17.3091
G01 X-0.8907 Y17.3127
G01 X-0.8907 Y17.4433
G01 X-0.5995 Y17.4397
G01 X-0.3083 Y17.4433
G01 X-0.3083 Y17.5738
G01 X-0.5995 Y17.5702
G01 X-0.8907 Y17.5738
G01 X-0.8907 Y17.7044
G01 X-0.5995 Y17.7008
G01 X-0.3083 Y17.7044
G01 X-0.3083 Y17.8349
G01 X-0.5995 Y17.8314
G01 X-0.8907 Y17.8349
G01 X-0.8907 Y17.9655
G01 X-0.5995 Y17.9619
G01 X-0.3083 Y17.9655
G01 X-0.3083 Y18.0961
G01 X-0.5995 Y18.0925
G01 X-0.8907 Y18.0961
G01 X-0.8907 Y18.2266
G01 X-0.5995 Y18.2230
G01 X-0.3083 Y18.2266
G01 X-0.3083 Y18.3572
G01 X-0.5995 Y18.3536
G01 X-0.8907 Y18.3572
G01 X-0.8907 Y18.4877
G01 X-0.5995 Y18.4842
G01 X-0.3083 Y18.4877
G01 X-0.3083 Y18.6183
G01 X-0.5995 Y18.6147
G01 X-0.8907 Y18.6183
G01 X-0.8907 Y18.7489
G01 X-0.5995 Y18.7453
G01 X-0.3083 Y18.7489
G01 X-0.3083 Y18.8794
G01 X-0.5995 Y18.8758
G01 X-0.8907 Y18.8794
G01 X-0.8907 Y19.0100
G01 X-0.5995 Y19.0064
G01 X-0.3083 Y19.0100
G01 X-0.3083 Y19.1405
G01 X-0.5995 Y19.1370
G01 X-0.8907 Y19.1405
G01 X-0.8907 Y19.2711
G01 X-0.5995 Y19.2675
G01 X-0.3083 Y19.2711
G01 X-0.3083 Y19.4017
G01 X-0.5995 Y19.3981
G01 X-0.8907 Y19.4017
G01 X-0.8907 Y19.5322
G01 X-0.5995 Y19.5286
G01 X-0.3083 Y19.5322
G01 X-0.3083 Y19.6628
G01 X-0.5995 Y19.6592
G01 X-0.8907 Y19.6628
G01 X-0.8907 Y19.7933
G01 X-0.5995 Y19.7898
G01 X-0.3083 Y19.7933
G01 X-0.3083 Y19.9239
G01 X-0.5995 Y19.9203
G01 X-0.8907 Y19.9239
G01 X-0.8907 Y20.0545
G01 X-0.5995 Y20.0509
G01 X-0.3083 Y20.0545
G01 X-0.3083 Y20.1850
G01 X-0.5995 Y20.1814
G01 X-0.8907 Y20.1850
G01 X-0.8907 Y20.3156
G01 X-0.5995 Y20.3120
G01 X-0.3083 Y20.3156
G01 X-0.3083 Y20.4461
G01 X-0.5995 Y20.4426
G01 X-0.8907 Y20.4461
G01 X-0.8907 Y20.5767
G01 X-0.5995 Y20.5731
G01 X-0.3083 Y20.5767
G01 X-0.3083 Y20.7073
G01 X-0.5995 Y20.7037
G01 X-0.8907 Y20.7073
G01 X-0.8907 Y20.8378
G01 X-0.5995 Y20.8342
G01 X-0.3083 Y20.8378
G01 X-0.3083 Y20.9684
G01 X-0.5995 Y20.9648
G01 X-0.8907 Y20.9684
G01 X-0.8907 Y21.0989
G01 X-0.5995 Y21.0954
G01 X-0.3083 Y21.0989
G01 X-0.3083 Y21.2295
G01 X-0.5995 Y21.2259
G01 X-0.8907 Y21.2295
G01 X-0.8907 Y21.3601
G01 X-0.5995 Y21.3565
G01 X-0.3083 Y21.3601
G01 X-0.3083 Y21.4906
G01 X-0.5995 Y21.4870
G01 X-0.8907 Y21.4906
G01 X-0.8907 Y21.6212
G01 X-0.5995 Y21.6176
G01 X-0.3083 Y21.6212
G01 X-0.3083 Y21.7517
G01 X-0.5995 Y21.7482
G01 X-0.8907 Y21.7517
G01 X-0.8907 Y21.8823
G01 X-0.5995 Y21.8787
G01 X-0.3083 Y21.8823
G01 X-0.3083 Y22.0129
G01 X-0.5995 Y22.0093
G01 X-0.8907 Y22.0129
G01 X-0.8907 Y22.1434
G01 X-0.5995 Y22.1398
G01 X-0.3083 Y22.1434
G01 X-0.3083 Y22.2740
G01 X-0.5995 Y22.2704
G01 X-0.8907 Y22.2740
G01 X-0.8907 Y22.4045
G01 X-0.5995 Y22.4010
G01 X-0.3083 Y22.4045
G01 X-0.3083 Y22.5351
G01 X-0.5995 Y22.5315
G01 X-0.8907 Y22.5351
G01 X-0.8907 Y22.6657
G01 X-0.5995 Y22.6621
G01 X-0.3083 Y22.6657
G01 X-0.3083 Y22.7962
G01 X-0.5995 Y22.7926
G01 X-0.8907 Y22.7962
G01 X-0.8907 Y22.9268
G01 X-0.5995 Y22.9232
G01 X-0.3083 Y22.9268
G01 X-0.3083 Y23.0573
G01 X-0.5995 Y23.0538
G01 X-0.8907 Y23.0573
G01 X-0.8907 Y23.1879
G01 X-0.5995 Y23.1843
G01 X-0.3083 Y23.1879
G01 X-0.3083 Y23.3186
G01 X-0.5995 Y23.3149
G01 X-0.8907 Y23.3186
G01 X-0.8907 Y23.4492
G01 X-0.5995 Y23.4454
G01 X-0.3083 Y23.4492
G01 X-0.3083 Y23.5798
G01 X-0.3191 Y23.5794
G01 X-0.5995 Y23.5760
G01 X-0.8799 Y23.5794
G01 X-0.8907 Y23.5798
G01 X-0.8907 Y23.7105
G01 X-0.8767 Y23.7100
G01 X-0.5995 Y23.7066
G01 X-0.3223 Y23.7100
G01 X-0.3083 Y23.7105
G01 X-0.3083 Y23.8411
G01 X-0.3255 Y23.8405
G01 X-0.5995 Y23.8371
G01 X-0.8735 Y23.8405
G01 X-0.8907 Y23.8411
G01 X-0.8907 Y23.9718
G01 X-0.8702 Y23.9710
G01 X-0.5995 Y23.9677
G01 X-0.3288 Y23.9710
G01 X-0.3083 Y23.9718
G01 X-0.3083 Y24.1024
G01 X-0.3320 Y24.1015
G01 X-0.5995 Y24.0982
G01 X-0.8670 Y24.1015
G01 X-0.8907 Y24.1024
G01 X-0.8907 Y24.2330
G01 X-0.8638 Y24.2320
G01 X-0.5995 Y24.2288
G01 X-0.3352 Y24.2320
G01 X-0.3083 Y24.2330
G01 X-0.3083 Y24.3637
G01 X-0.3384 Y24.3626
G01 X-0.5995 Y24.3594
G01 X-0.8606 Y24.3626
G01 X-0.8907 Y24.3637
G01 X-0.8907 Y24.4943
G01 X-0.8574 Y24.4931
G01 X-0.5995 Y24.4899
G01 X-0.3416 Y24.4931
G01 X-0.3083 Y24.4943
G01 X-0.3083 Y24.6249
G01 X-0.3448 Y24.6236
G01 X-0.5995 Y24.6205
G01 X-0.8542 Y24.6236
G01 X-0.8907 Y24.6249
G01 X-0.8907 Y24.7556
G01 X-0.8510 Y24.7541
G01 X-0.5995 Y24.7510
G01 X-0.3480 Y24.7541
G01 X-0.3083 Y24.7556
G01 X-0.3083 Y24.8862
G01 X-0.3512 Y24.8846
G01 X-0.5995 Y24.8816
G01 X-0.8478 Y24.8846
G01 X-0.8907 Y24.8862
G01 X-0.8907 Y25.0169
G01 X-0.8446 Y25.0152
G01 X-0.5995 Y25.0122
G01 X-0.3544 Y25.0152
G01 X-0.3083 Y25.0169
G01 X-0.3083 Y25.1475
G01 X-0.3576 Y25.1457
G01 X-0.5995 Y25.1427
G01 X-0.8414 Y25.1457
G01 X-0.8907 Y25.1475
G01 X-0.8907 Y25.2781
G01 X-0.8382 Y25.2762
G01 X-0.5995 Y25.2733
G01 X-0.3608 Y25.2762
G01 X-0.3083 Y25.2781
G01 X-0.3083 Y25.4088
G01 X-0.3640 Y25.4067
G01 X-0.5995 Y25.4038
G01 X-0.8350 Y25.4067
G01 X-0.8907 Y25.4088
G01 X-0.8907 Y25.5394
G01 X-0.8318 Y25.5373
G01 X-0.5995 Y25.5344
G01 X-0.3672 Y25.5373
G01 X-0.3083 Y25.5394
G01 X-0.3083 Y25.6701
G01 X-0.3704 Y25.6678
G01 X-0.5995 Y25.6650
G01 X-0.8286 Y25.6678
G01 X-0.8907 Y25.6701
G01 X-0.8907 Y25.8007
G01 X-0.8254 Y25.7983
G01 X-0.5995 Y25.7955
G01 X-0.3736 Y25.7983
G01 X-0.3083 Y25.8007
G01 X-0.3083 Y25.9313
G01 X-0.3768 Y25.9288
G01 X-0.5995 Y25.9261
G01 X-0.8222 Y25.9288
G01 X-0.8907 Y25.9313
G01 X-0.8907 Y26.0620
G01 X-0.8190 Y26.0593
G01 X-0.5995 Y26.0566
G01 X-0.3800 Y26.0593
G01 X-0.3083 Y26.0620
G01 X-0.3083 Y26.1926
G01 X-0.3832 Y26.1899
G01 X-0.5995 Y26.1872
G01 X-0.8158 Y26.1899
G01 X-0.8907 Y26.1926
G01 X-0.8907 Y26.3233
G01 X-0.8126 Y26.3204
G01 X-0.5995 Y26.3178
G01 X-0.3864 Y26.3204
G01 X-0.3083 Y26.3233
G01 X-0.3083 Y26.4539
G01 X-0.3896 Y26.4509
G01 X-0.5995 Y26.4483
G01 X-0.8094 Y26.4509
G01 X-0.8907 Y26.4539
G01 X-0.8907 Y26.5845
G01 X-0.8062 Y26.5814
G01 X-0.5995 Y26.5789
G01 X-0.3928 Y26.5814
G01 X-0.3083 Y26.5845
G01 X-0.3083 Y26.7152
G01 X-0.3960 Y26.7119
G01 X-0.5995 Y26.7094
G01 X-0.8030 Y26.7119
G01 X-0.8907 Y26.7152
G01 X-0.8907 Y26.8458
G01 X-0.7998 Y26.8425
G01 X-0.5995 Y26.8400
G01 X-0.3992 Y26.8425
G01 X-0.3083 Y26.8458
G01 X-0.3083 Y26.9764
G01 X-0.4024 Y26.9730
G01 X-0.5995 Y26.9706
G01 X-0.7966 Y26.9730
G01 X-0.8907 Y26.9764
G01 X-0.8907 Y27.1071
G01 X-0.7933 Y27.1035
G01 X-0.5995 Y27.1011
G01 X-0.4057 Y27.1035
G01 X-0.3083 Y27.1071
G01 X-0.3083 Y27.2377
G01 X-0.4089 Y27.2340
G01 X-0.5995 Y27.2317
G01 X-0.7901 Y27.2340
G01 X-0.8907 Y27.2377
G01 X-0.8907 Y27.3684
G01 X-0.7869 Y27.3645
G01 X-0.5995 Y27.3622
G01 X-0.4121 Y27.3645
G01 X-0.3083 Y27.3684
G01 X-0.3083 Y27.4990
G01 X-0.4153 Y27.4951
G01 X-0.5995 Y27.4928
G01 X-0.7837 Y27.4951
G01 X-0.8907 Y27.4990
G01 X-0.8907 Y27.6296
G01 X-0.7805 Y27.6256
G01 X-0.5995 Y27.6234
G01 X-0.4185 Y27.6256
G01 X-0.3083 Y27.6296
G01 X-0.3083 Y27.7603
G01 X-0.4217 Y27.7561
G01 X-0.5995 Y27.7539
G01 X-0.7773 Y27.7561
G01 X-0.8907 Y27.7603
G01 X-0.8907 Y27.8909
G01 X-0.7741 Y27.8866
G01 X-0.5995 Y27.8845
G01 X-0.4249 Y27.8866
G01 X-0.3083 Y27.8909
G01 X-0.3083 Y28.0216
G01 X-0.4281 Y28.0171
G01 X-0.5995 Y28.0150
G01 X-0.7709 Y28.0171
G01 X-0.8907 Y28.0216
G01 X-0.8907 Y28.1522
G01 X-0.7677 Y28.1477
G01 X-0.5995 Y28.1456
G01 X-0.4313 Y28.1477
G01 X-0.3083 Y28.1522
G01 X-0.3083 Y28.2828
G01 X-0.4345 Y28.2782
G01 X-0.5995 Y28.2762
G01 X-0.7645 Y28.2782
G01 X-0.8907 Y28.2828
G01 X-0.8907 Y28.4135
G01 X-0.7613 Y28.4087
G01 X-0.5995 Y28.4067
G01 X-0.4377 Y28.4087
G01 X-0.3083 Y28.4135
G01 X-0.3083 Y28.5441
G01 X-0.4409 Y28.5392
G01 X-0.5995 Y28.5373
G01 X-0.7581 Y28.5392
G01 X-0.8907 Y28.5441
G01 X-0.8907 Y28.6747
G01 X-0.7549 Y28.6697
G01 X-0.5995 Y28.6678
G01 X-0.4441 Y28.6697
G01 X-0.3083 Y28.6747
G01 X-0.3083 Y28.8054
G01 X-0.4473 Y28.8003
G01 X-0.5995 Y28.7984
G01 X-0.7517 Y28.8003
G01 X-0.8907 Y28.8054
G01 X-0.8907 Y28.9360
G01 X-0.7485 Y28.9308
G01 X-0.5995 Y28.9290
G01 X-0.4505 Y28.9308
G01 X-0.3083 Y28.9360
G01 X-0.3083 Y29.0667
G01 X-0.4537 Y29.0613
G01 X-0.5995 Y29.0595
G01 X-0.7453 Y29.0613
G01 X-0.8907 Y29.0667
G01 X-0.8907 Y29.1975
G01 X-0.7421 Y29.1918
G01 X-0.5995 Y29.1901
G01 X-0.4569 Y29.1918
G01 X-0.3083 Y29.1975
G01 X-0.3083 Y29.3283
G01 X-0.3208 Y29.3275
G01 X-0.4601 Y29.3224
G01 X-0.5995 Y29.3206
G01 X-0.7389 Y29.3224
G01 X-0.8782 Y29.3275
G01 X-0.8907 Y29.3283
G01 X-0.8907 Y29.4590
G01 X-0.8718 Y29.4579
G01 X-0.7357 Y29.4529
G01 X-0.5995 Y29.4512
G01 X-0.4633 Y29.4529
G01 X-0.3272 Y29.4579
G01 X-0.3083 Y29.4590
G01 X-0.3083 Y29.5898
G01 X-0.3336 Y29.5883
G01 X-0.4665 Y29.5834
G01 X-0.5995 Y29.5818
G01 X-0.7325 Y29.5834
G01 X-0.8654 Y29.5883
G01 X-0.8907 Y29.5898
G01 X-0.8907 Y29.7206
G01 X-0.8590 Y29.7187
G01 X-0.7293 Y29.7139
G01 X-0.5995 Y29.7123
G01 X-0.4697 Y29.7139
G01 X-0.3400 Y29.7187
G01 X-0.3083 Y29.7206
G01 X-0.3083 Y29.8514
G01 X-0.3465 Y29.8491
G01 X-0.4729 Y29.8444
G01 X-0.5995 Y29.8429
G01 X-0.7261 Y29.8444
G01 X-0.8525 Y29.8491
G01 X-0.8907 Y29.8514
G01 X-0.8907 Y29.9822
G01 X-0.8461 Y29.9795
G01 X-0.7229 Y29.9750
G01 X-0.5995 Y29.9734
G01 X-0.4761 Y29.9750
G01 X-0.3529 Y29.9795
G01 X-0.3083 Y29.9822
G01 X-0.3083 Y30.1130
G01 X-0.3593 Y30.1099
G01 X-0.4793 Y30.1055
G01 X-0.5995 Y30.1040
G01 X-0.7197 Y30.1055
G01 X-0.8397 Y30.1099
G01 X-0.8907 Y30.1130
G01 X-0.8907 Y30.2438
G01 X-0.8333 Y30.2403
G01 X-0.7164 Y30.2360
G01 X-0.5995 Y30.2346
G01 X-0.4826 Y30.2360
G01 X-0.3657 Y30.2403
G01 X-0.3083 Y30.2438
G01 X-0.3083 Y30.3746
G01 X-0.3721 Y30.3707
G01 X-0.4858 Y30.3665
G01 X-0.5995 Y30.3651
G01 X-0.7132 Y30.3665
G01 X-0.8269 Y30.3707
G01 X-0.8907 Y30.3746
G01 X-0.8907 Y30.5054
G01 X-0.8205 Y30.5011
G01 X-0.7100 Y30.4970
G01 X-0.5995 Y30.4957
G01 X-0.4890 Y30.4970
G01 X-0.3785 Y30.5011
G01 X-0.3083 Y30.5054
G01 X-0.3083 Y30.6362
G01 X-0.3849 Y30.6315
G01 X-0.4922 Y30.6276
G01 X-0.5995 Y30.6262
G01 X-0.7068 Y30.6276
G01 X-0.8141 Y30.6315
G01 X-0.8907 Y30.6362
G01 X-0.8907 Y30.7670
G01 X-0.8077 Y30.7619
G01 X-0.7036 Y30.7581
G01 X-0.5995 Y30.7568
G01 X-0.4954 Y30.7581
G01 X-0.3913 Y30.7619
G01 X-0.3083 Y30.7670
G01 X-0.3083 Y30.8978
G01 X-0.3977 Y30.8923
G01 X-0.4986 Y30.8886
G01 X-0.5995 Y30.8874
G01 X-0.7004 Y30.8886
G01 X-0.8013 Y30.8923
G01 X-0.8907 Y30.8978
G01 X-0.8907 Y31.0286
G01 X-0.7949 Y31.0227
G01 X-0.6972 Y31.0191
G01 X-0.5995 Y31.0179
G01 X-0.5018 Y31.0191
G01 X-0.4041 Y31.0227
G01 X-0.3083 Y31.0286
G01 X-0.3083 Y31.1596
G01 X-0.4105 Y31.1531
G01 X-0.5050 Y31.1496
G01 X-0.5995 Y31.1485
G01 X-0.6940 Y31.1496
G01 X-0.7885 Y31.1531
G01 X-0.8907 Y31.1596
G01 X-0.8907 Y31.2906
G01 X-0.8732 Y31.2891
G01 X-0.7821 Y31.2835
G01 X-0.6908 Y31.2802
G01 X-0.5995 Y31.2790
G01 X-0.5082 Y31.2802
G01 X-0.4169 Y31.2835
G01 X-0.3258 Y31.2891
G01 X-0.3083 Y31.2906
G01 X-0.3083 Y31.4217
G01 X-0.3354 Y31.4193
G01 X-0.4233 Y31.4139
G01 X-0.5114 Y31.4107
G01 X-0.5995 Y31.4096
G01 X-0.6876 Y31.4107
G01 X-0.7757 Y31.4139
G01 X-0.8636 Y31.4193
G01 X-0.8907 Y31.4217
G01 X-0.8907 Y31.5527
G01 X-0.8540 Y31.5495
G01 X-0.7693 Y31.5443
G01 X-0.6844 Y31.5412
G01 X-0.5995 Y31.5402
G01 X-0.5146 Y31.5412
G01 X-0.4297 Y31.5443
G01 X-0.3450 Y31.5495
G01 X-0.3083 Y31.5527
G01 X-0.3083 Y31.6837
G01 X-0.3546 Y31.6797
G01 X-0.4361 Y31.6747
G01 X-0.5178 Y31.6717
G01 X-0.5995 Y31.6707
G01 X-0.6812 Y31.6717
G01 X-0.7629 Y31.6747
G01 X-0.8444 Y31.6797
G01 X-0.8907 Y31.6837
G01 X-0.8907 Y31.8148
G01 X-0.8348 Y31.8099
G01 X-0.7565 Y31.8051
G01 X-0.6780 Y31.8022
G01 X-0.5995 Y31.8013
G01 X-0.5210 Y31.8022
G01 X-0.4425 Y31.8051
G01 X-0.3642 Y31.8099
G01 X-0.3083 Y31.8148
G01 X-0.3083 Y31.9458
G01 X-0.3738 Y31.9402
G01 X-0.4490 Y31.9355
G01 X-0.5242 Y31.9328
G01 X-0.5995 Y31.9318
G01 X-0.6748 Y31.9328
G01 X-0.7500 Y31.9355
G01 X-0.8252 Y31.9402
G01 X-0.8907 Y31.9458
G01 X-0.8907 Y32.0769
G01 X-0.8156 Y32.0704
G01 X-0.7436 Y32.0659
G01 X-0.6716 Y32.0633
G01 X-0.5995 Y32.0624
G01 X-0.5274 Y32.0633
G01 X-0.4554 Y32.0659
G01 X-0.3834 Y32.0704
G01 X-0.3083 Y32.0769
G01 X-0.3083 Y32.2083
G01 X-0.3244 Y32.2065
G01 X-0.3930 Y32.2006
G01 X-0.4618 Y32.1963
G01 X-0.5306 Y32.1938
G01 X-0.5995 Y32.1930
G01 X-0.6684 Y32.1938
G01 X-0.7372 Y32.1963
G01 X-0.8060 Y32.2006
G01 X-0.8746 Y32.2065
G01 X-0.8907 Y32.2083
G01 X-0.8907 Y32.3396
G01 X-0.8618 Y32.3364
G01 X-0.7964 Y32.3308
G01 X-0.7308 Y32.3267
G01 X-0.6652 Y32.3243
G01 X-0.5995 Y32.3235
G01 X-0.5338 Y32.3243
G01 X-0.4682 Y32.3267
G01 X-0.4026 Y32.3308
G01 X-0.3372 Y32.3364
G01 X-0.3083 Y32.3396
G01 X-0.3083 Y32.4710
G01 X-0.3500 Y32.4663
G01 X-0.4122 Y32.4610
G01 X-0.4746 Y32.4571
G01 X-0.5370 Y32.4548
G01 X-0.5995 Y32.4541
G01 X-0.6620 Y32.4548
G01 X-0.7244 Y32.4571
G01 X-0.7868 Y32.4610
G01 X-0.8490 Y32.4663
G01 X-0.8907 Y32.4710
G01 X-0.8907 Y32.6023
G01 X-0.8362 Y32.5963
G01 X-0.7772 Y32.5912
G01 X-0.7180 Y32.5875
G01 X-0.6588 Y32.5854
G01 X-0.5995 Y32.5846
G01 X-0.5402 Y32.5854
G01 X-0.4810 Y32.5875
G01 X-0.4218 Y32.5912
G01 X-0.3628 Y32.5963
G01 X-0.3083 Y32.6023
G01 X-0.3083 Y32.7339
G01 X-0.3756 Y32.7262
G01 X-0.4314 Y32.7214
G01 X-0.4874 Y32.7180
G01 X-0.5434 Y32.7159
G01 X-0.5995 Y32.7152
G01 X-0.6556 Y32.7159
G01 X-0.7116 Y32.7180
G01 X-0.7676 Y32.7214
G01 X-0.8234 Y32.7262
G01 X-0.8907 Y32.7339
G01 X-0.8907 Y32.8657
G01 X-0.8632 Y32.8620
G01 X-0.8107 Y32.8561
G01 X-0.7580 Y32.8516
G01 X-0.7052 Y32.8484
G01 X-0.6524 Y32.8464
G01 X-0.5995 Y32.8458
G01 X-0.5466 Y32.8464
G01 X-0.4938 Y32.8484
G01 X-0.4410 Y32.8516
G01 X-0.3883 Y32.8561
G01 X-0.3358 Y32.8620
G01 X-0.3083 Y32.8657
G01 X-0.3083 Y32.9974
G01 X-0.3518 Y32.9915
G01 X-0.4011 Y32.9861
G01 X-0.4506 Y32.9818
G01 X-0.5002 Y32.9788
G01 X-0.5498 Y32.9769
G01 X-0.5995 Y32.9763
G01 X-0.6492 Y32.9769
G01 X-0.6988 Y32.9788
G01 X-0.7484 Y32.9818
G01 X-0.7979 Y32.9861
G01 X-0.8472 Y32.9915
G01 X-0.8907 Y32.9974
G01 X-0.8907 Y33.1295
G01 X-0.8773 Y33.1274
G01 X-0.8312 Y33.1211
G01 X-0.7851 Y33.1160
G01 X-0.7388 Y33.1120
G01 X-0.6924 Y33.1092
G01 X-0.6460 Y33.1075
G01 X-0.5995 Y33.1069
G01 X-0.5530 Y33.1075
G01 X-0.5066 Y33.1092
G01 X-0.4602 Y33.1120
G01 X-0.4139 Y33.1160
G01 X-0.3678 Y33.1211
G01 X-0.3217 Y33.1274
G01 X-0.3083 Y33.1295
G01 X-0.3083 Y33.2618
G01 X-0.3409 Y33.2565
G01 X-0.3837 Y33.2507
G01 X-0.4267 Y33.2459
G01 X-0.4698 Y33.2422
G01 X-0.5130 Y33.2396
G01 X-0.5562 Y33.2380
G01 X-0.5995 Y33.2374
G01 X-0.6428 Y33.2380
G01 X-0.6860 Y33.2396
G01 X-0.7292 Y33.2422
G01 X-0.7723 Y33.2459
G01 X-0.8153 Y33.2507
G01 X-0.8581 Y33.2565
G01 X-0.8907 Y33.2618
G01 X-0.8907 Y33.3943
G01 X-0.8390 Y33.3857
G01 X-0.7993 Y33.3803
G01 X-0.7595 Y33.3759
G01 X-0.7196 Y33.3724
G01 X-0.6796 Y33.3700
G01 X-0.6396 Y33.3685
G01 X-0.5995 Y33.3680
G01 X-0.5594 Y33.3685
G01 X-0.5194 Y33.3700
G01 X-0.4794 Y33.3724
G01 X-0.4395 Y33.3759
G01 X-0.3997 Y33.3803
G01 X-0.3600 Y33.3857
G01 X-0.3083 Y33.3943
G01 X-0.3083 Y33.5271
G01 X-0.3428 Y33.5207
G01 X-0.3792 Y33.5148
G01 X-0.4157 Y33.5099
G01 X-0.4523 Y33.5058
G01 X-0.4890 Y33.5026
G01 X-0.5258 Y33.5004
G01 X-0.5627 Y33.4990
G01 X-0.5995 Y33.4986
G01 X-0.6363 Y33.4990
G01 X-0.6732 Y33.5004
G01 X-0.7100 Y33.5026
G01 X-0.7467 Y33.5058
G01 X-0.7833 Y33.5099
G01 X-0.8198 Y33.5148
G01 X-0.8562 Y33.5207
G01 X-0.8907 Y33.5271
G01 X-0.8907 Y33.6605
G01 X-0.8669 Y33.6555
G01 X-0.8339 Y33.6493
G01 X-0.8006 Y33.6440
G01 X-0.7673 Y33.6394
G01 X-0.7339 Y33.6357
G01 X-0.7003 Y33.6328
G01 X-0.6668 Y33.6308
G01 X-0.6331 Y33.6295
G01 X-0.5995 Y33.6291
G01 X-0.5659 Y33.6295
G01 X-0.5322 Y33.6308
G01 X-0.4987 Y33.6328
G01 X-0.4651 Y33.6357
G01 X-0.4317 Y33.6394
G01 X-0.3984 Y33.6440
G01 X-0.3651 Y33.6493
G01 X-0.3321 Y33.6555
G01 X-0.3083 Y33.6605
G01 X-0.3083 Y33.7944
G01 X-0.3277 Y33.7898
G01 X-0.3575 Y33.7835
G01 X-0.3875 Y33.7779
G01 X-0.4175 Y33.7731
G01 X-0.4477 Y33.7690
G01 X-0.4779 Y33.7657
G01 X-0.5083 Y33.7630
G01 X-0.5386 Y33.7612
G01 X-0.5691 Y33.7601
G01 X-0.5995 Y33.7597
G01 X-0.6299 Y33.7601
G01 X-0.6604 Y33.7612
G01 X-0.6907 Y33.7630
G01 X-0.7211 Y33.7657
G01 X-0.7513 Y33.7690
G01 X-0.7815 Y33.7731
G01 X-0.8115 Y33.7779
G01 X-0.8415 Y33.7835
G01 X-0.8713 Y33.7898
G01 X-0.8907 Y33.7944
G01 X-0.8907 Y33.9292
G01 X-0.8691 Y33.9235
G01 X-0.8426 Y33.9172
G01 X-0.8160 Y33.9116
G01 X-0.7892 Y33.9066
G01 X-0.7623 Y33.9023
G01 X-0.7353 Y33.8986
G01 X-0.7083 Y33.8956
G01 X-0.6811 Y33.8932
G01 X-0.6540 Y33.8916
G01 X-0.6267 Y33.8906
G01 X-0.5995 Y33.8902
G01 X-0.5723 Y33.8906
G01 X-0.5450 Y33.8916
G01 X-0.5179 Y33.8932
G01 X-0.4907 Y33.8956
G01 X-0.4637 Y33.8986
G01 X-0.4367 Y33.9023
G01 X-0.4098 Y33.9066
G01 X-0.3830 Y33.9116
G01 X-0.3564 Y33.9172
G01 X-0.3299 Y33.9235
G01 X-0.3083 Y33.9292
G01 X-0.3083 Y34.0652
G01 X-0.3383 Y34.0563
G01 X-0.3616 Y34.0501
G01 X-0.3850 Y34.0446
G01 X-0.4085 Y34.0396
G01 X-0.4321 Y34.0352
G01 X-0.4558 Y34.0314
G01 X-0.4796 Y34.0282
G01 X-0.5035 Y34.0255
G01 X-0.5275 Y34.0235
G01 X-0.5515 Y34.0220
G01 X-0.5755 Y34.0211
G01 X-0.5995 Y34.0208
G01 X-0.6235 Y34.0211
G01 X-0.6475 Y34.0220
G01 X-0.6715 Y34.0235
G01 X-0.6955 Y34.0255
G01 X-0.7194 Y34.0282
G01 X-0.7432 Y34.0314
G01 X-0.7669 Y34.0352
G01 X-0.7905 Y34.0396
G01 X-0.8140 Y34.0446
G01 X-0.8374 Y34.0501
G01 X-0.8607 Y34.0563
G01 X-0.8907 Y34.0652
G01 X-0.8907 Y34.2029
G01 X-0.8657 Y34.1942
G01 X-0.8458 Y34.1879
G01 X-0.8258 Y34.1821
G01 X-0.8057 Y34.1768
G01 X-0.7854 Y34.1720
G01 X-0.7651 Y34.1677
G01 X-0.7446 Y34.1639
G01 X-0.7240 Y34.1605
G01 X-0.7034 Y34.1577
G01 X-0.6827 Y34.1554
G01 X-0.6619 Y34.1537
G01 X-0.6411 Y34.1524
G01 X-0.6203 Y34.1516
G01 X-0.5995 Y34.1514
G01 X-0.5787 Y34.1516
G01 X-0.5579 Y34.1524
G01 X-0.5371 Y34.1537
G01 X-0.5163 Y34.1554
G01 X-0.4956 Y34.1577
G01 X-0.4750 Y34.1605
G01 X-0.4544 Y34.1639
G01 X-0.4339 Y34.1677
G01 X-0.4136 Y34.1720
G01 X-0.3933 Y34.1768
G01 X-0.3732 Y34.1821
G01 X-0.3532 Y34.1879
G01 X-0.3333 Y34.1942
G01 X-0.3083 Y34.2029
G01 X-0.3083 Y34.3436
G01 X-0.3411 Y34.3300
G01 X-0.3743 Y34.3182
G01 X-0.4080 Y34.3079
G01 X-0.4422 Y34.2994
G01 X-0.4594 Y34.2957
G01 X-0.4941 Y34.2897
G01 X-0.5291 Y34.2854
G01 X-0.5643 Y34.2828
G01 X-0.5995 Y34.2819
G01 X-0.6347 Y34.2828
G01 X-0.6699 Y34.2854
G01 X-0.7049 Y34.2897
G01 X-0.7396 Y34.2957
G01 X-0.7568 Y34.2994
G01 X-0.7910 Y34.3079
G01 X-0.8247 Y34.3182
G01 X-0.8579 Y34.3300
G01 X-0.8907 Y34.3436
G01 X-0.8907 Y34.4897
G01 X-0.8637 Y34.4752
G01 X-0.8507 Y34.4689
G01 X-0.8243 Y34.4572
G01 X-0.7974 Y34.4468
G01 X-0.7700 Y34.4378
G01 X-0.7562 Y34.4338
G01 X-0.7282 Y34.4268
G01 X-0.7141 Y34.4238
G01 X-0.6999 Y34.4211
G01 X-0.6714 Y34.4169
G01 X-0.6427 Y34.4141
G01 X-0.6139 Y34.4127
G01 X-0.5995 Y34.4125
G01 X-0.5851 Y34.4127
G01 X-0.5563 Y34.4141
G01 X-0.5276 Y34.4169
G01 X-0.4991 Y34.4211
G01 X-0.4849 Y34.4238
G01 X-0.4708 Y34.4268
G01 X-0.4428 Y34.4338
G01 X-0.4290 Y34.4378
G01 X-0.4016 Y34.4468
G01 X-0.3747 Y34.4572
G01 X-0.3483 Y34.4689
G01 X-0.3353 Y34.4752
G01 X-0.3083 Y34.4897
G01 X-0.3083 Y34.6479
G01 X-0.3184 Y34.6398
G01 X-0.3364 Y34.6264
G01 X-0.3550 Y34.6139
G01 X-0.3743 Y34.6024
G01 X-0.3940 Y34.5918
G01 X-0.4041 Y34.5869
G01 X-0.4246 Y34.5778
G01 X-0.4456 Y34.5698
G01 X-0.4669 Y34.5627
G01 X-0.4776 Y34.5596
G01 X-0.4994 Y34.5541
G01 X-0.5214 Y34.5498
G01 X-0.5436 Y34.5465
G01 X-0.5547 Y34.5452
G01 X-0.5771 Y34.5436
G01 X-0.5995 Y34.5430
G01 X-0.6219 Y34.5436
G01 X-0.6443 Y34.5452
G01 X-0.6554 Y34.5465
G01 X-0.6776 Y34.5498
G01 X-0.6886 Y34.5518
G01 X-0.7105 Y34.5567
G01 X-0.7321 Y34.5627
G01 X-0.7534 Y34.5698
G01 X-0.7640 Y34.5737
G01 X-0.7847 Y34.5822
G01 X-0.8050 Y34.5918
G01 X-0.8247 Y34.6024
G01 X-0.8440 Y34.6139
G01 X-0.8626 Y34.6264
G01 X-0.8806 Y34.6398
G01 X-0.8907 Y34.6479
G01 X-0.8907 Y34.8526
G01 X-0.8795 Y34.8322
G01 X-0.8664 Y34.8121
G01 X-0.8518 Y34.7929
G01 X-0.8359 Y34.7749
G01 X-0.8246 Y34.7636
G01 X-0.8066 Y34.7477
G01 X-0.7874 Y34.7331
G01 X-0.7673 Y34.7200
G01 X-0.7534 Y34.7121
G01 X-0.7318 Y34.7016
G01 X-0.7095 Y34.6927
G01 X-0.6866 Y34.6854
G01 X-0.6710 Y34.6815
G01 X-0.6474 Y34.6771
G01 X-0.6235 Y34.6745
G01 X-0.5995 Y34.6736
G01 X-0.5755 Y34.6745
G01 X-0.5516 Y34.6771
G01 X-0.5280 Y34.6815
G01 X-0.5124 Y34.6854
G01 X-0.4895 Y34.6927
G01 X-0.4672 Y34.7016
G01 X-0.4456 Y34.7121
G01 X-0.4317 Y34.7200
G01 X-0.4116 Y34.7331
G01 X-0.3924 Y34.7477
G01 X-0.3744 Y34.7636
G01 X-0.3631 Y34.7749
G01 X-0.3472 Y34.7929
G01 X-0.3326 Y34.8121
G01 X-0.3195 Y34.8322
G01 X-0.3083 Y34.8526
G01 X-0.4037 Y35.0000
G01 X-0.4042 Y34.9856
G01 X-0.4065 Y34.9665
G01 X-0.4108 Y34.9478
G01 X-0.4168 Y34.9295
G01 X-0.4246 Y34.9119
G01 X-0.4315 Y34.8993
G01 X-0.4422 Y34.8833
G01 X-0.4512 Y34.8721
G01 X-0.4610 Y34.8615
G01 X-0.4753 Y34.8486
G01 X-0.4907 Y34.8372
G01 X-0.5072 Y34.8273
G01 X-0.5246 Y34.8191
G01 X-0.5381 Y34.8140
G01 X-0.5566 Y34.8089
G01 X-0.5708 Y34.8063
G01 X-0.5899 Y34.8044
G01 X-0.6091 Y34.8044
G01 X-0.6235 Y34.8056
G01 X-0.6424 Y34.8089
G01 X-0.6563 Y34.8126
G01 X-0.6744 Y34.8191
G01 X-0.6918 Y34.8273
G01 X-0.7043 Y34.8345
G01 X-0.7162 Y34.8427
G01 X-0.7310 Y34.8549
G01 X-0.7446 Y34.8685
G01 X-0.7539 Y34.8795
G01 X-0.7650 Y34.8952
G01 X-0.7722 Y34.9077
G01 X-0.7804 Y34.9251
G01 X-0.7855 Y34.9386
G01 X-0.7906 Y34.9571
G01 X-0.7925 Y34.9665
G01 X-0.7944 Y34.9808
G01 X-0.7951 Y34.9904
G01 X-0.7953 Y35.0048
G01 X-0.7939 Y35.0240
G01 X-0.7916 Y35.0382
G01 X-0.7895 Y35.0476
G01 X-0.7839 Y35.0660
G01 X-0.7765 Y35.0837
G01 X-0.7675 Y35.1007
G01 X-0.7623 Y35.1088
G01 X-0.7539 Y35.1205
G01 X-0.7413 Y35.1350
G01 X-0.7274 Y35.1483
G01 X-0.7162 Y35.1573
G01 X-0.7083 Y35.1628
G01 X-0.6918 Y35.1727
G01 X-0.6832 Y35.1770
G01 X-0.6700 Y35.1827
G01 X-0.6517 Y35.1887
G01 X-0.6424 Y35.1911
G01 X-0.6282 Y35.1937
G01 X-0.6091 Y35.1956
G01 X-0.5947 Y35.1958
G01 X-0.5851 Y35.1953
G01 X-0.5660 Y35.1930
G01 X-0.5566 Y35.1911
G01 X-0.5427 Y35.1874
G01 X-0.5246 Y35.1809
G01 X-0.5072 Y35.1727
G01 X-0.4988 Y35.1680
G01 X-0.4867 Y35.1601
G01 X-0.4716 Y35.1483
G01 X-0.4577 Y35.1350
G01 X-0.4481 Y35.1242
G01 X-0.4422 Y35.1167
G01 X-0.4315 Y35.1007
G01 X-0.4225 Y35.0837
G01 X-0.4205 Y35.0794
G01 X-0.4186 Y35.0749
G01 X-0.4168 Y35.0705
G01 X-0.4135 Y35.0614
G01 X-0.4084 Y35.0429
G01 X-0.4058 Y35.0287
G01 X-0.4046 Y35.0192
G01 X-0.4037 Y35.0000
G01 X-0.5342 Y35.0000
G01 X-0.5345 Y34.9936
G01 X-0.5355 Y34.9873
G01 X-0.5370 Y34.9811
G01 X-0.5392 Y34.9750
G01 X-0.5419 Y34.9692
G01 X-0.5452 Y34.9637
G01 X-0.5522 Y34.9550
G01 X-0.5569 Y34.9506
G01 X-0.5619 Y34.9466
G01 X-0.5716 Y34.9410
G01 X-0.5775 Y34.9385
G01 X-0.5836 Y34.9367
G01 X-0.5899 Y34.9354
G01 X-0.5963 Y34.9348
G01 X-0.6075 Y34.9352
G01 X-0.6138 Y34.9363
G01 X-0.6200 Y34.9380
G01 X-0.6260 Y34.9403
G01 X-0.6317 Y34.9432
G01 X-0.6409 Y34.9495
G01 X-0.6489 Y34.9574
G01 X-0.6529 Y34.9624
G01 X-0.6563 Y34.9678
G01 X-0.6610 Y34.9780
G01 X-0.6638 Y34.9888
G01 X-0.6648 Y34.9984
G01 X-0.6641 Y35.0096
G01 X-0.6615 Y35.0205
G01 X-0.6571 Y35.0308
G01 X-0.6510 Y35.0402
G01 X-0.6433 Y35.0484
G01 X-0.6358 Y35.0543
G01 X-0.6260 Y35.0597
G01 X-0.6169 Y35.0629
G01 X-0.6091 Y35.0646
G01 X-0.6011 Y35.0653
G01 X-0.5931 Y35.0650
G01 X-0.5852 Y35.0637
G01 X-0.5775 Y35.0615
G01 X-0.5701 Y35.0583
G01 X-0.5632 Y35.0543
G01 X-0.5569 Y35.0494
G01 X-0.5511 Y35.0438
G01 X-0.5461 Y35.0376
G01 X-0.5419 Y35.0308
G01 X-0.5386 Y35.0235
G01 X-0.5362 Y35.0159
G01 X-0.5347 Y35.0080
G01 X-0.5342 Y35.0000
G01 X-0.3083 Y35.1474
G01 X-0.3155 Y35.1609
G01 X-0.3237 Y35.1746
G01 X-0.3373 Y35.1944
G01 X-0.3523 Y35.2132
G01 X-0.3687 Y35.2308
G01 X-0.3863 Y35.2472
G01 X-0.3987 Y35.2573
G01 X-0.4116 Y35.2669
G01 X-0.4317 Y35.2800
G01 X-0.4527 Y35.2915
G01 X-0.4672 Y35.2984
G01 X-0.4820 Y35.3045
G01 X-0.4971 Y35.3099
G01 X-0.5124 Y35.3146
G01 X-0.5280 Y35.3185
G01 X-0.5437 Y35.3216
G01 X-0.5595 Y35.3239
G01 X-0.5755 Y35.3255
G01 X-0.5915 Y35.3263
G01 X-0.6075 Y35.3263
G01 X-0.6235 Y35.3255
G01 X-0.6395 Y35.3239
G01 X-0.6553 Y35.3216
G01 X-0.6710 Y35.3185
G01 X-0.6866 Y35.3146
G01 X-0.7019 Y35.3099
G01 X-0.7170 Y35.3045
G01 X-0.7318 Y35.2984
G01 X-0.7463 Y35.2915
G01 X-0.7604 Y35.2840
G01 X-0.7741 Y35.2758
G01 X-0.7874 Y35.2669
G01 X-0.8003 Y35.2573
G01 X-0.8127 Y35.2472
G01 X-0.8246 Y35.2364
G01 X-0.8359 Y35.2251
G01 X-0.8467 Y35.2132
G01 X-0.8568 Y35.2008
G01 X-0.8664 Y35.1879
G01 X-0.8753 Y35.1746
G01 X-0.8835 Y35.1609
G01 X-0.8907 Y35.1474
G01 X-0.8907 Y35.3521
G01 X-0.8806 Y35.3602
G01 X-0.8626 Y35.3736
G01 X-0.8440 Y35.3861
G01 X-0.8247 Y35.3976
G01 X-0.8149 Y35.4030
G01 X-0.7949 Y35.4131
G01 X-0.7744 Y35.4222
G01 X-0.7534 Y35.4302
G01 X-0.7428 Y35.4339
G01 X-0.7214 Y35.4404
G01 X-0.6996 Y35.4459
G01 X-0.6776 Y35.4502
G01 X-0.6554 Y35.4535
G01 X-0.6443 Y35.4548
G01 X-0.6219 Y35.4564
G01 X-0.6107 Y35.4568
G01 X-0.5883 Y35.4568
G01 X-0.5771 Y35.4564
G01 X-0.5547 Y35.4548
G01 X-0.5436 Y35.4535
G01 X-0.5214 Y35.4502
G01 X-0.5104 Y35.4482
G01 X-0.4885 Y35.4433
G01 X-0.4669 Y35.4373
G01 X-0.4456 Y35.4302
G01 X-0.4350 Y35.4263
G01 X-0.4143 Y35.4178
G01 X-0.4041 Y35.4131
G01 X-0.3841 Y35.4030
G01 X-0.3646 Y35.3919
G01 X-0.3550 Y35.3861
G01 X-0.3364 Y35.3736
G01 X-0.3273 Y35.3670
G01 X-0.3083 Y35.3521
G01 X-0.3083 Y35.5103
G01 X-0.3353 Y35.5248
G01 X-0.3483 Y35.5311
G01 X-0.3747 Y35.5428
G01 X-0.3881 Y35.5482
G01 X-0.4152 Y35.5579
G01 X-0.4428 Y35.5662
G01 X-0.4708 Y35.5732
G01 X-0.4991 Y35.5789
G01 X-0.5276 Y35.5831
G01 X-0.5563 Y35.5859
G01 X-0.5851 Y35.5873
G01 X-0.6139 Y35.5873
G01 X-0.6427 Y35.5859
G01 X-0.6714 Y35.5831
G01 X-0.6999 Y35.5789
G01 X-0.7282 Y35.5732
G01 X-0.7562 Y35.5662
G01 X-0.7838 Y35.5579
G01 X-0.8109 Y35.5482
G01 X-0.8376 Y35.5371
G01 X-0.8637 Y35.5248
G01 X-0.8907 Y35.5103
G01 X-0.8907 Y35.6564
G01 X-0.8743 Y35.6634
G01 X-0.8414 Y35.6761
G01 X-0.8079 Y35.6872
G01 X-0.7740 Y35.6966
G01 X-0.7396 Y35.7043
G01 X-0.7049 Y35.7103
G01 X-0.6699 Y35.7146
G01 X-0.6523 Y35.7161
G01 X-0.6171 Y35.7179
G01 X-0.5819 Y35.7179
G01 X-0.5643 Y35.7172
G01 X-0.5291 Y35.7146
G01 X-0.5116 Y35.7127
G01 X-0.4767 Y35.7075
G01 X-0.4422 Y35.7006
G01 X-0.4080 Y35.6921
G01 X-0.3743 Y35.6818
G01 X-0.3576 Y35.6761
G01 X-0.3247 Y35.6634
G01 X-0.3083 Y35.6564
G01 X-0.3083 Y35.7971
G01 X-0.3333 Y35.8058
G01 X-0.3532 Y35.8121
G01 X-0.3732 Y35.8179
G01 X-0.3933 Y35.8232
G01 X-0.4136 Y35.8280
G01 X-0.4339 Y35.8323
G01 X-0.4544 Y35.8361
G01 X-0.4750 Y35.8395
G01 X-0.4956 Y35.8423
G01 X-0.5163 Y35.8446
G01 X-0.5371 Y35.8463
G01 X-0.5579 Y35.8476
G01 X-0.5787 Y35.8484
G01 X-0.5995 Y35.8486
G01 X-0.6203 Y35.8484
G01 X-0.6411 Y35.8476
G01 X-0.6619 Y35.8463
G01 X-0.6827 Y35.8446
G01 X-0.7034 Y35.8423
G01 X-0.7240 Y35.8395
G01 X-0.7446 Y35.8361
G01 X-0.7651 Y35.8323
G01 X-0.7854 Y35.8280
G01 X-0.8057 Y35.8232
G01 X-0.8258 Y35.8179
G01 X-0.8458 Y35.8121
G01 X-0.8657 Y35.8058
G01 X-0.8907 Y35.7971
G01 X-0.8907 Y35.9348
G01 X-0.8607 Y35.9437
G01 X-0.8374 Y35.9499
G01 X-0.8140 Y35.9554
G01 X-0.7905 Y35.9604
G01 X-0.7669 Y35.9648
G01 X-0.7432 Y35.9686
G01 X-0.7194 Y35.9718
G01 X-0.6955 Y35.9745
G01 X-0.6715 Y35.9765
G01 X-0.6475 Y35.9780
G01 X-0.6235 Y35.9789
G01 X-0.5995 Y35.9792
G01 X-0.5755 Y35.9789
G01 X-0.5515 Y35.9780
G01 X-0.5275 Y35.9765
G01 X-0.5035 Y35.9745
G01 X-0.4796 Y35.9718
G01 X-0.4558 Y35.9686
G01 X-0.4321 Y35.9648
G01 X-0.4085 Y35.9604
G01 X-0.3850 Y35.9554
G01 X-0.3616 Y35.9499
G01 X-0.3383 Y35.9437
G01 X-0.3083 Y35.9348
G01 X-0.3083 Y36.0708
G01 X-0.3299 Y36.0765
G01 X-0.3564 Y36.0828
G01 X-0.3830 Y36.0884
G01 X-0.4098 Y36.0934
G01 X-0.4367 Y36.0977
G01 X-0.4637 Y36.1014
G01 X-0.4907 Y36.1044
G01 X-0.5179 Y36.1068
G01 X-0.5450 Y36.1084
G01 X-0.5723 Y36.1094
G01 X-0.5995 Y36.1098
G01 X-0.6267 Y36.1094
G01 X-0.6540 Y36.1084
G01 X-0.6811 Y36.1068
G01 X-0.7083 Y36.1044
G01 X-0.7353 Y36.1014
G01 X-0.7623 Y36.0977
G01 X-0.7892 Y36.0934
G01 X-0.8160 Y36.0884
G01 X-0.8426 Y36.0828
G01 X-0.8691 Y36.0765
G01 X-0.8907 Y36.0708
G01 X-0.8907 Y36.2056
G01 X-0.8713 Y36.2102
G01 X-0.8415 Y36.2165
G01 X-0.8115 Y36.2221
G01 X-0.7815 Y36.2269
G01 X-0.7513 Y36.2310
G01 X-0.7211 Y36.2343
G01 X-0.6907 Y36.2370
G01 X-0.6604 Y36.2388
G01 X-0.6299 Y36.2399
G01 X-0.5995 Y36.2403
G01 X-0.5691 Y36.2399
G01 X-0.5386 Y36.2388
G01 X-0.5083 Y36.2370
G01 X-0.4779 Y36.2343
G01 X-0.4477 Y36.2310
G01 X-0.4175 Y36.2269
G01 X-0.3875 Y36.2221
G01 X-0.3575 Y36.2165
G01 X-0.3277 Y36.2102
G01 X-0.3083 Y36.2056
G01 X-0.3083 Y36.3395
G01 X-0.3321 Y36.3445
G01 X-0.3651 Y36.3507
G01 X-0.3984 Y36.3560
G01 X-0.4317 Y36.3606
G01 X-0.4651 Y36.3643
G01 X-0.4987 Y36.3672
G01 X-0.5322 Y36.3692
G01 X-0.5659 Y36.3705
G01 X-0.5995 Y36.3709
G01 X-0.6331 Y36.3705
G01 X-0.6668 Y36.3692
G01 X-0.7003 Y36.3672
G01 X-0.7339 Y36.3643
G01 X-0.7673 Y36.3606
G01 X-0.8006 Y36.3560
G01 X-0.8339 Y36.3507
G01 X-0.8669 Y36.3445
G01 X-0.8907 Y36.3395
G01 X-0.8907 Y36.4729
G01 X-0.8562 Y36.4793
G01 X-0.8198 Y36.4852
G01 X-0.7833 Y36.4901
G01 X-0.7467 Y36.4942
G01 X-0.7100 Y36.4974
G01 X-0.6732 Y36.4996
G01 X-0.6363 Y36.5010
G01 X-0.5995 Y36.5014
G01 X-0.5627 Y36.5010
G01 X-0.5258 Y36.4996
G01 X-0.4890 Y36.4974
G01 X-0.4523 Y36.4942
G01 X-0.4157 Y36.4901
G01 X-0.3792 Y36.4852
G01 X-0.3428 Y36.4793
G01 X-0.3083 Y36.4729
G01 X-0.3083 Y36.6057
G01 X-0.3600 Y36.6143
G01 X-0.3997 Y36.6197
G01 X-0.4395 Y36.6241
G01 X-0.4794 Y36.6276
G01 X-0.5194 Y36.6300
G01 X-0.5594 Y36.6315
G01 X-0.5995 Y36.6320
G01 X-0.6396 Y36.6315
G01 X-0.6796 Y36.6300
G01 X-0.7196 Y36.6276
G01 X-0.7595 Y36.6241
G01 X-0.7993 Y36.6197
G01 X-0.8390 Y36.6143
G01 X-0.8907 Y36.6057
G01 X-0.8907 Y36.7382
G01 X-0.8581 Y36.7435
G01 X-0.8153 Y36.7493
G01 X-0.7723 Y36.7541
G01 X-0.7292 Y36.7578
G01 X-0.6860 Y36.7604
G01 X-0.6428 Y36.7620
G01 X-0.5995 Y36.7626
G01 X-0.5562 Y36.7620
G01 X-0.5130 Y36.7604
G01 X-0.4698 Y36.7578
G01 X-0.4267 Y36.7541
G01 X-0.3837 Y36.7493
G01 X-0.3409 Y36.7435
G01 X-0.3083 Y36.7382
G01 X-0.3083 Y36.8705
G01 X-0.3217 Y36.8726
G01 X-0.3678 Y36.8789
G01 X-0.4139 Y36.8840
G01 X-0.4602 Y36.8880
G01 X-0.5066 Y36.8908
G01 X-0.5530 Y36.8925
G01 X-0.5995 Y36.8931
G01 X-0.6460 Y36.8925
G01 X-0.6924 Y36.8908
G01 X-0.7388 Y36.8880
G01 X-0.7851 Y36.8840
G01 X-0.8312 Y36.8789
G01 X-0.8773 Y36.8726
G01 X-0.8907 Y36.8705
G01 X-0.8907 Y37.0026
G01 X-0.8472 Y37.0085
G01 X-0.7979 Y37.0139
G01 X-0.7484 Y37.0182
G01 X-0.6988 Y37.0212
G01 X-0.6492 Y37.0231
G01 X-0.5995 Y37.0237
G01 X-0.5498 Y37.0231
G01 X-0.5002 Y37.0212
G01 X-0.4506 Y37.0182
G01 X-0.4011 Y37.0139
G01 X-0.3518 Y37.0085
G01 X-0.3083 Y37.0026
G01 X-0.3083 Y37.1343
G01 X-0.3358 Y37.1380
G01 X-0.3883 Y37.1439
G01 X-0.4410 Y37.1484
G01 X-0.4938 Y37.1516
G01 X-0.5466 Y37.1536
G01 X-0.5995 Y37.1542
G01 X-0.6524 Y37.1536
G01 X-0.7052 Y37.1516
G01 X-0.7580 Y37.1484
G01 X-0.8107 Y37.1439
G01 X-0.8632 Y37.1380
G01 X-0.8907 Y37.1343
G01 X-0.8907 Y37.2661
G01 X-0.8234 Y37.2738
G01 X-0.7676 Y37.2786
G01 X-0.7116 Y37.2820
G01 X-0.6556 Y37.2841
G01 X-0.5995 Y37.2848
G01 X-0.5434 Y37.2841
G01 X-0.4874 Y37.2820
G01 X-0.4314 Y37.2786
G01 X-0.3756 Y37.2738
G01 X-0.3083 Y37.2661
G01 X-0.3083 Y37.3977
G01 X-0.3628 Y37.4037
G01 X-0.4218 Y37.4088
G01 X-0.4810 Y37.4125
G01 X-0.5402 Y37.4146
G01 X-0.5995 Y37.4154
G01 X-0.6588 Y37.4146
G01 X-0.7180 Y37.4125
G01 X-0.7772 Y37.4088
G01 X-0.8362 Y37.4037
G01 X-0.8907 Y37.3977
G01 X-0.8907 Y37.5290
G01 X-0.8490 Y37.5337
G01 X-0.7868 Y37.5390
G01 X-0.7244 Y37.5429
G01 X-0.6620 Y37.5452
G01 X-0.5995 Y37.5459
G01 X-0.5370 Y37.5452
G01 X-0.4746 Y37.5429
G01 X-0.4122 Y37.5390
G01 X-0.3500 Y37.5337
G01 X-0.3083 Y37.5290
G01 X-0.3083 Y37.6604
G01 X-0.3372 Y37.6636
G01 X-0.4026 Y37.6692
G01 X-0.4682 Y37.6733
G01 X-0.5338 Y37.6757
G01 X-0.5995 Y37.6765
G01 X-0.6652 Y37.6757
G01 X-0.7308 Y37.6733
G01 X-0.7964 Y37.6692
G01 X-0.8618 Y37.6636
G01 X-0.8907 Y37.6604
G01 X-0.8907 Y37.7917
G01 X-0.8746 Y37.7935
G01 X-0.8060 Y37.7994
G01 X-0.7372 Y37.8037
G01 X-0.6684 Y37.8062
G01 X-0.5995 Y37.8070
G01 X-0.5306 Y37.8062
G01 X-0.4618 Y37.8037
G01 X-0.3930 Y37.7994
G01 X-0.3244 Y37.7935
G01 X-0.3083 Y37.7917
G01 X-0.3083 Y37.9231
G01 X-0.3834 Y37.9296
G01 X-0.4554 Y37.9341
G01 X-0.5274 Y37.9367
G01 X-0.5995 Y37.9376
G01 X-0.6716 Y37.9367
G01 X-0.7436 Y37.9341
G01 X-0.8156 Y37.9296
G01 X-0.8907 Y37.9231
G01 X-0.8907 Y38.0542
G01 X-0.8252 Y38.0598
G01 X-0.7500 Y38.0645
G01 X-0.6748 Y38.0672
G01 X-0.5995 Y38.0682
G01 X-0.5242 Y38.0672
G01 X-0.4490 Y38.0645
G01 X-0.3738 Y38.0598
G01 X-0.3083 Y38.0542
G01 X-0.3083 Y38.1852
G01 X-0.3642 Y38.1901
G01 X-0.4425 Y38.1949
G01 X-0.5210 Y38.1978
G01 X-0.5995 Y38.1987
G01 X-0.6780 Y38.1978
G01 X-0.7565 Y38.1949
G01 X-0.8348 Y38.1901
G01 X-0.8907 Y38.1852
G01 X-0.8907 Y38.3163
G01 X-0.8444 Y38.3203
G01 X-0.7629 Y38.3253
G01 X-0.6812 Y38.3283
G01 X-0.5995 Y38.3293
G01 X-0.5178 Y38.3283
G01 X-0.4361 Y38.3253
G01 X-0.3546 Y38.3203
G01 X-0.3083 Y38.3163
G01 X-0.3083 Y38.4473
G01 X-0.3450 Y38.4505
G01 X-0.4297 Y38.4557
G01 X-0.5146 Y38.4588
G01 X-0.5995 Y38.4598
G01 X-0.6844 Y38.4588
G01 X-0.7693 Y38.4557
G01 X-0.8540 Y38.4505
G01 X-0.8907 Y38.4473
G01 X-0.8907 Y38.5783
G01 X-0.8636 Y38.5807
G01 X-0.7757 Y38.5861
G01 X-0.6876 Y38.5893
G01 X-0.5995 Y38.5904
G01 X-0.5114 Y38.5893
G01 X-0.4233 Y38.5861
G01 X-0.3354 Y38.5807
G01 X-0.3083 Y38.5783
G01 X-0.3083 Y38.7094
G01 X-0.3258 Y38.7109
G01 X-0.4169 Y38.7165
G01 X-0.5082 Y38.7198
G01 X-0.5995 Y38.7210
G01 X-0.6908 Y38.7198
G01 X-0.7821 Y38.7165
G01 X-0.8732 Y38.7109
G01 X-0.8907 Y38.7094
G01 X-0.8907 Y38.8404
G01 X-0.7885 Y38.8469
G01 X-0.6940 Y38.8504
G01 X-0.5995 Y38.8515
G01 X-0.5050 Y38.8504
G01 X-0.4105 Y38.8469
G01 X-0.3083 Y38.8404
G01 X-0.3083 Y38.9714
G01 X-0.4041 Y38.9773
G01 X-0.5018 Y38.9809
G01 X-0.5995 Y38.9821
G01 X-0.6972 Y38.9809
G01 X-0.7949 Y38.9773
G01 X-0.8907 Y38.9714
G01 X-0.8907 Y39.1022
G01 X-0.8013 Y39.1077
G01 X-0.7004 Y39.1114
G01 X-0.5995 Y39.1126
G01 X-0.4986 Y39.1114
G01 X-0.3977 Y39.1077
G01 X-0.3083 Y39.1022
G01 X-0.3083 Y39.2330
G01 X-0.3913 Y39.2381
G01 X-0.4954 Y39.2419
G01 X-0.5995 Y39.2432
G01 X-0.7036 Y39.2419
G01 X-0.8077 Y39.2381
G01 X-0.8907 Y39.2330
G01 X-0.8907 Y39.3638
G01 X-0.8141 Y39.3685
G01 X-0.7068 Y39.3724
G01 X-0.5995 Y39.3738
G01 X-0.4922 Y39.3724
G01 X-0.3849 Y39.3685
G01 X-0.3083 Y39.3638
G01 X-0.3083 Y39.4946
G01 X-0.3785 Y39.4989
G01 X-0.4890 Y39.5030
G01 X-0.5995 Y39.5043
G01 X-0.7100 Y39.5030
G01 X-0.8205 Y39.4989
G01 X-0.8907 Y39.4946
G01 X-0.8907 Y39.6254
G01 X-0.8269 Y39.6293
G01 X-0.7132 Y39.6335
G01 X-0.5995 Y39.6349
G01 X-0.4858 Y39.6335
G01 X-0.3721 Y39.6293
G01 X-0.3083 Y39.6254
G01 X-0.3083 Y39.7562
G01 X-0.3657 Y39.7597
G01 X-0.4826 Y39.7640
G01 X-0.5995 Y39.7654
G01 X-0.7164 Y39.7640
G01 X-0.8333 Y39.7597
G01 X-0.8907 Y39.7562
G01 X-0.8907 Y39.8870
G01 X-0.8397 Y39.8901
G01 X-0.7197 Y39.8945
G01 X-0.5995 Y39.8960
G01 X-0.4793 Y39.8945
G01 X-0.3593 Y39.8901
G01 X-0.3083 Y39.8870
G01 X-0.3083 Y40.0178
G01 X-0.3529 Y40.0205
G01 X-0.4761 Y40.0250
G01 X-0.5995 Y40.0266
G01 X-0.7229 Y40.0250
G01 X-0.8461 Y40.0205
G01 X-0.8907 Y40.0178
G01 X-0.8907 Y40.1486
G01 X-0.8525 Y40.1509
G01 X-0.7261 Y40.1556
G01 X-0.5995 Y40.1571
G01 X-0.4729 Y40.1556
G01 X-0.3465 Y40.1509
G01 X-0.3083 Y40.1486
G01 X-0.3083 Y40.2794
G01 X-0.3400 Y40.2813
G01 X-0.4697 Y40.2861
G01 X-0.5995 Y40.2877
G01 X-0.7293 Y40.2861
G01 X-0.8590 Y40.2813
G01 X-0.8907 Y40.2794
G01 X-0.8907 Y40.4102
G01 X-0.8654 Y40.4117
G01 X-0.7325 Y40.4166
G01 X-0.5995 Y40.4182
G01 X-0.4665 Y40.4166
G01 X-0.3336 Y40.4117
G01 X-0.3083 Y40.4102
G01 X-0.3083 Y40.5410
G01 X-0.3272 Y40.5421
G01 X-0.4633 Y40.5471
G01 X-0.5995 Y40.5488
G01 X-0.7357 Y40.5471
G01 X-0.8718 Y40.5421
G01 X-0.8907 Y40.5410
G01 X-0.8907 Y40.6717
G01 X-0.8782 Y40.6725
G01 X-0.7389 Y40.6776
G01 X-0.5995 Y40.6794
G01 X-0.4601 Y40.6776
G01 X-0.3208 Y40.6725
G01 X-0.3083 Y40.6717
G01 X-0.3083 Y40.8025
G01 X-0.4569 Y40.8082
G01 X-0.5995 Y40.8099
G01 X-0.7421 Y40.8082
G01 X-0.8907 Y40.8025
G01 X-0.8907 Y40.9333
G01 X-0.7453 Y40.9387
G01 X-0.5995 Y40.9405
G01 X-0.4537 Y40.9387
G01 X-0.3083 Y40.9333
G01 X-0.3083 Y41.0640
G01 X-0.4505 Y41.0692
G01 X-0.5995 Y41.0710
G01 X-0.7485 Y41.0692
G01 X-0.8907 Y41.0640
G01 X-0.8907 Y41.1946
G01 X-0.7517 Y41.1997
G01 X-0.5995 Y41.2016
G01 X-0.4473 Y41.1997
G01 X-0.3083 Y41.1946
G01 X-0.3083 Y41.3253
G01 X-0.4441 Y41.3303
G01 X-0.5995 Y41.3322
G01 X-0.7549 Y41.3303
G01 X-0.8907 Y41.3253
G01 X-0.8907 Y41.4559
G01 X-0.7581 Y41.4608
G01 X-0.5995 Y41.4627
G01 X-0.4409 Y41.4608
G01 X-0.3083 Y41.4559
G01 X-0.3083 Y41.5865
G01 X-0.4377 Y41.5913
G01 X-0.5995 Y41.5933
G01 X-0.7613 Y41.5913
G01 X-0.8907 Y41.5865
G01 X-0.8907 Y41.7172
G01 X-0.7645 Y41.7218
G01 X-0.5995 Y41.7238
G01 X-0.4345 Y41.7218
G01 X-0.3083 Y41.7172
G01 X-0.3083 Y41.8478
G01 X-0.4313 Y41.8523
G01 X-0.5995 Y41.8544
G01 X-0.7677 Y41.8523
G01 X-0.8907 Y41.8478
G01 X-0.8907 Y41.9784
G01 X-0.7709 Y41.9829
G01 X-0.5995 Y41.9850
G01 X-0.4281 Y41.9829
G01 X-0.3083 Y41.9784
G01 X-0.3083 Y42.1091
G01 X-0.4249 Y42.1134
G01 X-0.5995 Y42.1155
G01 X-0.7741 Y42.1134
G01 X-0.8907 Y42.1091
G01 X-0.8907 Y42.2397
G01 X-0.7773 Y42.2439
G01 X-0.5995 Y42.2461
G01 X-0.4217 Y42.2439
G01 X-0.3083 Y42.2397
G01 X-0.3083 Y42.3704
G01 X-0.4185 Y42.3744
G01 X-0.5995 Y42.3766
G01 X-0.7805 Y42.3744
G01 X-0.8907 Y42.3704
G01 X-0.8907 Y42.5010
G01 X-0.7837 Y42.5049
G01 X-0.5995 Y42.5072
G01 X-0.4153 Y42.5049
G01 X-0.3083 Y42.5010
G01 X-0.3083 Y42.6316
G01 X-0.4121 Y42.6355
G01 X-0.5995 Y42.6378
G01 X-0.7869 Y42.6355
G01 X-0.8907 Y42.6316
G01 X-0.8907 Y42.7623
G01 X-0.7901 Y42.7660
G01 X-0.5995 Y42.7683
G01 X-0.4089 Y42.7660
G01 X-0.3083 Y42.7623
G01 X-0.3083 Y42.8929
G01 X-0.4057 Y42.8965
G01 X-0.5995 Y42.8989
G01 X-0.7933 Y42.8965
G01 X-0.8907 Y42.8929
G01 X-0.8907 Y43.0236
G01 X-0.7966 Y43.0270
G01 X-0.5995 Y43.0294
G01 X-0.4024 Y43.0270
G01 X-0.3083 Y43.0236
G01 X-0.3083 Y43.1542
G01 X-0.3992 Y43.1575
G01 X-0.5995 Y43.1600
G01 X-0.7998 Y43.1575
G01 X-0.8907 Y43.1542
G01 X-0.8907 Y43.2848
G01 X-0.8030 Y43.2881
G01 X-0.5995 Y43.2906
G01 X-0.3960 Y43.2881
G01 X-0.3083 Y43.2848
G01 X-0.3083 Y43.4155
G01 X-0.3928 Y43.4186
G01 X-0.5995 Y43.4211
G01 X-0.8062 Y43.4186
G01 X-0.8907 Y43.4155
G01 X-0.8907 Y43.5461
G01 X-0.8094 Y43.5491
G01 X-0.5995 Y43.5517
G01 X-0.3896 Y43.5491
G01 X-0.3083 Y43.5461
G01 X-0.3083 Y43.6767
G01 X-0.3864 Y43.6796
G01 X-0.5995 Y43.6822
G01 X-0.8126 Y43.6796
G01 X-0.8907 Y43.6767
G01 X-0.8907 Y43.8074
G01 X-0.8158 Y43.8101
G01 X-0.5995 Y43.8128
G01 X-0.3832 Y43.8101
G01 X-0.3083 Y43.8074
G01 X-0.3083 Y43.9380
G01 X-0.3800 Y43.9407
G01 X-0.5995 Y43.9434
G01 X-0.8190 Y43.9407
G01 X-0.8907 Y43.9380
G01 X-0.8907 Y44.0687
G01 X-0.8222 Y44.0712
G01 X-0.5995 Y44.0739
G01 X-0.3768 Y44.0712
G01 X-0.3083 Y44.0687
G01 X-0.3083 Y44.1993
G01 X-0.3736 Y44.2017
G01 X-0.5995 Y44.2045
G01 X-0.8254 Y44.2017
G01 X-0.8907 Y44.1993
G01 X-0.8907 Y44.3299
G01 X-0.8286 Y44.3322
G01 X-0.5995 Y44.3350
G01 X-0.3704 Y44.3322
G01 X-0.3083 Y44.3299
G01 X-0.3083 Y44.4606
G01 X-0.3672 Y44.4627
G01 X-0.5995 Y44.4656
G01 X-0.8318 Y44.4627
G01 X-0.8907 Y44.4606
G01 X-0.8907 Y44.5912
G01 X-0.8350 Y44.5933
G01 X-0.5995 Y44.5962
G01 X-0.3640 Y44.5933
G01 X-0.3083 Y44.5912
G01 X-0.3083 Y44.7219
G01 X-0.3608 Y44.7238
G01 X-0.5995 Y44.7267
G01 X-0.8382 Y44.7238
G01 X-0.8907 Y44.7219
G01 X-0.8907 Y44.8525
G01 X-0.8414 Y44.8543
G01 X-0.5995 Y44.8573
G01 X-0.3576 Y44.8543
G01 X-0.3083 Y44.8525
G01 X-0.3083 Y44.9831
G01 X-0.3544 Y44.9848
G01 X-0.5995 Y44.9878
G01 X-0.8446 Y44.9848
G01 X-0.8907 Y44.9831
G01 X-0.8907 Y45.1138
G01 X-0.8478 Y45.1154
G01 X-0.5995 Y45.1184
G01 X-0.3512 Y45.1154
G01 X-0.3083 Y45.1138
G01 X-0.3083 Y45.2444
G01 X-0.3480 Y45.2459
G01 X-0.5995 Y45.2490
G01 X-0.8510 Y45.2459
G01 X-0.8907 Y45.2444
G01 X-0.8907 Y45.3751
G01 X-0.8542 Y45.3764
G01 X-0.5995 Y45.3795
G01 X-0.3448 Y45.3764
G01 X-0.3083 Y45.3751
G01 X-0.3083 Y45.5057
G01 X-0.3416 Y45.5069
G01 X-0.5995 Y45.5101
G01 X-0.8574 Y45.5069
G01 X-0.8907 Y45.5057
G01 X-0.8907 Y45.6363
G01 X-0.8606 Y45.6374
G01 X-0.5995 Y45.6406
G01 X-0.3384 Y45.6374
G01 X-0.3083 Y45.6363
G01 X-0.3083 Y45.7670
G01 X-0.3352 Y45.7680
G01 X-0.5995 Y45.7712
G01 X-0.8638 Y45.7680
G01 X-0.8907 Y45.7670
G01 X-0.8907 Y45.8976
G01 X-0.8670 Y45.8985
G01 X-0.5995 Y45.9018
G01 X-0.3320 Y45.8985
G01 X-0.3083 Y45.8976
G01 X-0.3083 Y46.0282
G01 X-0.3288 Y46.0290
G01 X-0.5995 Y46.0323
G01 X-0.8702 Y46.0290
G01 X-0.8907 Y46.0282
G01 X-0.8907 Y46.1589
G01 X-0.8735 Y46.1595
G01 X-0.5995 Y46.1629
G01 X-0.3255 Y46.1595
G01 X-0.3083 Y46.1589
G01 X-0.3083 Y46.2895
G01 X-0.3223 Y46.2900
G01 X-0.5995 Y46.2934
G01 X-0.8767 Y46.2900
G01 X-0.8907 Y46.2895
G01 X-0.8907 Y46.4202
G01 X-0.8799 Y46.4206
G01 X-0.5995 Y46.4240
G01 X-0.3191 Y46.4206
G01 X-0.3083 Y46.4202
G01 X-0.3083 Y46.5508
G01 X-0.5995 Y46.5546
G01 X-0.8907 Y46.5508
G01 X-0.8907 Y46.6814
G01 X-0.5995 Y46.6851
G01 X-0.3083 Y46.6814
G01 X-0.3083 Y46.8121
G01 X-0.5995 Y46.8157
G01 X-0.8907 Y46.8121
G01 X-0.8907 Y46.9427
G01 X-0.5995 Y46.9462
G01 X-0.3083 Y46.9427
G01 X-0.3083 Y47.0732
G01 X-0.5995 Y47.0768
G01 X-0.8907 Y47.0732
G01 X-0.8907 Y47.2038
G01 X-0.5995 Y47.2074
G01 X-0.3083 Y47.2038
G01 X-0.3083 Y47.3343
G01 X-0.5995 Y47.3379
G01 X-0.8907 Y47.3343
G01 X-0.8907 Y47.4649
G01 X-0.5995 Y47.4685
G01 X-0.3083 Y47.4649
G01 X-0.3083 Y47.5955
G01 X-0.5995 Y47.5990
G01 X-0.8907 Y47.5955
G01 X-0.8907 Y47.7260
G01 X-0.5995 Y47.7296
G01 X-0.3083 Y47.7260
G01 X-0.3083 Y47.8566
G01 X-0.5995 Y47.8602
G01 X-0.8907 Y47.8566
G01 X-0.8907 Y47.9871
G01 X-0.5995 Y47.9907
G01 X-0.3083 Y47.9871
G01 X-0.3083 Y48.1177
G01 X-0.5995 Y48.1213
G01 X-0.8907 Y48.1177
G01 X-0.8907 Y48.2483
G01 X-0.5995 Y48.2518
G01 X-0.3083 Y48.2483
G01 X-0.3083 Y48.3788
G01 X-0.5995 Y48.3824
G01 X-0.8907 Y48.3788
G01 X-0.8907 Y48.5094
G01 X-0.5995 Y48.5130
G01 X-0.3083 Y48.5094
G01 X-0.3083 Y48.6399
G01 X-0.5995 Y48.6435
G01 X-0.8907 Y48.6399
G01 X-0.8907 Y48.7705
G01 X-0.5995 Y48.7741
G01 X-0.3083 Y48.7705
G01 X-0.3083 Y48.9011
G01 X-0.5995 Y48.9046
G01 X-0.8907 Y48.9011
G01 X-0.8907 Y49.0316
G01 X-0.5995 Y49.0352
G01 X-0.3083 Y49.0316
G01 X-0.3083 Y49.1622
G01 X-0.5995 Y49.1658
G01 X-0.8907 Y49.1622
G01 X-0.8907 Y49.2927
G01 X-0.5995 Y49.2963
G01 X-0.3083 Y49.2927
G01 X-0.3083 Y49.4233
G01 X-0.5995 Y49.4269
G01 X-0.8907 Y49.4233
G01 X-0.8907 Y49.5539
G01 X-0.5995 Y49.5574
G01 X-0.3083 Y49.5539
G01 X-0.3083 Y49.6844
G01 X-0.5995 Y49.6880
G01 X-0.8907 Y49.6844
G01 X-0.8907 Y49.8150
G01 X-0.5995 Y49.8186
G01 X-0.3083 Y49.8150
G01 X-0.3083 Y49.9455
G01 X-0.5995 Y49.9491
G01 X-0.8907 Y49.9455
G01 X-0.8907 Y50.0761
G01 X-0.5995 Y50.0797
G01 X-0.3083 Y50.0761
G01 X-0.3083 Y50.2067
G01 X-0.5995 Y50.2102
G01 X-0.8907 Y50.2067
G01 X-0.8907 Y50.3372
G01 X-0.5995 Y50.3408
G01 X-0.3083 Y50.3372
G01 X-0.3083 Y50.4678
G01 X-0.5995 Y50.4714
G01 X-0.8907 Y50.4678
G01 X-0.8907 Y50.5983
G01 X-0.5995 Y50.6019
G01 X-0.3083 Y50.5983
G01 X-0.3083 Y50.7289
G01 X-0.5995 Y50.7325
G01 X-0.8907 Y50.7289
G01 X-0.8907 Y50.8595
G01 X-0.5995 Y50.8630
G01 X-0.3083 Y50.8595
G01 X-0.3083 Y50.9900
G01 X-0.5995 Y50.9936
G01 X-0.8907 Y50.9900
G01 X-0.8907 Y51.1206
G01 X-0.5995 Y51.1242
G01 X-0.3083 Y51.1206
G01 X-0.3083 Y51.2511
G01 X-0.5995 Y51.2547
G01 X-0.8907 Y51.2511
G01 X-0.8907 Y51.3817
G01 X-0.5995 Y51.3853
G01 X-0.3083 Y51.3817
G01 X-0.3083 Y51.5123
G01 X-0.5995 Y51.5158
G01 X-0.8907 Y51.5123
G01 X-0.8907 Y51.6428
G01 X-0.5995 Y51.6464
G01 X-0.3083 Y51.6428
G01 X-0.3083 Y51.7734
G01 X-0.5995 Y51.7770
G01 X-0.8907 Y51.7734
G01 X-0.8907 Y51.9039
G01 X-0.5995 Y51.9075
G01 X-0.3083 Y51.9039
G01 X-0.3083 Y52.0345
G01 X-0.5995 Y52.0381
G01 X-0.8907 Y52.0345
G01 X-0.8907 Y52.1651
G01 X-0.5995 Y52.1686
G01 X-0.3083 Y52.1651
G01 X-0.3083 Y52.2956
G01 X-0.5995 Y52.2992
G01 X-0.8907 Y52.2956
G01 X-0.8907 Y52.4262
G01 X-0.5995 Y52.4298
G01 X-0.3083 Y52.4262
G01 X-0.3083 Y52.5567
G01 X-0.5995 Y52.5603
G01 X-0.8907 Y52.5567
G01 X-0.8907 Y52.6873
G01 X-0.5995 Y52.6909
G01 X-0.3083 Y52.6873
G01 X-0.3083 Y52.8179
G01 X-0.5995 Y52.8214
G01 X-0.8907 Y52.8179
G01 X-0.8907 Y52.9484
G01 X-0.5995 Y52.9520
G01 X-0.3083 Y52.9484
G01 X-0.3083 Y53.0790
G01 X-0.5995 Y53.0826
G01 X-0.8907 Y53.0790
G01 X-0.8907 Y53.2095
G01 X-0.5995 Y53.2131
G01 X-0.3083 Y53.2095
G01 X-0.3083 Y53.3401
G01 X-0.5995 Y53.3437
G01 X-0.8907 Y53.3401
G01 X-0.8907 Y53.4707
G01 X-0.5995 Y53.4742
G01 X-0.3083 Y53.4707
G01 X-0.3083 Y53.6012
G01 X-0.5995 Y53.6048
G01 X-0.8907 Y53.6012
G01 X-0.8907 Y53.7318
G01 X-0.5995 Y53.7354
G01 X-0.3083 Y53.7318
G01 X-0.3083 Y53.8623
G01 X-0.5995 Y53.8659
G01 X-0.8907 Y53.8623
G01 X-0.8907 Y53.9929
G01 X-0.5995 Y53.9965
G01 X-0.3083 Y53.9929
G01 X-0.3083 Y54.1235
G01 X-0.5995 Y54.1270
G01 X-0.8907 Y54.1235
G01 X-0.8907 Y54.2540
G01 X-0.5995 Y54.2576
G01 X-0.3083 Y54.2540
G01 X-0.3083 Y54.3846
G01 X-0.5995 Y54.3882
G01 X-0.8907 Y54.3846
G01 X-0.8907 Y54.5151
G01 X-0.5995 Y54.5187
G01 X-0.3083 Y54.5151
G01 X-0.3083 Y54.6457
G01 X-0.5995 Y54.6493
G01 X-0.8907 Y54.6457
G01 X-0.8907 Y54.7763
G01 X-0.5995 Y54.7798
G01 X-0.3083 Y54.7763
G01 X-0.3083 Y54.9068
G01 X-0.5995 Y54.9104
G01 X-0.8907 Y54.9068
G01 X-0.8907 Y55.0374
G01 X-0.5995 Y55.0410
G01 X-0.3083 Y55.0374
G01 X-0.3083 Y55.1679
G01 X-0.5995 Y55.1715
G01 X-0.8907 Y55.1679
G01 X-0.8907 Y55.2985
G01 X-0.5995 Y55.3021
G01 X-0.3083 Y55.2985
G01 X-0.3083 Y55.4291
G01 X-0.5995 Y55.4326
G01 X-0.8907 Y55.4291
G01 X-0.8907 Y55.5596
G01 X-0.5995 Y55.5632
G01 X-0.3083 Y55.5596
G01 X-0.3083 Y55.6902
G01 X-0.5995 Y55.6938
G01 X-0.8907 Y55.6902
G01 X-0.8907 Y55.8207
G01 X-0.5995 Y55.8243
G01 X-0.3083 Y55.8207
G01 X-0.3083 Y55.9513
G01 X-0.5995 Y55.9549
G01 X-0.8907 Y55.9513
G01 X-0.8907 Y56.0819
G01 X-0.5995 Y56.0854
G01 X-0.3083 Y56.0819
G01 X-0.3083 Y56.2124
G01 X-0.5995 Y56.2160
G01 X-0.8907 Y56.2124
G01 X-0.8907 Y56.3430
G01 X-0.5995 Y56.3466
G01 X-0.3083 Y56.3430
G01 X-0.3083 Y56.4735
G01 X-0.5995 Y56.4771
G01 X-0.8907 Y56.4735
G01 X-0.8907 Y56.6041
G01 X-0.5995 Y56.6077
G01 X-0.3083 Y56.6041
G01 X-0.3083 Y56.7347
G01 X-0.5995 Y56.7382
G01 X-0.8907 Y56.7347
G01 X-0.8907 Y56.8652
G01 X-0.5995 Y56.8688
G01 X-0.3083 Y56.8652
G01 X-0.3083 Y56.9958
G01 X-0.5995 Y56.9994
G01 X-0.8907 Y56.9958
G01 X-0.8907 Y57.1263
G01 X-0.5995 Y57.1299
G01 X-0.3083 Y57.1263
G01 X-0.3083 Y57.2569
G01 X-0.5995 Y57.2605
G01 X-0.8907 Y57.2569
G01 X-0.8907 Y57.3875
G01 X-0.5995 Y57.3910
G01 X-0.3083 Y57.3875
G01 X-0.3083 Y57.5180
G01 X-0.5995 Y57.5216
G01 X-0.8907 Y57.5180
G01 X-0.8907 Y57.6486
G01 X-0.5995 Y57.6522
G01 X-0.3083 Y57.6486
G01 X-0.3083 Y57.7791
G01 X-0.5995 Y57.7827
G01 X-0.8907 Y57.7791
G01 X-0.8907 Y57.9097
G01 X-0.5995 Y57.9133
G01 X-0.3083 Y57.9097
G01 X-0.3083 Y58.0403
G01 X-0.5995 Y58.0438
G01 X-0.8907 Y58.0403
G01 X-0.8907 Y58.1708
G01 X-0.5995 Y58.1744
G01 X-0.3083 Y58.1708
G01 X-0.3083 Y58.3014
G01 X-0.5995 Y58.3050
G01 X-0.8907 Y58.3014
G01 X-0.8907 Y58.4319
G01 X-0.5995 Y58.4355
G01 X-0.3083 Y58.4319
G01 X-0.3083 Y58.5625
G01 X-0.5995 Y58.5661
G01 X-0.8907 Y58.5625
G01 X-0.8907 Y58.6931
G01 X-0.5995 Y58.6966
G01 X-0.3083 Y58.6931
G01 X-0.3083 Y58.8236
G01 X-0.5995 Y58.8272
G01 X-0.8907 Y58.8236
G01 X-0.8907 Y58.9542
G01 X-0.5995 Y58.9578
G01 X-0.3083 Y58.9542
G01 X-0.3083 Y59.0847
G01 X-0.5995 Y59.0883
G01 X-0.8907 Y59.0847
G01 X-0.8907 Y59.2153
G01 X-0.5995 Y59.2189
G01 X-0.3083 Y59.2153
G01 X-0.3083 Y59.3459
G01 X-0.5995 Y59.3494
G01 X-0.8907 Y59.3459
G01 X-0.8907 Y59.4764
G01 X-0.5995 Y59.4800
G01 X-0.3083 Y59.4764
G01 X-0.3083 Y59.6070
G01 X-0.5995 Y59.6106
G01 X-0.8907 Y59.6070
G01 X-0.8907 Y59.7375
G01 X-0.5995 Y59.7411
G01 X-0.3083 Y59.7375
G01 X-0.3083 Y59.8681
G01 X-0.5995 Y59.8717
G01 X-0.8907 Y59.8681
G01 X-0.8907 Y59.9987
G01 X-0.5995 Y60.0022
G01 X-0.3083 Y59.9987
G01 X-0.3083 Y60.1292
G01 X-0.5995 Y60.1328
G01 X-0.8907 Y60.1292
G01 X-0.8907 Y60.2598
G01 X-0.5995 Y60.2634
G01 X-0.3083 Y60.2598
G01 X-0.3083 Y60.3903
G01 X-0.5995 Y60.3939
G01 X-0.8907 Y60.3903
G01 X-0.8907 Y60.5209
G01 X-0.5995 Y60.5245
G01 X-0.3083 Y60.5209
G01 X-0.3083 Y60.6515
G01 X-0.5995 Y60.6550
G01 X-0.8907 Y60.6515
G01 X-0.8907 Y60.7820
G01 X-0.5995 Y60.7856
G01 X-0.3083 Y60.7820
G01 X-0.3083 Y60.9126
G01 X-0.5995 Y60.9162
G01 X-0.8907 Y60.9126
G01 X-0.8907 Y61.0431
G01 X-0.5995 Y61.0467
G01 X-0.3083 Y61.0431
G01 X-0.3083 Y61.1737
G01 X-0.5995 Y61.1773
G01 X-0.8907 Y61.1737
G01 X-0.8907 Y61.3043
G01 X-0.5995 Y61.3078
G01 X-0.3083 Y61.3043
G01 X-0.3083 Y61.4348
G01 X-0.5995 Y61.4384
G01 X-0.8907 Y61.4348
G01 X-0.8907 Y61.5654
G01 X-0.5995 Y61.5690
G01 X-0.3083 Y61.5654
G01 X-0.3083 Y61.6959
G01 X-0.5995 Y61.6995
G01 X-0.8907 Y61.6959
G01 X-0.8907 Y61.8265
G01 X-0.5995 Y61.8301
G01 X-0.3083 Y61.8265
G01 X-0.3083 Y61.9571
G01 X-0.5995 Y61.9606
G01 X-0.8907 Y61.9571
G01 X-0.8907 Y62.0876
G01 X-0.5995 Y62.0912
G01 X-0.3083 Y62.0876
G01 X-0.3083 Y62.2182
G01 X-0.5995 Y62.2218
G01 X-0.8907 Y62.2182
G01 X-0.8907 Y62.3487
G01 X-0.5995 Y62.3523
G01 X-0.3083 Y62.3487
G01 X-0.3083 Y62.4793
G01 X-0.5995 Y62.4829
G01 X-0.8907 Y62.4793
G01 X-0.8907 Y62.6099
G01 X-0.5995 Y62.6134
G01 X-0.3083 Y62.6099
G01 X-0.3083 Y62.7404
G01 X-0.5995 Y62.7440
G01 X-0.8907 Y62.7404
G01 X-0.8907 Y62.8710
G01 X-0.5995 Y62.8746
G01 X-0.3083 Y62.8710
G01 X-0.3083 Y63.0015
G01 X-0.5995 Y63.0051
G01 X-0.8907 Y63.0015
G01 X-0.8907 Y63.1321
G01 X-0.5995 Y63.1357
G01 X-0.3083 Y63.1321
G01 X-0.3083 Y63.2627
G01 X-0.5995 Y63.2662
G01 X-0.8907 Y63.2627
G01 X-0.8907 Y63.3932
G01 X-0.5995 Y63.3968
G01 X-0.3083 Y63.3932
G01 X-0.3083 Y63.5238
G01 X-0.5995 Y63.5274
G01 X-0.8907 Y63.5238
G01 X-0.8907 Y63.6543
G01 X-0.5995 Y63.6579
G01 X-0.3083 Y63.6543
G01 X-0.3083 Y63.7849
G01 X-0.5995 Y63.7885
G01 X-0.8907 Y63.7849
G01 X-0.8907 Y63.9155
G01 X-0.5995 Y63.9190
G01 X-0.3083 Y63.9155
G01 X-0.3083 Y64.0460
G01 X-0.5995 Y64.0496
G01 X-0.8907 Y64.0460
G01 X-0.8907 Y64.1766
G01 X-0.5995 Y64.1802
G01 X-0.3083 Y64.1766
G01 X-0.3083 Y64.3071
G01 X-0.5995 Y64.3107
G01 X-0.8907 Y64.3071
G01 X-0.8907 Y64.4377
G01 X-0.5995 Y64.4413
G01 X-0.3083 Y64.4377
G01 X-0.3083 Y64.5683
G01 X-0.5995 Y64.5718
G01 X-0.8907 Y64.5683
G01 X-0.8907 Y64.6988
G01 X-0.5995 Y64.7024
G01 X-0.3083 Y64.6988
G01 X-0.3083 Y64.8294
G01 X-0.5995 Y64.8330
G01 X-0.8907 Y64.8294
G01 X-0.8907 Y64.9599
G01 X-0.5995 Y64.9635
G01 X-0.3083 Y64.9599
G01 X-0.3083 Y65.0905
G01 X-0.5995 Y65.0941
G01 X-0.8907 Y65.0905
G01 X-0.8907 Y65.2211
G01 X-0.5995 Y65.2246
G01 X-0.3083 Y65.2211
G01 X-0.3083 Y65.3516
G01 X-0.5995 Y65.3552
G01 X-0.8907 Y65.3516
G01 X-0.8907 Y65.4822
G01 X-0.5995 Y65.4858
G01 X-0.3083 Y65.4822
G01 X-0.3083 Y65.6127
G01 X-0.5995 Y65.6163
G01 X-0.8907 Y65.6127
G01 X-0.8907 Y65.7433
G01 X-0.5995 Y65.7469
G01 X-0.3083 Y65.7433
G01 X-0.3083 Y65.8739
G01 X-0.5995 Y65.8774
G01 X-0.8907 Y65.8739
G01 X-0.8907 Y66.0044
G01 X-0.5995 Y66.0080
G01 X-0.3083 Y66.0044
G01 X-0.3083 Y66.1350
G01 X-0.5995 Y66.1386
G01 X-0.8907 Y66.1350
G01 X-0.8907 Y66.2655
G01 X-0.5995 Y66.2691
G01 X-0.3083 Y66.2655
G01 X-0.3083 Y66.3961
G01 X-0.5995 Y66.3997
G01 X-0.8907 Y66.3961
G01 X-0.8907 Y66.5267
G01 X-0.5995 Y66.5302
G01 X-0.3083 Y66.5267
G01 X-0.3083 Y66.6572
G01 X-0.5995 Y66.6608
G01 X-0.8907 Y66.6572
G01 X-0.8907 Y66.7878
G01 X-0.5995 Y66.7914
G01 X-0.3083 Y66.7878
G01 X-0.3083 Y66.9183
G01 X-0.5995 Y66.9219
G01 X-0.8907 Y66.9183
G01 X-0.8907 Y67.0489
G01 X-0.5995 Y67.0525
G01 X-0.3083 Y67.0489
G01 X-0.3083 Y67.1795
G01 X-0.5995 Y67.1830
G01 X-0.8907 Y67.1795
G01 X-0.8907 Y67.3100
G01 X-0.5995 Y67.3136
G01 X-0.3083 Y67.3100
G01 X-0.3083 Y67.4406
G01 X-0.5995 Y67.4442
G01 X-0.8907 Y67.4406
G01 X-0.8907 Y67.5711
G01 X-0.5995 Y67.5747
G01 X-0.3083 Y67.5711
G01 X-0.3083 Y67.7017
G01 X-0.5995 Y67.7053
G01 X-0.8907 Y67.7017
G01 X-0.8907 Y67.8323
G01 X-0.5995 Y67.8358
G01 X-0.3083 Y67.8323
G01 X-0.3083 Y67.9628
G01 X-0.5995 Y67.9664
G01 X-0.8907 Y67.9628
G01 X-0.8907 Y68.0934
G01 X-0.5995 Y68.0970
G01 X-0.3083 Y68.0934
G01 X-0.3083 Y68.2239
G01 X-0.5995 Y68.2275
G01 X-0.8907 Y68.2239
G01 X-0.8907 Y68.3545
G01 X-0.5995 Y68.3581
G01 X-0.3083 Y68.3545
G01 X-0.3083 Y68.4851
G01 X-0.5995 Y68.4886
G01 X-0.8907 Y68.4851
G01 X-0.8907 Y68.6156
G01 X-0.5995 Y68.6192
G01 X-0.3083 Y68.6156
G01 X-0.3083 Y68.7462
G01 X-0.5995 Y68.7498
G01 X-0.8907 Y68.7462
G01 X-0.8907 Y68.8767
G01 X-0.5995 Y68.8803
G01 X-0.3083 Y68.8767
G01 X-0.3083 Y69.0073
G01 X-0.5995 Y69.0109
G01 X-0.8907 Y69.0073
G01 X-0.8907 Y69.1379
G01 X-0.5995 Y69.1414
G01 X-0.3083 Y69.1379
G01 X-0.3083 Y69.2684
G01 X-0.5995 Y69.2720
G01 X-0.8907 Y69.2684
G01 X-0.8907 Y69.3990
G01 X-0.5995 Y69.4026
G01 X-0.3083 Y69.3990
G01 X-0.3083 Y69.5295
G01 X-0.5995 Y69.5331
G01 X-0.8907 Y69.5295
G01 X-0.8907 Y69.6601
G01 X-0.5995 Y69.6637
G01 X-0.3083 Y69.6601
G01 X-0.3083 Y69.7907
G01 X-0.5995 Y69.7942
G01 X-0.8907 Y69.7907
G01 X-0.8907 Y69.9212
G01 X-0.5995 Y69.9248
G01 X-0.3048 Y69.9212
G00 Z2.0000
G00 X-0.2699 Y70.0513
G01 F40.00
G01 Z-0.0499
G01 F100.00
G01 X-0.5995 Y70.0554
G01 X-0.8749 Y70.0520
G00 Z2.0000
G00 X-0.8398 Y70.1830
G01 F40.00
G01 Z-0.0499
G01 F100.00
G01 X-0.5995 Y70.1859
G01 X-0.1764 Y70.1807
G00 Z2.0000
G00 X0.1100 Y70.3078
G01 F40.00
G01 Z-0.0499
G01 F100.00
G01 X-0.5995 Y70.3165
G01 X-0.8047 Y70.3140
G01 X-0.7354 Y70.4454
G01 X-0.5995 Y70.4470
G01 X0.2704 Y70.4364
G01 X1.1398 Y70.4043
G01 X2.0081 Y70.3510
G01 X2.5039 Y70.3083
G01 X3.2573 Y70.8907
G01 X3.8195 Y70.8284
G01 X4.6974 Y70.7091
G01 X5.5722 Y70.5684
G01 X6.4432 Y70.4062
G01 X6.9056 Y70.3083
G01 X7.5145 Y70.3083
G01 X7.3386 Y70.3501
G01 X6.4687 Y70.5342
G01 X5.5945 Y70.6970
G01 X4.7166 Y70.8383
G01 X4.3305 Y70.8907
G01 X4.7231 Y70.3083
G01 X4.6400 Y70.3217
G01 X3.7716 Y70.4396
G01 X2.9005 Y70.5362
G01 X2.0274 Y70.6114
G01 X1.1526 Y70.6651
G01 X0.2768 Y70.6974
G01 X-0.4741 Y70.7066
G01 X-0.6032 Y70.5776
G01 X0.2736 Y70.5669
G01 X1.1462 Y70.5347
G01 X2.0178 Y70.4812
G01 X2.8877 Y70.4063
G01 X3.7556 Y70.3100
G01 X3.7684 Y70.3083
G01 X5.2125 Y70.8907
G01 X5.6168 Y70.8256
G01 X6.4942 Y70.6623
G01 X7.3672 Y70.4775
G01 X8.0796 Y70.3083
G01 X8.6072 Y70.3083
G01 X8.2672 Y70.3979
G01 X7.3958 Y70.6049
G01 X6.5196 Y70.7903
G01 X5.9806 Y70.8907
G01 X6.2558 Y70.3083
G01 X5.5499 Y70.4397
G01 X4.6783 Y70.5800
G01 X3.8035 Y70.6988
G01 X2.9261 Y70.7961
G01 X2.0466 Y70.8718
G01 X1.7393 Y70.8907
G01 X-0.2049 Y70.8339
G01 X0.2800 Y70.8279
G01 X1.1590 Y70.7956
G01 X2.0370 Y70.7416
G01 X2.9133 Y70.6661
G01 X3.7875 Y70.5692
G01 X4.6591 Y70.4508
G01 X5.5276 Y70.3111
G01 X5.5425 Y70.3083
G01 X6.6759 Y70.8907
G01 X7.4244 Y70.7322
G01 X8.2989 Y70.5246
G01 X9.1195 Y70.3083
G01 X9.5926 Y70.3083
G01 X9.2029 Y70.4213
G01 X8.3307 Y70.6512
G01 X7.4530 Y70.8596
G01 X7.3063 Y70.8907
G01 X7.8872 Y70.8907
G01 X8.3624 Y70.7779
G01 X9.2377 Y70.5471
G01 X10.0613 Y70.3083
G01 X10.4975 Y70.3083
G01 X10.1450 Y70.4200
G01 X9.2725 Y70.6730
G01 X8.4465 Y70.8907
G01 X8.9587 Y70.8907
G01 X9.3074 Y70.7988
G01 X10.1829 Y70.5449
G01 X10.9298 Y70.3083
G01 X11.3408 Y70.3083
G01 X11.0929 Y70.3935
G01 X10.2208 Y70.6698
G01 X9.4592 Y70.8907
G01 X9.9279 Y70.8907
G01 X10.2587 Y70.7948
G01 X11.1339 Y70.5175
G01 X11.7421 Y70.3083
G01 X12.1361 Y70.3083
G01 X12.0460 Y70.3418
G01 X11.1749 Y70.6415
G01 X10.3882 Y70.8907
G01 X10.8205 Y70.8907
G01 X11.2158 Y70.7655
G01 X12.0900 Y70.4647
G01 X12.5108 Y70.3083
G01 X12.8855 Y70.3083
G01 X12.1340 Y70.5877
G01 X11.2528 Y70.8907
G01 X11.6544 Y70.8907
G01 X12.1780 Y70.7106
G01 X13.0505 Y70.3863
G01 X13.2454 Y70.3083
G01 X13.5970 Y70.3083
G01 X13.0975 Y70.5081
G01 X12.2219 Y70.8335
G01 X12.0557 Y70.8907
G01 X12.4428 Y70.8907
G01 X13.1445 Y70.6299
G01 X13.9486 Y70.3083
G01 X14.2844 Y70.3083
G01 X14.0647 Y70.4025
G01 X13.1914 Y70.7517
G01 X12.8175 Y70.8907
G01 X13.1922 Y70.8907
G01 X13.2384 Y70.8735
G01 X14.1146 Y70.5231
G01 X14.6157 Y70.3083
G01 X14.9471 Y70.3083
G01 X14.1646 Y70.6437
G01 X13.5470 Y70.8907
G01 X13.8986 Y70.8907
G01 X14.2146 Y70.7643
G01 X15.0878 Y70.3900
G01 X15.2662 Y70.3083
G01 X15.5797 Y70.3083
G01 X15.1407 Y70.5094
G01 X14.2645 Y70.8850
G01 X14.2502 Y70.8907
G01 X14.5825 Y70.8907
G01 X15.1936 Y70.6287
G01 X15.8932 Y70.3083
G01 X16.2013 Y70.3083
G01 X16.1191 Y70.3484
G01 X15.2465 Y70.7481
G01 X14.9138 Y70.8907
G01 X15.2452 Y70.8907
G01 X15.2994 Y70.8674
G01 X16.1749 Y70.4665
G01 X16.4990 Y70.3083
G01 X16.7966 Y70.3083
G01 X16.2307 Y70.5845
G01 X15.5622 Y70.8907
G01 X15.8757 Y70.8907
G01 X16.2865 Y70.7025
G01 X17.0942 Y70.3083
G01 X17.3815 Y70.3083
G01 X17.2163 Y70.3940
G01 X16.3424 Y70.8205
G01 X16.1892 Y70.8907
G01 X16.4962 Y70.8907
G01 X17.2750 Y70.5106
G01 X17.6649 Y70.3083
G01 X17.9484 Y70.3083
G01 X17.3337 Y70.6272
G01 X16.7939 Y70.8907
G01 X17.0915 Y70.8907
G01 X17.3924 Y70.7438
G01 X18.2319 Y70.3083
G01 X18.5045 Y70.3083
G01 X18.3258 Y70.4067
G01 X17.4511 Y70.8605
G01 X17.3892 Y70.8907
G01 X17.6763 Y70.8907
G01 X18.3873 Y70.5218
G01 X18.7752 Y70.3083
G01 X19.0460 Y70.3083
G01 X18.4489 Y70.6370
G01 X17.9598 Y70.8907
G01 X18.2433 Y70.8907
G01 X18.5104 Y70.7521
G01 X19.3167 Y70.3083
G01 X19.5796 Y70.3083
G01 X19.4464 Y70.3860
G01 X18.5719 Y70.8672
G01 X18.5267 Y70.8907
G01 X18.8001 Y70.8907
G01 X19.5107 Y70.4995
G01 X19.8389 Y70.3083
G01 X20.0982 Y70.3083
G01 X19.5751 Y70.6131
G01 X19.0708 Y70.8907
G01 X19.3416 Y70.8907
G01 X19.6395 Y70.7267
G01 X20.3574 Y70.3083
G01 X20.6146 Y70.3083
G01 X20.5773 Y70.3313
G01 X19.7038 Y70.8403
G01 X19.6123 Y70.8907
G01 X19.8767 Y70.8907
G01 X20.6444 Y70.4433
G01 X20.8634 Y70.3083
G01 X21.1123 Y70.3083
G01 X20.7115 Y70.5553
G01 X20.1359 Y70.8907
G01 X20.3952 Y70.8907
G01 X20.7786 Y70.6672
G01 X21.3611 Y70.3083
G01 X21.6100 Y70.3083
G01 X20.8457 Y70.7792
G01 X20.6545 Y70.8907
G01 X20.9137 Y70.8907
G01 X21.7872 Y70.3525
G01 X21.8551 Y70.3083
G01 X22.0945 Y70.3083
G01 X21.8570 Y70.4628
G01 X21.1625 Y70.8907
G01 X21.4114 Y70.8907
G01 X21.9269 Y70.5731
G01 X22.3339 Y70.3083
G01 X22.5733 Y70.3083
G01 X21.9967 Y70.6834
G01 X21.6603 Y70.8907
G01 X21.9091 Y70.8907
G01 X22.0666 Y70.7937
G01 X22.8127 Y70.3083
G01 X23.0499 Y70.3083
G01 X23.0107 Y70.3352
G01 X22.1569 Y70.8907
G01 X22.3963 Y70.8907
G01 X23.0833 Y70.4438
G01 X23.2807 Y70.3083
G01 X23.5115 Y70.3083
G01 X23.1558 Y70.5523
G01 X22.6357 Y70.8907
G01 X22.8751 Y70.8907
G01 X23.2283 Y70.6609
G01 X23.7422 Y70.3083
G01 X23.9730 Y70.3083
G01 X23.3009 Y70.7694
G01 X23.1144 Y70.8907
G01 X23.3538 Y70.8907
G01 X23.3734 Y70.8780
G01 X24.2037 Y70.3083
G01 X24.4288 Y70.3083
G01 X24.3218 Y70.3856
G01 X23.5856 Y70.8907
G01 X23.8164 Y70.8907
G01 X24.3970 Y70.4923
G01 X24.6516 Y70.3083
G01 X24.8745 Y70.3083
G01 X24.4722 Y70.5991
G01 X24.0472 Y70.8907
G01 X24.2779 Y70.8907
G01 X24.5474 Y70.7058
G01 X25.0974 Y70.3083
G01 X25.3202 Y70.3083
G01 X24.6226 Y70.8126
G01 X24.5087 Y70.8907
G01 X24.7373 Y70.8907
G01 X25.5431 Y70.3083
G01 X25.7601 Y70.3083
G01 X25.6494 Y70.3925
G01 X24.9602 Y70.8907
G01 X25.1830 Y70.8907
G01 X25.7272 Y70.4974
G01 X25.9757 Y70.3083
G01 X26.1913 Y70.3083
G01 X25.8049 Y70.6023
G01 X25.4059 Y70.8907
G01 X25.6288 Y70.8907
G01 X25.8827 Y70.7071
G01 X26.4069 Y70.3083
G01 X26.6225 Y70.3083
G01 X25.9605 Y70.8120
G01 X25.8516 Y70.8907
G01 X26.0727 Y70.8907
G01 X26.8381 Y70.3083
G01 X27.0507 Y70.3083
G01 X26.9920 Y70.3553
G01 X26.2883 Y70.8907
G01 X26.5039 Y70.8907
G01 X27.0723 Y70.4582
G01 X27.2596 Y70.3083
G01 X27.4685 Y70.3083
G01 X27.1527 Y70.5611
G01 X26.7195 Y70.8907
G01 X26.9351 Y70.8907
G01 X27.2330 Y70.6640
G01 X27.6775 Y70.3083
G01 X27.8864 Y70.3083
G01 X27.3133 Y70.7670
G01 X27.1507 Y70.8907
G01 X27.3663 Y70.8907
G01 X27.3936 Y70.8699
G01 X28.0953 Y70.3083
G01 X28.3042 Y70.3083
G01 X27.5766 Y70.8907
G01 X27.7855 Y70.8907
G01 X28.4311 Y70.3739
G01 X28.5092 Y70.3083
G01 X28.7119 Y70.3083
G01 X28.5140 Y70.4749
G01 X27.9944 Y70.8907
G01 X28.2033 Y70.8907
G01 X28.5968 Y70.5758
G01 X28.9147 Y70.3083
G01 X29.1175 Y70.3083
G01 X28.6796 Y70.6767
G01 X28.4123 Y70.8907
G01 X28.6212 Y70.8907
G01 X28.7625 Y70.7776
G01 X29.3203 Y70.3083
G01 X29.5230 Y70.3083
G01 X28.8453 Y70.8786
G01 X28.8301 Y70.8907
G01 X29.0336 Y70.8907
G01 X29.7258 Y70.3083
G01 X29.9266 Y70.3083
G01 X29.8875 Y70.3429
G01 X29.2364 Y70.8907
G01 X29.4392 Y70.8907
G01 X29.9728 Y70.4417
G01 X30.1237 Y70.3083
G01 X30.3207 Y70.3083
G01 X30.0580 Y70.5406
G01 X29.6419 Y70.8907
G01 X29.8447 Y70.8907
G01 X30.1433 Y70.6395
G01 X30.5178 Y70.3083
G01 X30.7149 Y70.3083
G01 X30.2286 Y70.7383
G01 X30.0475 Y70.8907
G01 X30.2503 Y70.8907
G01 X30.3139 Y70.8372
G01 X30.9120 Y70.3083
G01 X31.1091 Y70.3083
G01 X30.4504 Y70.8907
G01 X30.6475 Y70.8907
G01 X31.3061 Y70.3083
G01 X31.5005 Y70.3083
G01 X31.4471 Y70.3580
G01 X30.8446 Y70.8907
G01 X31.0417 Y70.8907
G01 X31.5348 Y70.4547
G01 X31.6923 Y70.3083
G01 X31.8842 Y70.3083
G01 X31.6224 Y70.5514
G01 X31.2387 Y70.8907
G01 X31.4358 Y70.8907
G01 X31.7101 Y70.6482
G01 X32.0760 Y70.3083
G01 X32.2678 Y70.3083
G01 X31.7978 Y70.7449
G01 X31.6329 Y70.8907
G01 X31.8300 Y70.8907
G01 X31.8855 Y70.8416
G01 X32.4596 Y70.3083
G01 X32.6514 Y70.3083
G01 X32.0245 Y70.8907
G01 X32.2163 Y70.8907
G01 X32.8432 Y70.3083
G01 X33.0346 Y70.3083
G01 X33.0254 Y70.3173
G01 X32.4081 Y70.8907
G01 X32.5999 Y70.8907
G01 X33.1154 Y70.4119
G01 X33.2215 Y70.3083
G01 X33.4085 Y70.3083
G01 X33.2054 Y70.5064
G01 X32.7917 Y70.8907
G01 X32.9836 Y70.8907
G01 X33.2954 Y70.6010
G01 X33.5954 Y70.3083
G01 X33.7823 Y70.3083
G01 X33.3855 Y70.6955
G01 X33.1754 Y70.8907
G01 X33.3672 Y70.8907
G01 X33.4755 Y70.7901
G01 X33.9693 Y70.3083
G01 X34.1562 Y70.3083
G01 X33.5590 Y70.8907
G01 X33.7463 Y70.8907
G01 X34.3431 Y70.3083
G01 X34.5301 Y70.3083
G01 X33.9332 Y70.8907
G01 X34.1201 Y70.8907
G01 X34.7168 Y70.3083
G01 X34.8992 Y70.3083
G01 X34.8052 Y70.4047
G01 X34.3071 Y70.8907
G01 X34.4940 Y70.8907
G01 X34.8975 Y70.4970
G01 X35.0816 Y70.3083
G01 X35.2640 Y70.3083
G01 X34.9898 Y70.5893
G01 X34.6809 Y70.8907
G01 X34.8679 Y70.8907
G01 X35.0821 Y70.6816
G01 X35.4464 Y70.3083
G01 X35.6288 Y70.3083
G01 X35.1744 Y70.7739
G01 X35.0548 Y70.8907
G01 X35.2417 Y70.8907
G01 X35.2668 Y70.8663
G01 X35.8112 Y70.3083
G01 X35.9936 Y70.3083
G01 X35.4253 Y70.8907
G01 X35.6077 Y70.8907
G01 X36.1760 Y70.3083
G01 X36.3584 Y70.3083
G01 X35.7901 Y70.8907
G01 X35.9725 Y70.8907
G01 X36.5144 Y70.3354
G01 X36.5395 Y70.3083
G01 X36.7177 Y70.3083
G01 X36.6090 Y70.4254
G01 X36.1549 Y70.8907
G01 X36.3373 Y70.8907
G01 X36.7035 Y70.5154
G01 X36.8959 Y70.3083
G01 X37.0741 Y70.3083
G01 X36.7981 Y70.6054
G01 X36.5197 Y70.8907
G01 X36.7021 Y70.8907
G01 X36.8926 Y70.6955
G01 X37.2523 Y70.3083
G01 X37.4305 Y70.3083
G01 X36.9872 Y70.7855
G01 X36.8845 Y70.8907
G01 X37.0669 Y70.8907
G01 X37.0817 Y70.8755
G01 X37.6087 Y70.3083
G01 X37.7869 Y70.3083
G01 X37.2458 Y70.8907
G01 X37.4240 Y70.8907
G01 X37.9650 Y70.3083
G01 X38.1432 Y70.3083
G01 X37.6022 Y70.8907
G01 X37.7804 Y70.8907
G01 X38.3214 Y70.3083
G01 X38.4965 Y70.3083
G01 X38.4345 Y70.3784
G01 X37.9586 Y70.8907
G01 X38.1368 Y70.8907
G01 X38.5313 Y70.4660
G01 X38.6707 Y70.3083
G01 X38.8450 Y70.3083
G01 X38.6280 Y70.5537
G01 X38.3150 Y70.8907
G01 X38.4932 Y70.8907
G01 X38.7247 Y70.6414
G01 X39.0193 Y70.3083
G01 X39.1935 Y70.3083
G01 X38.8215 Y70.7291
G01 X38.6713 Y70.8907
G01 X38.8495 Y70.8907
G01 X38.9182 Y70.8168
G01 X39.3678 Y70.3083
G01 X39.5421 Y70.3083
G01 X39.0271 Y70.8907
G01 X39.2014 Y70.8907
G01 X39.7163 Y70.3083
G01 X39.8906 Y70.3083
G01 X39.3756 Y70.8907
G01 X39.5499 Y70.8907
G01 X40.0649 Y70.3083
G01 X40.2392 Y70.3083
G01 X39.7242 Y70.8907
G01 X39.8984 Y70.8907
G01 X40.3785 Y70.3478
G01 X40.4117 Y70.3083
G01 X40.5823 Y70.3083
G01 X40.4773 Y70.4331
G01 X40.0727 Y70.8907
G01 X40.2470 Y70.8907
G01 X40.5762 Y70.5184
G01 X40.7530 Y70.3083
G01 X40.9236 Y70.3083
G01 X40.6750 Y70.6037
G01 X40.4212 Y70.8907
G01 X40.5955 Y70.8907
G01 X40.7739 Y70.6889
G01 X41.0942 Y70.3083
G01 X41.2648 Y70.3083
G01 X40.8728 Y70.7742
G01 X40.7698 Y70.8907
G01 X40.9440 Y70.8907
G01 X40.9716 Y70.8595
G01 X41.4354 Y70.3083
G01 X41.6060 Y70.3083
G01 X41.1160 Y70.8907
G01 X41.2866 Y70.8907
G01 X41.7767 Y70.3083
G01 X41.9473 Y70.3083
G01 X41.4572 Y70.8907
G01 X41.6278 Y70.8907
G01 X42.1179 Y70.3083
G01 X42.2885 Y70.3083
G01 X41.7985 Y70.8907
G01 X41.9691 Y70.8907
G01 X42.4447 Y70.3255
G01 X42.4584 Y70.3083
G01 X42.6256 Y70.3083
G01 X42.5456 Y70.4083
G01 X42.1397 Y70.8907
G01 X42.3103 Y70.8907
G01 X42.6465 Y70.4911
G01 X42.7928 Y70.3083
G01 X42.9601 Y70.3083
G01 X42.7475 Y70.5739
G01 X42.4809 Y70.8907
G01 X42.6515 Y70.8907
G01 X42.8484 Y70.6568
G01 X43.1273 Y70.3083
G01 X43.2945 Y70.3083
G01 X42.9493 Y70.7396
G01 X42.8222 Y70.8907
G01 X42.9928 Y70.8907
G01 X43.0502 Y70.8224
G01 X43.4617 Y70.3083
G01 X43.6289 Y70.3083
G01 X43.1628 Y70.8907
G01 X43.3300 Y70.8907
G01 X43.7961 Y70.3083
G01 X43.9633 Y70.3083
G01 X43.4972 Y70.8907
G01 X43.6644 Y70.8907
G01 X44.1306 Y70.3083
G01 X44.2978 Y70.3083
G01 X43.8317 Y70.8907
G01 X43.9989 Y70.8907
G01 X44.4650 Y70.3083
G01 X44.6322 Y70.3083
G01 X44.1661 Y70.8907
G01 X44.3333 Y70.8907
G01 X44.7396 Y70.3830
G01 X44.7965 Y70.3083
G01 X44.9605 Y70.3083
G01 X44.8426 Y70.4633
G01 X44.5005 Y70.8907
G01 X44.6677 Y70.8907
G01 X44.9455 Y70.5437
G01 X45.1245 Y70.3083
G01 X45.2886 Y70.3083
G01 X45.0484 Y70.6240
G01 X44.8349 Y70.8907
G01 X45.0022 Y70.8907
G01 X45.1513 Y70.7043
G01 X45.4526 Y70.3083
G01 X45.6167 Y70.3083
G01 X45.2543 Y70.7846
G01 X45.1694 Y70.8907
G01 X45.3366 Y70.8907
G01 X45.3572 Y70.8650
G01 X45.7807 Y70.3083
G01 X45.9448 Y70.3083
G01 X45.5016 Y70.8907
G01 X45.6657 Y70.8907
G01 X46.1088 Y70.3083
G01 X46.2728 Y70.3083
G01 X45.8297 Y70.8907
G01 X45.9938 Y70.8907
G01 X46.4369 Y70.3083
G01 X46.6009 Y70.3083
G01 X46.1578 Y70.8907
G01 X46.3218 Y70.8907
G01 X46.7650 Y70.3083
G01 X46.9290 Y70.3083
G01 X46.4859 Y70.8907
G01 X46.6499 Y70.8907
G01 X47.0624 Y70.3485
G01 X47.0915 Y70.3083
G01 X47.2526 Y70.3083
G01 X47.1673 Y70.4263
G01 X46.8140 Y70.8907
G01 X46.9780 Y70.8907
G01 X47.2722 Y70.5041
G01 X47.4137 Y70.3083
G01 X47.5748 Y70.3083
G01 X47.3770 Y70.5818
G01 X47.1420 Y70.8907
G01 X47.3061 Y70.8907
G01 X47.4819 Y70.6596
G01 X47.7358 Y70.3083
G01 X47.8969 Y70.3083
G01 X47.5868 Y70.7374
G01 X47.4701 Y70.8907
G01 X47.6342 Y70.8907
G01 X47.6917 Y70.8152
G01 X48.0580 Y70.3083
G01 X48.2191 Y70.3083
G01 X47.7981 Y70.8907
G01 X47.9592 Y70.8907
G01 X48.3802 Y70.3083
G01 X48.5413 Y70.3083
G01 X48.1203 Y70.8907
G01 X48.2814 Y70.8907
G01 X48.7023 Y70.3083
G01 X48.8634 Y70.3083
G01 X48.4425 Y70.8907
G01 X48.6035 Y70.8907
G01 X49.0245 Y70.3083
G01 X49.1856 Y70.3083
G01 X48.7646 Y70.8907
G01 X48.9257 Y70.8907
G01 X49.3467 Y70.3083
G01 X49.5077 Y70.3083
G01 X49.0868 Y70.8907
G01 X49.2479 Y70.8907
G01 X49.6235 Y70.3710
G01 X49.6665 Y70.3083
G01 X49.8248 Y70.3083
G01 X49.7302 Y70.4462
G01 X49.4090 Y70.8907
G01 X49.5700 Y70.8907
G01 X49.8370 Y70.5214
G01 X49.9832 Y70.3083
G01 X50.1415 Y70.3083
G01 X49.9437 Y70.5966
G01 X49.7311 Y70.8907
G01 X49.8922 Y70.8907
G01 X50.0505 Y70.6717
G01 X50.2998 Y70.3083
G01 X50.4581 Y70.3083
G01 X50.1572 Y70.7469
G01 X50.0533 Y70.8907
G01 X50.2144 Y70.8907
G01 X50.2640 Y70.8221
G01 X50.6165 Y70.3083
G01 X50.7748 Y70.3083
G01 X50.3752 Y70.8907
G01 X50.5335 Y70.8907
G01 X50.9331 Y70.3083
G01 X51.0914 Y70.3083
G01 X50.6918 Y70.8907
G01 X50.8502 Y70.8907
G01 X51.2497 Y70.3083
G01 X51.4081 Y70.3083
G01 X51.0085 Y70.8907
G01 X51.1668 Y70.8907
G01 X51.5664 Y70.3083
G01 X51.7247 Y70.3083
G01 X51.3251 Y70.8907
G01 X51.4835 Y70.8907
G01 X51.8830 Y70.3083
G01 X52.0413 Y70.3083
G01 X51.6418 Y70.8907
G01 X51.8001 Y70.8907
G01 X52.1997 Y70.3083
G01 X52.3561 Y70.3083
G01 X52.3219 Y70.3609
G01 X51.9584 Y70.8907
G01 X52.1167 Y70.8907
G01 X52.4304 Y70.4335
G01 X52.5119 Y70.3083
G01 X52.6676 Y70.3083
G01 X52.5390 Y70.5060
G01 X52.2751 Y70.8907
G01 X52.4334 Y70.8907
G01 X52.6475 Y70.5785
G01 X52.8234 Y70.3083
G01 X52.9791 Y70.3083
G01 X52.7561 Y70.6511
G01 X52.5917 Y70.8907
G01 X52.7500 Y70.8907
G01 X52.8647 Y70.7236
G01 X53.1349 Y70.3083
G01 X53.2906 Y70.3083
G01 X52.9732 Y70.7961
G01 X52.9083 Y70.8907
G01 X53.0667 Y70.8907
G01 X53.0818 Y70.8687
G01 X53.4463 Y70.3083
G01 X53.6021 Y70.3083
G01 X53.2232 Y70.8907
G01 X53.3789 Y70.8907
G01 X53.7578 Y70.3083
G01 X53.9136 Y70.3083
G01 X53.5347 Y70.8907
G01 X53.6904 Y70.8907
G01 X54.0693 Y70.3083
G01 X54.2251 Y70.3083
G01 X53.8462 Y70.8907
G01 X54.0019 Y70.8907
G01 X54.3808 Y70.3083
G01 X54.5366 Y70.3083
G01 X54.1577 Y70.8907
G01 X54.3134 Y70.8907
G01 X54.6923 Y70.3083
G01 X54.8481 Y70.3083
G01 X54.4692 Y70.8907
G01 X54.6249 Y70.8907
G01 X55.0038 Y70.3083
G01 X55.1595 Y70.3083
G01 X54.7807 Y70.8907
G01 X54.9364 Y70.8907
G01 X55.2695 Y70.3787
G01 X55.3129 Y70.3083
G01 X55.4662 Y70.3083
G01 X55.3798 Y70.4485
G01 X55.0921 Y70.8907
G01 X55.2479 Y70.8907
G01 X55.4901 Y70.5184
G01 X55.6196 Y70.3083
G01 X55.7729 Y70.3083
G01 X55.6004 Y70.5882
G01 X55.4036 Y70.8907
G01 X55.5594 Y70.8907
G01 X55.7107 Y70.6581
G01 X55.9263 Y70.3083
G01 X56.0796 Y70.3083
G01 X55.8210 Y70.7279
G01 X55.7151 Y70.8907
G01 X55.8709 Y70.8907
G01 X55.9313 Y70.7978
G01 X56.2329 Y70.3083
G01 X56.3863 Y70.3083
G01 X56.0416 Y70.8676
G01 X56.0266 Y70.8907
G01 X56.1808 Y70.8907
G01 X56.5396 Y70.3083
G01 X56.6930 Y70.3083
G01 X56.3341 Y70.8907
G01 X56.4875 Y70.8907
G01 X56.8463 Y70.3083
G01 X56.9997 Y70.3083
G01 X56.6408 Y70.8907
G01 X56.7941 Y70.8907
G01 X57.1530 Y70.3083
G01 X57.3063 Y70.3083
G01 X56.9475 Y70.8907
G01 X57.1008 Y70.8907
G01 X57.4597 Y70.3083
G01 X57.6130 Y70.3083
G01 X57.2542 Y70.8907
G01 X57.4075 Y70.8907
G01 X57.7664 Y70.3083
G01 X57.9197 Y70.3083
G01 X57.5609 Y70.8907
G01 X57.7142 Y70.8907
G01 X58.0731 Y70.3083
G01 X58.2264 Y70.3083
G01 X57.8675 Y70.8907
G01 X58.0209 Y70.8907
G01 X58.3606 Y70.3393
G01 X58.3787 Y70.3083
G01 X58.5298 Y70.3083
G01 X58.4726 Y70.4065
G01 X58.1742 Y70.8907
G01 X58.3276 Y70.8907
G01 X58.5846 Y70.4736
G01 X58.6809 Y70.3083
G01 X58.8320 Y70.3083
G01 X58.6966 Y70.5407
G01 X58.4809 Y70.8907
G01 X58.6343 Y70.8907
G01 X58.8086 Y70.6078
G01 X58.9831 Y70.3083
G01 X59.1342 Y70.3083
G01 X58.9206 Y70.6749
G01 X58.7876 Y70.8907
G01 X58.9410 Y70.8907
G01 X59.0325 Y70.7421
G01 X59.2853 Y70.3083
G01 X59.4364 Y70.3083
G01 X59.1445 Y70.8092
G01 X59.0943 Y70.8907
G01 X59.2476 Y70.8907
G01 X59.2565 Y70.8763
G01 X59.5876 Y70.3083
G01 X59.7387 Y70.3083
G01 X59.3992 Y70.8907
G01 X59.5503 Y70.8907
G01 X59.8898 Y70.3083
G01 X60.0409 Y70.3083
G01 X59.7014 Y70.8907
G01 X59.8525 Y70.8907
G01 X60.1920 Y70.3083
G01 X60.3431 Y70.3083
G01 X60.0036 Y70.8907
G01 X60.1547 Y70.8907
G01 X60.4942 Y70.3083
G01 X60.6453 Y70.3083
G01 X60.3059 Y70.8907
G01 X60.4570 Y70.8907
G01 X60.7964 Y70.3083
G01 X60.9475 Y70.3083
G01 X60.6081 Y70.8907
G01 X60.7592 Y70.8907
G01 X61.0986 Y70.3083
G01 X61.2497 Y70.3083
G01 X60.9103 Y70.8907
G01 X61.0614 Y70.8907
G01 X61.4008 Y70.3083
G01 X61.5519 Y70.3083
G01 X61.2125 Y70.8907
G01 X61.3636 Y70.8907
G01 X61.7030 Y70.3083
G01 X61.8524 Y70.3083
G01 X61.8229 Y70.3619
G01 X61.5147 Y70.8907
G01 X61.6658 Y70.8907
G01 X61.9365 Y70.4262
G01 X62.0014 Y70.3083
G01 X62.1504 Y70.3083
G01 X62.0501 Y70.4906
G01 X61.8169 Y70.8907
G01 X61.9680 Y70.8907
G01 X62.1637 Y70.5549
G01 X62.2994 Y70.3083
G01 X62.4485 Y70.3083
G01 X62.2773 Y70.6193
G01 X62.1191 Y70.8907
G01 X62.2702 Y70.8907
G01 X62.3909 Y70.6836
G01 X62.5975 Y70.3083
G01 X62.7465 Y70.3083
G01 X62.5045 Y70.7480
G01 X62.4213 Y70.8907
G01 X62.5724 Y70.8907
G01 X62.6181 Y70.8123
G01 X62.8955 Y70.3083
G01 X63.0445 Y70.3083
G01 X62.7317 Y70.8767
G01 X62.7235 Y70.8907
G01 X62.8730 Y70.8907
G01 X63.1935 Y70.3083
G01 X63.3426 Y70.3083
G01 X63.0220 Y70.8907
G01 X63.1710 Y70.8907
G01 X63.4916 Y70.3083
G01 X63.6406 Y70.3083
G01 X63.3201 Y70.8907
G01 X63.4691 Y70.8907
G01 X63.7896 Y70.3083
G01 X63.9386 Y70.3083
G01 X63.6181 Y70.8907
G01 X63.7671 Y70.8907
G01 X64.0877 Y70.3083
G01 X64.2367 Y70.3083
G01 X63.9161 Y70.8907
G01 X64.0651 Y70.8907
G01 X64.3857 Y70.3083
G01 X64.5347 Y70.3083
G01 X64.2142 Y70.8907
G01 X64.3632 Y70.8907
G01 X64.6837 Y70.3083
G01 X64.8327 Y70.3083
G01 X64.5122 Y70.8907
G01 X64.6612 Y70.8907
G01 X64.9818 Y70.3083
G01 X65.1308 Y70.3083
G01 X64.8102 Y70.8907
G01 X64.9592 Y70.8907
G01 X65.2798 Y70.3083
G01 X65.4288 Y70.3083
G01 X65.1083 Y70.8907
G01 X65.2573 Y70.8907
G01 X65.5505 Y70.3579
G01 X65.5763 Y70.3083
G01 X65.7233 Y70.3083
G01 X65.6657 Y70.4195
G01 X65.4063 Y70.8907
G01 X65.5553 Y70.8907
G01 X65.7808 Y70.4810
G01 X65.8704 Y70.3083
G01 X66.0175 Y70.3083
G01 X65.8960 Y70.5426
G01 X65.7043 Y70.8907
G01 X65.8534 Y70.8907
G01 X66.0111 Y70.6041
G01 X66.1646 Y70.3083
G01 X66.3116 Y70.3083
G01 X66.1262 Y70.6657
G01 X66.0024 Y70.8907
G01 X66.1514 Y70.8907
G01 X66.2414 Y70.7272
G01 X66.4587 Y70.3083
G01 X66.6058 Y70.3083
G01 X66.3565 Y70.7887
G01 X66.3004 Y70.8907
G01 X66.4494 Y70.8907
G01 X66.4717 Y70.8503
G01 X66.7529 Y70.3083
G01 X66.8999 Y70.3083
G01 X66.5978 Y70.8907
G01 X66.7449 Y70.8907
G01 X67.0470 Y70.3083
G01 X67.1941 Y70.3083
G01 X66.8919 Y70.8907
G01 X67.0390 Y70.8907
G01 X67.3412 Y70.3083
G01 X67.4883 Y70.3083
G01 X67.1861 Y70.8907
G01 X67.3332 Y70.8907
G01 X67.6353 Y70.3083
G01 X67.7824 Y70.3083
G01 X67.4802 Y70.8907
G01 X67.6273 Y70.8907
G01 X67.9295 Y70.3083
G01 X68.0766 Y70.3083
G01 X67.7744 Y70.8907
G01 X67.9215 Y70.8907
G01 X68.2236 Y70.3083
G01 X68.3707 Y70.3083
G01 X68.0685 Y70.8907
G01 X68.2156 Y70.8907
G01 X68.5178 Y70.3083
G01 X68.6649 Y70.3083
G01 X68.3627 Y70.8907
G01 X68.5098 Y70.8907
G01 X68.8119 Y70.3083
G01 X68.9590 Y70.3083
G01 X68.6568 Y70.8907
G01 X68.8039 Y70.8907
G01 X69.1061 Y70.3083
G01 X69.2532 Y70.3083
G01 X68.9510 Y70.8907
G01 X69.0981 Y70.8907
G01 X69.4002 Y70.3083
G01 X69.5473 Y70.3083
G01 X69.2451 Y70.8907
G01 X69.3922 Y70.8907
G01 X69.6637 Y70.3675
G01 X69.6926 Y70.3083
G01 X69.8378 Y70.3083
G01 X69.7803 Y70.4262
G01 X69.5393 Y70.8907
G01 X69.6864 Y70.8907
G01 X69.8969 Y70.4849
G01 X69.9831 Y70.3083
G01 X70.1284 Y70.3083
G01 X70.0135 Y70.5436
G01 X69.8334 Y70.8907
G01 X69.9805 Y70.8907
G01 X70.1301 Y70.6023
G01 X70.2736 Y70.3083
G01 X70.4189 Y70.3083
G01 X70.2468 Y70.6610
G01 X70.1276 Y70.8907
G01 X70.2747 Y70.8907
G01 X70.3634 Y70.7197
G01 X70.5642 Y70.3083
G01 X70.7095 Y70.3083
G01 X70.4800 Y70.7784
G01 X70.4217 Y70.8907
G01 X70.5688 Y70.8907
G01 X70.5966 Y70.8371
G01 X70.8547 Y70.3083
G01 X71.0000 Y70.3083
G01 X70.7157 Y70.8907
G01 X70.8610 Y70.8907
G01 X71.1453 Y70.3083
G01 X71.2905 Y70.3083
G01 X71.0063 Y70.8907
G01 X71.1515 Y70.8907
G01 X71.4358 Y70.3083
G01 X71.5811 Y70.3083
G01 X71.2968 Y70.8907
G01 X71.4421 Y70.8907
G01 X71.7263 Y70.3083
G01 X71.8716 Y70.3083
G01 X71.5874 Y70.8907
G01 X71.7326 Y70.8907
G01 X72.0169 Y70.3083
G01 X72.1621 Y70.3083
G01 X71.8779 Y70.8907
G01 X72.0232 Y70.8907
G01 X72.3074 Y70.3083
G01 X72.4527 Y70.3083
G01 X72.1684 Y70.8907
G01 X72.3137 Y70.8907
G01 X72.5980 Y70.3083
G01 X72.7432 Y70.3083
G01 X72.4590 Y70.8907
G01 X72.6042 Y70.8907
G01 X72.8885 Y70.3083
G01 X73.0338 Y70.3083
G01 X72.7495 Y70.8907
G01 X72.8948 Y70.8907
G01 X73.1790 Y70.3083
G01 X73.3243 Y70.3083
G01 X73.0401 Y70.8907
G01 X73.1853 Y70.8907
G01 X73.4696 Y70.3083
G01 X73.6148 Y70.3083
G01 X73.3306 Y70.8907
G01 X73.4759 Y70.8907
G01 X73.7601 Y70.3083
G01 X73.9054 Y70.3083
G01 X73.6211 Y70.8907
G01 X73.7664 Y70.8907
G01 X74.0507 Y70.3083
G01 X74.1943 Y70.3083
G01 X74.1692 Y70.3630
G01 X73.9117 Y70.8907
G01 X74.0569 Y70.8907
G01 X74.2873 Y70.4188
G01 X74.3379 Y70.3083
G01 X74.4815 Y70.3083
G01 X74.4053 Y70.4746
G01 X74.2022 Y70.8907
G01 X74.3475 Y70.8907
G01 X74.5233 Y70.5304
G01 X74.6251 Y70.3083
G01 X74.7687 Y70.3083
G01 X74.6413 Y70.5863
G01 X74.4928 Y70.8907
G01 X74.6380 Y70.8907
G01 X74.7594 Y70.6421
G01 X74.9122 Y70.3083
G01 X75.0558 Y70.3083
G01 X74.8774 Y70.6979
G01 X74.7833 Y70.8907
G01 X74.9286 Y70.8907
G01 X74.9954 Y70.7537
G01 X75.1994 Y70.3083
G01 X75.3430 Y70.3083
G01 X75.1134 Y70.8096
G01 X75.0738 Y70.8907
G01 X75.2191 Y70.8907
G01 X75.2315 Y70.8654
G01 X75.4866 Y70.3083
G01 X75.6302 Y70.3083
G01 X75.3635 Y70.8907
G01 X75.5070 Y70.8907
G01 X75.7738 Y70.3083
G01 X75.9174 Y70.3083
G01 X75.6506 Y70.8907
G01 X75.7942 Y70.8907
G01 X76.0610 Y70.3083
G01 X76.2046 Y70.3083
G01 X75.9378 Y70.8907
G01 X76.0814 Y70.8907
G01 X76.3482 Y70.3083
G01 X76.4918 Y70.3083
G01 X76.2250 Y70.8907
G01 X76.3686 Y70.8907
G01 X76.6354 Y70.3083
G01 X76.7790 Y70.3083
G01 X76.5122 Y70.8907
G01 X76.6558 Y70.8907
G01 X76.9225 Y70.3083
G01 X77.0661 Y70.3083
G01 X76.7994 Y70.8907
G01 X76.9430 Y70.8907
G01 X77.2097 Y70.3083
G01 X77.3533 Y70.3083
G01 X77.0866 Y70.8907
G01 X77.2302 Y70.8907
G01 X77.4969 Y70.3083
G01 X77.6405 Y70.3083
G01 X77.3738 Y70.8907
G01 X77.5173 Y70.8907
G01 X77.7841 Y70.3083
G01 X77.9277 Y70.3083
G01 X77.6609 Y70.8907
G01 X77.8045 Y70.8907
G01 X78.0713 Y70.3083
G01 X78.2149 Y70.3083
G01 X77.9481 Y70.8907
G01 X78.0917 Y70.8907
G01 X78.3585 Y70.3083
G01 X78.5021 Y70.3083
G01 X78.2353 Y70.8907
G01 X78.3789 Y70.8907
G01 X78.6457 Y70.3083
G01 X78.7893 Y70.3083
G01 X78.5225 Y70.8907
G01 X78.6661 Y70.8907
G01 X78.9329 Y70.3083
G01 X79.0762 Y70.3083
G01 X78.8097 Y70.8907
G01 X78.9533 Y70.8907
G01 X79.1921 Y70.3692
G01 X79.2182 Y70.3083
G01 X79.3603 Y70.3083
G01 X79.3115 Y70.4221
G01 X79.0969 Y70.8907
G01 X79.2405 Y70.8907
G01 X79.4309 Y70.4750
G01 X79.5023 Y70.3083
G01 X79.6444 Y70.3083
G01 X79.5502 Y70.5279
G01 X79.3841 Y70.8907
G01 X79.5277 Y70.8907
G01 X79.6696 Y70.5808
G01 X79.7864 Y70.3083
G01 X79.9284 Y70.3083
G01 X79.7889 Y70.6337
G01 X79.6712 Y70.8907
G01 X79.8148 Y70.8907
G01 X79.9083 Y70.6867
G01 X80.0705 Y70.3083
G01 X80.2125 Y70.3083
G01 X80.0277 Y70.7396
G01 X79.9584 Y70.8907
G01 X80.1020 Y70.8907
G01 X80.1470 Y70.7925
G01 X80.3546 Y70.3083
G01 X80.4966 Y70.3083
G01 X80.2664 Y70.8454
G01 X80.2456 Y70.8907
G01 X80.3890 Y70.8907
G01 X80.6386 Y70.3083
G01 X80.7807 Y70.3083
G01 X80.5310 Y70.8907
G01 X80.6731 Y70.8907
G01 X80.9227 Y70.3083
G01 X81.0648 Y70.3083
G01 X80.8151 Y70.8907
G01 X80.9571 Y70.8907
G01 X81.2068 Y70.3083
G01 X81.3488 Y70.3083
G01 X81.0992 Y70.8907
G01 X81.2412 Y70.8907
G01 X81.4909 Y70.3083
G01 X81.6329 Y70.3083
G01 X81.3833 Y70.8907
G01 X81.5253 Y70.8907
G01 X81.7750 Y70.3083
G01 X81.9170 Y70.3083
G01 X81.6673 Y70.8907
G01 X81.8094 Y70.8907
G01 X82.0590 Y70.3083
G01 X82.2011 Y70.3083
G01 X81.9514 Y70.8907
G01 X82.0935 Y70.8907
G01 X82.3431 Y70.3083
G01 X82.4852 Y70.3083
G01 X82.2355 Y70.8907
G01 X82.3775 Y70.8907
G01 X82.6272 Y70.3083
G01 X82.7692 Y70.3083
G01 X82.5196 Y70.8907
G01 X82.6616 Y70.8907
G01 X82.9113 Y70.3083
G01 X83.0533 Y70.3083
G01 X82.8037 Y70.8907
G01 X82.9457 Y70.8907
G01 X83.1953 Y70.3083
G01 X83.3374 Y70.3083
G01 X83.0877 Y70.8907
G01 X83.2298 Y70.8907
G01 X83.4794 Y70.3083
G01 X83.6215 Y70.3083
G01 X83.3718 Y70.8907
G01 X83.5138 Y70.8907
G01 X83.7635 Y70.3083
G01 X83.9055 Y70.3083
G01 X83.6559 Y70.8907
G01 X83.7979 Y70.8907
G01 X84.0476 Y70.3083
G01 X84.1896 Y70.3083
G01 X83.9400 Y70.8907
G01 X84.0820 Y70.8907
G01 X84.3317 Y70.3083
G01 X84.4737 Y70.3083
G01 X84.2240 Y70.8907
G01 X84.3661 Y70.8907
G01 X84.6157 Y70.3083
G01 X84.7566 Y70.3083
G01 X84.7404 Y70.3489
G01 X84.5081 Y70.8907
G01 X84.6502 Y70.8907
G01 X84.8610 Y70.3989
G01 X84.8972 Y70.3083
G01 X85.0378 Y70.3083
G01 X84.9816 Y70.4489
G01 X84.7922 Y70.8907
G01 X84.9342 Y70.8907
G01 X85.1022 Y70.4988
G01 X85.1784 Y70.3083
G01 X85.3190 Y70.3083
G01 X85.2228 Y70.5488
G01 X85.0763 Y70.8907
G01 X85.2183 Y70.8907
G01 X85.3435 Y70.5987
G01 X85.4596 Y70.3083
G01 X85.6002 Y70.3083
G01 X85.4641 Y70.6487
G01 X85.3604 Y70.8907
G01 X85.5024 Y70.8907
G01 X85.5847 Y70.6987
G01 X85.7408 Y70.3083
G01 X85.8814 Y70.3083
G01 X85.7053 Y70.7486
G01 X85.6444 Y70.8907
G01 X85.7865 Y70.8907
G01 X85.8260 Y70.7986
G01 X86.0220 Y70.3083
G01 X86.1626 Y70.3083
G01 X85.9466 Y70.8486
G01 X85.9285 Y70.8907
G01 X86.0703 Y70.8907
G01 X86.3032 Y70.3083
G01 X86.4438 Y70.3083
G01 X86.2109 Y70.8907
G01 X86.3515 Y70.8907
G01 X86.5844 Y70.3083
G01 X86.7250 Y70.3083
G01 X86.4921 Y70.8907
G01 X86.6327 Y70.8907
G01 X86.8656 Y70.3083
G01 X87.0062 Y70.3083
G01 X86.7733 Y70.8907
G01 X86.9139 Y70.8907
G01 X87.1468 Y70.3083
G01 X87.2875 Y70.3083
G01 X87.0545 Y70.8907
G01 X87.1951 Y70.8907
G01 X87.4281 Y70.3083
G01 X87.5687 Y70.3083
G01 X87.3357 Y70.8907
G01 X87.4764 Y70.8907
G01 X87.7093 Y70.3083
G01 X87.8499 Y70.3083
G01 X87.6170 Y70.8907
G01 X87.7576 Y70.8907
G01 X87.9905 Y70.3083
G01 X88.1311 Y70.3083
G01 X87.8982 Y70.8907
G01 X88.0388 Y70.8907
G01 X88.2717 Y70.3083
G01 X88.4123 Y70.3083
G01 X88.1794 Y70.8907
G01 X88.3200 Y70.8907
G01 X88.5529 Y70.3083
G01 X88.6935 Y70.3083
G01 X88.4606 Y70.8907
G01 X88.6012 Y70.8907
G01 X88.8341 Y70.3083
G01 X88.9747 Y70.3083
G01 X88.7418 Y70.8907
G01 X88.8824 Y70.8907
G01 X89.1153 Y70.3083
G01 X89.2559 Y70.3083
G01 X89.0230 Y70.8907
G01 X89.1636 Y70.8907
G01 X89.3965 Y70.3083
G01 X89.5371 Y70.3083
G01 X89.3042 Y70.8907
G01 X89.4448 Y70.8907
G01 X89.6777 Y70.3083
G01 X89.8183 Y70.3083
G01 X89.5854 Y70.8907
G01 X89.7260 Y70.8907
G01 X89.9589 Y70.3083
G01 X90.0995 Y70.3083
G01 X89.8666 Y70.8907
G01 X90.0072 Y70.8907
G01 X90.2401 Y70.3083
G01 X90.3807 Y70.3083
G01 X90.1478 Y70.8907
G01 X90.2884 Y70.8907
G01 X90.5213 Y70.3083
G01 X90.6619 Y70.3083
G01 X90.4290 Y70.8907
G01 X90.5696 Y70.8907
G01 X90.8025 Y70.3083
G01 X90.9430 Y70.3083
G01 X90.7102 Y70.8907
G01 X90.8508 Y70.8907
G01 X91.0637 Y70.3584
G01 X91.0823 Y70.3083
G01 X91.2216 Y70.3083
G01 X91.1855 Y70.4054
G01 X90.9914 Y70.8907
G01 X91.1320 Y70.8907
G01 X91.3073 Y70.4524
G01 X91.3609 Y70.3083
G01 X91.5001 Y70.3083
G01 X91.4291 Y70.4994
G01 X91.2726 Y70.8907
G01 X91.4132 Y70.8907
G01 X91.5509 Y70.5463
G01 X91.6394 Y70.3083
G01 X91.7787 Y70.3083
G01 X91.6727 Y70.5933
G01 X91.5538 Y70.8907
G01 X91.6944 Y70.8907
G01 X91.7946 Y70.6403
G01 X91.9180 Y70.3083
G01 X92.0572 Y70.3083
G01 X91.9164 Y70.6873
G01 X91.8350 Y70.8907
G01 X91.9756 Y70.8907
G01 X92.0382 Y70.7343
G01 X92.1965 Y70.3083
G01 X92.3358 Y70.3083
G01 X92.1600 Y70.7813
G01 X92.1162 Y70.8907
G01 X92.2568 Y70.8907
G01 X92.2818 Y70.8283
G01 X92.4751 Y70.3083
G01 X92.6144 Y70.3083
G01 X92.4036 Y70.8753
G01 X92.3974 Y70.8907
G01 X92.5371 Y70.8907
G01 X92.7536 Y70.3083
G01 X92.8929 Y70.3083
G01 X92.6764 Y70.8907
G01 X92.8157 Y70.8907
G01 X93.0322 Y70.3083
G01 X93.1715 Y70.3083
G01 X92.9550 Y70.8907
G01 X93.0943 Y70.8907
G01 X93.3107 Y70.3083
G01 X93.4500 Y70.3083
G01 X93.2335 Y70.8907
G01 X93.3728 Y70.8907
G01 X93.5893 Y70.3083
G01 X93.7286 Y70.3083
G01 X93.5121 Y70.8907
G01 X93.6514 Y70.8907
G01 X93.8679 Y70.3083
G01 X94.0071 Y70.3083
G01 X93.7906 Y70.8907
G01 X93.9299 Y70.8907
G01 X94.1464 Y70.3083
G01 X94.2857 Y70.3083
G01 X94.0692 Y70.8907
G01 X94.2085 Y70.8907
G01 X94.4250 Y70.3083
G01 X94.5642 Y70.3083
G01 X94.3478 Y70.8907
G01 X94.4870 Y70.8907
G01 X94.7035 Y70.3083
G01 X94.8428 Y70.3083
G01 X94.6263 Y70.8907
G01 X94.7656 Y70.8907
G01 X94.9821 Y70.3083
G01 X95.1213 Y70.3083
G01 X94.9049 Y70.8907
G01 X95.0441 Y70.8907
G01 X95.2606 Y70.3083
G01 X95.3999 Y70.3083
G01 X95.1834 Y70.8907
G01 X95.3227 Y70.8907
G01 X95.5392 Y70.3083
G01 X95.6785 Y70.3083
G01 X95.4620 Y70.8907
G01 X95.6013 Y70.8907
G01 X95.8177 Y70.3083
G01 X95.9570 Y70.3083
G01 X95.7405 Y70.8907
G01 X95.8798 Y70.8907
G01 X96.0963 Y70.3083
G01 X96.2356 Y70.3083
G01 X96.0191 Y70.8907
G01 X96.1584 Y70.8907
G01 X96.3748 Y70.3083
G01 X96.5141 Y70.3083
G01 X96.2976 Y70.8907
G01 X96.4369 Y70.8907
G01 X96.6534 Y70.3083
G01 X96.7927 Y70.3083
G01 X96.5762 Y70.8907
G01 X96.7155 Y70.8907
G01 X96.9320 Y70.3083
G01 X97.0712 Y70.3083
G01 X96.8547 Y70.8907
G01 X96.9940 Y70.8907
G01 X97.2105 Y70.3083
G01 X97.3498 Y70.3083
G01 X97.1333 Y70.8907
G01 X97.2726 Y70.8907
G01 X97.4891 Y70.3083
G01 X97.6283 Y70.3083
G01 X97.4119 Y70.8907
G01 X97.5511 Y70.8907
G01 X97.7676 Y70.3083
G01 X97.9069 Y70.3083
G01 X97.6904 Y70.8907
G01 X97.8297 Y70.8907
G01 X98.0462 Y70.3083
G01 X98.1845 Y70.3083
G01 X98.1731 Y70.3414
G01 X97.9690 Y70.8907
G01 X98.1082 Y70.8907
G01 X98.2961 Y70.3854
G01 X98.3226 Y70.3083
G01 X98.4607 Y70.3083
G01 X98.4190 Y70.4294
G01 X98.2475 Y70.8907
G01 X98.3868 Y70.8907
G01 X98.5419 Y70.4734
G01 X98.5987 Y70.3083
G01 X98.7368 Y70.3083
G01 X98.6649 Y70.5174
G01 X98.5261 Y70.8907
G01 X98.6654 Y70.8907
G01 X98.7878 Y70.5613
G01 X98.8748 Y70.3083
G01 X99.0129 Y70.3083
G01 X98.9107 Y70.6053
G01 X98.8046 Y70.8907
G01 X98.9439 Y70.8907
G01 X99.0336 Y70.6493
G01 X99.1510 Y70.3083
G01 X99.2890 Y70.3083
G01 X99.1566 Y70.6933
G01 X99.0832 Y70.8907
G01 X99.2225 Y70.8907
G01 X99.2795 Y70.7373
G01 X99.4271 Y70.3083
G01 X99.5651 Y70.3083
G01 X99.4024 Y70.7813
G01 X99.3617 Y70.8907
G01 X99.5010 Y70.8907
G01 X99.5254 Y70.8252
G01 X99.7032 Y70.3083
G01 X99.8413 Y70.3083
G01 X99.6483 Y70.8692
G01 X99.6403 Y70.8907
G01 X99.7790 Y70.8907
G01 X99.9793 Y70.3083
G01 X100.1174 Y70.3083
G01 X99.9170 Y70.8907
G01 X100.0551 Y70.8907
G01 X100.2554 Y70.3083
G01 X100.3935 Y70.3083
G01 X100.1931 Y70.8907
G01 X100.3312 Y70.8907
G01 X100.5315 Y70.3083
G01 X100.6696 Y70.3083
G01 X100.4692 Y70.8907
G01 X100.6073 Y70.8907
G01 X100.8077 Y70.3083
G01 X100.9457 Y70.3083
G01 X100.7454 Y70.8907
G01 X100.8834 Y70.8907
G01 X101.0838 Y70.3083
G01 X101.2218 Y70.3083
G01 X101.0215 Y70.8907
G01 X101.1595 Y70.8907
G01 X101.3599 Y70.3083
G01 X101.4980 Y70.3083
G01 X101.2976 Y70.8907
G01 X101.4357 Y70.8907
G01 X101.6360 Y70.3083
G01 X101.7741 Y70.3083
G01 X101.5737 Y70.8907
G01 X101.7118 Y70.8907
G01 X101.9121 Y70.3083
G01 X102.0502 Y70.3083
G01 X101.8498 Y70.8907
G01 X101.9879 Y70.8907
G01 X102.1883 Y70.3083
G01 X102.3263 Y70.3083
G01 X102.1260 Y70.8907
G01 X102.2640 Y70.8907
G01 X102.4644 Y70.3083
G01 X102.6024 Y70.3083
G01 X102.4021 Y70.8907
G01 X102.5401 Y70.8907
G01 X102.7405 Y70.3083
G01 X102.8786 Y70.3083
G01 X102.6782 Y70.8907
G01 X102.8163 Y70.8907
G01 X103.0166 Y70.3083
G01 X103.1547 Y70.3083
G01 X102.9543 Y70.8907
G01 X103.0924 Y70.8907
G01 X103.2927 Y70.3083
G01 X103.4308 Y70.3083
G01 X103.2304 Y70.8907
G01 X103.3685 Y70.8907
G01 X103.5689 Y70.3083
G01 X103.7069 Y70.3083
G01 X103.5066 Y70.8907
G01 X103.6446 Y70.8907
G01 X103.8450 Y70.3083
G01 X103.9830 Y70.3083
G01 X103.7827 Y70.8907
G01 X103.9207 Y70.8907
G01 X104.1211 Y70.3083
G01 X104.2592 Y70.3083
G01 X104.0588 Y70.8907
G01 X104.1969 Y70.8907
G01 X104.3972 Y70.3083
G01 X104.5353 Y70.3083
G01 X104.3349 Y70.8907
G01 X104.4730 Y70.8907
G01 X104.6733 Y70.3083
G01 X104.8114 Y70.3083
G01 X104.6110 Y70.8907
G01 X104.7491 Y70.8907
G01 X104.9495 Y70.3083
G01 X105.0875 Y70.3083
G01 X104.8872 Y70.8907
G01 X105.0252 Y70.8907
G01 X105.2256 Y70.3083
G01 X105.3636 Y70.3083
G01 X105.1633 Y70.8907
G01 X105.3013 Y70.8907
G01 X105.5017 Y70.3083
G01 X105.6398 Y70.3083
G01 X105.4394 Y70.8907
G01 X105.5775 Y70.8907
G01 X105.7778 Y70.3083
G01 X105.9159 Y70.3083
G01 X105.7155 Y70.8907
G01 X105.8536 Y70.8907
G01 X106.0539 Y70.3083
G01 X106.1920 Y70.3083
G01 X105.9916 Y70.8907
G01 X106.1297 Y70.8907
G01 X106.3250 Y70.3231
G01 X106.3296 Y70.3083
G01 X106.4666 Y70.3083
G01 X106.4489 Y70.3640
G01 X106.2678 Y70.8907
G01 X106.4058 Y70.8907
G01 X106.5729 Y70.4050
G01 X106.6035 Y70.3083
G01 X106.7405 Y70.3083
G01 X106.6969 Y70.4459
G01 X106.5439 Y70.8907
G01 X106.6819 Y70.8907
G01 X106.8209 Y70.4869
G01 X106.8774 Y70.3083
G01 X107.0144 Y70.3083
G01 X106.9448 Y70.5278
G01 X106.8200 Y70.8907
G01 X106.9581 Y70.8907
G01 X107.0688 Y70.5688
G01 X107.1513 Y70.3083
G01 X107.2883 Y70.3083
G01 X107.1928 Y70.6098
G01 X107.0961 Y70.8907
G01 X107.2342 Y70.8907
G01 X107.3167 Y70.6507
G01 X107.4252 Y70.3083
G01 X107.5622 Y70.3083
G01 X107.4407 Y70.6917
G01 X107.3722 Y70.8907
G01 X107.5103 Y70.8907
G01 X107.5647 Y70.7326
G01 X107.6991 Y70.3083
G01 X107.8360 Y70.3083
G01 X107.6886 Y70.7736
G01 X107.6483 Y70.8907
G01 X107.7864 Y70.8907
G01 X107.8126 Y70.8145
G01 X107.9730 Y70.3083
G01 X108.1099 Y70.3083
G01 X107.9366 Y70.8555
G01 X107.9245 Y70.8907
G01 X108.0624 Y70.8907
G01 X108.2469 Y70.3083
G01 X108.3838 Y70.3083
G01 X108.1993 Y70.8907
G01 X108.3363 Y70.8907
G01 X108.5208 Y70.3083
G01 X108.6577 Y70.3083
G01 X108.4732 Y70.8907
G01 X108.6102 Y70.8907
G01 X108.7947 Y70.3083
G01 X108.9316 Y70.3083
G01 X108.7471 Y70.8907
G01 X108.8840 Y70.8907
G01 X109.0685 Y70.3083
G01 X109.2055 Y70.3083
G01 X109.0210 Y70.8907
G01 X109.1579 Y70.8907
G01 X109.3424 Y70.3083
G01 X109.4794 Y70.3083
G01 X109.2949 Y70.8907
G01 X109.4318 Y70.8907
G01 X109.6163 Y70.3083
G01 X109.7533 Y70.3083
G01 X109.5688 Y70.8907
G01 X109.7057 Y70.8907
G01 X109.8904 Y70.3078
G00 Z2.0000
G00 X110.0378 Y70.2747
G01 F40.00
G01 Z-0.0499
G01 F100.00
G01 X109.8427 Y70.8907
G01 X109.9796 Y70.8907
G01 X110.2183 Y70.1371
G00 Z2.0000
G00 X110.3083 Y69.8531
G01 F40.00
G01 Z-0.0499
G01 F100.00
G01 X110.6579 Y68.7496
G01 X110.8907 Y67.9468
G01 X110.8907 Y67.4781
G01 X110.5330 Y68.7117
G01 X110.3083 Y69.4208
G01 X110.3083 Y68.9886
G01 X110.4080 Y68.6738
G01 X110.8907 Y67.0094
G01 X110.8907 Y66.5406
G01 X110.3083 Y68.5489
G01 X110.3083 Y68.0802
G01 X110.8907 Y66.0719
G01 X110.8907 Y65.5799
G01 X110.8235 Y65.8349
G01 X110.3083 Y67.6115
G01 X110.3083 Y67.1428
G01 X110.6977 Y65.8001
G01 X110.8907 Y65.0677
G01 X110.8907 Y64.5555
G01 X110.5718 Y65.7653
G01 X110.3083 Y66.6740
G01 X110.3083 Y66.2053
G01 X110.4460 Y65.7304
G01 X110.8907 Y64.0432
G01 X110.8907 Y63.5310
G01 X110.3202 Y65.6956
G01 X110.3083 Y65.7366
G01 X110.3083 Y65.2284
G01 X110.8907 Y63.0188
G01 X110.8907 Y62.4632
G01 X110.7868 Y62.9008
G01 X110.3083 Y64.7162
G01 X110.3083 Y64.2040
G01 X110.6601 Y62.8691
G01 X110.8907 Y61.8982
G01 X110.8907 Y61.3332
G01 X110.5335 Y62.8374
G01 X110.3083 Y63.6917
G01 X110.3083 Y63.1795
G01 X110.4068 Y62.8056
G01 X110.8907 Y60.7682
G01 X110.8907 Y60.2032
G01 X110.3083 Y62.6556
G01 X110.3083 Y62.0906
G01 X110.8010 Y60.0158
G01 X110.8907 Y59.5922
G01 X110.3083 Y59.8219
G01 X110.8692 Y57.1725
G01 X110.8907 Y57.0569
G01 X110.3083 Y57.3005
G01 X110.3570 Y57.0706
G01 X110.8652 Y54.3410
G01 X110.8907 Y54.1825
G01 X110.3083 Y54.4791
G01 X110.3506 Y54.2517
G01 X110.7897 Y51.5230
G01 X110.8907 Y50.7793
G01 X110.3083 Y51.1872
G01 X110.6433 Y48.7205
G01 X110.8907 Y46.4898
G01 X110.3083 Y47.0038
G01 X110.4268 Y45.9351
G01 X110.6617 Y43.2071
