(G-CODE GENERATED BY FLATCAM v8.994 - www.flatcam.org - Version Date: 2020/11/7)

(Name: Sensorbox-F_Cu.gbr_ncc_cnc)
(Type: G-code from Geometry)
(Units: MM)

(Created on Wednesday, 21 February 2024 at 12:38)

(This preprocessor is the default preprocessor used by FlatCAM.)
(It is made to work with MACH3 compatible motion controllers.)

(TOOL DIAMETER: 0.5 mm)
(Feedrate_XY: 120.0 mm/min)
(Feedrate_Z: 60.0 mm/min)
(Feedrate rapids 1500.0 mm/min)

(Z_Cut: -0.06 mm)
(Z_Move: 2.0 mm)
(Z Start: None mm)
(Z End: 20.0 mm)
(X,Y End: -5.0000, -5.0000 mm)
(Steps per circle: 64)
(Preprocessor Geometry: default)

(X range:   -0.9334 ...  110.9334  mm)
(Y range:   -0.9334 ...   70.9334  mm)

(Spindle Speed: 20000.0 RPM)
G21
G90
G94

G01 F120.00

M5
G00 Z15.0000
G00 X0.0000 Y0.0000
T1
M6    
(MSG, Change to Tool Dia = 0.5000)
M0
G00 Z15.0000

M03 S20000.0
G01 F120.00
G00 X-0.2059 Y-0.0505
G01 F60.00
G01 Z-0.0600
G01 F120.00
G01 X-0.7291 Y-0.0505
G00 Z2.0000
G00 X-0.2495 Y0.1245
G01 F60.00
G01 Z-0.0600
G01 F120.00
G01 X-0.2492 Y0.1126
G01 X-0.2484 Y0.1007
G01 X-0.2470 Y0.0889
G01 X-0.2438 Y0.0714
G01 X-0.2244 Y-0.0022
G01 X-0.2208 Y-0.0142
G01 X-0.2167 Y-0.0259
G01 X-0.2120 Y-0.0375
G01 X-0.2068 Y-0.0488
G01 X-0.2009 Y-0.0598
G01 X-0.1946 Y-0.0705
G01 X-0.1840 Y-0.0860
G01 X-0.1764 Y-0.0958
G01 X-0.1683 Y-0.1052
G01 X-0.1597 Y-0.1143
G01 X-0.1098 Y-0.1640
G01 X-0.0958 Y-0.1764
G01 X-0.0809 Y-0.1877
G01 X-0.0705 Y-0.1946
G01 X-0.0543 Y-0.2039
G01 X-0.0432 Y-0.2095
G01 X-0.0259 Y-0.2167
G01 X-0.0082 Y-0.2227
G01 X0.0656 Y-0.2425
G01 X0.0772 Y-0.2450
G01 X0.0948 Y-0.2477
G01 X0.1126 Y-0.2492
G01 X0.1245 Y-0.2495
G01 X109.8755 Y-0.2495
G01 X109.8874 Y-0.2492
G01 X109.8993 Y-0.2484
G01 X109.9111 Y-0.2470
G01 X109.9228 Y-0.2450
G01 X109.9402 Y-0.2410
G01 X110.0082 Y-0.2227
G01 X110.0259 Y-0.2167
G01 X110.0432 Y-0.2095
G01 X110.0598 Y-0.2009
G01 X110.0705 Y-0.1946
G01 X110.0809 Y-0.1877
G01 X110.0909 Y-0.1803
G01 X110.1052 Y-0.1683
G01 X110.1143 Y-0.1597
G01 X110.1640 Y-0.1098
G01 X110.1764 Y-0.0958
G01 X110.1840 Y-0.0860
G01 X110.1946 Y-0.0705
G01 X110.2009 Y-0.0598
G01 X110.2068 Y-0.0488
G01 X110.2120 Y-0.0375
G01 X110.2167 Y-0.0259
G01 X110.2208 Y-0.0142
G01 X110.2244 Y-0.0022
G01 X110.2410 Y0.0598
G01 X110.2450 Y0.0772
G01 X110.2477 Y0.0948
G01 X110.2492 Y0.1126
G01 X110.2495 Y0.1245
G01 X110.2495 Y69.8755
G01 X110.2489 Y69.8933
G01 X110.2477 Y69.9052
G01 X110.2460 Y69.9170
G01 X110.2438 Y69.9286
G01 X110.2244 Y70.0022
G01 X110.2208 Y70.0142
G01 X110.2167 Y70.0259
G01 X110.2095 Y70.0432
G01 X110.2039 Y70.0543
G01 X110.1978 Y70.0652
G01 X110.1912 Y70.0757
G01 X110.1840 Y70.0860
G01 X110.1764 Y70.0958
G01 X110.1683 Y70.1052
G01 X110.1597 Y70.1143
G01 X110.1098 Y70.1640
G01 X110.0958 Y70.1764
G01 X110.0809 Y70.1877
G01 X110.0705 Y70.1946
G01 X110.0543 Y70.2039
G01 X110.0432 Y70.2095
G01 X110.0259 Y70.2167
G01 X110.0082 Y70.2227
G01 X109.9344 Y70.2425
G01 X109.9228 Y70.2450
G01 X109.9052 Y70.2477
G01 X109.8874 Y70.2492
G01 X109.8755 Y70.2495
G01 X0.1245 Y70.2495
G01 X0.1126 Y70.2492
G01 X0.1007 Y70.2484
G01 X0.0889 Y70.2470
G01 X0.0772 Y70.2450
G01 X0.0598 Y70.2410
G01 X-0.0082 Y70.2227
G01 X-0.0259 Y70.2167
G01 X-0.0375 Y70.2120
G01 X-0.0543 Y70.2039
G01 X-0.0705 Y70.1946
G01 X-0.0860 Y70.1840
G01 X-0.0958 Y70.1764
G01 X-0.1052 Y70.1683
G01 X-0.1143 Y70.1597
G01 X-0.1640 Y70.1098
G01 X-0.1764 Y70.0958
G01 X-0.1840 Y70.0860
G01 X-0.1946 Y70.0705
G01 X-0.2009 Y70.0598
G01 X-0.2068 Y70.0488
G01 X-0.2120 Y70.0375
G01 X-0.2167 Y70.0259
G01 X-0.2208 Y70.0142
G01 X-0.2244 Y70.0022
G01 X-0.2410 Y69.9402
G01 X-0.2438 Y69.9286
G01 X-0.2470 Y69.9111
G01 X-0.2489 Y69.8933
G01 X-0.2495 Y69.8755
G01 X-0.2495 Y0.1245
G01 X-0.2495 Y0.2495
G01 X-0.7495 Y0.2495
G01 X-0.7495 Y0.5495
G01 X-0.2495 Y0.5495
G01 X-0.2495 Y0.8495
G01 X-0.7495 Y0.8495
G01 X-0.7495 Y1.1495
G01 X-0.2495 Y1.1495
G01 X-0.2495 Y1.4495
G01 X-0.7495 Y1.4495
G01 X-0.7495 Y1.7495
G01 X-0.2495 Y1.7495
G01 X-0.2495 Y2.0495
G01 X-0.7495 Y2.0495
G01 X-0.7495 Y2.3495
G01 X-0.2495 Y2.3495
G01 X-0.2495 Y2.6495
G01 X-0.7495 Y2.6495
G01 X-0.7495 Y2.9495
G01 X-0.2495 Y2.9495
G01 X-0.2495 Y3.2495
G01 X-0.7495 Y3.2495
G01 X-0.7495 Y3.5495
G01 X-0.2495 Y3.5495
G01 X-0.2495 Y3.8495
G01 X-0.7495 Y3.8495
G01 X-0.7495 Y4.1495
G01 X-0.2495 Y4.1495
G01 X-0.2495 Y4.4495
G01 X-0.7495 Y4.4495
G01 X-0.7495 Y4.7495
G01 X-0.2495 Y4.7495
G01 X-0.2495 Y5.0495
G01 X-0.7495 Y5.0495
G01 X-0.7495 Y5.3495
G01 X-0.2495 Y5.3495
G01 X-0.2495 Y5.6495
G01 X-0.7495 Y5.6495
G01 X-0.7495 Y5.9495
G01 X-0.2495 Y5.9495
G01 X-0.2495 Y6.2495
G01 X-0.7495 Y6.2495
G01 X-0.7495 Y6.5495
G01 X-0.2495 Y6.5495
G01 X-0.2495 Y6.8495
G01 X-0.7495 Y6.8495
G01 X-0.7495 Y7.1495
G01 X-0.2495 Y7.1495
G01 X-0.2495 Y7.4495
G01 X-0.7495 Y7.4495
G01 X-0.7495 Y7.7495
G01 X-0.2495 Y7.7495
G01 X-0.2495 Y8.0495
G01 X-0.7495 Y8.0495
G01 X-0.7495 Y8.3495
G01 X-0.2495 Y8.3495
G01 X-0.2495 Y8.6495
G01 X-0.7495 Y8.6495
G01 X-0.7495 Y8.9495
G01 X-0.2495 Y8.9495
G01 X-0.2495 Y9.2495
G01 X-0.7495 Y9.2495
G01 X-0.7495 Y9.5495
G01 X-0.2495 Y9.5495
G01 X-0.2495 Y9.8495
G01 X-0.7495 Y9.8495
G01 X-0.7495 Y10.1495
G01 X-0.2495 Y10.1495
G01 X-0.2495 Y10.4495
G01 X-0.7495 Y10.4495
G01 X-0.7495 Y10.7495
G01 X-0.2495 Y10.7495
G01 X-0.2495 Y11.0495
G01 X-0.7495 Y11.0495
G01 X-0.7495 Y11.3495
G01 X-0.2495 Y11.3495
G01 X-0.2495 Y11.6495
G01 X-0.7495 Y11.6495
G01 X-0.7495 Y11.9495
G01 X-0.2495 Y11.9495
G01 X-0.2495 Y12.2495
G01 X-0.7495 Y12.2495
G01 X-0.7495 Y12.5495
G01 X-0.2495 Y12.5495
G01 X-0.2495 Y12.8495
G01 X-0.7495 Y12.8495
G01 X-0.7495 Y13.1495
G01 X-0.2495 Y13.1495
G01 X-0.2495 Y13.4495
G01 X-0.7495 Y13.4495
G01 X-0.7495 Y13.7495
G01 X-0.2495 Y13.7495
G01 X-0.2495 Y14.0495
G01 X-0.7495 Y14.0495
G01 X-0.7495 Y14.3495
G01 X-0.2495 Y14.3495
G01 X-0.2495 Y14.6495
G01 X-0.7495 Y14.6495
G01 X-0.7495 Y14.9495
G01 X-0.2495 Y14.9495
G01 X-0.2495 Y15.2495
G01 X-0.7495 Y15.2495
G01 X-0.7495 Y15.5495
G01 X-0.2495 Y15.5495
G01 X-0.2495 Y15.8495
G01 X-0.7495 Y15.8495
G01 X-0.7495 Y16.1495
G01 X-0.2495 Y16.1495
G01 X-0.2495 Y16.4495
G01 X-0.7495 Y16.4495
G01 X-0.7495 Y16.7495
G01 X-0.2495 Y16.7495
G01 X-0.2495 Y17.0495
G01 X-0.7495 Y17.0495
G01 X-0.7495 Y17.3495
G01 X-0.2495 Y17.3495
G01 X-0.2495 Y17.6495
G01 X-0.7495 Y17.6495
G01 X-0.7495 Y17.9495
G01 X-0.2495 Y17.9495
G01 X-0.2495 Y18.2495
G01 X-0.7495 Y18.2495
G01 X-0.7495 Y18.5495
G01 X-0.2495 Y18.5495
G01 X-0.2495 Y18.8495
G01 X-0.7495 Y18.8495
G01 X-0.7495 Y19.1495
G01 X-0.2495 Y19.1495
G01 X-0.2495 Y19.4495
G01 X-0.7495 Y19.4495
G01 X-0.7495 Y19.7495
G01 X-0.2495 Y19.7495
G01 X-0.2495 Y20.0495
G01 X-0.7495 Y20.0495
G01 X-0.7495 Y20.3495
G01 X-0.2495 Y20.3495
G01 X-0.2495 Y20.6495
G01 X-0.7495 Y20.6495
G01 X-0.7495 Y20.9495
G01 X-0.2495 Y20.9495
G01 X-0.2495 Y21.2495
G01 X-0.7495 Y21.2495
G01 X-0.7495 Y21.5495
G01 X-0.2495 Y21.5495
G01 X-0.2495 Y21.8495
G01 X-0.7495 Y21.8495
G01 X-0.7495 Y22.1495
G01 X-0.2495 Y22.1495
G01 X-0.2495 Y22.4495
G01 X-0.7495 Y22.4495
G01 X-0.7495 Y22.7495
G01 X-0.2495 Y22.7495
G01 X-0.2495 Y23.0495
G01 X-0.7495 Y23.0495
G01 X-0.7495 Y23.3495
G01 X-0.2495 Y23.3495
G01 X-0.2495 Y23.6495
G01 X-0.7495 Y23.6495
G01 X-0.7495 Y23.9495
G01 X-0.2495 Y23.9495
G01 X-0.2495 Y24.2495
G01 X-0.7495 Y24.2495
G01 X-0.7495 Y24.5495
G01 X-0.2495 Y24.5495
G01 X-0.2495 Y24.8495
G01 X-0.7495 Y24.8495
G01 X-0.7495 Y25.1495
G01 X-0.2495 Y25.1495
G01 X-0.2495 Y25.4495
G01 X-0.7495 Y25.4495
G01 X-0.7495 Y25.7495
G01 X-0.2495 Y25.7495
G01 X-0.2495 Y26.0495
G01 X-0.7495 Y26.0495
G01 X-0.7495 Y26.3495
G01 X-0.2495 Y26.3495
G01 X-0.2495 Y26.6495
G01 X-0.7495 Y26.6495
G01 X-0.7495 Y26.9495
G01 X-0.2495 Y26.9495
G01 X-0.2495 Y27.2495
G01 X-0.7495 Y27.2495
G01 X-0.7495 Y27.5495
G01 X-0.2495 Y27.5495
G01 X-0.2495 Y27.8495
G01 X-0.7495 Y27.8495
G01 X-0.7495 Y28.1495
G01 X-0.2495 Y28.1495
G01 X-0.2495 Y28.4495
G01 X-0.7495 Y28.4495
G01 X-0.7495 Y28.7495
G01 X-0.2495 Y28.7495
G01 X-0.2495 Y29.0495
G01 X-0.7495 Y29.0495
G01 X-0.7495 Y29.3495
G01 X-0.2495 Y29.3495
G01 X-0.2495 Y29.6495
G01 X-0.7495 Y29.6495
G01 X-0.7495 Y29.9495
G01 X-0.2495 Y29.9495
G01 X-0.2495 Y30.2495
G01 X-0.7495 Y30.2495
G01 X-0.7495 Y30.5495
G01 X-0.2495 Y30.5495
G01 X-0.2495 Y30.8495
G01 X-0.7495 Y30.8495
G01 X-0.7495 Y31.1495
G01 X-0.2495 Y31.1495
G01 X-0.2495 Y31.4495
G01 X-0.7495 Y31.4495
G01 X-0.7495 Y31.7495
G01 X-0.2495 Y31.7495
G01 X-0.2495 Y32.0495
G01 X-0.7495 Y32.0495
G01 X-0.7495 Y32.3495
G01 X-0.2495 Y32.3495
G01 X-0.2495 Y32.6495
G01 X-0.7495 Y32.6495
G01 X-0.7495 Y32.9495
G01 X-0.2495 Y32.9495
G01 X-0.2495 Y33.2495
G01 X-0.7495 Y33.2495
G01 X-0.7495 Y33.5495
G01 X-0.2495 Y33.5495
G01 X-0.2495 Y33.8495
G01 X-0.7495 Y33.8495
G01 X-0.7495 Y34.1495
G01 X-0.2495 Y34.1495
G01 X-0.2495 Y34.4495
G01 X-0.7495 Y34.4495
G01 X-0.7495 Y34.7495
G01 X-0.2495 Y34.7495
G01 X-0.2495 Y35.0495
G01 X-0.7495 Y35.0495
G01 X-0.7495 Y35.3495
G01 X-0.2495 Y35.3495
G01 X-0.2495 Y35.6495
G01 X-0.7495 Y35.6495
G01 X-0.7495 Y35.9495
G01 X-0.2495 Y35.9495
G01 X-0.2495 Y36.2495
G01 X-0.7495 Y36.2495
G01 X-0.7495 Y36.5495
G01 X-0.2495 Y36.5495
G01 X-0.2495 Y36.8495
G01 X-0.7495 Y36.8495
G01 X-0.7495 Y37.1495
G01 X-0.2495 Y37.1495
G01 X-0.2495 Y37.4495
G01 X-0.7495 Y37.4495
G01 X-0.7495 Y37.7495
G01 X-0.2495 Y37.7495
G01 X-0.2495 Y38.0495
G01 X-0.7495 Y38.0495
G01 X-0.7495 Y38.3495
G01 X-0.2495 Y38.3495
G01 X-0.2495 Y38.6495
G01 X-0.7495 Y38.6495
G01 X-0.7495 Y38.9495
G01 X-0.2495 Y38.9495
G01 X-0.2495 Y39.2495
G01 X-0.7495 Y39.2495
G01 X-0.7495 Y39.5495
G01 X-0.2495 Y39.5495
G01 X-0.2495 Y39.8495
G01 X-0.7495 Y39.8495
G01 X-0.7495 Y40.1495
G01 X-0.2495 Y40.1495
G01 X-0.2495 Y40.4495
G01 X-0.7495 Y40.4495
G01 X-0.7495 Y40.7495
G01 X-0.2495 Y40.7495
G01 X-0.2495 Y41.0495
G01 X-0.7495 Y41.0495
G01 X-0.7495 Y41.3495
G01 X-0.2495 Y41.3495
G01 X-0.2495 Y41.6495
G01 X-0.7495 Y41.6495
G01 X-0.7495 Y41.9495
G01 X-0.2495 Y41.9495
G01 X-0.2495 Y42.2495
G01 X-0.7495 Y42.2495
G01 X-0.7495 Y42.5495
G01 X-0.2495 Y42.5495
G01 X-0.2495 Y42.8495
G01 X-0.7495 Y42.8495
G01 X-0.7495 Y43.1495
G01 X-0.2495 Y43.1495
G01 X-0.2495 Y43.4495
G01 X-0.7495 Y43.4495
G01 X-0.7495 Y43.7495
G01 X-0.2495 Y43.7495
G01 X-0.2495 Y44.0495
G01 X-0.7495 Y44.0495
G01 X-0.7495 Y44.3495
G01 X-0.2495 Y44.3495
G01 X-0.2495 Y44.6495
G01 X-0.7495 Y44.6495
G01 X-0.7495 Y44.9495
G01 X-0.2495 Y44.9495
G01 X-0.2495 Y45.2495
G01 X-0.7495 Y45.2495
G01 X-0.7495 Y45.5495
G01 X-0.2495 Y45.5495
G01 X-0.2495 Y45.8495
G01 X-0.7495 Y45.8495
G01 X-0.7495 Y46.1495
G01 X-0.2495 Y46.1495
G01 X-0.2495 Y46.4495
G01 X-0.7495 Y46.4495
G01 X-0.7495 Y46.7495
G01 X-0.2495 Y46.7495
G01 X-0.2495 Y47.0495
G01 X-0.7495 Y47.0495
G01 X-0.7495 Y47.3495
G01 X-0.2495 Y47.3495
G01 X-0.2495 Y47.6495
G01 X-0.7495 Y47.6495
G01 X-0.7495 Y47.9495
G01 X-0.2495 Y47.9495
G01 X-0.2495 Y48.2495
G01 X-0.7495 Y48.2495
G01 X-0.7495 Y48.5495
G01 X-0.2495 Y48.5495
G01 X-0.2495 Y48.8495
G01 X-0.7495 Y48.8495
G01 X-0.7495 Y49.1495
G01 X-0.2495 Y49.1495
G01 X-0.2495 Y49.4495
G01 X-0.7495 Y49.4495
G01 X-0.7495 Y49.7495
G01 X-0.2495 Y49.7495
G01 X-0.2495 Y50.0495
G01 X-0.7495 Y50.0495
G01 X-0.7495 Y50.3495
G01 X-0.2495 Y50.3495
G01 X-0.2495 Y50.6495
G01 X-0.7495 Y50.6495
G01 X-0.7495 Y50.9495
G01 X-0.2495 Y50.9495
G01 X-0.2495 Y51.2495
G01 X-0.7495 Y51.2495
G01 X-0.7495 Y51.5495
G01 X-0.2495 Y51.5495
G01 X-0.2495 Y51.8495
G01 X-0.7495 Y51.8495
G01 X-0.7495 Y52.1495
G01 X-0.2495 Y52.1495
G01 X-0.2495 Y52.4495
G01 X-0.7495 Y52.4495
G01 X-0.7495 Y52.7495
G01 X-0.2495 Y52.7495
G01 X-0.2495 Y53.0495
G01 X-0.7495 Y53.0495
G01 X-0.7495 Y53.3495
G01 X-0.2495 Y53.3495
G01 X-0.2495 Y53.6495
G01 X-0.7495 Y53.6495
G01 X-0.7495 Y53.9495
G01 X-0.2495 Y53.9495
G01 X-0.2495 Y54.2495
G01 X-0.7495 Y54.2495
G01 X-0.7495 Y54.5495
G01 X-0.2495 Y54.5495
G01 X-0.2495 Y54.8495
G01 X-0.7495 Y54.8495
G01 X-0.7495 Y55.1495
G01 X-0.2495 Y55.1495
G01 X-0.2495 Y55.4495
G01 X-0.7495 Y55.4495
G01 X-0.7495 Y55.7495
G01 X-0.2495 Y55.7495
G01 X-0.2495 Y56.0495
G01 X-0.7495 Y56.0495
G01 X-0.7495 Y56.3495
G01 X-0.2495 Y56.3495
G01 X-0.2495 Y56.6495
G01 X-0.7495 Y56.6495
G01 X-0.7495 Y56.9495
G01 X-0.2495 Y56.9495
G01 X-0.2495 Y57.2495
G01 X-0.7495 Y57.2495
G01 X-0.7495 Y57.5495
G01 X-0.2495 Y57.5495
G01 X-0.2495 Y57.8495
G01 X-0.7495 Y57.8495
G01 X-0.7495 Y58.1495
G01 X-0.2495 Y58.1495
G01 X-0.2495 Y58.4495
G01 X-0.7495 Y58.4495
G01 X-0.7495 Y58.7495
G01 X-0.2495 Y58.7495
G01 X-0.2495 Y59.0495
G01 X-0.7495 Y59.0495
G01 X-0.7495 Y59.3495
G01 X-0.2495 Y59.3495
G01 X-0.2495 Y59.6495
G01 X-0.7495 Y59.6495
G01 X-0.7495 Y59.9495
G01 X-0.2495 Y59.9495
G01 X-0.2495 Y60.2495
G01 X-0.7495 Y60.2495
G01 X-0.7495 Y60.5495
G01 X-0.2495 Y60.5495
G01 X-0.2495 Y60.8495
G01 X-0.7495 Y60.8495
G01 X-0.7495 Y61.1495
G01 X-0.2495 Y61.1495
G01 X-0.2495 Y61.4495
G01 X-0.7495 Y61.4495
G01 X-0.7495 Y61.7495
G01 X-0.2495 Y61.7495
G01 X-0.2495 Y62.0495
G01 X-0.7495 Y62.0495
G01 X-0.7495 Y62.3495
G01 X-0.2495 Y62.3495
G01 X-0.2495 Y62.6495
G01 X-0.7495 Y62.6495
G01 X-0.7495 Y62.9495
G01 X-0.2495 Y62.9495
G01 X-0.2495 Y63.2495
G01 X-0.7495 Y63.2495
G01 X-0.7495 Y63.5495
G01 X-0.2495 Y63.5495
G01 X-0.2495 Y63.8495
G01 X-0.7495 Y63.8495
G01 X-0.7495 Y64.1495
G01 X-0.2495 Y64.1495
G01 X-0.2495 Y64.4495
G01 X-0.7495 Y64.4495
G01 X-0.7495 Y64.7495
G01 X-0.2495 Y64.7495
G01 X-0.2495 Y65.0495
G01 X-0.7495 Y65.0495
G01 X-0.7495 Y65.3495
G01 X-0.2495 Y65.3495
G01 X-0.2495 Y65.6495
G01 X-0.7495 Y65.6495
G01 X-0.7495 Y65.9495
G01 X-0.2495 Y65.9495
G01 X-0.2495 Y66.2495
G01 X-0.7495 Y66.2495
G01 X-0.7495 Y66.5495
G01 X-0.2495 Y66.5495
G01 X-0.2495 Y66.8495
G01 X-0.7495 Y66.8495
G01 X-0.7495 Y67.1495
G01 X-0.2495 Y67.1495
G01 X-0.2495 Y67.4495
G01 X-0.7495 Y67.4495
G01 X-0.7495 Y67.7495
G01 X-0.2495 Y67.7495
G01 X-0.2495 Y68.0495
G01 X-0.7495 Y68.0495
G01 X-0.7495 Y68.3495
G01 X-0.2495 Y68.3495
G01 X-0.2495 Y68.6495
G01 X-0.7495 Y68.6495
G01 X-0.7495 Y68.9495
G01 X-0.2495 Y68.9495
G01 X-0.2495 Y69.2495
G01 X-0.7495 Y69.2495
G01 X-0.7495 Y69.5495
G01 X-0.2495 Y69.5495
G01 X-0.2495 Y69.8495
G01 X-0.7495 Y69.8495
G01 X-0.7025 Y70.1495
G01 X-0.1244 Y70.1495
G01 X-0.5315 Y70.4495
G01 X110.5315 Y70.4495
G01 X110.7025 Y70.1495
G01 X110.1244 Y70.1495
G00 Z2.0000
G00 X110.2495 Y69.8495
G01 F60.00
G01 Z-0.0600
G01 F120.00
G01 X110.7495 Y69.8495
G01 X110.7495 Y69.5495
G01 X110.2495 Y69.5495
G01 X110.2495 Y69.2495
G01 X110.7495 Y69.2495
G01 X110.7495 Y68.9495
G01 X110.2495 Y68.9495
G01 X110.2495 Y68.6495
G01 X110.7495 Y68.6495
G01 X110.7495 Y68.3495
G01 X110.2495 Y68.3495
G01 X110.2495 Y68.0495
G01 X110.7495 Y68.0495
G01 X110.7495 Y67.7495
G01 X110.2495 Y67.7495
G01 X110.2495 Y67.4495
G01 X110.7495 Y67.4495
G01 X110.7495 Y67.1495
G01 X110.2495 Y67.1495
G01 X110.2495 Y66.8495
G01 X110.7495 Y66.8495
G01 X110.7495 Y66.5495
G01 X110.2495 Y66.5495
G01 X110.2495 Y66.2495
G01 X110.7495 Y66.2495
G01 X110.7495 Y65.9495
G01 X110.2495 Y65.9495
G01 X110.2495 Y65.6495
G01 X110.7495 Y65.6495
G01 X110.7495 Y65.3495
G01 X110.2495 Y65.3495
G01 X110.2495 Y65.0495
G01 X110.7495 Y65.0495
G01 X110.7495 Y64.7495
G01 X110.2495 Y64.7495
G01 X110.2495 Y64.4495
G01 X110.7495 Y64.4495
G01 X110.7495 Y64.1495
G01 X110.2495 Y64.1495
G01 X110.2495 Y63.8495
G01 X110.7495 Y63.8495
G01 X110.7495 Y63.5495
G01 X110.2495 Y63.5495
G01 X110.2495 Y63.2495
G01 X110.7495 Y63.2495
G01 X110.7495 Y62.9495
G01 X110.2495 Y62.9495
G01 X110.2495 Y62.6495
G01 X110.7495 Y62.6495
G01 X110.7495 Y62.3495
G01 X110.2495 Y62.3495
G01 X110.2495 Y62.0495
G01 X110.7495 Y62.0495
G01 X110.7495 Y61.7495
G01 X110.2495 Y61.7495
G01 X110.2495 Y61.4495
G01 X110.7495 Y61.4495
G01 X110.7495 Y61.1495
G01 X110.2495 Y61.1495
G01 X110.2495 Y60.8495
G01 X110.7495 Y60.8495
G01 X110.7495 Y60.5495
G01 X110.2495 Y60.5495
G01 X110.2495 Y60.2495
G01 X110.7495 Y60.2495
G01 X110.7495 Y59.9495
G01 X110.2495 Y59.9495
G01 X110.2495 Y59.6495
G01 X110.7495 Y59.6495
G01 X110.7495 Y59.3495
G01 X110.2495 Y59.3495
G01 X110.2495 Y59.0495
G01 X110.7495 Y59.0495
G01 X110.7495 Y58.7495
G01 X110.2495 Y58.7495
G01 X110.2495 Y58.4495
G01 X110.7495 Y58.4495
G01 X110.7495 Y58.1495
G01 X110.2495 Y58.1495
G01 X110.2495 Y57.8495
G01 X110.7495 Y57.8495
G01 X110.7495 Y57.5495
G01 X110.2495 Y57.5495
G01 X110.2495 Y57.2495
G01 X110.7495 Y57.2495
G01 X110.7495 Y56.9495
G01 X110.2495 Y56.9495
G01 X110.2495 Y56.6495
G01 X110.7495 Y56.6495
G01 X110.7495 Y56.3495
G01 X110.2495 Y56.3495
G01 X110.2495 Y56.0495
G01 X110.7495 Y56.0495
G01 X110.7495 Y55.7495
G01 X110.2495 Y55.7495
G01 X110.2495 Y55.4495
G01 X110.7495 Y55.4495
G01 X110.7495 Y55.1495
G01 X110.2495 Y55.1495
G01 X110.2495 Y54.8495
G01 X110.7495 Y54.8495
G01 X110.7495 Y54.5495
G01 X110.2495 Y54.5495
G01 X110.2495 Y54.2495
G01 X110.7495 Y54.2495
G01 X110.7495 Y53.9495
G01 X110.2495 Y53.9495
G01 X110.2495 Y53.6495
G01 X110.7495 Y53.6495
G01 X110.7495 Y53.3495
G01 X110.2495 Y53.3495
G01 X110.2495 Y53.0495
G01 X110.7495 Y53.0495
G01 X110.7495 Y52.7495
G01 X110.2495 Y52.7495
G01 X110.2495 Y52.4495
G01 X110.7495 Y52.4495
G01 X110.7495 Y52.1495
G01 X110.2495 Y52.1495
G01 X110.2495 Y51.8495
G01 X110.7495 Y51.8495
G01 X110.7495 Y51.5495
G01 X110.2495 Y51.5495
G01 X110.2495 Y51.2495
G01 X110.7495 Y51.2495
G01 X110.7495 Y50.9495
G01 X110.2495 Y50.9495
G01 X110.2495 Y50.6495
G01 X110.7495 Y50.6495
G01 X110.7495 Y50.3495
G01 X110.2495 Y50.3495
G01 X110.2495 Y50.0495
G01 X110.7495 Y50.0495
G01 X110.7495 Y49.7495
G01 X110.2495 Y49.7495
G01 X110.2495 Y49.4495
G01 X110.7495 Y49.4495
G01 X110.7495 Y49.1495
G01 X110.2495 Y49.1495
G01 X110.2495 Y48.8495
G01 X110.7495 Y48.8495
G01 X110.7495 Y48.5495
G01 X110.2495 Y48.5495
G01 X110.2495 Y48.2495
G01 X110.7495 Y48.2495
G01 X110.7495 Y47.9495
G01 X110.2495 Y47.9495
G01 X110.2495 Y47.6495
G01 X110.7495 Y47.6495
G01 X110.7495 Y47.3495
G01 X110.2495 Y47.3495
G01 X110.2495 Y47.0495
G01 X110.7495 Y47.0495
G01 X110.7495 Y46.7495
G01 X110.2495 Y46.7495
G01 X110.2495 Y46.4495
G01 X110.7495 Y46.4495
G01 X110.7495 Y46.1495
G01 X110.2495 Y46.1495
G01 X110.2495 Y45.8495
G01 X110.7495 Y45.8495
G01 X110.7495 Y45.5495
G01 X110.2495 Y45.5495
G01 X110.2495 Y45.2495
G01 X110.7495 Y45.2495
G01 X110.7495 Y44.9495
G01 X110.2495 Y44.9495
G01 X110.2495 Y44.6495
G01 X110.7495 Y44.6495
G01 X110.7495 Y44.3495
G01 X110.2495 Y44.3495
G01 X110.2495 Y44.0495
G01 X110.7495 Y44.0495
G01 X110.7495 Y43.7495
G01 X110.2495 Y43.7495
G01 X110.2495 Y43.4495
G01 X110.7495 Y43.4495
G01 X110.7495 Y43.1495
G01 X110.2495 Y43.1495
G01 X110.2495 Y42.8495
G01 X110.7495 Y42.8495
G01 X110.7495 Y42.5495
G01 X110.2495 Y42.5495
G01 X110.2495 Y42.2495
G01 X110.7495 Y42.2495
G01 X110.7495 Y41.9495
G01 X110.2495 Y41.9495
G01 X110.2495 Y41.6495
G01 X110.7495 Y41.6495
G01 X110.7495 Y41.3495
G01 X110.2495 Y41.3495
G01 X110.2495 Y41.0495
G01 X110.7495 Y41.0495
G01 X110.7495 Y40.7495
G01 X110.2495 Y40.7495
G01 X110.2495 Y40.4495
G01 X110.7495 Y40.4495
G01 X110.7495 Y40.1495
G01 X110.2495 Y40.1495
G01 X110.2495 Y39.8495
G01 X110.7495 Y39.8495
G01 X110.7495 Y39.5495
G01 X110.2495 Y39.5495
G01 X110.2495 Y39.2495
G01 X110.7495 Y39.2495
G01 X110.7495 Y38.9495
G01 X110.2495 Y38.9495
G01 X110.2495 Y38.6495
G01 X110.7495 Y38.6495
G01 X110.7495 Y38.3495
G01 X110.2495 Y38.3495
G01 X110.2495 Y38.0495
G01 X110.7495 Y38.0495
G01 X110.7495 Y37.7495
G01 X110.2495 Y37.7495
G01 X110.2495 Y37.4495
G01 X110.7495 Y37.4495
G01 X110.7495 Y37.1495
G01 X110.2495 Y37.1495
G01 X110.2495 Y36.8495
G01 X110.7495 Y36.8495
G01 X110.7495 Y36.5495
G01 X110.2495 Y36.5495
G01 X110.2495 Y36.2495
G01 X110.7495 Y36.2495
G01 X110.7495 Y35.9495
G01 X110.2495 Y35.9495
G01 X110.2495 Y35.6495
G01 X110.7495 Y35.6495
G01 X110.7495 Y35.3495
G01 X110.2495 Y35.3495
G01 X110.2495 Y35.0495
G01 X110.7495 Y35.0495
G01 X110.7495 Y34.7495
G01 X110.2495 Y34.7495
G01 X110.2495 Y34.4495
G01 X110.7495 Y34.4495
G01 X110.7495 Y34.1495
G01 X110.2495 Y34.1495
G01 X110.2495 Y33.8495
G01 X110.7495 Y33.8495
G01 X110.7495 Y33.5495
G01 X110.2495 Y33.5495
G01 X110.2495 Y33.2495
G01 X110.7495 Y33.2495
G01 X110.7495 Y32.9495
G01 X110.2495 Y32.9495
G01 X110.2495 Y32.6495
G01 X110.7495 Y32.6495
G01 X110.7495 Y32.3495
G01 X110.2495 Y32.3495
G01 X110.2495 Y32.0495
G01 X110.7495 Y32.0495
G01 X110.7495 Y31.7495
G01 X110.2495 Y31.7495
G01 X110.2495 Y31.4495
G01 X110.7495 Y31.4495
G01 X110.7495 Y31.1495
G01 X110.2495 Y31.1495
G01 X110.2495 Y30.8495
G01 X110.7495 Y30.8495
G01 X110.7495 Y30.5495
G01 X110.2495 Y30.5495
G01 X110.2495 Y30.2495
G01 X110.7495 Y30.2495
G01 X110.7495 Y29.9495
G01 X110.2495 Y29.9495
G01 X110.2495 Y29.6495
G01 X110.7495 Y29.6495
G01 X110.7495 Y29.3495
G01 X110.2495 Y29.3495
G01 X110.2495 Y29.0495
G01 X110.7495 Y29.0495
G01 X110.7495 Y28.7495
G01 X110.2495 Y28.7495
G01 X110.2495 Y28.4495
G01 X110.7495 Y28.4495
G01 X110.7495 Y28.1495
G01 X110.2495 Y28.1495
G01 X110.2495 Y27.8495
G01 X110.7495 Y27.8495
G01 X110.7495 Y27.5495
G01 X110.2495 Y27.5495
G01 X110.2495 Y27.2495
G01 X110.7495 Y27.2495
G01 X110.7495 Y26.9495
G01 X110.2495 Y26.9495
G01 X110.2495 Y26.6495
G01 X110.7495 Y26.6495
G01 X110.7495 Y26.3495
G01 X110.2495 Y26.3495
G01 X110.2495 Y26.0495
G01 X110.7495 Y26.0495
G01 X110.7495 Y25.7495
G01 X110.2495 Y25.7495
G01 X110.2495 Y25.4495
G01 X110.7495 Y25.4495
G01 X110.7495 Y25.1495
G01 X110.2495 Y25.1495
G01 X110.2495 Y24.8495
G01 X110.7495 Y24.8495
G01 X110.7495 Y24.5495
G01 X110.2495 Y24.5495
G01 X110.2495 Y24.2495
G01 X110.7495 Y24.2495
G01 X110.7495 Y23.9495
G01 X110.2495 Y23.9495
G01 X110.2495 Y23.6495
G01 X110.7495 Y23.6495
G01 X110.7495 Y23.3495
G01 X110.2495 Y23.3495
G01 X110.2495 Y23.0495
G01 X110.7495 Y23.0495
G01 X110.7495 Y22.7495
G01 X110.2495 Y22.7495
G01 X110.2495 Y22.4495
G01 X110.7495 Y22.4495
G01 X110.7495 Y22.1495
G01 X110.2495 Y22.1495
G01 X110.2495 Y21.8495
G01 X110.7495 Y21.8495
G01 X110.7495 Y21.5495
G01 X110.2495 Y21.5495
G01 X110.2495 Y21.2495
G01 X110.7495 Y21.2495
G01 X110.7495 Y20.9495
G01 X110.2495 Y20.9495
G01 X110.2495 Y20.6495
G01 X110.7495 Y20.6495
G01 X110.7495 Y20.3495
G01 X110.2495 Y20.3495
G01 X110.2495 Y20.0495
G01 X110.7495 Y20.0495
G01 X110.7495 Y19.7495
G01 X110.2495 Y19.7495
G01 X110.2495 Y19.4495
G01 X110.7495 Y19.4495
G01 X110.7495 Y19.1495
G01 X110.2495 Y19.1495
G01 X110.2495 Y18.8495
G01 X110.7495 Y18.8495
G01 X110.7495 Y18.5495
G01 X110.2495 Y18.5495
G01 X110.2495 Y18.2495
G01 X110.7495 Y18.2495
G01 X110.7495 Y17.9495
G01 X110.2495 Y17.9495
G01 X110.2495 Y17.6495
G01 X110.7495 Y17.6495
G01 X110.7495 Y17.3495
G01 X110.2495 Y17.3495
G01 X110.2495 Y17.0495
G01 X110.7495 Y17.0495
G01 X110.7495 Y16.7495
G01 X110.2495 Y16.7495
G01 X110.2495 Y16.4495
G01 X110.7495 Y16.4495
G01 X110.7495 Y16.1495
G01 X110.2495 Y16.1495
G01 X110.2495 Y15.8495
G01 X110.7495 Y15.8495
G01 X110.7495 Y15.5495
G01 X110.2495 Y15.5495
G01 X110.2495 Y15.2495
G01 X110.7495 Y15.2495
G01 X110.7495 Y14.9495
G01 X110.2495 Y14.9495
G01 X110.2495 Y14.6495
G01 X110.7495 Y14.6495
G01 X110.7495 Y14.3495
G01 X110.2495 Y14.3495
G01 X110.2495 Y14.0495
G01 X110.7495 Y14.0495
G01 X110.7495 Y13.7495
G01 X110.2495 Y13.7495
G01 X110.2495 Y13.4495
G01 X110.7495 Y13.4495
G01 X110.7495 Y13.1495
G01 X110.2495 Y13.1495
G01 X110.2495 Y12.8495
G01 X110.7495 Y12.8495
G01 X110.7495 Y12.5495
G01 X110.2495 Y12.5495
G01 X110.2495 Y12.2495
G01 X110.7495 Y12.2495
G01 X110.7495 Y11.9495
G01 X110.2495 Y11.9495
G01 X110.2495 Y11.6495
G01 X110.7495 Y11.6495
G01 X110.7495 Y11.3495
G01 X110.2495 Y11.3495
G01 X110.2495 Y11.0495
G01 X110.7495 Y11.0495
G01 X110.7495 Y10.7495
G01 X110.2495 Y10.7495
G01 X110.2495 Y10.4495
G01 X110.7495 Y10.4495
G01 X110.7495 Y10.1495
G01 X110.2495 Y10.1495
G01 X110.2495 Y9.8495
G01 X110.7495 Y9.8495
G01 X110.7495 Y9.5495
G01 X110.2495 Y9.5495
G01 X110.2495 Y9.2495
G01 X110.7495 Y9.2495
G01 X110.7495 Y8.9495
G01 X110.2495 Y8.9495
G01 X110.2495 Y8.6495
G01 X110.7495 Y8.6495
G01 X110.7495 Y8.3495
G01 X110.2495 Y8.3495
G01 X110.2495 Y8.0495
G01 X110.7495 Y8.0495
G01 X110.7495 Y7.7495
G01 X110.2495 Y7.7495
G01 X110.2495 Y7.4495
G01 X110.7495 Y7.4495
G01 X110.7495 Y7.1495
G01 X110.2495 Y7.1495
G01 X110.2495 Y6.8495
G01 X110.7495 Y6.8495
G01 X110.7495 Y6.5495
G01 X110.2495 Y6.5495
G01 X110.2495 Y6.2495
G01 X110.7495 Y6.2495
G01 X110.7495 Y5.9495
G01 X110.2495 Y5.9495
G01 X110.2495 Y5.6495
G01 X110.7495 Y5.6495
G01 X110.7495 Y5.3495
G01 X110.2495 Y5.3495
G01 X110.2495 Y5.0495
G01 X110.7495 Y5.0495
G01 X110.7495 Y4.7495
G01 X110.2495 Y4.7495
G01 X110.2495 Y4.4495
G01 X110.7495 Y4.4495
G01 X110.7495 Y4.1495
G01 X110.2495 Y4.1495
G01 X110.2495 Y3.8495
G01 X110.7495 Y3.8495
G01 X110.7495 Y3.5495
G01 X110.2495 Y3.5495
G01 X110.2495 Y3.2495
G01 X110.7495 Y3.2495
G01 X110.7495 Y2.9495
G01 X110.2495 Y2.9495
G01 X110.2495 Y2.6495
G01 X110.7495 Y2.6495
G01 X110.7495 Y2.3495
G01 X110.2495 Y2.3495
G01 X110.2495 Y2.0495
G01 X110.7495 Y2.0495
G01 X110.7495 Y1.7495
G01 X110.2495 Y1.7495
G01 X110.2495 Y1.4495
G01 X110.7495 Y1.4495
G01 X110.7495 Y1.1495
G01 X110.2495 Y1.1495
G01 X110.2495 Y0.8495
G01 X110.7495 Y0.8495
G01 X110.7495 Y0.5495
G01 X110.2495 Y0.5495
G01 X110.2495 Y0.2495
G01 X110.7495 Y0.2495
G01 X110.7291 Y-0.0505
G01 X110.2059 Y-0.0505
G00 Z2.0000
G00 X110.6305 Y-0.3505
G01 F60.00
G01 Z-0.0600
G01 F120.00
G01 X-0.6305 Y-0.3505
G01 X-0.3305 Y-0.6505
G01 X110.3305 Y-0.6505
G00 Z2.0000
G00 X104.2147 Y3.6005
G01 F60.00
G01 Z-0.0600
G01 F120.00
G01 X105.7766 Y3.6005
G01 X106.1632 Y3.9005
G01 X103.8328 Y3.9005
G01 X103.6129 Y4.2005
G01 X106.3886 Y4.2005
G01 X106.5207 Y4.5005
G01 X103.4763 Y4.5005
G01 X104.0655 Y6.3005
G01 X105.9350 Y6.3005
G01 X106.2496 Y6.0005
G01 X103.7479 Y6.0005
G01 X103.5605 Y5.7005
G01 X106.4413 Y5.7005
G01 X106.5496 Y5.4005
G01 X103.4464 Y5.4005
G01 X103.4021 Y5.1005
G01 X106.5991 Y5.1005
G01 X106.5907 Y4.8005
G01 X103.4118 Y4.8005
G01 X103.3963 Y4.9414
G01 X103.4219 Y4.7085
G01 X103.4681 Y4.5319
G01 X103.4812 Y4.4818
G01 X103.5728 Y4.2662
G01 X103.6948 Y4.0662
G01 X103.8447 Y3.8862
G01 X104.0192 Y3.7298
G01 X104.2146 Y3.6006
G01 X104.4267 Y3.5011
G01 X104.6511 Y3.4336
G01 X104.8829 Y3.3995
G01 X105.0585 Y3.3995
G01 X105.2337 Y3.4123
G01 X105.4623 Y3.4633
G01 X105.6812 Y3.5470
G01 X105.8855 Y3.6616
G01 X106.0709 Y3.8048
G01 X106.2335 Y3.9735
G01 X106.3698 Y4.1640
G01 X106.4770 Y4.3724
G01 X106.5526 Y4.5941
G01 X106.5952 Y4.8245
G01 X106.6037 Y5.0586
G01 X106.5781 Y5.2915
G01 X106.5188 Y5.5182
G01 X106.4272 Y5.7338
G01 X106.3052 Y5.9338
G01 X106.1553 Y6.1138
G01 X105.9808 Y6.2702
G01 X105.7854 Y6.3995
G01 X105.5733 Y6.4989
G01 X105.3489 Y6.5664
G01 X105.1172 Y6.6005
G01 X104.9393 Y6.6003
G01 X104.7663 Y6.5877
G01 X104.5377 Y6.5367
G01 X104.4877 Y6.5177
G01 X104.4681 Y6.5117
G01 X104.4555 Y6.5057
G01 X104.4436 Y6.5008
G01 X104.3188 Y6.4530
G01 X104.1145 Y6.3384
G01 X103.9291 Y6.1952
G01 X103.7665 Y6.0265
G01 X103.6302 Y5.8360
G01 X103.5230 Y5.6276
G01 X103.4474 Y5.4059
G01 X103.4048 Y5.1755
G01 X103.3963 Y4.9414
G00 Z2.0000
G00 X104.3455 Y7.2971
G01 F60.00
G01 Z-0.0600
G01 F120.00
G01 X104.3511 Y7.2971
G00 Z2.0000
G00 X104.6581 Y7.5971
G01 F60.00
G01 Z-0.0600
G01 F120.00
G01 X107.6584 Y10.5971
G00 Z2.0000
G00 X103.7357 Y8.7971
G01 F60.00
G01 Z-0.0600
G01 F120.00
G01 X106.1360 Y11.1971
G00 Z2.0000
G00 X106.4087 Y11.4971
G01 F60.00
G01 Z-0.0600
G01 F120.00
G01 X106.4360 Y11.4971
G00 Z2.0000
G00 X106.4495 Y11.7971
G01 F60.00
G01 Z-0.0600
G01 F120.00
G01 X106.4497 Y11.7971
G01 X106.4497 Y12.0971
G01 X106.4495 Y12.0971
G01 X106.4497 Y41.4971
G01 X106.4495 Y41.4971
G00 Z2.0000
G00 X106.4419 Y41.7971
G01 F60.00
G01 Z-0.0600
G01 F120.00
G01 X106.4118 Y41.7971
G00 Z2.0000
G00 X106.1419 Y42.0971
G01 F60.00
G01 Z-0.0600
G01 F120.00
G01 X106.1416 Y42.0971
G01 X105.8419 Y42.3971
G01 X105.8416 Y42.3971
G00 Z2.0000
G00 X106.7640 Y43.5971
G01 F60.00
G01 Z-0.0600
G01 F120.00
G01 X107.6643 Y42.6971
G00 Z2.0000
G00 X107.8887 Y42.3971
G01 F60.00
G01 Z-0.0600
G01 F120.00
G01 X107.8934 Y42.3971
G00 Z2.0000
G00 X107.9503 Y42.0971
G01 F60.00
G01 Z-0.0600
G01 F120.00
G01 X107.9507 Y42.0971
G00 Z2.0000
G00 X107.9505 Y41.7971
G01 F60.00
G01 Z-0.0600
G01 F120.00
G01 X107.9503 Y41.7971
G01 X107.9503 Y41.4971
G01 X107.9505 Y41.4971
G01 X107.9505 Y41.1971
G01 X107.9503 Y41.1971
G01 X107.9503 Y40.8971
G01 X107.9505 Y40.8971
G01 X107.9503 Y11.4971
G01 X107.9505 Y11.4971
G00 Z2.0000
G00 X107.9502 Y11.1971
G01 F60.00
G01 Z-0.0600
G01 F120.00
G01 X107.9524 Y11.1971
G00 Z2.0000
G00 X107.8885 Y10.8971
G01 F60.00
G01 Z-0.0600
G01 F120.00
G01 X107.8860 Y10.8971
G00 Z2.0000
G00 X104.6152 Y13.1746
G01 F60.00
G01 Z-0.0600
G01 F120.00
G01 X102.8848 Y13.1746
G01 X102.5961 Y12.8746
G01 X104.9039 Y12.8746
G01 X105.0624 Y12.5746
G01 X102.4376 Y12.5746
G01 X103.1702 Y10.7746
G01 X104.3298 Y10.7746
G01 X104.7619 Y11.0746
G01 X102.7381 Y11.0746
G01 X102.5170 Y11.3746
G01 X104.9830 Y11.3746
G01 X105.1070 Y11.6746
G01 X102.3930 Y11.6746
G01 X102.3362 Y12.0600
G01 X102.3536 Y11.8388
G01 X102.4054 Y11.6231
G01 X102.4903 Y11.4181
G01 X102.6062 Y11.2290
G01 X102.7503 Y11.0603
G01 X102.9190 Y10.9162
G01 X103.1081 Y10.8003
G01 X103.3131 Y10.7154
G01 X103.5288 Y10.6636
G01 X103.7500 Y10.6462
G01 X103.9712 Y10.6636
G01 X104.1869 Y10.7154
G01 X104.3919 Y10.8003
G01 X104.5810 Y10.9162
G01 X104.7497 Y11.0603
G01 X104.8938 Y11.2290
G01 X105.0097 Y11.4181
G01 X105.0946 Y11.6231
G01 X105.1464 Y11.8388
G01 X105.1638 Y12.0600
G01 X105.1464 Y12.2812
G01 X105.0946 Y12.4969
G01 X105.0097 Y12.7019
G01 X104.8938 Y12.8910
G01 X104.7497 Y13.0597
G01 X104.5810 Y13.2038
G01 X104.3919 Y13.3197
G01 X104.1869 Y13.4046
G01 X103.9712 Y13.4564
G01 X103.7500 Y13.4738
G01 X103.5288 Y13.4564
G01 X103.3131 Y13.4046
G01 X103.1081 Y13.3197
G01 X102.9190 Y13.2038
G01 X102.7503 Y13.0597
G01 X102.6062 Y12.8910
G01 X102.4903 Y12.7019
G01 X102.4096 Y12.5070
G01 X102.4054 Y12.4969
G01 X102.3536 Y12.2812
G01 X102.3362 Y12.0600
G01 X102.3531 Y12.2746
G01 X105.1469 Y12.2746
G01 X105.1571 Y11.9746
G01 X102.3429 Y11.9746
G00 Z2.0000
G00 X93.7432 Y17.0363
G01 F60.00
G01 Z-0.0600
G01 F120.00
G01 X97.3968 Y17.0363
G01 X98.1402 Y17.3363
G01 X92.9998 Y17.3363
G01 X92.4649 Y17.6363
G01 X98.6751 Y17.6363
G01 X99.1089 Y17.9363
G01 X92.0311 Y17.9363
G01 X91.6679 Y18.2363
G01 X99.4721 Y18.2363
G01 X99.7828 Y18.5363
G01 X91.3572 Y18.5363
G01 X91.0873 Y18.8363
G01 X100.0527 Y18.8363
G01 X100.2899 Y19.1363
G01 X90.8501 Y19.1363
G01 X90.6430 Y19.4363
G01 X100.4970 Y19.4363
G01 X100.6732 Y19.7363
G01 X90.4668 Y19.7363
G01 X90.3106 Y20.0363
G01 X100.8294 Y20.0363
G01 X100.9680 Y20.3363
G01 X90.1720 Y20.3363
G01 X90.0583 Y20.6363
G01 X101.0817 Y20.6363
G01 X101.1777 Y20.9363
G01 X89.9623 Y20.9363
G00 Z2.0000
G00 X89.8794 Y21.2363
G01 F60.00
G01 Z-0.0600
G01 F120.00
G01 X101.2606 Y21.2363
G01 X101.3218 Y21.5363
G01 X89.8182 Y21.5363
G01 X89.7722 Y21.8363
G01 X101.3678 Y21.8363
G01 X101.4028 Y22.1363
G01 X89.7372 Y22.1363
G01 X89.7251 Y22.4363
G01 X101.4149 Y22.4363
G01 X101.4152 Y22.7363
G01 X89.7248 Y22.7363
G01 X89.7189 Y22.5900
G01 X89.7378 Y23.0584
G01 X89.7947 Y23.5286
G01 X89.8889 Y23.9903
G01 X90.0200 Y24.4428
G01 X90.1871 Y24.8834
G01 X90.3891 Y25.3091
G01 X90.6247 Y25.7172
G01 X90.8915 Y26.1037
G01 X91.1904 Y26.4700
G01 X91.5168 Y26.8098
G01 X91.8695 Y27.1223
G01 X92.2457 Y27.4049
G01 X92.6445 Y27.6572
G01 X93.0617 Y27.8762
G01 X93.4929 Y28.0599
G01 X93.9422 Y28.2101
G01 X94.3996 Y28.3228
G01 X94.8647 Y28.3984
G01 X95.3320 Y28.4361
G01 X95.8056 Y28.4363
G01 X96.2753 Y28.3984
G01 X96.7404 Y28.3228
G01 X97.1979 Y28.2101
G01 X97.6448 Y28.0609
G01 X98.0783 Y27.8762
G01 X98.4955 Y27.6572
G01 X98.8938 Y27.4053
G01 X99.2705 Y27.1223
G01 X99.6232 Y26.8098
G01 X99.9496 Y26.4700
G01 X100.2476 Y26.1050
G01 X100.5153 Y25.7172
G01 X100.7509 Y25.3091
G01 X100.9529 Y24.8834
G01 X101.1200 Y24.4428
G01 X101.2511 Y23.9903
G01 X101.3453 Y23.5286
G01 X101.4021 Y23.0608
G01 X101.4211 Y22.5900
G01 X101.4021 Y22.1192
G01 X101.3453 Y21.6514
G01 X101.2511 Y21.1897
G01 X101.1200 Y20.7372
G01 X100.9529 Y20.2966
G01 X100.7509 Y19.8709
G01 X100.5153 Y19.4628
G01 X100.2476 Y19.0750
G01 X99.9496 Y18.7100
G01 X99.6232 Y18.3702
G01 X99.2705 Y18.0577
G01 X98.8938 Y17.7747
G01 X98.4955 Y17.5228
G01 X98.0783 Y17.3038
G01 X97.6448 Y17.1191
G01 X97.1979 Y16.9699
G01 X96.7404 Y16.8572
G01 X96.2753 Y16.7816
G01 X95.8056 Y16.7437
G01 X95.3344 Y16.7437
G01 X94.8647 Y16.7816
G01 X94.3996 Y16.8572
G01 X93.9421 Y16.9699
G01 X93.4952 Y17.1191
G01 X93.0617 Y17.3038
G01 X92.6445 Y17.5228
G01 X92.2462 Y17.7747
G01 X91.8714 Y18.0563
G01 X91.5168 Y18.3702
G01 X91.1904 Y18.7100
G01 X90.8924 Y19.0750
G01 X90.6247 Y19.4628
G01 X90.3891 Y19.8709
G01 X90.1871 Y20.2966
G01 X90.0200 Y20.7372
G01 X89.8893 Y21.1886
G01 X89.8872 Y21.1981
G01 X89.7951 Y21.6493
G01 X89.7856 Y21.7259
G01 X89.7380 Y22.1180
G01 X89.7376 Y22.1276
G01 X89.7189 Y22.5900
G00 Z2.0000
G00 X89.7369 Y23.0363
G01 F60.00
G01 Z-0.0600
G01 F120.00
G01 X101.4031 Y23.0363
G01 X101.3687 Y23.3363
G01 X89.7713 Y23.3363
G01 X89.8167 Y23.6363
G01 X101.3233 Y23.6363
G01 X101.2621 Y23.9363
G01 X89.8779 Y23.9363
G01 X89.9602 Y24.2363
G01 X101.1798 Y24.2363
G01 X101.0845 Y24.5363
G01 X90.0555 Y24.5363
G01 X90.1693 Y24.8363
G01 X100.9707 Y24.8363
G01 X100.8329 Y25.1363
G01 X90.3071 Y25.1363
G01 X90.4626 Y25.4363
G01 X100.6774 Y25.4363
G01 X100.5021 Y25.7363
G01 X90.6379 Y25.7363
G01 X90.8450 Y26.0363
G01 X100.2950 Y26.0363
G01 X100.0587 Y26.3363
G01 X91.0813 Y26.3363
G01 X91.3502 Y26.6363
G01 X99.7898 Y26.6363
G01 X99.4804 Y26.9363
G01 X91.6596 Y26.9363
G01 X92.0213 Y27.2363
G01 X99.1187 Y27.2363
G01 X98.6866 Y27.5363
G01 X92.4534 Y27.5363
G01 X92.9858 Y27.8363
G01 X98.1542 Y27.8363
G01 X97.4187 Y28.1363
G01 X93.7216 Y28.1363
G00 Z2.0000
G00 X97.9295 Y30.6295
G01 F60.00
G01 Z-0.0600
G01 F120.00
G01 X97.9295 Y37.6899
G01 X104.9999 Y37.6905
G01 X105.0005 Y30.6301
G01 X97.9295 Y30.6295
G01 X97.9295 Y30.7905
G01 X105.0005 Y30.7905
G01 X105.0004 Y31.0905
G01 X97.9295 Y31.0905
G01 X97.9295 Y31.3905
G01 X105.0004 Y31.3905
G01 X105.0004 Y31.6905
G01 X97.9295 Y31.6905
G01 X97.9295 Y31.9905
G01 X105.0004 Y31.9905
G01 X105.0003 Y32.2905
G01 X97.9295 Y32.2905
G01 X97.9295 Y32.5905
G01 X105.0003 Y32.5905
G01 X105.0003 Y32.8905
G01 X97.9295 Y32.8905
G01 X97.9295 Y33.1905
G01 X105.0003 Y33.1905
G01 X105.0003 Y33.4905
G01 X97.9295 Y33.4905
G01 X97.9295 Y33.7905
G01 X105.0002 Y33.7905
G01 X105.0002 Y34.0905
G01 X97.9295 Y34.0905
G01 X97.9295 Y34.3905
G01 X105.0002 Y34.3905
G01 X105.0002 Y34.6905
G01 X97.9295 Y34.6905
G01 X97.9295 Y34.9905
G01 X105.0001 Y34.9905
G01 X105.0001 Y35.2905
G01 X97.9295 Y35.2905
G01 X97.9295 Y35.5905
G01 X105.0001 Y35.5905
G01 X105.0001 Y35.8905
G01 X97.9295 Y35.8905
G01 X97.9295 Y36.1905
G01 X105.0000 Y36.1905
G01 X105.0000 Y36.4905
G01 X97.9295 Y36.4905
G01 X97.9295 Y36.7905
G01 X105.0000 Y36.7905
G01 X105.0000 Y37.0905
G01 X97.9295 Y37.0905
G01 X97.9295 Y37.3905
G01 X104.9999 Y37.3905
G00 Z2.0000
G00 X103.6298 Y38.7346
G01 F60.00
G01 Z-0.0600
G01 F120.00
G01 X102.4702 Y38.7346
G01 X102.0381 Y39.0346
G01 X104.0619 Y39.0346
G01 X104.2830 Y39.3346
G01 X101.8170 Y39.3346
G01 X102.1848 Y41.1346
G01 X103.9152 Y41.1346
G01 X104.2039 Y40.8346
G01 X101.8961 Y40.8346
G01 X101.7376 Y40.5346
G01 X104.3624 Y40.5346
G01 X104.4469 Y40.2346
G01 X101.6531 Y40.2346
G01 X101.6362 Y40.0200
G01 X101.6536 Y39.7988
G01 X101.7054 Y39.5831
G01 X101.7903 Y39.3781
G01 X101.8915 Y39.2130
G01 X101.9062 Y39.1890
G01 X102.0503 Y39.0203
G01 X102.2190 Y38.8762
G01 X102.4081 Y38.7603
G01 X102.6131 Y38.6754
G01 X102.8288 Y38.6236
G01 X103.0500 Y38.6062
G01 X103.2712 Y38.6236
G01 X103.4869 Y38.6754
G01 X103.6919 Y38.7603
G01 X103.8810 Y38.8762
G01 X104.0497 Y39.0203
G01 X104.1938 Y39.1890
G01 X104.3097 Y39.3781
G01 X104.3946 Y39.5831
G01 X104.4464 Y39.7988
G01 X104.4638 Y40.0200
G01 X104.4464 Y40.2412
G01 X104.3946 Y40.4569
G01 X104.3097 Y40.6619
G01 X104.1938 Y40.8510
G01 X104.0497 Y41.0197
G01 X104.0254 Y41.0405
G01 X103.8810 Y41.1638
G01 X103.6919 Y41.2797
G01 X103.4869 Y41.3646
G01 X103.2712 Y41.4164
G01 X103.0500 Y41.4338
G01 X102.8288 Y41.4164
G01 X102.6131 Y41.3646
G01 X102.4081 Y41.2797
G01 X102.2190 Y41.1638
G01 X102.0503 Y41.0197
G01 X101.9062 Y40.8510
G01 X101.7903 Y40.6619
G01 X101.7054 Y40.4569
G01 X101.6536 Y40.2412
G01 X101.6438 Y40.1172
G01 X101.6362 Y40.0200
G01 X101.6429 Y39.9346
G01 X104.4571 Y39.9346
G01 X104.4070 Y39.6346
G01 X101.6930 Y39.6346
G00 Z2.0000
G00 X100.7679 Y39.9971
G01 F60.00
G01 Z-0.0600
G01 F120.00
G01 X100.7622 Y39.9971
G00 Z2.0000
G00 X100.8252 Y40.2971
G01 F60.00
G01 Z-0.0600
G01 F120.00
G01 X100.8263 Y40.2971
G00 Z2.0000
G00 X100.8185 Y40.5971
G01 F60.00
G01 Z-0.0600
G01 F120.00
G01 X100.8132 Y40.5971
G00 Z2.0000
G00 X100.7275 Y40.8971
G01 F60.00
G01 Z-0.0600
G01 F120.00
G01 X100.7263 Y40.8971
G00 Z2.0000
G00 X100.5459 Y41.1971
G01 F60.00
G01 Z-0.0600
G01 F120.00
G01 X100.5428 Y41.1971
G00 Z2.0000
G00 X100.4126 Y41.4971
G01 F60.00
G01 Z-0.0600
G01 F120.00
G01 X100.3303 Y41.4971
G00 Z2.0000
G00 X100.5581 Y41.7971
G01 F60.00
G01 Z-0.0600
G01 F120.00
G01 X101.1584 Y42.3971
G00 Z2.0000
G00 X100.2360 Y43.5971
G01 F60.00
G01 Z-0.0600
G01 F120.00
G01 X100.2357 Y43.5971
G00 Z2.0000
G00 X100.5344 Y43.8971
G01 F60.00
G01 Z-0.0600
G01 F120.00
G01 X100.5360 Y43.8971
G01 X99.9360 Y43.2971
G01 X99.9357 Y43.2971
G01 X99.3360 Y42.6971
G01 X99.3357 Y42.6971
G00 Z2.0000
G00 X99.0369 Y42.3971
G01 F60.00
G01 Z-0.0600
G01 F120.00
G01 X99.0346 Y42.3971
G00 Z2.0000
G00 X98.8618 Y42.0971
G01 F60.00
G01 Z-0.0600
G01 F120.00
G01 X98.8584 Y42.0971
G00 Z2.0000
G00 X98.8297 Y41.7971
G01 F60.00
G01 Z-0.0600
G01 F120.00
G01 X98.8295 Y41.7971
G01 X98.8297 Y41.4971
G01 X98.8188 Y41.4971
G00 Z2.0000
G00 X98.6172 Y41.1971
G01 F60.00
G01 Z-0.0600
G01 F120.00
G01 X98.6141 Y41.1971
G00 Z2.0000
G00 X98.4337 Y40.8971
G01 F60.00
G01 Z-0.0600
G01 F120.00
G01 X98.2042 Y40.8971
G01 X98.2332 Y40.5971
G01 X98.3468 Y40.5971
G00 Z2.0000
G00 X98.3348 Y40.2971
G01 F60.00
G01 Z-0.0600
G01 F120.00
G01 X98.2452 Y40.2971
G00 Z2.0000
G00 X98.1822 Y39.9971
G01 F60.00
G01 Z-0.0600
G01 F120.00
G01 X98.3978 Y39.9971
G00 Z2.0000
G00 X98.5275 Y39.6971
G01 F60.00
G01 Z-0.0600
G01 F120.00
G01 X98.5466 Y39.6971
G00 Z2.0000
G00 X98.8326 Y39.3971
G01 F60.00
G01 Z-0.0600
G01 F120.00
G01 X98.8360 Y39.3971
G00 Z2.0000
G00 X100.3240 Y39.3971
G01 F60.00
G01 Z-0.0600
G01 F120.00
G01 X100.3274 Y39.3971
G00 Z2.0000
G00 X100.6134 Y39.6971
G01 F60.00
G01 Z-0.0600
G01 F120.00
G01 X100.6145 Y39.6971
G00 Z2.0000
G00 X96.5425 Y39.2354
G01 F60.00
G01 Z-0.0600
G01 F120.00
G01 X96.5440 Y39.2368
G01 X96.6255 Y39.2077
G01 X96.6429 Y39.2022
G01 X96.7442 Y39.1767
G01 X96.7561 Y39.1740
G01 X96.7682 Y39.1719
G01 X96.8653 Y39.1575
G01 X96.8775 Y39.1560
G01 X96.8897 Y39.1551
G01 X96.9877 Y39.1503
G01 X97.0000 Y39.1500
G01 X97.0123 Y39.1503
G01 X97.1103 Y39.1551
G01 X97.1225 Y39.1560
G01 X97.1347 Y39.1575
G01 X97.2318 Y39.1719
G01 X97.2439 Y39.1740
G01 X97.2558 Y39.1767
G01 X97.3570 Y39.2021
G01 X97.3745 Y39.2077
G01 X97.4560 Y39.2368
G01 X97.4575 Y39.2354
G01 X97.3079 Y39.1841
G01 X97.1036 Y39.1500
G01 X96.8964 Y39.1500
G01 X96.6921 Y39.1841
G01 X96.5425 Y39.2354
G00 Z2.0000
G00 X95.5380 Y39.9053
G01 F60.00
G01 Z-0.0600
G01 F120.00
G01 X95.7982 Y39.9053
G01 X95.7664 Y40.2053
G01 X95.6306 Y40.2053
G00 Z2.0000
G00 X95.3497 Y39.6053
G01 F60.00
G01 Z-0.0600
G01 F120.00
G01 X95.3470 Y39.6053
G00 Z2.0000
G00 X94.9676 Y39.3053
G01 F60.00
G01 Z-0.0600
G01 F120.00
G01 X94.9639 Y39.3053
G00 Z2.0000
G00 X93.8361 Y39.3053
G01 F60.00
G01 Z-0.0600
G01 F120.00
G01 X93.8324 Y39.3053
G00 Z2.0000
G00 X93.4530 Y39.6053
G01 F60.00
G01 Z-0.0600
G01 F120.00
G01 X93.4503 Y39.6053
G00 Z2.0000
G00 X93.2620 Y39.9053
G01 F60.00
G01 Z-0.0600
G01 F120.00
G01 X92.9480 Y39.9053
G00 Z2.0000
G00 X93.1694 Y40.2053
G01 F60.00
G01 Z-0.0600
G01 F120.00
G01 X93.0406 Y40.2053
G00 Z2.0000
G00 X93.1551 Y40.3097
G01 F60.00
G01 Z-0.0600
G01 F120.00
G01 X93.1503 Y40.4077
G01 X93.1500 Y40.4200
G01 X93.1503 Y40.4323
G01 X93.1551 Y40.5303
G01 X93.1560 Y40.5425
G01 X93.1575 Y40.5547
G01 X93.1719 Y40.6518
G01 X93.1740 Y40.6639
G01 X93.1767 Y40.6758
G01 X93.2006 Y40.7710
G01 X93.2038 Y40.7826
G01 X93.2075 Y40.7940
G01 X93.2407 Y40.8869
G01 X93.2452 Y40.8984
G01 X93.2501 Y40.9096
G01 X93.2921 Y40.9983
G01 X93.2976 Y41.0092
G01 X93.3036 Y41.0199
G01 X93.3541 Y41.1041
G01 X93.3607 Y41.1145
G01 X93.3677 Y41.1245
G01 X93.4262 Y41.2033
G01 X93.4337 Y41.2130
G01 X93.4418 Y41.2223
G01 X93.5077 Y41.2950
G01 X93.5161 Y41.3039
G01 X93.5250 Y41.3123
G01 X93.5977 Y41.3782
G01 X93.6070 Y41.3863
G01 X93.6167 Y41.3938
G01 X93.6955 Y41.4523
G01 X93.7055 Y41.4593
G01 X93.7159 Y41.4659
G01 X93.8001 Y41.5164
G01 X93.8108 Y41.5224
G01 X93.8217 Y41.5279
G01 X93.9104 Y41.5699
G01 X93.9216 Y41.5748
G01 X93.9331 Y41.5793
G01 X94.0255 Y41.6123
G01 X94.0371 Y41.6162
G01 X94.0490 Y41.6194
G01 X94.1442 Y41.6433
G01 X94.1561 Y41.6460
G01 X94.1682 Y41.6481
G01 X94.2653 Y41.6625
G01 X94.2775 Y41.6640
G01 X94.2897 Y41.6649
G01 X94.3877 Y41.6697
G01 X94.4000 Y41.6700
G01 X94.4123 Y41.6697
G01 X94.5103 Y41.6649
G01 X94.5225 Y41.6640
G01 X94.5347 Y41.6625
G01 X94.6318 Y41.6481
G01 X94.6439 Y41.6460
G01 X94.6558 Y41.6433
G01 X94.7510 Y41.6194
G01 X94.7631 Y41.6161
G01 X94.7745 Y41.6123
G01 X94.8669 Y41.5793
G01 X94.8784 Y41.5748
G01 X94.8896 Y41.5699
G01 X94.9783 Y41.5279
G01 X94.9892 Y41.5224
G01 X94.9999 Y41.5164
G01 X95.0841 Y41.4659
G01 X95.0945 Y41.4593
G01 X95.1045 Y41.4523
G01 X95.1833 Y41.3938
G01 X95.1930 Y41.3863
G01 X95.2023 Y41.3782
G01 X95.2750 Y41.3123
G01 X95.2839 Y41.3039
G01 X95.2923 Y41.2950
G01 X95.3582 Y41.2223
G01 X95.3663 Y41.2130
G01 X95.3738 Y41.2033
G01 X95.4323 Y41.1245
G01 X95.4393 Y41.1145
G01 X95.4459 Y41.1041
G01 X95.4964 Y41.0199
G01 X95.5024 Y41.0092
G01 X95.5079 Y40.9983
G01 X95.5499 Y40.9096
G01 X95.5548 Y40.8984
G01 X95.5593 Y40.8869
G01 X95.5923 Y40.7945
G01 X95.5962 Y40.7829
G01 X95.5994 Y40.7710
G01 X95.6233 Y40.6758
G01 X95.6260 Y40.6639
G01 X95.6281 Y40.6518
G01 X95.6425 Y40.5547
G01 X95.6440 Y40.5425
G01 X95.6449 Y40.5303
G01 X95.6497 Y40.4323
G01 X95.6500 Y40.4200
G01 X95.6497 Y40.4077
G01 X95.6449 Y40.3097
G01 X95.6440 Y40.2975
G01 X95.6425 Y40.2853
G01 X95.6281 Y40.1882
G01 X95.6260 Y40.1761
G01 X95.6233 Y40.1642
G01 X95.5994 Y40.0690
G01 X95.5962 Y40.0574
G01 X95.5923 Y40.0455
G01 X95.5593 Y39.9531
G01 X95.5548 Y39.9416
G01 X95.5499 Y39.9304
G01 X95.5079 Y39.8417
G01 X95.5024 Y39.8308
G01 X95.4964 Y39.8201
G01 X95.4459 Y39.7359
G01 X95.4393 Y39.7255
G01 X95.4323 Y39.7155
G01 X95.3738 Y39.6367
G01 X95.3663 Y39.6270
G01 X95.3582 Y39.6177
G01 X95.2923 Y39.5450
G01 X95.2839 Y39.5361
G01 X95.2750 Y39.5277
G01 X95.2023 Y39.4618
G01 X95.1930 Y39.4537
G01 X95.1833 Y39.4462
G01 X95.1045 Y39.3877
G01 X95.0945 Y39.3807
G01 X95.0841 Y39.3741
G01 X94.9999 Y39.3236
G01 X94.9892 Y39.3176
G01 X94.9783 Y39.3121
G01 X94.8896 Y39.2701
G01 X94.8784 Y39.2652
G01 X94.8669 Y39.2607
G01 X94.7745 Y39.2277
G01 X94.7629 Y39.2238
G01 X94.7510 Y39.2206
G01 X94.6558 Y39.1967
G01 X94.6439 Y39.1940
G01 X94.6318 Y39.1919
G01 X94.5347 Y39.1775
G01 X94.5225 Y39.1760
G01 X94.5103 Y39.1751
G01 X94.4123 Y39.1703
G01 X94.3939 Y39.1701
G01 X94.2897 Y39.1751
G01 X94.2775 Y39.1760
G01 X94.2653 Y39.1775
G01 X94.1682 Y39.1919
G01 X94.1561 Y39.1940
G01 X94.1442 Y39.1967
G01 X94.0490 Y39.2206
G01 X94.0374 Y39.2238
G01 X94.0255 Y39.2277
G01 X93.9331 Y39.2607
G01 X93.9216 Y39.2652
G01 X93.9104 Y39.2701
G01 X93.8217 Y39.3121
G01 X93.8108 Y39.3176
G01 X93.8001 Y39.3236
G01 X93.7159 Y39.3741
G01 X93.7055 Y39.3807
G01 X93.6955 Y39.3877
G01 X93.6167 Y39.4462
G01 X93.6070 Y39.4537
G01 X93.5977 Y39.4618
G01 X93.5250 Y39.5277
G01 X93.5161 Y39.5361
G01 X93.5077 Y39.5450
G01 X93.4418 Y39.6177
G01 X93.4337 Y39.6270
G01 X93.4262 Y39.6367
G01 X93.3677 Y39.7155
G01 X93.3607 Y39.7255
G01 X93.3541 Y39.7359
G01 X93.3036 Y39.8201
G01 X93.2976 Y39.8308
G01 X93.2921 Y39.8417
G01 X93.2501 Y39.9304
G01 X93.2452 Y39.9416
G01 X93.2407 Y39.9531
G01 X93.2077 Y40.0455
G01 X93.2038 Y40.0571
G01 X93.2006 Y40.0690
G01 X93.1767 Y40.1642
G01 X93.1740 Y40.1761
G01 X93.1719 Y40.1882
G01 X93.1575 Y40.2853
G01 X93.1560 Y40.2975
G01 X93.1551 Y40.3097
G01 X93.0561 Y40.5053
G01 X93.1539 Y40.5053
G00 Z2.0000
G00 X93.2115 Y40.8053
G01 F60.00
G01 Z-0.0600
G01 F120.00
G01 X92.9985 Y40.8053
G00 Z2.0000
G00 X93.3221 Y41.1053
G01 F60.00
G01 Z-0.0600
G01 F120.00
G01 X93.3548 Y41.1053
G00 Z2.0000
G00 X93.6299 Y41.4053
G01 F60.00
G01 Z-0.0600
G01 F120.00
G01 X93.6321 Y41.4053
G00 Z2.0000
G00 X92.8879 Y41.1053
G01 F60.00
G01 Z-0.0600
G01 F120.00
G01 X92.8552 Y41.1053
G00 Z2.0000
G00 X92.6158 Y41.4053
G01 F60.00
G01 Z-0.0600
G01 F120.00
G01 X92.5779 Y41.4053
G00 Z2.0000
G00 X92.5605 Y41.7053
G01 F60.00
G01 Z-0.0600
G01 F120.00
G01 X92.5603 Y41.7053
G00 Z2.0000
G00 X92.5527 Y42.0053
G01 F60.00
G01 Z-0.0600
G01 F120.00
G01 X92.5508 Y42.0053
G00 Z2.0000
G00 X92.4379 Y42.3053
G01 F60.00
G01 Z-0.0600
G01 F120.00
G01 X92.4348 Y42.3053
G00 Z2.0000
G00 X92.1561 Y42.6053
G01 F60.00
G01 Z-0.0600
G01 F120.00
G01 X92.1557 Y42.6053
G01 X91.8561 Y42.9053
G01 X91.8557 Y42.9053
G01 X91.5561 Y43.2053
G01 X91.5557 Y43.2053
G01 X90.3557 Y44.4053
G00 Z2.0000
G00 X90.9153 Y41.7053
G01 F60.00
G01 Z-0.0600
G01 F120.00
G01 X90.9337 Y41.7053
G01 X91.0421 Y41.4053
G01 X90.9624 Y41.4053
G00 Z2.0000
G00 X90.6337 Y42.0053
G01 F60.00
G01 Z-0.0600
G01 F120.00
G01 X90.6334 Y42.0053
G01 X90.3337 Y42.3053
G01 X90.3334 Y42.3053
G01 X90.0337 Y42.6053
G01 X90.0334 Y42.6053
G01 X89.7337 Y42.9053
G01 X89.7334 Y42.9053
G00 Z2.0000
G00 X90.7640 Y41.1053
G01 F60.00
G01 Z-0.0600
G01 F120.00
G01 X90.7648 Y41.1053
G00 Z2.0000
G00 X90.6215 Y40.8053
G01 F60.00
G01 Z-0.0600
G01 F120.00
G01 X90.6176 Y40.8053
G00 Z2.0000
G00 X90.5639 Y40.5053
G01 F60.00
G01 Z-0.0600
G01 F120.00
G01 X90.5623 Y40.5053
G00 Z2.0000
G00 X90.5744 Y40.2053
G01 F60.00
G01 Z-0.0600
G01 F120.00
G01 X90.5794 Y40.2053
G00 Z2.0000
G00 X90.6703 Y39.9053
G01 F60.00
G01 Z-0.0600
G01 F120.00
G01 X90.6720 Y39.9053
G00 Z2.0000
G00 X90.8603 Y39.6053
G01 F60.00
G01 Z-0.0600
G01 F120.00
G01 X90.8630 Y39.6053
G00 Z2.0000
G00 X91.2424 Y39.3053
G01 F60.00
G01 Z-0.0600
G01 F120.00
G01 X91.2461 Y39.3053
G00 Z2.0000
G00 X92.3739 Y39.3053
G01 F60.00
G01 Z-0.0600
G01 F120.00
G01 X92.3776 Y39.3053
G00 Z2.0000
G00 X92.7570 Y39.6053
G01 F60.00
G01 Z-0.0600
G01 F120.00
G01 X92.7597 Y39.6053
G00 Z2.0000
G00 X95.1679 Y41.4053
G01 F60.00
G01 Z-0.0600
G01 F120.00
G01 X95.1701 Y41.4053
G00 Z2.0000
G00 X95.4452 Y41.1053
G01 F60.00
G01 Z-0.0600
G01 F120.00
G01 X95.4624 Y41.1053
G00 Z2.0000
G00 X95.5885 Y40.8053
G01 F60.00
G01 Z-0.0600
G01 F120.00
G01 X95.8187 Y40.8053
G00 Z2.0000
G00 X95.7549 Y40.5053
G01 F60.00
G01 Z-0.0600
G01 F120.00
G01 X95.6461 Y40.5053
G00 Z2.0000
G00 X96.5425 Y41.5646
G01 F60.00
G01 Z-0.0600
G01 F120.00
G01 X96.6921 Y41.6159
G01 X96.8964 Y41.6500
G01 X97.1036 Y41.6500
G01 X97.3079 Y41.6159
G01 X97.4575 Y41.5646
G01 X97.4560 Y41.5632
G01 X97.3740 Y41.5925
G01 X97.3568 Y41.5979
G01 X97.2558 Y41.6233
G01 X97.2439 Y41.6260
G01 X97.2318 Y41.6281
G01 X97.1347 Y41.6425
G01 X97.1225 Y41.6440
G01 X97.1103 Y41.6449
G01 X97.0123 Y41.6497
G01 X97.0000 Y41.6500
G01 X96.9877 Y41.6497
G01 X96.8897 Y41.6449
G01 X96.8775 Y41.6440
G01 X96.8653 Y41.6425
G01 X96.7682 Y41.6281
G01 X96.7561 Y41.6260
G01 X96.7442 Y41.6233
G01 X96.6430 Y41.5979
G01 X96.6255 Y41.5923
G01 X96.5440 Y41.5632
G01 X96.5425 Y41.5646
G00 Z2.0000
G00 X93.3876 Y43.8442
G01 F60.00
G01 Z-0.0600
G01 F120.00
G01 X93.1924 Y43.8442
G01 X92.4369 Y44.1442
G01 X94.1431 Y44.1442
G01 X94.4155 Y44.4442
G01 X92.1645 Y44.4442
G01 X92.4468 Y46.2442
G01 X94.1332 Y46.2442
G01 X94.4103 Y45.9442
G01 X92.1697 Y45.9442
G01 X92.0177 Y45.6442
G01 X94.5623 Y45.6442
G01 X94.6313 Y45.3442
G01 X91.9487 Y45.3442
G01 X91.9365 Y45.1900
G01 X91.9532 Y44.9783
G01 X92.0028 Y44.7718
G01 X92.0841 Y44.5755
G01 X92.1950 Y44.3945
G01 X92.3330 Y44.2330
G01 X92.4945 Y44.0950
G01 X92.6755 Y43.9841
G01 X92.8718 Y43.9028
G01 X93.0783 Y43.8532
G01 X93.2900 Y43.8365
G01 X93.5017 Y43.8532
G01 X93.7082 Y43.9028
G01 X93.9045 Y43.9841
G01 X94.0855 Y44.0950
G01 X94.2470 Y44.2330
G01 X94.3850 Y44.3945
G01 X94.4959 Y44.5755
G01 X94.5772 Y44.7718
G01 X94.6268 Y44.9783
G01 X94.6435 Y45.1900
G01 X94.6268 Y45.4017
G01 X94.5772 Y45.6082
G01 X94.4959 Y45.8045
G01 X94.3850 Y45.9855
G01 X94.2470 Y46.1470
G01 X94.0855 Y46.2850
G01 X93.9045 Y46.3959
G01 X93.7082 Y46.4772
G01 X93.5017 Y46.5268
G01 X93.2900 Y46.5435
G01 X93.0783 Y46.5268
G01 X92.8718 Y46.4772
G01 X92.6755 Y46.3959
G01 X92.4945 Y46.2850
G01 X92.3330 Y46.1470
G01 X92.1950 Y45.9855
G01 X92.0841 Y45.8045
G01 X92.0028 Y45.6082
G01 X91.9532 Y45.4017
G01 X91.9440 Y45.2848
G01 X91.9365 Y45.1900
G01 X91.9480 Y45.0442
G01 X94.6320 Y45.0442
G01 X94.5658 Y44.7442
G01 X92.0142 Y44.7442
G00 Z2.0000
G00 X88.6698 Y38.6046
G01 F60.00
G01 Z-0.0600
G01 F120.00
G01 X87.5102 Y38.6046
G01 X87.0781 Y38.9046
G01 X89.1019 Y38.9046
G01 X88.9552 Y41.0046
G01 X87.2248 Y41.0046
G01 X86.9361 Y40.7046
G01 X89.2439 Y40.7046
G01 X89.4024 Y40.4046
G01 X86.7776 Y40.4046
G01 X86.6762 Y39.8900
G01 X86.6893 Y39.7230
G01 X86.6936 Y39.6688
G01 X86.7454 Y39.4531
G01 X86.8303 Y39.2481
G01 X86.9388 Y39.0711
G01 X86.9462 Y39.0590
G01 X87.0903 Y38.8903
G01 X87.2590 Y38.7462
G01 X87.4481 Y38.6303
G01 X87.6531 Y38.5454
G01 X87.8688 Y38.4936
G01 X88.0900 Y38.4762
G01 X88.3112 Y38.4936
G01 X88.5269 Y38.5454
G01 X88.7319 Y38.6303
G01 X88.9210 Y38.7462
G01 X89.0897 Y38.8903
G01 X89.2338 Y39.0590
G01 X89.3497 Y39.2481
G01 X89.4346 Y39.4531
G01 X89.4864 Y39.6688
G01 X89.5038 Y39.8900
G01 X89.4864 Y40.1112
G01 X89.4346 Y40.3269
G01 X89.3497 Y40.5319
G01 X89.2338 Y40.7210
G01 X89.0897 Y40.8897
G01 X88.9210 Y41.0338
G01 X88.7319 Y41.1497
G01 X88.5269 Y41.2346
G01 X88.3112 Y41.2864
G01 X88.0900 Y41.3038
G01 X87.8688 Y41.2864
G01 X87.6531 Y41.2346
G01 X87.4481 Y41.1497
G01 X87.2590 Y41.0338
G01 X87.0903 Y40.8897
G01 X86.9462 Y40.7210
G01 X86.8303 Y40.5319
G01 X86.7454 Y40.3269
G01 X86.6936 Y40.1112
G01 X86.6799 Y39.9366
G01 X86.6762 Y39.8900
G01 X86.6931 Y40.1046
G01 X89.4869 Y40.1046
G01 X89.4971 Y39.8046
G01 X86.6829 Y39.8046
G01 X86.7330 Y39.5046
G01 X89.4470 Y39.5046
G01 X89.3230 Y39.2046
G01 X86.8570 Y39.2046
G00 Z2.0000
G00 X81.4566 Y39.8587
G01 F60.00
G01 Z-0.0600
G01 F120.00
G01 X81.9493 Y39.8587
G01 X82.2372 Y40.7587
G01 X81.1688 Y40.7587
G01 X81.0743 Y40.4335
G01 X81.0880 Y40.3028
G01 X81.1285 Y40.1781
G01 X81.1286 Y40.1778
G01 X81.1943 Y40.0639
G01 X81.2823 Y39.9663
G01 X81.3886 Y39.8890
G01 X81.5087 Y39.8356
G01 X81.6372 Y39.8082
G01 X81.7687 Y39.8082
G01 X81.8972 Y39.8356
G01 X82.0173 Y39.8890
G01 X82.1236 Y39.9663
G01 X82.2116 Y40.0639
G01 X82.2773 Y40.1778
G01 X82.3179 Y40.3028
G01 X82.3317 Y40.4335
G01 X82.3179 Y40.5642
G01 X82.2773 Y40.6892
G01 X82.2116 Y40.8030
G01 X82.1236 Y40.9007
G01 X82.0173 Y40.9780
G01 X81.8972 Y41.0314
G01 X81.7687 Y41.0587
G01 X81.6372 Y41.0587
G01 X81.5087 Y41.0314
G01 X81.3886 Y40.9780
G01 X81.2823 Y40.9007
G01 X81.1943 Y40.8030
G01 X81.1286 Y40.6892
G01 X81.0880 Y40.5642
G01 X81.0743 Y40.4335
G01 X81.0769 Y40.4587
G01 X82.3290 Y40.4587
G01 X82.2663 Y40.1587
G01 X81.1396 Y40.1587
G00 Z2.0000
G00 X80.7168 Y43.2053
G01 F60.00
G01 Z-0.0600
G01 F120.00
G01 X80.7090 Y43.2053
G00 Z2.0000
G00 X80.3337 Y43.5053
G01 F60.00
G01 Z-0.0600
G01 F120.00
G01 X78.8337 Y45.0053
G01 X78.8334 Y45.0053
G01 X78.5337 Y45.3053
G01 X78.5334 Y45.3053
G01 X78.2337 Y45.6053
G01 X78.2334 Y45.6053
G00 Z2.0000
G00 X81.2557 Y44.7053
G01 F60.00
G01 Z-0.0600
G01 F120.00
G01 X81.2746 Y44.7053
G00 Z2.0000
G00 X80.9561 Y45.0053
G01 F60.00
G01 Z-0.0600
G01 F120.00
G01 X79.4557 Y46.5053
G00 Z2.0000
G00 X79.3305 Y46.8053
G01 F60.00
G01 Z-0.0600
G01 F120.00
G01 X79.3303 Y46.8053
G01 X79.3305 Y55.8053
G01 X79.3303 Y55.8053
G01 X79.3303 Y56.1053
G01 X79.3305 Y56.1053
G01 X79.3303 Y56.4053
G01 X79.3341 Y56.4053
G00 Z2.0000
G00 X79.5088 Y56.7053
G01 F60.00
G01 Z-0.0600
G01 F120.00
G01 X79.5113 Y56.7053
G00 Z2.0000
G00 X79.7085 Y57.0053
G01 F60.00
G01 Z-0.0600
G01 F120.00
G01 X79.9862 Y57.0053
G00 Z2.0000
G00 X79.8842 Y57.3053
G01 F60.00
G01 Z-0.0600
G01 F120.00
G01 X79.8076 Y57.3053
G00 Z2.0000
G00 X79.8651 Y57.4397
G01 F60.00
G01 Z-0.0600
G01 F120.00
G01 X79.8660 Y57.4275
G01 X79.8675 Y57.4153
G01 X79.8819 Y57.3182
G01 X79.8840 Y57.3061
G01 X79.8867 Y57.2942
G01 X79.9106 Y57.1990
G01 X79.9138 Y57.1871
G01 X79.9177 Y57.1755
G01 X79.9507 Y57.0831
G01 X79.9552 Y57.0716
G01 X79.9601 Y57.0604
G01 X80.0021 Y56.9717
G01 X80.0076 Y56.9608
G01 X80.0136 Y56.9501
G01 X80.0641 Y56.8659
G01 X80.0707 Y56.8555
G01 X80.0777 Y56.8455
G01 X80.1362 Y56.7667
G01 X80.1437 Y56.7570
G01 X80.1518 Y56.7477
G01 X80.2177 Y56.6750
G01 X80.2261 Y56.6661
G01 X80.2350 Y56.6577
G01 X80.3077 Y56.5918
G01 X80.3170 Y56.5837
G01 X80.3267 Y56.5762
G01 X80.4055 Y56.5177
G01 X80.4155 Y56.5107
G01 X80.4259 Y56.5041
G01 X80.5101 Y56.4536
G01 X80.5208 Y56.4476
G01 X80.5317 Y56.4421
G01 X80.6204 Y56.4001
G01 X80.6316 Y56.3952
G01 X80.6431 Y56.3907
G01 X80.7355 Y56.3577
G01 X80.7469 Y56.3539
G01 X80.7590 Y56.3506
G01 X80.8542 Y56.3267
G01 X80.8661 Y56.3240
G01 X80.8782 Y56.3219
G01 X80.9753 Y56.3075
G01 X80.9875 Y56.3060
G01 X80.9997 Y56.3051
G01 X81.0977 Y56.3003
G01 X81.1100 Y56.3000
G01 X81.1223 Y56.3003
G01 X81.2203 Y56.3051
G01 X81.2325 Y56.3060
G01 X81.2447 Y56.3075
G01 X81.3418 Y56.3219
G01 X81.3539 Y56.3240
G01 X81.3658 Y56.3267
G01 X81.4610 Y56.3506
G01 X81.4729 Y56.3538
G01 X81.4845 Y56.3577
G01 X81.5769 Y56.3907
G01 X81.5884 Y56.3952
G01 X81.5996 Y56.4001
G01 X81.6883 Y56.4421
G01 X81.6992 Y56.4476
G01 X81.7099 Y56.4536
G01 X81.7941 Y56.5041
G01 X81.8045 Y56.5107
G01 X81.8145 Y56.5177
G01 X81.8933 Y56.5762
G01 X81.9030 Y56.5837
G01 X81.9123 Y56.5918
G01 X81.9850 Y56.6577
G01 X81.9939 Y56.6661
G01 X82.0023 Y56.6750
G01 X82.0682 Y56.7477
G01 X82.0763 Y56.7570
G01 X82.0838 Y56.7667
G01 X82.1423 Y56.8455
G01 X82.1493 Y56.8555
G01 X82.1559 Y56.8659
G01 X82.2064 Y56.9501
G01 X82.2124 Y56.9608
G01 X82.2179 Y56.9717
G01 X82.2599 Y57.0604
G01 X82.2648 Y57.0716
G01 X82.2693 Y57.0831
G01 X82.3023 Y57.1755
G01 X82.3061 Y57.1869
G01 X82.3094 Y57.1990
G01 X82.3333 Y57.2942
G01 X82.3360 Y57.3061
G01 X82.3381 Y57.3182
G01 X82.3525 Y57.4153
G01 X82.3540 Y57.4275
G01 X82.3549 Y57.4397
G01 X82.3597 Y57.5377
G01 X82.3600 Y57.5500
G01 X82.3597 Y57.5623
G01 X82.3549 Y57.6603
G01 X82.3540 Y57.6725
G01 X82.3525 Y57.6847
G01 X82.3381 Y57.7818
G01 X82.3360 Y57.7939
G01 X82.3333 Y57.8058
G01 X82.3094 Y57.9010
G01 X82.3062 Y57.9129
G01 X82.3023 Y57.9245
G01 X82.2693 Y58.0169
G01 X82.2648 Y58.0284
G01 X82.2599 Y58.0396
G01 X82.2179 Y58.1283
G01 X82.2124 Y58.1392
G01 X82.2064 Y58.1499
G01 X82.1559 Y58.2341
G01 X82.1493 Y58.2445
G01 X82.1423 Y58.2545
G01 X82.0838 Y58.3333
G01 X82.0763 Y58.3430
G01 X82.0682 Y58.3523
G01 X82.0023 Y58.4250
G01 X81.9939 Y58.4339
G01 X81.9850 Y58.4423
G01 X81.9123 Y58.5082
G01 X81.9030 Y58.5163
G01 X81.8933 Y58.5238
G01 X81.8145 Y58.5823
G01 X81.8045 Y58.5893
G01 X81.7941 Y58.5959
G01 X81.7099 Y58.6464
G01 X81.6992 Y58.6524
G01 X81.6883 Y58.6579
G01 X81.5996 Y58.6999
G01 X81.5884 Y58.7048
G01 X81.5769 Y58.7093
G01 X81.4845 Y58.7423
G01 X81.4726 Y58.7462
G01 X81.4610 Y58.7494
G01 X81.3658 Y58.7733
G01 X81.3539 Y58.7760
G01 X81.3418 Y58.7781
G01 X81.2447 Y58.7925
G01 X81.2325 Y58.7940
G01 X81.2203 Y58.7949
G01 X81.1223 Y58.7997
G01 X81.1100 Y58.8000
G01 X81.0977 Y58.7997
G01 X80.9997 Y58.7949
G01 X80.9875 Y58.7940
G01 X80.9753 Y58.7925
G01 X80.8782 Y58.7781
G01 X80.8661 Y58.7760
G01 X80.8542 Y58.7733
G01 X80.7590 Y58.7494
G01 X80.7471 Y58.7462
G01 X80.7355 Y58.7423
G01 X80.6431 Y58.7093
G01 X80.6316 Y58.7048
G01 X80.6204 Y58.6999
G01 X80.5317 Y58.6579
G01 X80.5208 Y58.6524
G01 X80.5101 Y58.6464
G01 X80.4259 Y58.5959
G01 X80.4155 Y58.5893
G01 X80.4055 Y58.5823
G01 X80.3267 Y58.5238
G01 X80.3170 Y58.5163
G01 X80.3077 Y58.5082
G01 X80.2350 Y58.4423
G01 X80.2261 Y58.4339
G01 X80.2177 Y58.4250
G01 X80.1518 Y58.3523
G01 X80.1437 Y58.3430
G01 X80.1362 Y58.3333
G01 X80.0777 Y58.2545
G01 X80.0707 Y58.2445
G01 X80.0641 Y58.2341
G01 X80.0136 Y58.1499
G01 X80.0076 Y58.1392
G01 X80.0021 Y58.1283
G01 X79.9601 Y58.0396
G01 X79.9552 Y58.0284
G01 X79.9507 Y58.0169
G01 X79.9177 Y57.9245
G01 X79.9138 Y57.9126
G01 X79.9106 Y57.9010
G01 X79.8867 Y57.8058
G01 X79.8840 Y57.7939
G01 X79.8819 Y57.7818
G01 X79.8675 Y57.6847
G01 X79.8660 Y57.6725
G01 X79.8651 Y57.6603
G01 X79.8603 Y57.5623
G01 X79.8600 Y57.5500
G01 X79.8603 Y57.5377
G01 X79.8651 Y57.4397
G00 Z2.0000
G00 X79.8624 Y57.6053
G01 F60.00
G01 Z-0.0600
G01 F120.00
G01 X79.8271 Y57.6053
G00 Z2.0000
G00 X79.7754 Y57.9053
G01 F60.00
G01 Z-0.0600
G01 F120.00
G01 X79.9117 Y57.9053
G00 Z2.0000
G00 X79.9248 Y58.2053
G01 F60.00
G01 Z-0.0600
G01 F120.00
G01 X80.0468 Y58.2053
G00 Z2.0000
G00 X79.7560 Y58.2053
G01 F60.00
G01 Z-0.0600
G01 F120.00
G01 X79.6372 Y58.2053
G00 Z2.0000
G00 X79.3758 Y58.5053
G01 F60.00
G01 Z-0.0600
G01 F120.00
G01 X79.3742 Y58.5053
G00 Z2.0000
G00 X80.3014 Y58.5053
G01 F60.00
G01 Z-0.0600
G01 F120.00
G01 X80.3044 Y58.5053
G00 Z2.0000
G00 X81.9156 Y58.5053
G01 F60.00
G01 Z-0.0600
G01 F120.00
G01 X81.9186 Y58.5053
G00 Z2.0000
G00 X82.1732 Y58.2053
G01 F60.00
G01 Z-0.0600
G01 F120.00
G01 X82.2613 Y58.2053
G00 Z2.0000
G00 X82.3083 Y57.9053
G01 F60.00
G01 Z-0.0600
G01 F120.00
G01 X82.4816 Y57.9053
G00 Z2.0000
G00 X82.4404 Y57.6053
G01 F60.00
G01 Z-0.0600
G01 F120.00
G01 X82.3576 Y57.6053
G00 Z2.0000
G00 X82.3358 Y57.3053
G01 F60.00
G01 Z-0.0600
G01 F120.00
G01 X82.4739 Y57.3053
G01 X82.3982 Y57.0053
G01 X82.2338 Y57.0053
G00 Z2.0000
G00 X82.0321 Y56.7053
G01 F60.00
G01 Z-0.0600
G01 F120.00
G01 X82.0298 Y56.7053
G00 Z2.0000
G00 X81.6221 Y56.4053
G01 F60.00
G01 Z-0.0600
G01 F120.00
G01 X81.6105 Y56.4053
G00 Z2.0000
G00 X80.6095 Y56.4053
G01 F60.00
G01 Z-0.0600
G01 F120.00
G01 X80.5979 Y56.4053
G00 Z2.0000
G00 X80.1902 Y56.7053
G01 F60.00
G01 Z-0.0600
G01 F120.00
G01 X80.1879 Y56.7053
G00 Z2.0000
G00 X77.8259 Y56.4053
G01 F60.00
G01 Z-0.0600
G01 F120.00
G01 X77.8297 Y56.4053
G01 X77.8295 Y46.8053
G01 X77.8297 Y46.8053
G01 X77.8297 Y46.5053
G01 X77.8295 Y46.5053
G00 Z2.0000
G00 X77.8373 Y46.2053
G01 F60.00
G01 Z-0.0600
G01 F120.00
G01 X77.8392 Y46.2053
G00 Z2.0000
G00 X77.9518 Y45.9053
G01 F60.00
G01 Z-0.0600
G01 F120.00
G01 X77.9548 Y45.9053
G00 Z2.0000
G00 X71.0064 Y43.6042
G01 F60.00
G01 Z-0.0600
G01 F120.00
G01 X70.8112 Y43.6042
G01 X70.0556 Y43.9042
G01 X71.7619 Y43.9042
G01 X71.7520 Y46.0042
G01 X70.0655 Y46.0042
G01 X69.7885 Y45.7042
G01 X72.0291 Y45.7042
G01 X72.1811 Y45.4042
G01 X69.6365 Y45.4042
G01 X69.5553 Y44.9500
G01 X69.5720 Y44.7383
G01 X69.6216 Y44.5318
G01 X69.7028 Y44.3355
G01 X69.8128 Y44.1560
G01 X69.8138 Y44.1545
G01 X69.9517 Y43.9930
G01 X70.1132 Y43.8550
G01 X70.2943 Y43.7441
G01 X70.4905 Y43.6628
G01 X70.6971 Y43.6132
G01 X70.9088 Y43.5965
G01 X71.1205 Y43.6132
G01 X71.3270 Y43.6628
G01 X71.5232 Y43.7441
G01 X71.7043 Y43.8550
G01 X71.8658 Y43.9930
G01 X72.0037 Y44.1545
G01 X72.1147 Y44.3355
G01 X72.1960 Y44.5318
G01 X72.2456 Y44.7383
G01 X72.2622 Y44.9500
G01 X72.2456 Y45.1617
G01 X72.1960 Y45.3682
G01 X72.1147 Y45.5645
G01 X72.0037 Y45.7455
G01 X71.8658 Y45.9070
G01 X71.8489 Y45.9215
G01 X71.7043 Y46.0450
G01 X71.5232 Y46.1559
G01 X71.3270 Y46.2372
G01 X71.1205 Y46.2868
G01 X70.9088 Y46.3035
G01 X70.6971 Y46.2868
G01 X70.4905 Y46.2372
G01 X70.2943 Y46.1559
G01 X70.1132 Y46.0450
G01 X69.9517 Y45.9070
G01 X69.8138 Y45.7455
G01 X69.7028 Y45.5645
G01 X69.6216 Y45.3682
G01 X69.5720 Y45.1617
G01 X69.5553 Y44.9500
G01 X69.5675 Y45.1042
G01 X72.2501 Y45.1042
G01 X72.2508 Y44.8042
G01 X69.5668 Y44.8042
G01 X69.6330 Y44.5042
G01 X72.1846 Y44.5042
G01 X72.0342 Y44.2042
G01 X69.7833 Y44.2042
G00 Z2.0000
G00 X67.6963 Y48.1553
G01 F60.00
G01 Z-0.0600
G01 F120.00
G01 X67.6936 Y48.1553
G00 Z2.0000
G00 X68.0519 Y48.4553
G01 F60.00
G01 Z-0.0600
G01 F120.00
G01 X68.0557 Y48.4553
G00 Z2.0000
G00 X68.2330 Y48.7553
G01 F60.00
G01 Z-0.0600
G01 F120.00
G01 X68.2339 Y48.7553
G00 Z2.0000
G00 X68.3176 Y49.0553
G01 F60.00
G01 Z-0.0600
G01 F120.00
G01 X68.3224 Y49.0553
G00 Z2.0000
G00 X68.3283 Y49.3553
G01 F60.00
G01 Z-0.0600
G01 F120.00
G01 X68.3291 Y49.3553
G00 Z2.0000
G00 X68.2691 Y49.6553
G01 F60.00
G01 Z-0.0600
G01 F120.00
G01 X68.2631 Y49.6553
G00 Z2.0000
G00 X68.1133 Y49.9553
G01 F60.00
G01 Z-0.0600
G01 F120.00
G01 X68.1117 Y49.9553
G00 Z2.0000
G00 X67.8219 Y50.2553
G01 F60.00
G01 Z-0.0600
G01 F120.00
G01 X67.8181 Y50.2553
G00 Z2.0000
G00 X66.3486 Y50.2553
G01 F60.00
G01 Z-0.0600
G01 F120.00
G01 X66.3449 Y50.2553
G00 Z2.0000
G00 X66.1149 Y48.4553
G01 F60.00
G01 Z-0.0600
G01 F120.00
G01 X66.0776 Y48.4553
G00 Z2.0000
G00 X66.4704 Y48.1553
G01 F60.00
G01 Z-0.0600
G01 F120.00
G01 X66.4731 Y48.1553
G00 Z2.0000
G00 X66.6844 Y52.7310
G01 F60.00
G01 Z-0.0600
G01 F120.00
G01 X66.6858 Y52.7324
G01 X66.7678 Y52.7030
G01 X66.7850 Y52.6976
G01 X66.8860 Y52.6722
G01 X66.8980 Y52.6695
G01 X66.9100 Y52.6674
G01 X67.0071 Y52.6530
G01 X67.0193 Y52.6515
G01 X67.0315 Y52.6506
G01 X67.1295 Y52.6458
G01 X67.1418 Y52.6455
G01 X67.1541 Y52.6458
G01 X67.2521 Y52.6506
G01 X67.2643 Y52.6515
G01 X67.2765 Y52.6530
G01 X67.3736 Y52.6674
G01 X67.3857 Y52.6695
G01 X67.3977 Y52.6722
G01 X67.4988 Y52.6976
G01 X67.5163 Y52.7032
G01 X67.5979 Y52.7324
G01 X67.5993 Y52.7310
G01 X67.4497 Y52.6796
G01 X67.2454 Y52.6455
G01 X67.0382 Y52.6455
G01 X66.8339 Y52.6796
G01 X66.6844 Y52.7310
G00 Z2.0000
G00 X65.9076 Y53.7053
G01 F60.00
G01 Z-0.0600
G01 F120.00
G01 X65.9033 Y53.7053
G00 Z2.0000
G00 X65.8969 Y54.0053
G01 F60.00
G01 Z-0.0600
G01 F120.00
G01 X65.8966 Y54.0053
G00 Z2.0000
G00 X65.9566 Y54.3053
G01 F60.00
G01 Z-0.0600
G01 F120.00
G01 X65.9621 Y54.3053
G00 Z2.0000
G00 X65.9697 Y54.6053
G01 F60.00
G01 Z-0.0600
G01 F120.00
G01 X66.1134 Y54.6053
G00 Z2.0000
G00 X64.1168 Y54.9053
G01 F60.00
G01 Z-0.0600
G01 F120.00
G01 X64.1090 Y54.9053
G00 Z2.0000
G00 X63.7337 Y55.2053
G01 F60.00
G01 Z-0.0600
G01 F120.00
G01 X62.8337 Y56.1053
G01 X62.8334 Y56.1053
G00 Z2.0000
G00 X62.5337 Y56.4053
G01 F60.00
G01 Z-0.0600
G01 F120.00
G01 X62.5334 Y56.4053
G00 Z2.0000
G00 X62.3102 Y56.7053
G01 F60.00
G01 Z-0.0600
G01 F120.00
G01 X62.3059 Y56.7053
G00 Z2.0000
G00 X62.2497 Y57.0053
G01 F60.00
G01 Z-0.0600
G01 F120.00
G01 X62.2494 Y57.0053
G00 Z2.0000
G00 X62.2495 Y57.3053
G01 F60.00
G01 Z-0.0600
G01 F120.00
G01 X62.2497 Y57.3053
G01 X62.2497 Y57.6053
G01 X62.2495 Y57.6053
G01 X62.2497 Y60.0053
G01 X62.2495 Y60.0053
G00 Z2.0000
G00 X62.1317 Y60.3053
G01 F60.00
G01 Z-0.0600
G01 F120.00
G01 X62.1268 Y60.3053
G00 Z2.0000
G00 X62.0191 Y60.6053
G01 F60.00
G01 Z-0.0600
G01 F120.00
G01 X62.0164 Y60.6053
G00 Z2.0000
G00 X61.9957 Y60.8000
G01 F60.00
G01 Z-0.0600
G01 F120.00
G01 X62.0109 Y60.9744
G01 X62.0562 Y61.1435
G01 X62.1302 Y61.3022
G01 X62.2306 Y61.4456
G01 X62.3544 Y61.5694
G01 X62.4978 Y61.6698
G01 X62.6565 Y61.7438
G01 X62.8256 Y61.7891
G01 X63.0000 Y61.8043
G01 X63.1744 Y61.7891
G01 X63.3435 Y61.7438
G01 X63.5022 Y61.6698
G01 X63.5759 Y61.6181
G01 X63.5919 Y61.6078
G01 X63.6087 Y61.5987
G01 X63.6483 Y61.5793
G01 X63.6600 Y61.5742
G01 X63.6719 Y61.5698
G01 X63.6840 Y61.5660
G01 X63.6964 Y61.5628
G01 X63.7088 Y61.5602
G01 X63.7587 Y61.5525
G01 X63.7713 Y61.5512
G01 X63.7841 Y61.5506
G01 X64.3878 Y61.5505
G01 X64.4062 Y61.5512
G01 X64.4184 Y61.5524
G01 X64.4305 Y61.5542
G01 X64.4840 Y61.5647
G01 X64.4960 Y61.5674
G01 X64.5136 Y61.5726
G01 X64.5252 Y61.5767
G01 X64.5365 Y61.5814
G01 X64.5531 Y61.5895
G01 X64.5690 Y61.5987
G01 X64.6108 Y61.6262
G01 X64.6319 Y61.6418
G01 X64.7370 Y61.7067
G01 X64.8498 Y61.7441
G01 X64.9127 Y61.7505
G01 X65.6873 Y61.7505
G01 X65.7501 Y61.7441
G01 X65.8630 Y61.7067
G01 X65.9625 Y61.6453
G01 X66.0359 Y61.5719
G01 X66.0445 Y61.5637
G01 X66.0535 Y61.5559
G01 X66.0629 Y61.5486
G01 X66.0725 Y61.5417
G01 X66.0826 Y61.5352
G01 X66.1487 Y61.4970
G01 X66.1598 Y61.4914
G01 X66.1769 Y61.4839
G01 X66.1946 Y61.4777
G01 X66.2066 Y61.4743
G01 X66.2187 Y61.4716
G01 X66.2310 Y61.4694
G01 X66.2434 Y61.4678
G01 X66.2620 Y61.4667
G01 X66.3387 Y61.4667
G01 X66.3511 Y61.4673
G01 X66.3635 Y61.4685
G01 X66.3820 Y61.4716
G01 X66.3941 Y61.4743
G01 X66.4061 Y61.4777
G01 X66.4238 Y61.4839
G01 X66.4409 Y61.4914
G01 X66.4574 Y61.5001
G01 X66.5181 Y61.5352
G01 X66.5282 Y61.5417
G01 X66.5426 Y61.5522
G01 X66.5517 Y61.5598
G01 X66.5606 Y61.5678
G01 X66.6378 Y61.6449
G01 X66.7373 Y61.7062
G01 X66.8000 Y61.7270
G01 X66.7587 Y61.7119
G01 X66.7197 Y61.6938
G01 X66.7089 Y61.6880
G01 X66.6826 Y61.6723
G01 X66.6722 Y61.6657
G01 X66.6622 Y61.6587
G01 X66.6328 Y61.6365
G01 X66.6235 Y61.6285
G01 X66.5964 Y61.6036
G01 X66.5715 Y61.5765
G01 X66.5635 Y61.5672
G01 X66.5413 Y61.5378
G01 X66.5343 Y61.5278
G01 X66.5277 Y61.5174
G01 X66.5120 Y61.4911
G01 X66.5062 Y61.4803
G01 X66.4881 Y61.4413
G01 X66.4733 Y61.4006
G01 X66.4698 Y61.3891
G01 X66.4623 Y61.3595
G01 X66.4596 Y61.3475
G01 X66.4575 Y61.3355
G01 X66.4524 Y61.2990
G01 X66.4515 Y61.2868
G01 X66.4500 Y61.2500
G01 X66.4501 Y60.3439
G01 X66.4519 Y60.3071
G01 X66.4539 Y60.2888
G01 X66.4596 Y60.2525
G01 X66.4683 Y60.2167
G01 X66.4734 Y60.1990
G01 X66.4881 Y60.1587
G01 X66.5035 Y60.1253
G01 X66.5120 Y60.1089
G01 X66.5309 Y60.0774
G01 X66.5413 Y60.0622
G01 X66.5635 Y60.0328
G01 X66.5922 Y60.0008
G01 X66.6053 Y59.9880
G01 X66.6328 Y59.9635
G01 X66.6672 Y59.9377
G01 X66.6826 Y59.9277
G01 X66.7143 Y59.9090
G01 X66.7474 Y59.8930
G01 X66.7644 Y59.8858
G01 X66.8000 Y59.8730
G01 X66.7373 Y59.8938
G01 X66.6378 Y59.9551
G01 X66.5606 Y60.0322
G01 X66.5517 Y60.0402
G01 X66.5426 Y60.0478
G01 X66.5282 Y60.0583
G01 X66.5182 Y60.0648
G01 X66.4574 Y60.0999
G01 X66.4409 Y60.1086
G01 X66.4238 Y60.1161
G01 X66.4061 Y60.1223
G01 X66.3941 Y60.1257
G01 X66.3820 Y60.1284
G01 X66.3635 Y60.1315
G01 X66.3511 Y60.1327
G01 X66.3387 Y60.1333
G01 X66.2620 Y60.1333
G01 X66.2496 Y60.1327
G01 X66.2310 Y60.1306
G01 X66.2126 Y60.1271
G01 X66.2005 Y60.1241
G01 X66.1886 Y60.1204
G01 X66.1769 Y60.1161
G01 X66.1598 Y60.1086
G01 X66.1487 Y60.1030
G01 X66.0826 Y60.0648
G01 X66.0677 Y60.0550
G01 X66.0581 Y60.0478
G01 X66.0490 Y60.0402
G01 X66.0402 Y60.0322
G01 X65.9625 Y59.9547
G01 X65.8630 Y59.8933
G01 X65.7502 Y59.8559
G01 X65.6873 Y59.8495
G01 X64.9127 Y59.8495
G01 X64.8498 Y59.8559
G01 X64.7370 Y59.8933
G01 X64.6319 Y59.9581
G01 X64.6124 Y59.9728
G01 X64.5621 Y60.0054
G01 X64.5463 Y60.0140
G01 X64.5299 Y60.0214
G01 X64.5187 Y60.0257
G01 X64.5015 Y60.0311
G01 X64.4840 Y60.0353
G01 X64.4305 Y60.0458
G01 X64.4184 Y60.0476
G01 X64.4000 Y60.0492
G01 X64.3878 Y60.0495
G01 X64.1186 Y60.0494
G01 X64.1067 Y60.0489
G01 X64.0948 Y60.0477
G01 X64.0830 Y60.0460
G01 X64.0714 Y60.0438
G01 X64.0598 Y60.0410
G01 X63.9918 Y60.0227
G01 X63.9741 Y60.0167
G01 X63.9568 Y60.0095
G01 X63.9402 Y60.0009
G01 X63.9243 Y59.9912
G01 X63.9091 Y59.9803
G01 X63.8994 Y59.9724
G01 X63.8902 Y59.9640
G01 X63.8403 Y59.9143
G01 X63.8276 Y59.9006
G01 X63.8197 Y59.8909
G01 X63.8123 Y59.8809
G01 X63.8022 Y59.8652
G01 X63.7932 Y59.8488
G01 X63.7880 Y59.8375
G01 X63.7833 Y59.8259
G01 X63.7792 Y59.8142
G01 X63.7756 Y59.8022
G01 X63.7562 Y59.7286
G01 X63.7540 Y59.7170
G01 X63.7523 Y59.7052
G01 X63.7511 Y59.6933
G01 X63.7505 Y59.6755
G01 X63.7505 Y57.4658
G01 X63.7512 Y57.4474
G01 X63.7524 Y57.4352
G01 X63.7542 Y57.4230
G01 X63.7660 Y57.3636
G01 X63.7707 Y57.3458
G01 X63.7746 Y57.3341
G01 X63.7814 Y57.3170
G01 X63.7895 Y57.3005
G01 X63.7955 Y57.2898
G01 X63.8021 Y57.2794
G01 X63.8324 Y57.2341
G01 X63.8436 Y57.2195
G01 X63.8558 Y57.2057
G01 X64.6057 Y56.4558
G01 X64.6195 Y56.4436
G01 X64.6292 Y56.4360
G01 X64.6794 Y56.4021
G01 X64.6898 Y56.3955
G01 X64.7005 Y56.3895
G01 X64.7170 Y56.3814
G01 X64.7341 Y56.3746
G01 X64.7458 Y56.3707
G01 X64.7576 Y56.3674
G01 X64.8170 Y56.3553
G01 X64.8352 Y56.3524
G01 X64.8474 Y56.3512
G01 X64.8658 Y56.3505
G01 X69.3893 Y56.3505
G01 X69.4015 Y56.3508
G01 X69.4197 Y56.3524
G01 X69.4318 Y56.3541
G01 X69.4438 Y56.3565
G01 X69.4556 Y56.3595
G01 X69.5250 Y56.3786
G01 X69.5366 Y56.3825
G01 X69.5480 Y56.3868
G01 X69.5646 Y56.3944
G01 X69.5754 Y56.4002
G01 X69.5859 Y56.4064
G01 X69.5961 Y56.4132
G01 X69.6059 Y56.4204
G01 X69.6200 Y56.4322
G01 X69.6331 Y56.4449
G01 X69.6829 Y56.4969
G01 X69.6947 Y56.5108
G01 X69.7055 Y56.5256
G01 X69.7152 Y56.5412
G01 X69.7237 Y56.5574
G01 X69.7310 Y56.5742
G01 X69.7371 Y56.5915
G01 X69.7419 Y56.6091
G01 X69.7580 Y56.6792
G01 X69.7610 Y56.6973
G01 X69.7623 Y56.7095
G01 X69.7630 Y56.7216
G01 X69.7629 Y56.7400
G01 X69.7615 Y56.7582
G01 X69.7587 Y56.7763
G01 X69.7562 Y56.7883
G01 X69.7530 Y56.8001
G01 X69.7292 Y56.8744
G01 X69.7249 Y56.8858
G01 X69.7201 Y56.8970
G01 X69.7147 Y56.9080
G01 X69.7068 Y56.9219
G01 X69.6232 Y57.1126
G01 X69.5723 Y57.3135
G01 X69.5552 Y57.5200
G01 X69.5723 Y57.7265
G01 X69.6232 Y57.9274
G01 X69.7064 Y58.1172
G01 X69.8198 Y58.2907
G01 X69.9602 Y58.4432
G01 X70.1237 Y58.5705
G01 X70.3060 Y58.6691
G01 X70.5020 Y58.7364
G01 X70.7064 Y58.7705
G01 X70.9136 Y58.7705
G01 X71.1180 Y58.7364
G01 X71.3140 Y58.6691
G01 X71.4963 Y58.5705
G01 X71.6598 Y58.4432
G01 X71.8036 Y58.2870
G01 X71.8157 Y58.2721
G01 X71.8240 Y58.2630
G01 X71.8372 Y58.2503
G01 X71.8791 Y58.2128
G01 X71.8930 Y58.2012
G01 X71.9027 Y58.1940
G01 X71.9128 Y58.1873
G01 X71.9232 Y58.1812
G01 X71.9392 Y58.1729
G01 X71.9559 Y58.1657
G01 X71.9730 Y58.1598
G01 X72.0436 Y58.1416
G01 X72.0557 Y58.1389
G01 X72.0741 Y58.1359
G01 X72.0864 Y58.1347
G01 X72.0988 Y58.1340
G01 X72.1112 Y58.1340
G01 X72.1236 Y58.1347
G01 X72.1359 Y58.1359
G01 X72.1482 Y58.1377
G01 X72.1664 Y58.1416
G01 X72.2314 Y58.1582
G01 X72.2491 Y58.1638
G01 X72.2663 Y58.1708
G01 X72.2830 Y58.1790
G01 X72.2938 Y58.1852
G01 X72.3042 Y58.1919
G01 X72.3143 Y58.1991
G01 X72.3287 Y58.2108
G01 X72.3606 Y58.2401
G01 X72.3740 Y58.2515
G01 X72.3829 Y58.2599
G01 X72.3954 Y58.2734
G01 X72.4064 Y58.2870
G01 X72.5502 Y58.4432
G01 X72.7137 Y58.5705
G01 X72.8960 Y58.6691
G01 X73.0920 Y58.7364
G01 X73.2964 Y58.7705
G01 X73.5036 Y58.7705
G01 X73.7080 Y58.7364
G01 X73.9040 Y58.6691
G01 X74.0863 Y58.5705
G01 X74.2498 Y58.4432
G01 X74.3938 Y58.2868
G01 X74.4044 Y58.2736
G01 X74.4166 Y58.2604
G01 X74.4298 Y58.2480
G01 X74.4701 Y58.2129
G01 X74.4796 Y58.2050
G01 X74.4946 Y58.1941
G01 X74.5103 Y58.1843
G01 X74.5267 Y58.1757
G01 X74.5437 Y58.1683
G01 X74.5612 Y58.1622
G01 X74.5731 Y58.1589
G01 X74.6321 Y58.1440
G01 X74.6442 Y58.1412
G01 X74.6625 Y58.1382
G01 X74.6749 Y58.1370
G01 X74.6873 Y58.1364
G01 X74.6997 Y58.1364
G01 X74.7121 Y58.1370
G01 X74.7244 Y58.1382
G01 X74.7367 Y58.1401
G01 X74.7548 Y58.1440
G01 X74.8198 Y58.1605
G01 X74.8317 Y58.1641
G01 X74.8434 Y58.1684
G01 X74.8604 Y58.1758
G01 X74.8769 Y58.1844
G01 X74.8927 Y58.1943
G01 X74.9027 Y58.2015
G01 X74.9172 Y58.2132
G01 X74.9666 Y58.2586
G01 X74.9798 Y58.2717
G01 X74.9880 Y58.2809
G01 X74.9958 Y58.2906
G01 X75.0031 Y58.3006
G01 X75.0098 Y58.3107
G01 X75.1502 Y58.4632
G01 X75.3137 Y58.5905
G01 X75.4960 Y58.6891
G01 X75.6920 Y58.7564
G01 X75.8964 Y58.7905
G01 X76.1036 Y58.7905
G01 X76.3080 Y58.7564
G01 X76.5040 Y58.6891
G01 X76.6863 Y58.5905
G01 X76.8498 Y58.4632
G01 X76.9938 Y58.3068
G01 X77.0029 Y58.2957
G01 X77.0158 Y58.2818
G01 X77.0249 Y58.2731
G01 X77.0345 Y58.2649
G01 X77.0826 Y58.2260
G01 X77.0972 Y58.2155
G01 X77.1073 Y58.2091
G01 X77.1177 Y58.2032
G01 X77.1339 Y58.1953
G01 X77.1505 Y58.1886
G01 X77.1676 Y58.1831
G01 X77.2336 Y58.1676
G01 X77.2454 Y58.1652
G01 X77.2631 Y58.1626
G01 X77.2810 Y58.1613
G01 X77.2930 Y58.1612
G01 X77.3049 Y58.1616
G01 X77.3169 Y58.1626
G01 X77.3287 Y58.1642
G01 X77.3464 Y58.1676
G01 X77.4066 Y58.1816
G01 X77.4238 Y58.1867
G01 X77.4351 Y58.1907
G01 X77.4461 Y58.1953
G01 X77.4569 Y58.2005
G01 X77.4675 Y58.2061
G01 X77.4828 Y58.2155
G01 X77.4974 Y58.2260
G01 X77.5455 Y58.2649
G01 X77.5551 Y58.2731
G01 X77.5642 Y58.2818
G01 X77.5771 Y58.2957
G01 X77.5863 Y58.3069
G01 X77.7302 Y58.4632
G01 X77.8937 Y58.5905
G01 X78.0760 Y58.6891
G01 X78.2720 Y58.7564
G01 X78.4764 Y58.7905
G01 X78.6836 Y58.7905
G01 X78.8880 Y58.7564
G01 X79.0840 Y58.6891
G01 X79.2663 Y58.5905
G01 X79.4298 Y58.4632
G01 X79.5695 Y58.3115
G01 X79.5785 Y58.3028
G01 X79.5878 Y58.2944
G01 X79.5976 Y58.2866
G01 X79.6077 Y58.2793
G01 X79.6182 Y58.2724
G01 X79.6811 Y58.2339
G01 X79.6921 Y58.2279
G01 X79.7091 Y58.2199
G01 X79.7208 Y58.2153
G01 X79.7326 Y58.2113
G01 X79.7508 Y58.2064
G01 X79.7692 Y58.2029
G01 X79.7816 Y58.2013
G01 X79.7941 Y58.2004
G01 X79.8067 Y58.2001
G01 X79.8804 Y58.2002
G01 X79.8929 Y58.2008
G01 X79.9116 Y58.2029
G01 X79.9300 Y58.2064
G01 X79.9422 Y58.2095
G01 X79.9541 Y58.2132
G01 X79.9659 Y58.2175
G01 X79.9774 Y58.2224
G01 X79.9942 Y58.2308
G01 X80.0051 Y58.2371
G01 X80.0678 Y58.2758
G01 X80.0782 Y58.2829
G01 X80.0930 Y58.2944
G01 X80.1068 Y58.3071
G01 X80.1156 Y58.3161
G01 X80.2602 Y58.4732
G01 X80.4237 Y58.6005
G01 X80.6060 Y58.6991
G01 X80.8020 Y58.7664
G01 X81.0064 Y58.8005
G01 X81.2136 Y58.8005
G01 X81.4180 Y58.7664
G01 X81.6140 Y58.6991
G01 X81.7963 Y58.6005
G01 X81.9598 Y58.4732
G01 X82.1184 Y58.3010
G01 X82.1316 Y58.2884
G01 X82.1456 Y58.2767
G01 X82.2065 Y58.2340
G01 X82.2167 Y58.2273
G01 X82.2273 Y58.2211
G01 X82.2381 Y58.2154
G01 X82.2491 Y58.2102
G01 X82.2604 Y58.2056
G01 X82.2720 Y58.2015
G01 X82.2896 Y58.1965
G01 X82.3015 Y58.1939
G01 X82.3136 Y58.1918
G01 X82.3318 Y58.1899
G01 X82.3868 Y58.1860
G01 X82.5268 Y58.0460
G01 X82.4975 Y57.9640
G01 X82.4938 Y57.9526
G01 X82.4906 Y57.9410
G01 X82.4667 Y57.8458
G01 X82.4640 Y57.8339
G01 X82.4619 Y57.8218
G01 X82.4475 Y57.7247
G01 X82.4460 Y57.7125
G01 X82.4451 Y57.7003
G01 X82.4403 Y57.6023
G01 X82.4400 Y57.5900
G01 X82.4403 Y57.5777
G01 X82.4451 Y57.4797
G01 X82.4460 Y57.4675
G01 X82.4475 Y57.4553
G01 X82.4619 Y57.3582
G01 X82.4640 Y57.3461
G01 X82.4667 Y57.3342
G01 X82.4906 Y57.2390
G01 X82.4938 Y57.2271
G01 X82.4977 Y57.2155
G01 X82.5268 Y57.1340
G01 X82.3641 Y56.9712
G01 X82.3482 Y56.9671
G01 X82.3366 Y56.9634
G01 X82.2798 Y56.9437
G01 X82.2629 Y56.9367
G01 X82.2465 Y56.9284
G01 X82.2309 Y56.9190
G01 X82.2159 Y56.9085
G01 X82.2064 Y56.9008
G01 X82.1928 Y56.8886
G01 X82.1541 Y56.8509
G01 X82.1415 Y56.8376
G01 X82.1336 Y56.8283
G01 X82.1262 Y56.8186
G01 X82.1002 Y56.7793
G01 X81.9598 Y56.6268
G01 X81.7963 Y56.4995
G01 X81.6140 Y56.4009
G01 X81.4180 Y56.3336
G01 X81.2136 Y56.2995
G01 X81.0064 Y56.2995
G01 X80.8020 Y56.3336
G01 X80.6060 Y56.4009
G01 X80.4237 Y56.4995
G01 X80.2602 Y56.6268
G01 X80.1205 Y56.7785
G01 X80.1115 Y56.7872
G01 X80.1022 Y56.7956
G01 X80.0924 Y56.8034
G01 X80.0823 Y56.8107
G01 X80.0717 Y56.8176
G01 X80.0089 Y56.8561
G01 X79.9979 Y56.8621
G01 X79.9809 Y56.8701
G01 X79.9633 Y56.8768
G01 X79.9514 Y56.8805
G01 X79.9392 Y56.8836
G01 X79.9208 Y56.8871
G01 X79.9084 Y56.8887
G01 X79.8959 Y56.8896
G01 X79.8833 Y56.8899
G01 X79.8159 Y56.8899
G01 X79.7971 Y56.8892
G01 X79.7846 Y56.8880
G01 X79.7722 Y56.8861
G01 X79.7600 Y56.8836
G01 X79.7418 Y56.8787
G01 X79.7241 Y56.8725
G01 X79.7126 Y56.8676
G01 X79.7013 Y56.8621
G01 X79.6903 Y56.8561
G01 X79.6222 Y56.8142
G01 X79.6118 Y56.8071
G01 X79.6019 Y56.7995
G01 X79.5877 Y56.7872
G01 X79.5744 Y56.7739
G01 X79.4293 Y56.6163
G01 X79.4217 Y56.6075
G01 X79.4144 Y56.5985
G01 X79.4043 Y56.5842
G01 X79.3769 Y56.5404
G01 X79.3706 Y56.5297
G01 X79.3648 Y56.5188
G01 X79.3572 Y56.5018
G01 X79.3509 Y56.4843
G01 X79.3474 Y56.4724
G01 X79.3433 Y56.4543
G01 X79.3329 Y56.3977
G01 X79.3311 Y56.3804
G01 X79.3305 Y56.3630
G01 X79.3305 Y46.7858
G01 X79.3308 Y46.7735
G01 X79.3317 Y46.7613
G01 X79.3342 Y46.7430
G01 X79.3460 Y46.6836
G01 X79.3507 Y46.6658
G01 X79.3546 Y46.6541
G01 X79.3590 Y46.6427
G01 X79.3639 Y46.6314
G01 X79.3695 Y46.6205
G01 X79.3755 Y46.6098
G01 X79.3821 Y46.5994
G01 X79.4160 Y46.5492
G01 X79.4275 Y46.5348
G01 X79.4400 Y46.5213
G01 X81.2057 Y44.7558
G01 X81.2195 Y44.7436
G01 X81.2292 Y44.7360
G01 X81.2392 Y44.7290
G01 X81.2846 Y44.6987
G01 X81.2951 Y44.6924
G01 X81.3114 Y44.6839
G01 X81.3284 Y44.6767
G01 X81.3399 Y44.6726
G01 X81.3517 Y44.6690
G01 X81.3696 Y44.6647
G01 X81.4230 Y44.6542
G01 X81.4352 Y44.6524
G01 X81.4474 Y44.6512
G01 X81.4658 Y44.6505
G01 X89.7287 Y44.6505
G01 X89.7392 Y44.6507
G01 X89.7602 Y44.6520
G01 X89.7809 Y44.6541
G01 X89.8191 Y44.6513
G01 X89.8333 Y44.6507
G01 X89.8763 Y44.6505
G01 X89.8916 Y44.6476
G01 X89.9123 Y44.6446
G01 X89.9331 Y44.6425
G01 X89.9745 Y44.6309
G01 X89.9883 Y44.6275
G01 X90.0258 Y44.6198
G01 X90.0402 Y44.6138
G01 X90.0599 Y44.6068
G01 X90.0798 Y44.6005
G01 X90.1138 Y44.5828
G01 X90.1266 Y44.5767
G01 X90.1661 Y44.5596
G01 X90.1835 Y44.5481
G01 X90.2014 Y44.5373
G01 X90.2151 Y44.5299
G01 X90.2486 Y44.5028
G01 X90.2600 Y44.4943
G01 X90.2914 Y44.4724
G01 X90.3408 Y44.4206
G01 X92.2902 Y42.4711
G01 X92.2975 Y42.4641
G01 X92.3136 Y42.4499
G01 X92.3297 Y42.4368
G01 X92.3579 Y42.4042
G01 X92.3676 Y42.3938
G01 X92.3946 Y42.3667
G01 X92.4065 Y42.3496
G01 X92.4189 Y42.3332
G01 X92.4292 Y42.3209
G01 X92.4478 Y42.2875
G01 X92.4551 Y42.2753
G01 X92.4786 Y42.2393
G01 X92.4868 Y42.2201
G01 X92.4974 Y42.1981
G01 X92.5032 Y42.1875
G01 X92.5147 Y42.1510
G01 X92.5195 Y42.1376
G01 X92.5353 Y42.0975
G01 X92.5382 Y42.0823
G01 X92.5432 Y42.0619
G01 X92.5489 Y42.0419
G01 X92.5529 Y42.0037
G01 X92.5548 Y41.9897
G01 X92.5622 Y41.9473
G01 X92.5605 Y41.8758
G01 X92.5605 Y41.5970
G01 X92.5611 Y41.5796
G01 X92.5622 Y41.5680
G01 X92.5638 Y41.5565
G01 X92.5745 Y41.4996
G01 X92.5774 Y41.4876
G01 X92.5809 Y41.4757
G01 X92.5872 Y41.4582
G01 X92.5922 Y41.4468
G01 X92.5977 Y41.4357
G01 X92.6069 Y41.4196
G01 X92.6343 Y41.3758
G01 X92.6409 Y41.3662
G01 X92.6517 Y41.3525
G01 X92.6593 Y41.3437
G01 X92.8036 Y41.1870
G01 X92.8157 Y41.1721
G01 X92.8240 Y41.1630
G01 X92.8372 Y41.1503
G01 X92.8883 Y41.1049
G01 X92.9027 Y41.0940
G01 X92.9128 Y41.0873
G01 X92.9232 Y41.0812
G01 X92.9392 Y41.0729
G01 X92.9503 Y41.0680
G01 X92.9615 Y41.0636
G01 X92.9730 Y41.0598
G01 X92.9846 Y41.0566
G01 X93.0497 Y41.0402
G01 X93.0618 Y41.0377
G01 X93.0802 Y41.0352
G01 X93.0988 Y41.0340
G01 X93.1174 Y41.0343
G01 X93.1359 Y41.0359
G01 X93.1543 Y41.0389
G01 X93.1664 Y41.0416
G01 X93.2314 Y41.0582
G01 X93.2491 Y41.0638
G01 X93.2663 Y41.0708
G01 X93.2775 Y41.0762
G01 X93.2938 Y41.0852
G01 X93.3042 Y41.0919
G01 X93.3143 Y41.0991
G01 X93.3287 Y41.1108
G01 X93.3606 Y41.1401
G01 X93.3695 Y41.1474
G01 X93.3785 Y41.1556
G01 X93.3914 Y41.1688
G01 X93.4064 Y41.1870
G01 X93.5502 Y41.3432
G01 X93.7137 Y41.4705
G01 X93.8960 Y41.5691
G01 X94.0920 Y41.6364
G01 X94.2964 Y41.6705
G01 X94.5036 Y41.6705
G01 X94.7080 Y41.6364
G01 X94.9040 Y41.5691
G01 X95.0863 Y41.4705
G01 X95.2498 Y41.3432
G01 X95.3902 Y41.1907
G01 X95.4091 Y41.1623
G01 X95.4165 Y41.1526
G01 X95.4285 Y41.1387
G01 X95.4370 Y41.1300
G01 X95.4801 Y41.0881
G01 X95.4893 Y41.0800
G01 X95.4988 Y41.0724
G01 X95.5138 Y41.0619
G01 X95.5241 Y41.0555
G01 X95.5348 Y41.0496
G01 X95.5514 Y41.0417
G01 X95.5684 Y41.0351
G01 X95.6195 Y41.0174
G01 X95.6370 Y41.0121
G01 X95.6488 Y41.0092
G01 X95.6608 Y41.0070
G01 X95.6729 Y41.0053
G01 X95.6889 Y41.0040
G01 X95.8368 Y40.8560
G01 X95.8077 Y40.7745
G01 X95.8039 Y40.7631
G01 X95.8006 Y40.7510
G01 X95.7767 Y40.6558
G01 X95.7740 Y40.6439
G01 X95.7719 Y40.6318
G01 X95.7575 Y40.5347
G01 X95.7560 Y40.5225
G01 X95.7551 Y40.5103
G01 X95.7503 Y40.4123
G01 X95.7500 Y40.4000
G01 X95.7503 Y40.3877
G01 X95.7551 Y40.2897
G01 X95.7560 Y40.2775
G01 X95.7575 Y40.2653
G01 X95.7719 Y40.1682
G01 X95.7740 Y40.1561
G01 X95.7767 Y40.1442
G01 X95.8006 Y40.0490
G01 X95.8038 Y40.0371
G01 X95.8077 Y40.0255
G01 X95.8368 Y39.9440
G01 X95.7028 Y39.8099
G01 X95.6814 Y39.8106
G01 X95.6692 Y39.8101
G01 X95.6570 Y39.8090
G01 X95.6449 Y39.8074
G01 X95.6329 Y39.8052
G01 X95.6210 Y39.8023
G01 X95.6092 Y39.7989
G01 X95.5464 Y39.7773
G01 X95.5294 Y39.7703
G01 X95.5185 Y39.7649
G01 X95.5077 Y39.7590
G01 X95.4922 Y39.7492
G01 X95.4823 Y39.7421
G01 X95.4727 Y39.7344
G01 X95.4636 Y39.7263
G01 X95.4203 Y39.6843
G01 X95.4117 Y39.6756
G01 X95.3997 Y39.6617
G01 X95.3911 Y39.6503
G01 X95.2498 Y39.4968
G01 X95.0863 Y39.3695
G01 X94.9040 Y39.2709
G01 X94.7080 Y39.2036
G01 X94.5036 Y39.1695
G01 X94.2964 Y39.1695
G01 X94.0920 Y39.2036
G01 X93.8960 Y39.2709
G01 X93.7137 Y39.3695
G01 X93.5502 Y39.4968
G01 X93.4064 Y39.6530
G01 X93.3943 Y39.6679
G01 X93.3860 Y39.6769
G01 X93.3728 Y39.6897
G01 X93.3309 Y39.7272
G01 X93.3217 Y39.7351
G01 X93.3073 Y39.7460
G01 X93.2972 Y39.7526
G01 X93.2868 Y39.7588
G01 X93.2708 Y39.7671
G01 X93.2541 Y39.7743
G01 X93.2370 Y39.7802
G01 X93.1664 Y39.7984
G01 X93.1543 Y39.8011
G01 X93.1421 Y39.8033
G01 X93.1298 Y39.8048
G01 X93.1112 Y39.8060
G01 X93.0988 Y39.8060
G01 X93.0864 Y39.8053
G01 X93.0741 Y39.8041
G01 X93.0618 Y39.8023
G01 X93.0436 Y39.7984
G01 X92.9846 Y39.7834
G01 X92.9668 Y39.7782
G01 X92.9493 Y39.7716
G01 X92.9325 Y39.7638
G01 X92.9162 Y39.7548
G01 X92.9007 Y39.7445
G01 X92.8860 Y39.7332
G01 X92.8494 Y39.6999
G01 X92.8360 Y39.6886
G01 X92.8271 Y39.6801
G01 X92.8146 Y39.6666
G01 X92.8036 Y39.6530
G01 X92.6598 Y39.4968
G01 X92.4963 Y39.3695
G01 X92.3140 Y39.2709
G01 X92.1180 Y39.2036
G01 X91.9136 Y39.1695
G01 X91.7064 Y39.1695
G01 X91.5020 Y39.2036
G01 X91.3060 Y39.2709
G01 X91.1237 Y39.3695
G01 X90.9602 Y39.4968
G01 X90.8198 Y39.6493
G01 X90.7064 Y39.8228
G01 X90.6232 Y40.0126
G01 X90.5723 Y40.2135
G01 X90.5552 Y40.4200
G01 X90.5723 Y40.6265
G01 X90.6232 Y40.8274
G01 X90.7064 Y41.0172
G01 X90.8198 Y41.1907
G01 X90.8821 Y41.2585
G01 X90.8941 Y41.2733
G01 X90.9015 Y41.2837
G01 X90.9115 Y41.3000
G01 X90.9440 Y41.3608
G01 X90.9519 Y41.3772
G01 X90.9566 Y41.3884
G01 X90.9625 Y41.4056
G01 X90.9671 Y41.4232
G01 X90.9705 Y41.4411
G01 X90.9720 Y41.4531
G01 X90.9729 Y41.4652
G01 X90.9733 Y41.4774
G01 X90.9717 Y41.5520
G01 X90.9709 Y41.5641
G01 X90.9695 Y41.5762
G01 X90.9662 Y41.5941
G01 X90.9634 Y41.6059
G01 X90.9599 Y41.6175
G01 X90.9559 Y41.6290
G01 X90.9514 Y41.6402
G01 X90.9463 Y41.6513
G01 X90.9376 Y41.6673
G01 X90.9060 Y41.7212
G01 X90.8993 Y41.7320
G01 X90.8882 Y41.7476
G01 X90.8801 Y41.7575
G01 X90.8716 Y41.7669
G01 X89.5987 Y43.0400
G01 X89.5852 Y43.0525
G01 X89.5757 Y43.0603
G01 X89.5659 Y43.0676
G01 X89.5206 Y43.0979
G01 X89.5049 Y43.1076
G01 X89.4886 Y43.1161
G01 X89.4716 Y43.1233
G01 X89.4542 Y43.1293
G01 X89.4364 Y43.1340
G01 X89.3830 Y43.1447
G01 X89.3709 Y43.1468
G01 X89.3526 Y43.1488
G01 X89.3342 Y43.1495
G01 X81.0713 Y43.1495
G01 X81.0608 Y43.1493
G01 X81.0398 Y43.1480
G01 X81.0191 Y43.1459
G01 X80.9809 Y43.1487
G01 X80.9667 Y43.1493
G01 X80.9237 Y43.1495
G01 X80.9084 Y43.1524
G01 X80.8876 Y43.1554
G01 X80.8669 Y43.1575
G01 X80.8255 Y43.1691
G01 X80.8117 Y43.1725
G01 X80.7742 Y43.1802
G01 X80.7598 Y43.1862
G01 X80.7401 Y43.1932
G01 X80.7202 Y43.1995
G01 X80.6862 Y43.2171
G01 X80.6734 Y43.2233
G01 X80.6339 Y43.2404
G01 X80.6165 Y43.2519
G01 X80.5986 Y43.2627
G01 X80.5849 Y43.2701
G01 X80.5514 Y43.2972
G01 X80.5400 Y43.3057
G01 X80.5086 Y43.3276
G01 X80.4592 Y43.3794
G01 X78.0997 Y45.7389
G01 X78.0925 Y45.7459
G01 X78.0764 Y45.7601
G01 X78.0603 Y45.7732
G01 X78.0321 Y45.8058
G01 X78.0224 Y45.8162
G01 X77.9953 Y45.8433
G01 X77.9866 Y45.8561
G01 X77.9740 Y45.8729
G01 X77.9608 Y45.8891
G01 X77.9398 Y45.9266
G01 X77.9324 Y45.9387
G01 X77.9114 Y45.9707
G01 X77.9032 Y45.9899
G01 X77.8926 Y46.0119
G01 X77.8868 Y46.0225
G01 X77.8737 Y46.0636
G01 X77.8672 Y46.0813
G01 X77.8547 Y46.1125
G01 X77.8506 Y46.1329
G01 X77.8458 Y46.1522
G01 X77.8411 Y46.1681
G01 X77.8365 Y46.2110
G01 X77.8337 Y46.2297
G01 X77.8278 Y46.2627
G01 X77.8295 Y46.3343
G01 X77.8295 Y56.3630
G01 X77.8292 Y56.3746
G01 X77.8278 Y56.3920
G01 X77.8262 Y56.4035
G01 X77.8167 Y56.4543
G01 X77.8141 Y56.4664
G01 X77.8109 Y56.4784
G01 X77.8050 Y56.4960
G01 X77.7978 Y56.5132
G01 X77.7894 Y56.5297
G01 X77.7588 Y56.5793
G01 X77.7491 Y56.5938
G01 X77.7383 Y56.6075
G01 X77.7307 Y56.6163
G01 X77.5862 Y56.7731
G01 X77.5771 Y56.7844
G01 X77.5642 Y56.7982
G01 X77.5503 Y56.8110
G01 X77.4974 Y56.8540
G01 X77.4877 Y56.8611
G01 X77.4778 Y56.8677
G01 X77.4675 Y56.8739
G01 X77.4569 Y56.8795
G01 X77.4461 Y56.8846
G01 X77.4295 Y56.8914
G01 X77.4124 Y56.8968
G01 X77.4008 Y56.8998
G01 X77.3346 Y56.9148
G01 X77.3169 Y56.9174
G01 X77.3049 Y56.9184
G01 X77.2930 Y56.9188
G01 X77.2810 Y56.9187
G01 X77.2631 Y56.9174
G01 X77.2513 Y56.9158
G01 X77.2395 Y56.9137
G01 X77.1792 Y56.8998
G01 X77.1676 Y56.8968
G01 X77.1505 Y56.8914
G01 X77.1339 Y56.8846
G01 X77.1177 Y56.8768
G01 X77.1073 Y56.8709
G01 X77.0972 Y56.8645
G01 X77.0874 Y56.8576
G01 X77.0345 Y56.8151
G01 X77.0203 Y56.8026
G01 X77.0071 Y56.7891
G01 X76.9937 Y56.7731
G01 X76.8493 Y56.6163
G01 X76.8417 Y56.6075
G01 X76.8309 Y56.5938
G01 X76.8212 Y56.5793
G01 X76.7937 Y56.5351
G01 X76.7848 Y56.5188
G01 X76.7772 Y56.5018
G01 X76.7709 Y56.4843
G01 X76.7659 Y56.4664
G01 X76.7633 Y56.4543
G01 X76.7538 Y56.4035
G01 X76.7522 Y56.3920
G01 X76.7511 Y56.3804
G01 X76.7505 Y56.3630
G01 X76.7505 Y55.9713
G01 X76.7507 Y55.9608
G01 X76.7520 Y55.9398
G01 X76.7541 Y55.9191
G01 X76.7513 Y55.8809
G01 X76.7507 Y55.8667
G01 X76.7505 Y55.8237
G01 X76.7476 Y55.8084
G01 X76.7446 Y55.7876
G01 X76.7425 Y55.7669
G01 X76.7309 Y55.7254
G01 X76.7275 Y55.7117
G01 X76.7198 Y55.6742
G01 X76.7138 Y55.6598
G01 X76.7068 Y55.6401
G01 X76.7005 Y55.6202
G01 X76.6829 Y55.5862
G01 X76.6767 Y55.5735
G01 X76.6596 Y55.5339
G01 X76.6481 Y55.5165
G01 X76.6373 Y55.4986
G01 X76.6299 Y55.4849
G01 X76.6028 Y55.4514
G01 X76.5943 Y55.4400
G01 X76.5724 Y55.4086
G01 X76.5206 Y55.3592
G01 X76.2811 Y55.1197
G01 X76.2741 Y55.1125
G01 X76.2599 Y55.0964
G01 X76.2468 Y55.0803
G01 X76.2177 Y55.0553
G01 X76.2073 Y55.0457
G01 X76.1767 Y55.0154
G01 X76.1596 Y55.0035
G01 X76.1432 Y54.9911
G01 X76.1309 Y54.9808
G01 X76.0934 Y54.9598
G01 X76.0813 Y54.9524
G01 X76.0493 Y54.9314
G01 X76.0349 Y54.9254
G01 X76.0160 Y54.9164
G01 X75.9975 Y54.9068
G01 X75.9564 Y54.8937
G01 X75.9387 Y54.8872
G01 X75.9075 Y54.8747
G01 X75.8923 Y54.8718
G01 X75.8719 Y54.8668
G01 X75.8519 Y54.8611
G01 X75.8090 Y54.8565
G01 X75.7904 Y54.8537
G01 X75.7573 Y54.8478
G01 X75.6857 Y54.8495
G01 X68.6608 Y54.8495
G01 X68.6484 Y54.8492
G01 X68.6360 Y54.8483
G01 X68.6237 Y54.8467
G01 X68.6115 Y54.8446
G01 X68.5994 Y54.8419
G01 X68.5404 Y54.8269
G01 X68.5284 Y54.8236
G01 X68.5167 Y54.8196
G01 X68.5051 Y54.8151
G01 X68.4938 Y54.8101
G01 X68.4828 Y54.8044
G01 X68.4720 Y54.7983
G01 X68.4616 Y54.7916
G01 X68.4515 Y54.7844
G01 X68.4418 Y54.7767
G01 X68.4324 Y54.7685
G01 X68.3831 Y54.7230
G01 X68.3744 Y54.7142
G01 X68.3662 Y54.7049
G01 X68.3547 Y54.6903
G01 X68.3444 Y54.6748
G01 X68.3381 Y54.6641
G01 X68.3324 Y54.6531
G01 X68.3272 Y54.6418
G01 X68.3226 Y54.6303
G01 X68.3007 Y54.5669
G01 X68.2954 Y54.5491
G01 X68.2925 Y54.5370
G01 X68.2894 Y54.5187
G01 X68.2881 Y54.5064
G01 X68.2873 Y54.4940
G01 X68.2872 Y54.4816
G01 X68.2877 Y54.4692
G01 X68.2889 Y54.4569
G01 X68.2906 Y54.4446
G01 X68.3017 Y54.3784
G01 X68.3059 Y54.3603
G01 X68.3095 Y54.3484
G01 X68.3136 Y54.3367
G01 X68.3281 Y54.3028
G01 X68.3790 Y54.1020
G01 X68.3961 Y53.8955
G01 X68.3790 Y53.6891
G01 X68.3281 Y53.4883
G01 X68.3062 Y53.4382
G01 X68.3050 Y53.4395
G01 X68.3343 Y53.5215
G01 X68.3381 Y53.5329
G01 X68.3413 Y53.5445
G01 X68.3651 Y53.6397
G01 X68.3678 Y53.6517
G01 X68.3699 Y53.6638
G01 X68.3843 Y53.7608
G01 X68.3858 Y53.7730
G01 X68.3867 Y53.7852
G01 X68.3915 Y53.8833
G01 X68.3918 Y53.8955
G01 X68.3915 Y53.9078
G01 X68.3867 Y54.0058
G01 X68.3858 Y54.0180
G01 X68.3843 Y54.0302
G01 X68.3699 Y54.1273
G01 X68.3678 Y54.1394
G01 X68.3651 Y54.1514
G01 X68.3413 Y54.2466
G01 X68.3380 Y54.2584
G01 X68.3341 Y54.2700
G01 X68.3011 Y54.3624
G01 X68.2967 Y54.3739
G01 X68.2917 Y54.3851
G01 X68.2497 Y54.4738
G01 X68.2442 Y54.4848
G01 X68.2382 Y54.4954
G01 X68.1877 Y54.5796
G01 X68.1812 Y54.5900
G01 X68.1741 Y54.6000
G01 X68.1156 Y54.6788
G01 X68.1081 Y54.6885
G01 X68.1001 Y54.6978
G01 X68.0342 Y54.7705
G01 X68.0257 Y54.7794
G01 X68.0168 Y54.7879
G01 X67.9485 Y54.8497
G01 X75.7061 Y54.8498
G01 X75.7613 Y54.8525
G01 X75.7735 Y54.8534
G01 X75.8343 Y54.8621
G01 X75.8464 Y54.8642
G01 X75.8583 Y54.8669
G01 X75.9178 Y54.8821
G01 X75.9757 Y54.9024
G01 X75.9871 Y54.9069
G01 X75.9983 Y54.9118
G01 X76.0537 Y54.9383
G01 X76.1064 Y54.9696
G01 X76.1219 Y54.9797
G01 X76.1712 Y55.0162
G01 X76.1852 Y55.0281
G01 X76.2261 Y55.0652
G01 X76.5348 Y55.3739
G01 X76.5719 Y55.4148
G01 X76.5800 Y55.4240
G01 X76.5875 Y55.4337
G01 X76.6203 Y55.4781
G01 X76.6304 Y55.4936
G01 X76.6556 Y55.5357
G01 X76.6617 Y55.5463
G01 X76.6672 Y55.5573
G01 X76.6931 Y55.6129
G01 X76.7141 Y55.6706
G01 X76.7180 Y55.6824
G01 X76.7331 Y55.7417
G01 X76.7358 Y55.7536
G01 X76.7451 Y55.8143
G01 X76.7472 Y55.8326
G01 X76.7499 Y55.8877
G01 X76.7503 Y55.9000
G01 X76.7503 Y56.5417
G01 X76.7833 Y56.5662
G01 X76.7977 Y56.5777
G01 X76.8750 Y56.6477
G01 X76.8882 Y56.6605
G01 X76.9582 Y56.7377
G01 X76.9663 Y56.7470
G01 X76.9738 Y56.7567
G01 X77.0323 Y56.8355
G01 X77.0427 Y56.8507
G01 X77.0964 Y56.9401
G01 X77.1024 Y56.9508
G01 X77.1079 Y56.9617
G01 X77.1499 Y57.0504
G01 X77.1548 Y57.0616
G01 X77.1593 Y57.0731
G01 X77.1923 Y57.1655
G01 X77.1961 Y57.1769
G01 X77.1994 Y57.1890
G01 X77.2233 Y57.2842
G01 X77.2271 Y57.3022
G01 X77.2425 Y57.4053
G01 X77.2440 Y57.4175
G01 X77.2449 Y57.4297
G01 X77.2497 Y57.5277
G01 X77.2500 Y57.5400
G01 X77.2497 Y57.5523
G01 X77.2449 Y57.6503
G01 X77.2440 Y57.6625
G01 X77.2425 Y57.6747
G01 X77.2281 Y57.7718
G01 X77.2260 Y57.7839
G01 X77.2233 Y57.7958
G01 X77.1994 Y57.8910
G01 X77.1962 Y57.9029
G01 X77.1923 Y57.9145
G01 X77.1593 Y58.0069
G01 X77.1548 Y58.0184
G01 X77.1499 Y58.0296
G01 X77.1079 Y58.1183
G01 X77.1024 Y58.1292
G01 X77.0964 Y58.1399
G01 X77.0459 Y58.2241
G01 X77.0393 Y58.2345
G01 X77.0323 Y58.2445
G01 X76.9738 Y58.3233
G01 X76.9663 Y58.3330
G01 X76.9582 Y58.3423
G01 X76.8923 Y58.4150
G01 X76.8839 Y58.4239
G01 X76.8750 Y58.4323
G01 X76.8023 Y58.4982
G01 X76.7930 Y58.5063
G01 X76.7833 Y58.5138
G01 X76.7045 Y58.5723
G01 X76.6893 Y58.5827
G01 X76.5999 Y58.6364
G01 X76.5892 Y58.6424
G01 X76.5783 Y58.6479
G01 X76.4896 Y58.6899
G01 X76.4784 Y58.6948
G01 X76.4669 Y58.6993
G01 X76.3745 Y58.7323
G01 X76.3626 Y58.7362
G01 X76.3510 Y58.7394
G01 X76.2558 Y58.7633
G01 X76.2439 Y58.7660
G01 X76.2318 Y58.7681
G01 X76.1347 Y58.7825
G01 X76.1225 Y58.7840
G01 X76.1103 Y58.7849
G01 X76.0123 Y58.7897
G01 X76.0000 Y58.7900
G01 X75.9877 Y58.7897
G01 X75.8897 Y58.7849
G01 X75.8775 Y58.7840
G01 X75.8653 Y58.7825
G01 X75.7682 Y58.7681
G01 X75.7561 Y58.7660
G01 X75.7442 Y58.7633
G01 X75.6490 Y58.7394
G01 X75.6371 Y58.7362
G01 X75.6255 Y58.7323
G01 X75.5331 Y58.6993
G01 X75.5216 Y58.6948
G01 X75.5104 Y58.6899
G01 X75.4217 Y58.6479
G01 X75.4108 Y58.6424
G01 X75.4001 Y58.6364
G01 X75.3159 Y58.5859
G01 X75.3055 Y58.5793
G01 X75.2955 Y58.5723
G01 X75.2167 Y58.5138
G01 X75.2070 Y58.5063
G01 X75.1977 Y58.4982
G01 X75.1250 Y58.4323
G01 X75.1161 Y58.4239
G01 X75.1077 Y58.4150
G01 X75.0418 Y58.3423
G01 X75.0337 Y58.3330
G01 X75.0262 Y58.3233
G01 X74.9677 Y58.2445
G01 X74.9573 Y58.2293
G01 X74.9036 Y58.1399
G01 X74.8976 Y58.1292
G01 X74.8921 Y58.1183
G01 X74.8501 Y58.0296
G01 X74.8452 Y58.0184
G01 X74.8407 Y58.0069
G01 X74.8077 Y57.9145
G01 X74.8039 Y57.9031
G01 X74.8006 Y57.8910
G01 X74.7767 Y57.7958
G01 X74.7740 Y57.7839
G01 X74.7719 Y57.7718
G01 X74.7575 Y57.6747
G01 X74.7560 Y57.6625
G01 X74.7551 Y57.6503
G01 X74.7503 Y57.5523
G01 X74.7500 Y57.5400
G01 X74.7503 Y57.5277
G01 X74.7551 Y57.4297
G01 X74.7560 Y57.4175
G01 X74.7575 Y57.4053
G01 X74.7719 Y57.3082
G01 X74.7740 Y57.2961
G01 X74.7767 Y57.2842
G01 X74.8006 Y57.1890
G01 X74.8038 Y57.1771
G01 X74.8077 Y57.1655
G01 X74.8407 Y57.0731
G01 X74.8452 Y57.0616
G01 X74.8501 Y57.0504
G01 X74.8921 Y56.9617
G01 X74.8976 Y56.9508
G01 X74.9036 Y56.9401
G01 X74.9573 Y56.8507
G01 X74.9677 Y56.8355
G01 X75.0262 Y56.7567
G01 X75.0337 Y56.7470
G01 X75.0418 Y56.7377
G01 X75.1118 Y56.6605
G01 X75.1250 Y56.6477
G01 X75.2023 Y56.5777
G01 X75.2167 Y56.5662
G01 X75.2497 Y56.5417
G01 X75.2497 Y56.3503
G01 X73.8376 Y56.3503
G01 X73.8727 Y56.3629
G01 X73.8840 Y56.3676
G01 X73.9783 Y56.4121
G01 X73.9946 Y56.4206
G01 X74.0841 Y56.4741
G01 X74.0945 Y56.4807
G01 X74.1045 Y56.4877
G01 X74.1833 Y56.5462
G01 X74.1977 Y56.5577
G01 X74.2750 Y56.6277
G01 X74.2839 Y56.6361
G01 X74.2923 Y56.6450
G01 X74.3582 Y56.7177
G01 X74.3663 Y56.7270
G01 X74.3738 Y56.7367
G01 X74.4323 Y56.8155
G01 X74.4393 Y56.8255
G01 X74.4459 Y56.8359
G01 X74.4994 Y56.9254
G01 X74.5079 Y56.9417
G01 X74.5499 Y57.0304
G01 X74.5548 Y57.0416
G01 X74.5593 Y57.0531
G01 X74.5925 Y57.1460
G01 X74.5962 Y57.1574
G01 X74.5994 Y57.1690
G01 X74.6233 Y57.2642
G01 X74.6260 Y57.2761
G01 X74.6281 Y57.2882
G01 X74.6425 Y57.3853
G01 X74.6440 Y57.3975
G01 X74.6449 Y57.4097
G01 X74.6497 Y57.5077
G01 X74.6500 Y57.5200
G01 X74.6497 Y57.5323
G01 X74.6449 Y57.6303
G01 X74.6440 Y57.6425
G01 X74.6425 Y57.6547
G01 X74.6271 Y57.7578
G01 X74.6233 Y57.7758
G01 X74.5994 Y57.8710
G01 X74.5962 Y57.8829
G01 X74.5923 Y57.8945
G01 X74.5593 Y57.9869
G01 X74.5548 Y57.9984
G01 X74.5499 Y58.0096
G01 X74.5079 Y58.0983
G01 X74.5024 Y58.1092
G01 X74.4964 Y58.1199
G01 X74.4459 Y58.2041
G01 X74.4393 Y58.2145
G01 X74.4323 Y58.2245
G01 X74.3738 Y58.3033
G01 X74.3663 Y58.3130
G01 X74.3582 Y58.3223
G01 X74.2923 Y58.3950
G01 X74.2839 Y58.4039
G01 X74.2750 Y58.4123
G01 X74.2023 Y58.4782
G01 X74.1930 Y58.4863
G01 X74.1833 Y58.4938
G01 X74.1045 Y58.5523
G01 X74.0945 Y58.5593
G01 X74.0841 Y58.5659
G01 X73.9999 Y58.6164
G01 X73.9892 Y58.6224
G01 X73.9783 Y58.6279
G01 X73.8896 Y58.6699
G01 X73.8784 Y58.6748
G01 X73.8669 Y58.6793
G01 X73.7745 Y58.7123
G01 X73.7631 Y58.7161
G01 X73.7510 Y58.7194
G01 X73.6558 Y58.7433
G01 X73.6439 Y58.7460
G01 X73.6318 Y58.7481
G01 X73.5347 Y58.7625
G01 X73.5225 Y58.7640
G01 X73.5103 Y58.7649
G01 X73.4123 Y58.7697
G01 X73.4000 Y58.7700
G01 X73.3877 Y58.7697
G01 X73.2897 Y58.7649
G01 X73.2775 Y58.7640
G01 X73.2653 Y58.7625
G01 X73.1682 Y58.7481
G01 X73.1561 Y58.7460
G01 X73.1442 Y58.7433
G01 X73.0490 Y58.7194
G01 X73.0371 Y58.7162
G01 X73.0255 Y58.7123
G01 X72.9331 Y58.6793
G01 X72.9216 Y58.6748
G01 X72.9104 Y58.6699
G01 X72.8217 Y58.6279
G01 X72.8108 Y58.6224
G01 X72.8001 Y58.6164
G01 X72.7159 Y58.5659
G01 X72.7055 Y58.5593
G01 X72.6955 Y58.5523
G01 X72.6167 Y58.4938
G01 X72.6070 Y58.4863
G01 X72.5977 Y58.4782
G01 X72.5250 Y58.4123
G01 X72.5161 Y58.4039
G01 X72.5077 Y58.3950
G01 X72.4418 Y58.3223
G01 X72.4337 Y58.3130
G01 X72.4262 Y58.3033
G01 X72.3677 Y58.2245
G01 X72.3607 Y58.2145
G01 X72.3541 Y58.2041
G01 X72.3036 Y58.1199
G01 X72.2976 Y58.1092
G01 X72.2921 Y58.0983
G01 X72.2501 Y58.0096
G01 X72.2452 Y57.9984
G01 X72.2407 Y57.9869
G01 X72.2075 Y57.8940
G01 X72.2038 Y57.8826
G01 X72.2006 Y57.8710
G01 X72.1767 Y57.7758
G01 X72.1729 Y57.7578
G01 X72.1575 Y57.6547
G01 X72.1560 Y57.6425
G01 X72.1551 Y57.6303
G01 X72.1503 Y57.5323
G01 X72.1500 Y57.5200
G01 X72.1503 Y57.5077
G01 X72.1551 Y57.4097
G01 X72.1560 Y57.3975
G01 X72.1575 Y57.3853
G01 X72.1719 Y57.2882
G01 X72.1740 Y57.2761
G01 X72.1767 Y57.2642
G01 X72.2006 Y57.1690
G01 X72.2038 Y57.1571
G01 X72.2077 Y57.1455
G01 X72.2407 Y57.0531
G01 X72.2452 Y57.0416
G01 X72.2501 Y57.0304
G01 X72.2921 Y56.9417
G01 X72.3006 Y56.9254
G01 X72.3541 Y56.8359
G01 X72.3607 Y56.8255
G01 X72.3677 Y56.8155
G01 X72.4262 Y56.7367
G01 X72.4337 Y56.7270
G01 X72.4418 Y56.7177
G01 X72.5077 Y56.6450
G01 X72.5161 Y56.6361
G01 X72.5250 Y56.6277
G01 X72.6023 Y56.5577
G01 X72.6167 Y56.5462
G01 X72.6955 Y56.4877
G01 X72.7055 Y56.4807
G01 X72.7159 Y56.4741
G01 X72.8054 Y56.4206
G01 X72.8217 Y56.4121
G01 X72.9160 Y56.3676
G01 X72.9273 Y56.3629
G01 X72.9624 Y56.3503
G01 X71.2476 Y56.3503
G01 X71.2827 Y56.3629
G01 X71.2940 Y56.3676
G01 X71.3883 Y56.4121
G01 X71.4046 Y56.4206
G01 X71.4941 Y56.4741
G01 X71.5045 Y56.4807
G01 X71.5145 Y56.4877
G01 X71.5933 Y56.5462
G01 X71.6077 Y56.5577
G01 X71.6850 Y56.6277
G01 X71.6939 Y56.6361
G01 X71.7023 Y56.6450
G01 X71.7682 Y56.7177
G01 X71.7763 Y56.7270
G01 X71.7838 Y56.7367
G01 X71.8423 Y56.8155
G01 X71.8493 Y56.8255
G01 X71.8559 Y56.8359
G01 X71.9094 Y56.9254
G01 X71.9179 Y56.9417
G01 X71.9599 Y57.0304
G01 X71.9648 Y57.0416
G01 X71.9693 Y57.0531
G01 X72.0025 Y57.1460
G01 X72.0062 Y57.1574
G01 X72.0094 Y57.1690
G01 X72.0333 Y57.2642
G01 X72.0360 Y57.2761
G01 X72.0381 Y57.2882
G01 X72.0525 Y57.3853
G01 X72.0540 Y57.3975
G01 X72.0549 Y57.4097
G01 X72.0597 Y57.5077
G01 X72.0600 Y57.5200
G01 X72.0597 Y57.5323
G01 X72.0549 Y57.6303
G01 X72.0540 Y57.6425
G01 X72.0525 Y57.6547
G01 X72.0371 Y57.7578
G01 X72.0333 Y57.7758
G01 X72.0094 Y57.8710
G01 X72.0062 Y57.8829
G01 X72.0023 Y57.8945
G01 X71.9693 Y57.9869
G01 X71.9648 Y57.9984
G01 X71.9599 Y58.0096
G01 X71.9179 Y58.0983
G01 X71.9124 Y58.1092
G01 X71.9064 Y58.1199
G01 X71.8559 Y58.2041
G01 X71.8493 Y58.2145
G01 X71.8423 Y58.2245
G01 X71.7838 Y58.3033
G01 X71.7763 Y58.3130
G01 X71.7682 Y58.3223
G01 X71.7023 Y58.3950
G01 X71.6939 Y58.4039
G01 X71.6850 Y58.4123
G01 X71.6123 Y58.4782
G01 X71.6030 Y58.4863
G01 X71.5933 Y58.4938
G01 X71.5145 Y58.5523
G01 X71.5045 Y58.5593
G01 X71.4941 Y58.5659
G01 X71.4099 Y58.6164
G01 X71.3992 Y58.6224
G01 X71.3883 Y58.6279
G01 X71.2996 Y58.6699
G01 X71.2884 Y58.6748
G01 X71.2769 Y58.6793
G01 X71.1845 Y58.7123
G01 X71.1731 Y58.7161
G01 X71.1610 Y58.7194
G01 X71.0658 Y58.7433
G01 X71.0539 Y58.7460
G01 X71.0418 Y58.7481
G01 X70.9447 Y58.7625
G01 X70.9325 Y58.7640
G01 X70.9203 Y58.7649
G01 X70.8223 Y58.7697
G01 X70.8100 Y58.7700
G01 X70.7977 Y58.7697
G01 X70.6997 Y58.7649
G01 X70.6875 Y58.7640
G01 X70.6753 Y58.7625
G01 X70.5782 Y58.7481
G01 X70.5661 Y58.7460
G01 X70.5542 Y58.7433
G01 X70.4590 Y58.7194
G01 X70.4471 Y58.7162
G01 X70.4355 Y58.7123
G01 X70.3431 Y58.6793
G01 X70.3316 Y58.6748
G01 X70.3204 Y58.6699
G01 X70.2317 Y58.6279
G01 X70.2208 Y58.6224
G01 X70.2101 Y58.6164
G01 X70.1259 Y58.5659
G01 X70.1155 Y58.5593
G01 X70.1055 Y58.5523
G01 X70.0267 Y58.4938
G01 X70.0170 Y58.4863
G01 X70.0077 Y58.4782
G01 X69.9350 Y58.4123
G01 X69.9261 Y58.4039
G01 X69.9177 Y58.3950
G01 X69.8518 Y58.3223
G01 X69.8437 Y58.3130
G01 X69.8362 Y58.3033
G01 X69.7777 Y58.2245
G01 X69.7707 Y58.2145
G01 X69.7641 Y58.2041
G01 X69.7136 Y58.1199
G01 X69.7076 Y58.1092
G01 X69.7021 Y58.0983
G01 X69.6601 Y58.0096
G01 X69.6552 Y57.9984
G01 X69.6507 Y57.9869
G01 X69.6177 Y57.8945
G01 X69.6139 Y57.8831
G01 X69.6106 Y57.8710
G01 X69.5867 Y57.7758
G01 X69.5829 Y57.7578
G01 X69.5675 Y57.6547
G01 X69.5660 Y57.6425
G01 X69.5651 Y57.6303
G01 X69.5603 Y57.5323
G01 X69.5600 Y57.5200
G01 X69.5603 Y57.5077
G01 X69.5651 Y57.4097
G01 X69.5660 Y57.3975
G01 X69.5675 Y57.3853
G01 X69.5819 Y57.2882
G01 X69.5840 Y57.2761
G01 X69.5867 Y57.2642
G01 X69.6106 Y57.1690
G01 X69.6138 Y57.1571
G01 X69.6177 Y57.1455
G01 X69.6507 Y57.0531
G01 X69.6552 Y57.0416
G01 X69.6601 Y57.0304
G01 X69.7021 Y56.9417
G01 X69.7106 Y56.9254
G01 X69.7641 Y56.8359
G01 X69.7707 Y56.8255
G01 X69.7777 Y56.8155
G01 X69.8362 Y56.7367
G01 X69.8437 Y56.7270
G01 X69.8518 Y56.7177
G01 X69.9177 Y56.6450
G01 X69.9261 Y56.6361
G01 X69.9350 Y56.6277
G01 X70.0123 Y56.5577
G01 X70.0267 Y56.5462
G01 X70.1055 Y56.4877
G01 X70.1155 Y56.4807
G01 X70.1259 Y56.4741
G01 X70.2154 Y56.4206
G01 X70.2317 Y56.4121
G01 X70.3260 Y56.3676
G01 X70.3373 Y56.3629
G01 X70.3724 Y56.3503
G01 X64.7108 Y56.3503
G01 X63.7503 Y57.3108
G01 X63.7503 Y60.0497
G01 X64.5506 Y60.0497
G01 X64.5597 Y60.0376
G01 X64.5674 Y60.0281
G01 X64.5922 Y60.0008
G01 X64.6008 Y59.9922
G01 X64.6281 Y59.9674
G01 X64.6376 Y59.9597
G01 X64.6672 Y59.9377
G01 X64.6774 Y59.9309
G01 X64.7089 Y59.9120
G01 X64.7253 Y59.9035
G01 X64.7587 Y59.8881
G01 X64.7932 Y59.8754
G01 X64.8051 Y59.8715
G01 X64.8405 Y59.8623
G01 X64.8525 Y59.8596
G01 X64.8888 Y59.8539
G01 X64.9071 Y59.8519
G01 X64.9500 Y59.8500
G01 X65.6500 Y59.8500
G01 X65.6929 Y59.8519
G01 X65.7112 Y59.8539
G01 X65.7475 Y59.8596
G01 X65.7595 Y59.8623
G01 X65.7951 Y59.8715
G01 X65.8299 Y59.8836
G01 X65.8470 Y59.8905
G01 X65.8803 Y59.9062
G01 X65.8964 Y59.9151
G01 X65.9278 Y59.9343
G01 X65.9575 Y59.9559
G01 X65.9719 Y59.9674
G01 X65.9947 Y59.9880
G01 X66.0078 Y60.0008
G01 X66.0326 Y60.0281
G01 X66.0441 Y60.0425
G01 X66.0657 Y60.0722
G01 X66.0849 Y60.1036
G01 X66.0938 Y60.1197
G01 X66.1095 Y60.1530
G01 X66.1164 Y60.1701
G01 X66.1267 Y60.1994
G01 X66.1317 Y60.2167
G01 X66.1404 Y60.2525
G01 X66.1461 Y60.2888
G01 X66.1481 Y60.3071
G01 X66.1500 Y60.3500
G01 X66.1499 Y61.2561
G01 X66.1476 Y61.2990
G01 X66.1461 Y61.3112
G01 X66.1404 Y61.3475
G01 X66.1377 Y61.3595
G01 X66.1285 Y61.3951
G01 X66.1164 Y61.4299
G01 X66.1119 Y61.4413
G01 X66.0938 Y61.4803
G01 X66.0849 Y61.4964
G01 X66.0657 Y61.5278
G01 X66.0587 Y61.5378
G01 X66.0365 Y61.5672
G01 X66.0078 Y61.5992
G01 X65.9947 Y61.6120
G01 X65.9672 Y61.6365
G01 X65.9378 Y61.6587
G01 X65.9226 Y61.6691
G01 X65.8857 Y61.6910
G01 X65.8470 Y61.7095
G01 X65.8299 Y61.7164
G01 X65.7949 Y61.7285
G01 X65.7535 Y61.7391
G01 X65.7415 Y61.7415
G01 X65.7112 Y61.7461
G01 X65.6929 Y61.7481
G01 X65.6500 Y61.7500
G01 X64.9500 Y61.7500
G01 X64.9132 Y61.7485
G01 X64.9010 Y61.7476
G01 X64.8585 Y61.7415
G01 X64.8405 Y61.7377
G01 X64.8049 Y61.7285
G01 X64.7701 Y61.7164
G01 X64.7587 Y61.7119
G01 X64.7253 Y61.6965
G01 X64.7143 Y61.6910
G01 X64.6774 Y61.6691
G01 X64.6672 Y61.6623
G01 X64.6376 Y61.6403
G01 X64.6281 Y61.6326
G01 X64.6008 Y61.6078
G01 X64.5922 Y61.5992
G01 X64.5674 Y61.5719
G01 X64.5597 Y61.5624
G01 X64.5506 Y61.5503
G01 X63.6600 Y61.5503
G01 X63.6391 Y61.5691
G01 X63.6296 Y61.5768
G01 X63.5656 Y61.6244
G01 X63.5504 Y61.6348
G01 X63.4821 Y61.6759
G01 X63.4714 Y61.6819
G01 X63.4604 Y61.6874
G01 X63.3883 Y61.7215
G01 X63.3712 Y61.7283
G01 X63.3015 Y61.7533
G01 X63.2900 Y61.7570
