(G-CODE GENERATED BY FLATCAM v8.994 - www.flatcam.org - Version Date: 2020/11/7)

(Name: Sensorbox-PTH.drl_mill_cnc)
(Type: G-code from Geometry)
(Units: MM)

(Created on Monday, 19 February 2024 at 14:16)

(This preprocessor is the default preprocessor used by FlatCAM.)
(It is made to work with MACH3 compatible motion controllers.)

(TOOL DIAMETER: 0.6 mm)
(Feedrate_XY: 60.0 mm/min)
(Feedrate_Z: 60.0 mm/min)
(Feedrate rapids 1500.0 mm/min)

(Z_Cut: -1.8 mm)
(Z_Move: 2.0 mm)
(Z Start: None mm)
(Z End: 15.0 mm)
(X,Y End: None mm)
(Steps per circle: 64)
(Preprocessor Geometry: default)

(X range:   47.3750 ...   47.4250  mm)
(Y range:    5.3750 ...    6.6950  mm)

(Spindle Speed: 20000.0 RPM)
G21
G90
G94

G01 F60.00

M5
G00 Z15.0000
G00 X0.0000 Y0.0000
T1
M6    
(MSG, Change to Tool Dia = 0.6000)
M0
G00 Z15.0000

M03 S20000.0
G01 F60.00
G00 X47.4250 Y5.4000
G01 F60.00
G01 Z-1.8000
G01 F60.00
G01 X47.4245 Y5.3951
G01 X47.4231 Y5.3904
G01 X47.4208 Y5.3861
G01 X47.4177 Y5.3823
G01 X47.4139 Y5.3792
G01 X47.4096 Y5.3769
G01 X47.4049 Y5.3755
G01 X47.4000 Y5.3750
G01 X47.3951 Y5.3755
G01 X47.3904 Y5.3769
G01 X47.3861 Y5.3792
G01 X47.3823 Y5.3823
G01 X47.3792 Y5.3861
G01 X47.3769 Y5.3904
G01 X47.3755 Y5.3951
G01 X47.3750 Y5.4000
G01 X47.3755 Y5.4049
G01 X47.3769 Y5.4096
G01 X47.3792 Y5.4139
G01 X47.3823 Y5.4177
G01 X47.3861 Y5.4208
G01 X47.3904 Y5.4231
G01 X47.3951 Y5.4245
G01 X47.4000 Y5.4250
G01 X47.4049 Y5.4245
G01 X47.4096 Y5.4231
G01 X47.4139 Y5.4208
G01 X47.4177 Y5.4177
G01 X47.4208 Y5.4139
G01 X47.4231 Y5.4096
G01 X47.4245 Y5.4049
G01 X47.4250 Y5.4000
G00 Z2.0000
G00 X47.4250 Y6.6700
G01 F60.00
G01 Z-1.8000
G01 F60.00
G01 X47.4245 Y6.6651
G01 X47.4231 Y6.6604
G01 X47.4208 Y6.6561
G01 X47.4177 Y6.6523
G01 X47.4139 Y6.6492
G01 X47.4096 Y6.6469
G01 X47.4049 Y6.6455
G01 X47.4000 Y6.6450
G01 X47.3951 Y6.6455
G01 X47.3904 Y6.6469
G01 X47.3861 Y6.6492
G01 X47.3823 Y6.6523
G01 X47.3792 Y6.6561
G01 X47.3769 Y6.6604
G01 X47.3755 Y6.6651
G01 X47.3750 Y6.6700
G01 X47.3755 Y6.6749
G01 X47.3769 Y6.6796
G01 X47.3792 Y6.6839
G01 X47.3823 Y6.6877
G01 X47.3861 Y6.6908
G01 X47.3904 Y6.6931
G01 X47.3951 Y6.6945
G01 X47.4000 Y6.6950
G01 X47.4049 Y6.6945
G01 X47.4096 Y6.6931
G01 X47.4139 Y6.6908
G01 X47.4177 Y6.6877
G01 X47.4208 Y6.6839
G01 X47.4231 Y6.6796
G01 X47.4245 Y6.6749
G01 X47.4250 Y6.6700
G00 Z2.0000
M05
G00 Z2.0000
G00 Z15.00


