(G-CODE GENERATED BY FLATCAM v8.994 - www.flatcam.org - Version Date: 2020/11/7)

(Name: Sensorbox-B_Cu.gbr_iso_combined_1_cnc)
(Type: G-code from Geometry)
(Units: MM)

(Created on Tuesday, 06 February 2024 at 15:04)

(This preprocessor is the default preprocessor used by FlatCAM.)
(It is made to work with MACH3 compatible motion controllers.)

(TOOL DIAMETER: 0.2 mm)
(Feedrate_XY: 40.0 mm/min)
(Feedrate_Z: 20.0 mm/min)
(Feedrate rapids 2000.0 mm/min)

(Z_Cut: -0.05 mm)
(DepthPerCut: 0.025 mm <=>2 passes)
(Z_Move: 2.0 mm)
(Z Start: None mm)
(Z End: 15.0 mm)
(X,Y End: None mm)
(Steps per circle: 64)
(Preprocessor Geometry: default)

(X range:   -0.0995 ...  110.0995  mm)
(Y range:   -0.0995 ...   70.0995  mm)

(Spindle Speed: 20000.0 RPM)
G21
G90
G94

G01 F40.00

M5
G00 Z15.0000
G00 X0.0000 Y0.0000
T2
M6    
(MSG, Change to Tool Dia = 0.2000)
M0
G00 Z15.0000

M03 S20000.0
G01 F40.00
G00 X3.1458 Y5.0678
G01 F20.00
G01 Z-0.0250
G01 F40.00
G01 X3.1754 Y5.3370
G01 X3.2088 Y5.4648
G01 X3.2439 Y5.5991
G01 X3.3499 Y5.8484
G01 X3.4910 Y6.0796
G01 X3.6643 Y6.2878
G01 X3.8660 Y6.4686
G01 X4.0919 Y6.6180
G01 X4.3372 Y6.7330
G01 X4.5966 Y6.8111
G01 X4.8646 Y6.8505
G01 X5.0676 Y6.8505
G01 X5.2702 Y6.8357
G01 X5.5346 Y6.7768
G01 X5.7876 Y6.6800
G01 X6.0238 Y6.5474
G01 X6.2382 Y6.3819
G01 X6.4262 Y6.1869
G01 X6.5838 Y5.9666
G01 X6.7077 Y5.7257
G01 X6.7951 Y5.4693
G01 X6.8443 Y5.2029
G01 X6.8542 Y4.9322
G01 X6.8246 Y4.6630
G01 X6.7561 Y4.4009
G01 X6.6501 Y4.1516
G01 X6.5090 Y3.9204
G01 X6.3357 Y3.7122
G01 X6.1340 Y3.5314
G01 X5.9081 Y3.3820
G01 X5.6628 Y3.2670
G01 X5.4034 Y3.1889
G01 X5.1354 Y3.1495
G01 X4.9324 Y3.1495
G01 X4.7298 Y3.1643
G01 X4.4655 Y3.2232
G01 X4.2124 Y3.3200
G01 X3.9762 Y3.4526
G01 X3.7618 Y3.6181
G01 X3.5738 Y3.8131
G01 X3.4162 Y4.0334
G01 X3.2923 Y4.2743
G01 X3.2049 Y4.5307
G01 X3.1557 Y4.7971
G01 X3.1458 Y5.0678
G00 X3.1458 Y5.0678
G01 F20.00
G01 Z-0.0500
G01 F40.00
G01 X3.1754 Y5.3370
G01 X3.2088 Y5.4648
G01 X3.2439 Y5.5991
G01 X3.3499 Y5.8484
G01 X3.4910 Y6.0796
G01 X3.6643 Y6.2878
G01 X3.8660 Y6.4686
G01 X4.0919 Y6.6180
G01 X4.3372 Y6.7330
G01 X4.5966 Y6.8111
G01 X4.8646 Y6.8505
G01 X5.0676 Y6.8505
G01 X5.2702 Y6.8357
G01 X5.5346 Y6.7768
G01 X5.7876 Y6.6800
G01 X6.0238 Y6.5474
G01 X6.2382 Y6.3819
G01 X6.4262 Y6.1869
G01 X6.5838 Y5.9666
G01 X6.7077 Y5.7257
G01 X6.7951 Y5.4693
G01 X6.8443 Y5.2029
G01 X6.8542 Y4.9322
G01 X6.8246 Y4.6630
G01 X6.7561 Y4.4009
G01 X6.6501 Y4.1516
G01 X6.5090 Y3.9204
G01 X6.3357 Y3.7122
G01 X6.1340 Y3.5314
G01 X5.9081 Y3.3820
G01 X5.6628 Y3.2670
G01 X5.4034 Y3.1889
G01 X5.1354 Y3.1495
G01 X4.9324 Y3.1495
G01 X4.7298 Y3.1643
G01 X4.4655 Y3.2232
G01 X4.2124 Y3.3200
G01 X3.9762 Y3.4526
G01 X3.7618 Y3.6181
G01 X3.5738 Y3.8131
G01 X3.4162 Y4.0334
G01 X3.2923 Y4.2743
G01 X3.2049 Y4.5307
G01 X3.1557 Y4.7971
G01 X3.1458 Y5.0678
G00 Z2.0000
G00 X11.9303 Y2.1001
G01 F20.00
G01 Z-0.0250
G01 F40.00
G01 X11.9500 Y2.3376
G01 X11.9516 Y2.3477
G01 X12.0102 Y2.5787
G01 X12.0135 Y2.5884
G01 X12.1092 Y2.8067
G01 X12.1141 Y2.8157
G01 X12.2116 Y2.9649
G01 X12.5714 Y2.6051
G01 X12.5111 Y2.4777
G01 X12.4781 Y2.3853
G01 X12.4542 Y2.2901
G01 X12.4399 Y2.1936
G01 X12.4350 Y2.0950
G01 X12.4399 Y1.9964
G01 X12.4542 Y1.8999
G01 X12.4781 Y1.8047
G01 X12.5111 Y1.7123
G01 X12.5714 Y1.5849
G01 X12.2116 Y1.2251
G01 X12.1141 Y1.3743
G01 X12.1092 Y1.3833
G01 X12.0135 Y1.6016
G01 X12.0102 Y1.6113
G01 X11.9516 Y1.8423
G01 X11.9500 Y1.8524
G01 X11.9303 Y2.0899
G01 X11.9303 Y2.1001
G00 X11.9303 Y2.1001
G01 F20.00
G01 Z-0.0500
G01 F40.00
G01 X11.9500 Y2.3376
G01 X11.9516 Y2.3477
G01 X12.0102 Y2.5787
G01 X12.0135 Y2.5884
G01 X12.1092 Y2.8067
G01 X12.1141 Y2.8157
G01 X12.2116 Y2.9649
G01 X12.5714 Y2.6051
G01 X12.5111 Y2.4777
G01 X12.4781 Y2.3853
G01 X12.4542 Y2.2901
G01 X12.4399 Y2.1936
G01 X12.4350 Y2.0950
G01 X12.4399 Y1.9964
G01 X12.4542 Y1.8999
G01 X12.4781 Y1.8047
G01 X12.5111 Y1.7123
G01 X12.5714 Y1.5849
G01 X12.2116 Y1.2251
G01 X12.1141 Y1.3743
G01 X12.1092 Y1.3833
G01 X12.0135 Y1.6016
G01 X12.0102 Y1.6113
G01 X11.9516 Y1.8423
G01 X11.9500 Y1.8524
G01 X11.9303 Y2.0899
G01 X11.9303 Y2.1001
G00 Z2.0000
G00 X12.5577 Y3.3258
G01 F20.00
G01 Z-0.0250
G01 F40.00
G01 X12.8259 Y3.4709
G01 X12.8352 Y3.4750
G01 X13.0607 Y3.5524
G01 X13.0706 Y3.5549
G01 X13.3056 Y3.5942
G01 X13.3158 Y3.5950
G01 X13.5542 Y3.5950
G01 X13.5644 Y3.5942
G01 X13.7994 Y3.5549
G01 X13.8093 Y3.5524
G01 X14.0348 Y3.4750
G01 X14.0441 Y3.4709
G01 X14.3123 Y3.3258
G01 X13.9451 Y2.9586
G01 X13.8177 Y3.0189
G01 X13.7253 Y3.0519
G01 X13.6301 Y3.0758
G01 X13.5336 Y3.0901
G01 X13.4350 Y3.0950
G01 X13.3364 Y3.0901
G01 X13.2399 Y3.0758
G01 X13.1447 Y3.0519
G01 X13.0523 Y3.0189
G01 X12.9249 Y2.9586
G01 X12.5577 Y3.3258
G00 X12.5577 Y3.3258
G01 F20.00
G01 Z-0.0500
G01 F40.00
G01 X12.8259 Y3.4709
G01 X12.8352 Y3.4750
G01 X13.0607 Y3.5524
G01 X13.0706 Y3.5549
G01 X13.3056 Y3.5942
G01 X13.3158 Y3.5950
G01 X13.5542 Y3.5950
G01 X13.5644 Y3.5942
G01 X13.7994 Y3.5549
G01 X13.8093 Y3.5524
G01 X14.0348 Y3.4750
G01 X14.0441 Y3.4709
G01 X14.3123 Y3.3258
G01 X13.9451 Y2.9586
G01 X13.8177 Y3.0189
G01 X13.7253 Y3.0519
G01 X13.6301 Y3.0758
G01 X13.5336 Y3.0901
G01 X13.4350 Y3.0950
G01 X13.3364 Y3.0901
G01 X13.2399 Y3.0758
G01 X13.1447 Y3.0519
G01 X13.0523 Y3.0189
G01 X12.9249 Y2.9586
G01 X12.5577 Y3.3258
G00 Z2.0000
G00 X14.2986 Y2.6051
G01 F20.00
G01 Z-0.0250
G01 F40.00
G01 X14.6584 Y2.9649
G01 X14.7559 Y2.8157
G01 X14.7608 Y2.8067
G01 X14.8565 Y2.5884
G01 X14.8598 Y2.5787
G01 X14.9184 Y2.3477
G01 X14.9200 Y2.3376
G01 X14.9397 Y2.1001
G01 X14.9397 Y2.0899
G01 X14.9200 Y1.8524
G01 X14.9184 Y1.8423
G01 X14.8598 Y1.6113
G01 X14.8565 Y1.6016
G01 X14.7608 Y1.3833
G01 X14.7559 Y1.3743
G01 X14.6584 Y1.2251
G01 X14.2986 Y1.5849
G01 X14.3589 Y1.7123
G01 X14.3919 Y1.8047
G01 X14.4158 Y1.8999
G01 X14.4301 Y1.9964
G01 X14.4350 Y2.0950
G01 X14.4301 Y2.1936
G01 X14.4158 Y2.2901
G01 X14.3919 Y2.3853
G01 X14.3589 Y2.4777
G01 X14.2986 Y2.6051
G00 X14.2986 Y2.6051
G01 F20.00
G01 Z-0.0500
G01 F40.00
G01 X14.6584 Y2.9649
G01 X14.7559 Y2.8157
G01 X14.7608 Y2.8067
G01 X14.8565 Y2.5884
G01 X14.8598 Y2.5787
G01 X14.9184 Y2.3477
G01 X14.9200 Y2.3376
G01 X14.9397 Y2.1001
G01 X14.9397 Y2.0899
G01 X14.9200 Y1.8524
G01 X14.9184 Y1.8423
G01 X14.8598 Y1.6113
G01 X14.8565 Y1.6016
G01 X14.7608 Y1.3833
G01 X14.7559 Y1.3743
G01 X14.6584 Y1.2251
G01 X14.2986 Y1.5849
G01 X14.3589 Y1.7123
G01 X14.3919 Y1.8047
G01 X14.4158 Y1.8999
G01 X14.4301 Y1.9964
G01 X14.4350 Y2.0950
G01 X14.4301 Y2.1936
G01 X14.4158 Y2.2901
G01 X14.3919 Y2.3853
G01 X14.3589 Y2.4777
G01 X14.2986 Y2.6051
G00 Z2.0000
G00 X16.5794 Y2.1534
G01 F20.00
G01 Z-0.0250
G01 F40.00
G01 X16.5999 Y2.4013
G01 X16.6610 Y2.6423
G01 X16.7608 Y2.8700
G01 X16.8969 Y3.0782
G01 X17.0653 Y3.2612
G01 X17.2615 Y3.4139
G01 X17.4802 Y3.5323
G01 X17.7154 Y3.6130
G01 X17.9607 Y3.6539
G01 X18.2094 Y3.6539
G01 X18.4546 Y3.6130
G01 X18.6898 Y3.5323
G01 X18.9085 Y3.4139
G01 X19.1048 Y3.2612
G01 X19.2732 Y3.0782
G01 X19.4092 Y2.8700
G01 X19.5091 Y2.6423
G01 X19.5701 Y2.4013
G01 X19.5907 Y2.1534
G01 X19.5701 Y1.9056
G01 X19.5091 Y1.6646
G01 X19.4092 Y1.4368
G01 X19.2732 Y1.2287
G01 X19.1048 Y1.0457
G01 X18.9085 Y0.8930
G01 X18.8693 Y0.8717
G01 X18.6898 Y0.7746
G01 X18.4546 Y0.6939
G01 X18.2094 Y0.6529
G01 X17.9607 Y0.6529
G01 X17.7154 Y0.6939
G01 X17.4802 Y0.7746
G01 X17.2615 Y0.8930
G01 X17.0653 Y1.0457
G01 X16.8969 Y1.2287
G01 X16.7608 Y1.4368
G01 X16.6886 Y1.6016
G01 X16.6610 Y1.6646
G01 X16.5999 Y1.9056
G01 X16.5794 Y2.1534
G00 X16.5794 Y2.1534
G01 F20.00
G01 Z-0.0500
G01 F40.00
G01 X16.5999 Y2.4013
G01 X16.6610 Y2.6423
G01 X16.7608 Y2.8700
G01 X16.8969 Y3.0782
G01 X17.0653 Y3.2612
G01 X17.2615 Y3.4139
G01 X17.4802 Y3.5323
G01 X17.7154 Y3.6130
G01 X17.9607 Y3.6539
G01 X18.2094 Y3.6539
G01 X18.4546 Y3.6130
G01 X18.6898 Y3.5323
G01 X18.9085 Y3.4139
G01 X19.1048 Y3.2612
G01 X19.2732 Y3.0782
G01 X19.4092 Y2.8700
G01 X19.5091 Y2.6423
G01 X19.5701 Y2.4013
G01 X19.5907 Y2.1534
G01 X19.5701 Y1.9056
G01 X19.5091 Y1.6646
G01 X19.4092 Y1.4368
G01 X19.2732 Y1.2287
G01 X19.1048 Y1.0457
G01 X18.9085 Y0.8930
G01 X18.8693 Y0.8717
G01 X18.6898 Y0.7746
G01 X18.4546 Y0.6939
G01 X18.2094 Y0.6529
G01 X17.9607 Y0.6529
G01 X17.7154 Y0.6939
G01 X17.4802 Y0.7746
G01 X17.2615 Y0.8930
G01 X17.0653 Y1.0457
G01 X16.8969 Y1.2287
G01 X16.7608 Y1.4368
G01 X16.6886 Y1.6016
G01 X16.6610 Y1.6646
G01 X16.5999 Y1.9056
G01 X16.5794 Y2.1534
G00 Z2.0000
G00 X16.8919 Y2.2802
G01 F20.00
G01 Z-0.0250
G01 F40.00
G01 X16.9081 Y2.3876
G01 X16.9367 Y2.5018
G01 X16.9764 Y2.6127
G01 X17.0267 Y2.7191
G01 X17.0872 Y2.8201
G01 X17.1574 Y2.9147
G01 X17.2365 Y3.0020
G01 X17.3237 Y3.0811
G01 X17.4183 Y3.1512
G01 X17.5193 Y3.2118
G01 X17.6258 Y3.2621
G01 X17.7367 Y3.3018
G01 X17.8509 Y3.3304
G01 X17.9674 Y3.3477
G01 X18.0850 Y3.3534
G01 X18.2026 Y3.3477
G01 X18.3191 Y3.3304
G01 X18.4334 Y3.3018
G01 X18.5442 Y3.2621
G01 X18.6507 Y3.2118
G01 X18.7517 Y3.1512
G01 X18.8463 Y3.0811
G01 X18.9336 Y3.0020
G01 X19.0126 Y2.9147
G01 X19.0828 Y2.8201
G01 X19.1433 Y2.7191
G01 X19.1937 Y2.6127
G01 X19.2334 Y2.5018
G01 X19.2620 Y2.3876
G01 X19.2792 Y2.2711
G01 X19.2850 Y2.1534
G01 X19.2792 Y2.0358
G01 X19.2620 Y1.9193
G01 X19.2334 Y1.8051
G01 X19.1937 Y1.6942
G01 X19.1433 Y1.5878
G01 X19.0828 Y1.4868
G01 X19.0126 Y1.3922
G01 X18.9336 Y1.3049
G01 X18.8463 Y1.2258
G01 X18.7517 Y1.1557
G01 X18.6507 Y1.0951
G01 X18.5442 Y1.0448
G01 X18.4334 Y1.0051
G01 X18.3191 Y0.9765
G01 X18.2026 Y0.9592
G01 X18.0850 Y0.9534
G01 X17.9674 Y0.9592
G01 X17.8509 Y0.9765
G01 X17.7367 Y1.0051
G01 X17.6258 Y1.0448
G01 X17.5193 Y1.0951
G01 X17.4183 Y1.1557
G01 X17.3237 Y1.2258
G01 X17.2365 Y1.3049
G01 X17.1574 Y1.3922
G01 X17.0872 Y1.4868
G01 X17.0267 Y1.5878
G01 X16.9764 Y1.6942
G01 X16.9367 Y1.8051
G01 X16.9081 Y1.9193
G01 X16.8908 Y2.0358
G01 X16.8850 Y2.1534
G01 X16.8901 Y2.2619
G01 X16.8919 Y2.2802
G00 X16.8919 Y2.2802
G01 F20.00
G01 Z-0.0500
G01 F40.00
G01 X16.9081 Y2.3876
G01 X16.9367 Y2.5018
G01 X16.9764 Y2.6127
G01 X17.0267 Y2.7191
G01 X17.0872 Y2.8201
G01 X17.1574 Y2.9147
G01 X17.2365 Y3.0020
G01 X17.3237 Y3.0811
G01 X17.4183 Y3.1512
G01 X17.5193 Y3.2118
G01 X17.6258 Y3.2621
G01 X17.7367 Y3.3018
G01 X17.8509 Y3.3304
G01 X17.9674 Y3.3477
G01 X18.0850 Y3.3534
G01 X18.2026 Y3.3477
G01 X18.3191 Y3.3304
G01 X18.4334 Y3.3018
G01 X18.5442 Y3.2621
G01 X18.6507 Y3.2118
G01 X18.7517 Y3.1512
G01 X18.8463 Y3.0811
G01 X18.9336 Y3.0020
G01 X19.0126 Y2.9147
G01 X19.0828 Y2.8201
G01 X19.1433 Y2.7191
G01 X19.1937 Y2.6127
G01 X19.2334 Y2.5018
G01 X19.2620 Y2.3876
G01 X19.2792 Y2.2711
G01 X19.2850 Y2.1534
G01 X19.2792 Y2.0358
G01 X19.2620 Y1.9193
G01 X19.2334 Y1.8051
G01 X19.1937 Y1.6942
G01 X19.1433 Y1.5878
G01 X19.0828 Y1.4868
G01 X19.0126 Y1.3922
G01 X18.9336 Y1.3049
G01 X18.8463 Y1.2258
G01 X18.7517 Y1.1557
G01 X18.6507 Y1.0951
G01 X18.5442 Y1.0448
G01 X18.4334 Y1.0051
G01 X18.3191 Y0.9765
G01 X18.2026 Y0.9592
G01 X18.0850 Y0.9534
G01 X17.9674 Y0.9592
G01 X17.8509 Y0.9765
G01 X17.7367 Y1.0051
G01 X17.6258 Y1.0448
G01 X17.5193 Y1.0951
G01 X17.4183 Y1.1557
G01 X17.3237 Y1.2258
G01 X17.2365 Y1.3049
G01 X17.1574 Y1.3922
G01 X17.0872 Y1.4868
G01 X17.0267 Y1.5878
G01 X16.9764 Y1.6942
G01 X16.9367 Y1.8051
G01 X16.9081 Y1.9193
G01 X16.8908 Y2.0358
G01 X16.8850 Y2.1534
G01 X16.8901 Y2.2619
G01 X16.8919 Y2.2802
G00 Z2.0000
G00 X12.5577 Y0.8642
G01 F20.00
G01 Z-0.0250
G01 F40.00
G01 X12.9249 Y1.2314
G01 X13.0523 Y1.1711
G01 X13.1447 Y1.1381
G01 X13.2399 Y1.1142
G01 X13.3364 Y1.0999
G01 X13.4350 Y1.0950
G01 X13.5336 Y1.0999
G01 X13.6301 Y1.1142
G01 X13.7253 Y1.1381
G01 X13.8177 Y1.1711
G01 X13.9451 Y1.2314
G01 X14.3123 Y0.8642
G01 X14.0441 Y0.7191
G01 X14.0348 Y0.7150
G01 X13.8093 Y0.6376
G01 X13.7994 Y0.6351
G01 X13.5644 Y0.5958
G01 X13.5542 Y0.5950
G01 X13.3158 Y0.5950
G01 X13.3056 Y0.5958
G01 X13.0706 Y0.6351
G01 X13.0607 Y0.6376
G01 X12.8352 Y0.7150
G01 X12.8259 Y0.7191
G01 X12.5577 Y0.8642
G00 X12.5577 Y0.8642
G01 F20.00
G01 Z-0.0500
G01 F40.00
G01 X12.9249 Y1.2314
G01 X13.0523 Y1.1711
G01 X13.1447 Y1.1381
G01 X13.2399 Y1.1142
G01 X13.3364 Y1.0999
G01 X13.4350 Y1.0950
G01 X13.5336 Y1.0999
G01 X13.6301 Y1.1142
G01 X13.7253 Y1.1381
G01 X13.8177 Y1.1711
G01 X13.9451 Y1.2314
G01 X14.3123 Y0.8642
G01 X14.0441 Y0.7191
G01 X14.0348 Y0.7150
G01 X13.8093 Y0.6376
G01 X13.7994 Y0.6351
G01 X13.5644 Y0.5958
G01 X13.5542 Y0.5950
G01 X13.3158 Y0.5950
G01 X13.3056 Y0.5958
G01 X13.0706 Y0.6351
G01 X13.0607 Y0.6376
G01 X12.8352 Y0.7150
G01 X12.8259 Y0.7191
G01 X12.5577 Y0.8642
G00 Z2.0000
G00 X12.7032 Y14.2476
G01 F20.00
G01 Z-0.0250
G01 F40.00
G01 X13.0704 Y14.6147
G01 X13.1978 Y14.5545
G01 X13.2902 Y14.5214
G01 X13.3854 Y14.4976
G01 X13.4819 Y14.4833
G01 X13.5805 Y14.4784
G01 X13.6791 Y14.4833
G01 X13.7756 Y14.4976
G01 X13.8708 Y14.5214
G01 X13.9632 Y14.5545
G01 X14.0906 Y14.6147
G01 X14.4578 Y14.2476
G01 X14.1896 Y14.1024
G01 X14.1803 Y14.0983
G01 X13.9548 Y14.0210
G01 X13.9449 Y14.0184
G01 X13.7099 Y13.9792
G01 X13.6997 Y13.9784
G01 X13.4613 Y13.9784
G01 X13.4511 Y13.9792
G01 X13.2161 Y14.0184
G01 X13.2062 Y14.0210
G01 X12.9807 Y14.0983
G01 X12.9714 Y14.1024
G01 X12.7032 Y14.2476
G00 X12.7032 Y14.2476
G01 F20.00
G01 Z-0.0500
G01 F40.00
G01 X13.0704 Y14.6147
G01 X13.1978 Y14.5545
G01 X13.2902 Y14.5214
G01 X13.3854 Y14.4976
G01 X13.4819 Y14.4833
G01 X13.5805 Y14.4784
G01 X13.6791 Y14.4833
G01 X13.7756 Y14.4976
G01 X13.8708 Y14.5214
G01 X13.9632 Y14.5545
G01 X14.0906 Y14.6147
G01 X14.4578 Y14.2476
G01 X14.1896 Y14.1024
G01 X14.1803 Y14.0983
G01 X13.9548 Y14.0210
G01 X13.9449 Y14.0184
G01 X13.7099 Y13.9792
G01 X13.6997 Y13.9784
G01 X13.4613 Y13.9784
G01 X13.4511 Y13.9792
G01 X13.2161 Y14.0184
G01 X13.2062 Y14.0210
G01 X12.9807 Y14.0983
G01 X12.9714 Y14.1024
G01 X12.7032 Y14.2476
G00 Z2.0000
G00 X12.0758 Y15.4835
G01 F20.00
G01 Z-0.0250
G01 F40.00
G01 X12.0955 Y15.7210
G01 X12.0972 Y15.7311
G01 X12.1557 Y15.9621
G01 X12.1590 Y15.9718
G01 X12.2547 Y16.1900
G01 X12.2596 Y16.1990
G01 X12.3571 Y16.3483
G01 X12.7169 Y15.9884
G01 X12.6566 Y15.8611
G01 X12.6236 Y15.7687
G01 X12.5997 Y15.6735
G01 X12.5854 Y15.5770
G01 X12.5805 Y15.4784
G01 X12.5854 Y15.3798
G01 X12.5997 Y15.2833
G01 X12.6236 Y15.1881
G01 X12.6566 Y15.0957
G01 X12.7169 Y14.9683
G01 X12.3571 Y14.6085
G01 X12.2596 Y14.7577
G01 X12.2547 Y14.7667
G01 X12.1590 Y14.9850
G01 X12.1557 Y14.9946
G01 X12.0972 Y15.2257
G01 X12.0955 Y15.2358
G01 X12.0758 Y15.4733
G01 X12.0758 Y15.4835
G00 X12.0758 Y15.4835
G01 F20.00
G01 Z-0.0500
G01 F40.00
G01 X12.0955 Y15.7210
G01 X12.0972 Y15.7311
G01 X12.1557 Y15.9621
G01 X12.1590 Y15.9718
G01 X12.2547 Y16.1900
G01 X12.2596 Y16.1990
G01 X12.3571 Y16.3483
G01 X12.7169 Y15.9884
G01 X12.6566 Y15.8611
G01 X12.6236 Y15.7687
G01 X12.5997 Y15.6735
G01 X12.5854 Y15.5770
G01 X12.5805 Y15.4784
G01 X12.5854 Y15.3798
G01 X12.5997 Y15.2833
G01 X12.6236 Y15.1881
G01 X12.6566 Y15.0957
G01 X12.7169 Y14.9683
G01 X12.3571 Y14.6085
G01 X12.2596 Y14.7577
G01 X12.2547 Y14.7667
G01 X12.1590 Y14.9850
G01 X12.1557 Y14.9946
G01 X12.0972 Y15.2257
G01 X12.0955 Y15.2358
G01 X12.0758 Y15.4733
G01 X12.0758 Y15.4835
G00 Z2.0000
G00 X12.7032 Y16.7092
G01 F20.00
G01 Z-0.0250
G01 F40.00
G01 X12.9714 Y16.8543
G01 X12.9807 Y16.8584
G01 X13.2062 Y16.9358
G01 X13.2161 Y16.9383
G01 X13.4511 Y16.9775
G01 X13.4613 Y16.9784
G01 X13.6997 Y16.9784
G01 X13.7099 Y16.9775
G01 X13.9449 Y16.9383
G01 X13.9548 Y16.9358
G01 X14.1803 Y16.8584
G01 X14.1896 Y16.8543
G01 X14.4578 Y16.7092
G01 X14.0906 Y16.3420
G01 X13.9632 Y16.4022
G01 X13.8708 Y16.4353
G01 X13.7756 Y16.4592
G01 X13.6791 Y16.4735
G01 X13.5805 Y16.4784
G01 X13.4819 Y16.4735
G01 X13.3854 Y16.4592
G01 X13.2902 Y16.4353
G01 X13.1978 Y16.4022
G01 X13.0704 Y16.3420
G01 X12.7032 Y16.7092
G00 X12.7032 Y16.7092
G01 F20.00
G01 Z-0.0500
G01 F40.00
G01 X12.9714 Y16.8543
G01 X12.9807 Y16.8584
G01 X13.2062 Y16.9358
G01 X13.2161 Y16.9383
G01 X13.4511 Y16.9775
G01 X13.4613 Y16.9784
G01 X13.6997 Y16.9784
G01 X13.7099 Y16.9775
G01 X13.9449 Y16.9383
G01 X13.9548 Y16.9358
G01 X14.1803 Y16.8584
G01 X14.1896 Y16.8543
G01 X14.4578 Y16.7092
G01 X14.0906 Y16.3420
G01 X13.9632 Y16.4022
G01 X13.8708 Y16.4353
G01 X13.7756 Y16.4592
G01 X13.6791 Y16.4735
G01 X13.5805 Y16.4784
G01 X13.4819 Y16.4735
G01 X13.3854 Y16.4592
G01 X13.2902 Y16.4353
G01 X13.1978 Y16.4022
G01 X13.0704 Y16.3420
G01 X12.7032 Y16.7092
G00 Z2.0000
G00 X14.4441 Y15.9884
G01 F20.00
G01 Z-0.0250
G01 F40.00
G01 X14.8039 Y16.3483
G01 X14.9014 Y16.1990
G01 X14.9063 Y16.1900
G01 X15.0020 Y15.9718
G01 X15.0054 Y15.9621
G01 X15.0639 Y15.7311
G01 X15.0655 Y15.7210
G01 X15.0852 Y15.4835
G01 X15.0852 Y15.4733
G01 X15.0655 Y15.2358
G01 X15.0639 Y15.2257
G01 X15.0054 Y14.9946
G01 X15.0020 Y14.9850
G01 X14.9063 Y14.7667
G01 X14.9014 Y14.7577
G01 X14.8039 Y14.6085
G01 X14.4441 Y14.9683
G01 X14.5044 Y15.0957
G01 X14.5374 Y15.1881
G01 X14.5613 Y15.2833
G01 X14.5756 Y15.3798
G01 X14.5805 Y15.4784
G01 X14.5756 Y15.5770
G01 X14.5613 Y15.6735
G01 X14.5374 Y15.7687
G01 X14.5044 Y15.8611
G01 X14.4441 Y15.9884
G00 X14.4441 Y15.9884
G01 F20.00
G01 Z-0.0500
G01 F40.00
G01 X14.8039 Y16.3483
G01 X14.9014 Y16.1990
G01 X14.9063 Y16.1900
G01 X15.0020 Y15.9718
G01 X15.0054 Y15.9621
G01 X15.0639 Y15.7311
G01 X15.0655 Y15.7210
G01 X15.0852 Y15.4835
G01 X15.0852 Y15.4733
G01 X15.0655 Y15.2358
G01 X15.0639 Y15.2257
G01 X15.0054 Y14.9946
G01 X15.0020 Y14.9850
G01 X14.9063 Y14.7667
G01 X14.9014 Y14.7577
G01 X14.8039 Y14.6085
G01 X14.4441 Y14.9683
G01 X14.5044 Y15.0957
G01 X14.5374 Y15.1881
G01 X14.5613 Y15.2833
G01 X14.5756 Y15.3798
G01 X14.5805 Y15.4784
G01 X14.5756 Y15.5770
G01 X14.5613 Y15.6735
G01 X14.5374 Y15.7687
G01 X14.5044 Y15.8611
G01 X14.4441 Y15.9884
G00 Z2.0000
G00 X16.7249 Y15.5368
G01 F20.00
G01 Z-0.0250
G01 F40.00
G01 X16.7454 Y15.7846
G01 X16.8065 Y16.0257
G01 X16.9063 Y16.2534
G01 X17.0424 Y16.4616
G01 X17.2108 Y16.6446
G01 X17.4070 Y16.7973
G01 X17.6257 Y16.9156
G01 X17.8609 Y16.9964
G01 X18.1062 Y17.0373
G01 X18.3549 Y17.0373
G01 X18.6001 Y16.9964
G01 X18.8353 Y16.9156
G01 X19.0540 Y16.7973
G01 X19.2503 Y16.6446
G01 X19.4187 Y16.4616
G01 X19.5547 Y16.2534
G01 X19.6546 Y16.0257
G01 X19.7156 Y15.7846
G01 X19.7362 Y15.5368
G01 X19.7156 Y15.2890
G01 X19.6546 Y15.0479
G01 X19.6453 Y15.0267
G01 X19.5547 Y14.8202
G01 X19.4187 Y14.6120
G01 X19.2503 Y14.4291
G01 X19.0540 Y14.2763
G01 X18.8353 Y14.1580
G01 X18.6001 Y14.0772
G01 X18.3549 Y14.0363
G01 X18.1062 Y14.0363
G01 X17.8609 Y14.0772
G01 X17.6257 Y14.1580
G01 X17.4070 Y14.2763
G01 X17.2108 Y14.4291
G01 X17.0424 Y14.6120
G01 X16.9064 Y14.8202
G01 X16.8207 Y15.0155
G01 X16.8065 Y15.0479
G01 X16.7454 Y15.2890
G01 X16.7249 Y15.5368
G00 X16.7249 Y15.5368
G01 F20.00
G01 Z-0.0500
G01 F40.00
G01 X16.7454 Y15.7846
G01 X16.8065 Y16.0257
G01 X16.9063 Y16.2534
G01 X17.0424 Y16.4616
G01 X17.2108 Y16.6446
G01 X17.4070 Y16.7973
G01 X17.6257 Y16.9156
G01 X17.8609 Y16.9964
G01 X18.1062 Y17.0373
G01 X18.3549 Y17.0373
G01 X18.6001 Y16.9964
G01 X18.8353 Y16.9156
G01 X19.0540 Y16.7973
G01 X19.2503 Y16.6446
G01 X19.4187 Y16.4616
G01 X19.5547 Y16.2534
G01 X19.6546 Y16.0257
G01 X19.7156 Y15.7846
G01 X19.7362 Y15.5368
G01 X19.7156 Y15.2890
G01 X19.6546 Y15.0479
G01 X19.6453 Y15.0267
G01 X19.5547 Y14.8202
G01 X19.4187 Y14.6120
G01 X19.2503 Y14.4291
G01 X19.0540 Y14.2763
G01 X18.8353 Y14.1580
G01 X18.6001 Y14.0772
G01 X18.3549 Y14.0363
G01 X18.1062 Y14.0363
G01 X17.8609 Y14.0772
G01 X17.6257 Y14.1580
G01 X17.4070 Y14.2763
G01 X17.2108 Y14.4291
G01 X17.0424 Y14.6120
G01 X16.9064 Y14.8202
G01 X16.8207 Y15.0155
G01 X16.8065 Y15.0479
G01 X16.7454 Y15.2890
G01 X16.7249 Y15.5368
G00 Z2.0000
G00 X17.0374 Y15.6636
G01 F20.00
G01 Z-0.0250
G01 F40.00
G01 X17.0536 Y15.7709
G01 X17.0822 Y15.8852
G01 X17.1219 Y15.9960
G01 X17.1722 Y16.1025
G01 X17.2328 Y16.2035
G01 X17.3029 Y16.2981
G01 X17.3820 Y16.3853
G01 X17.4692 Y16.4644
G01 X17.5638 Y16.5346
G01 X17.6648 Y16.5951
G01 X17.7713 Y16.6455
G01 X17.8822 Y16.6852
G01 X17.9964 Y16.7138
G01 X18.1129 Y16.7310
G01 X18.2305 Y16.7368
G01 X18.3481 Y16.7310
G01 X18.4646 Y16.7138
G01 X18.5789 Y16.6852
G01 X18.6897 Y16.6455
G01 X18.7962 Y16.5951
G01 X18.8972 Y16.5346
G01 X18.9918 Y16.4644
G01 X19.0791 Y16.3853
G01 X19.1581 Y16.2981
G01 X19.2283 Y16.2035
G01 X19.2888 Y16.1025
G01 X19.3392 Y15.9960
G01 X19.3789 Y15.8852
G01 X19.4075 Y15.7709
G01 X19.4248 Y15.6544
G01 X19.4305 Y15.5368
G01 X19.4248 Y15.4192
G01 X19.4075 Y15.3027
G01 X19.3789 Y15.1885
G01 X19.3392 Y15.0776
G01 X19.2888 Y14.9711
G01 X19.2283 Y14.8701
G01 X19.1581 Y14.7755
G01 X19.0791 Y14.6883
G01 X18.9918 Y14.6092
G01 X18.8972 Y14.5390
G01 X18.7962 Y14.4785
G01 X18.6897 Y14.4282
G01 X18.5789 Y14.3885
G01 X18.4646 Y14.3599
G01 X18.3481 Y14.3426
G01 X18.2305 Y14.3368
G01 X18.1129 Y14.3426
G01 X17.9964 Y14.3599
G01 X17.8822 Y14.3885
G01 X17.7713 Y14.4282
G01 X17.6648 Y14.4785
G01 X17.5638 Y14.5390
G01 X17.4692 Y14.6092
G01 X17.3820 Y14.6883
G01 X17.3029 Y14.7755
G01 X17.2328 Y14.8701
G01 X17.1722 Y14.9711
G01 X17.1219 Y15.0776
G01 X17.0822 Y15.1885
G01 X17.0536 Y15.3027
G01 X17.0363 Y15.4192
G01 X17.0305 Y15.5368
G01 X17.0356 Y15.6453
G01 X17.0374 Y15.6636
G00 X17.0374 Y15.6636
G01 F20.00
G01 Z-0.0500
G01 F40.00
G01 X17.0536 Y15.7709
G01 X17.0822 Y15.8852
G01 X17.1219 Y15.9960
G01 X17.1722 Y16.1025
G01 X17.2328 Y16.2035
G01 X17.3029 Y16.2981
G01 X17.3820 Y16.3853
G01 X17.4692 Y16.4644
G01 X17.5638 Y16.5346
G01 X17.6648 Y16.5951
G01 X17.7713 Y16.6455
G01 X17.8822 Y16.6852
G01 X17.9964 Y16.7138
G01 X18.1129 Y16.7310
G01 X18.2305 Y16.7368
G01 X18.3481 Y16.7310
G01 X18.4646 Y16.7138
G01 X18.5789 Y16.6852
G01 X18.6897 Y16.6455
G01 X18.7962 Y16.5951
G01 X18.8972 Y16.5346
G01 X18.9918 Y16.4644
G01 X19.0791 Y16.3853
G01 X19.1581 Y16.2981
G01 X19.2283 Y16.2035
G01 X19.2888 Y16.1025
G01 X19.3392 Y15.9960
G01 X19.3789 Y15.8852
G01 X19.4075 Y15.7709
G01 X19.4248 Y15.6544
G01 X19.4305 Y15.5368
G01 X19.4248 Y15.4192
G01 X19.4075 Y15.3027
G01 X19.3789 Y15.1885
G01 X19.3392 Y15.0776
G01 X19.2888 Y14.9711
G01 X19.2283 Y14.8701
G01 X19.1581 Y14.7755
G01 X19.0791 Y14.6883
G01 X18.9918 Y14.6092
G01 X18.8972 Y14.5390
G01 X18.7962 Y14.4785
G01 X18.6897 Y14.4282
G01 X18.5789 Y14.3885
G01 X18.4646 Y14.3599
G01 X18.3481 Y14.3426
G01 X18.2305 Y14.3368
G01 X18.1129 Y14.3426
G01 X17.9964 Y14.3599
G01 X17.8822 Y14.3885
G01 X17.7713 Y14.4282
G01 X17.6648 Y14.4785
G01 X17.5638 Y14.5390
G01 X17.4692 Y14.6092
G01 X17.3820 Y14.6883
G01 X17.3029 Y14.7755
G01 X17.2328 Y14.8701
G01 X17.1722 Y14.9711
G01 X17.1219 Y15.0776
G01 X17.0822 Y15.1885
G01 X17.0536 Y15.3027
G01 X17.0363 Y15.4192
G01 X17.0305 Y15.5368
G01 X17.0356 Y15.6453
G01 X17.0374 Y15.6636
G00 Z2.0000
G00 X16.0137 Y23.0962
G01 F20.00
G01 Z-0.0250
G01 F40.00
G01 X16.0299 Y23.2036
G01 X16.0585 Y23.3178
G01 X16.0982 Y23.4287
G01 X16.1444 Y23.5269
G01 X16.1509 Y23.5395
G01 X16.2090 Y23.6362
G01 X16.2735 Y23.7235
G01 X16.2824 Y23.7345
G01 X16.3519 Y23.8113
G01 X16.3649 Y23.8244
G01 X16.4455 Y23.8971
G01 X16.5066 Y23.9426
G01 X16.5066 Y45.2074
G01 X16.5099 Y45.2755
G01 X16.5200 Y45.3434
G01 X16.5367 Y45.4101
G01 X16.5599 Y45.4748
G01 X16.5892 Y45.5369
G01 X16.6246 Y45.5959
G01 X16.6655 Y45.6511
G01 X16.7112 Y45.7015
G01 X17.8053 Y46.7956
G01 X17.8520 Y46.8381
G01 X17.8630 Y46.8470
G01 X17.9034 Y46.8769
G01 X17.9187 Y46.8872
G01 X17.9699 Y46.9176
G01 X18.0320 Y46.9470
G01 X18.0967 Y46.9701
G01 X18.1544 Y46.9848
G01 X18.1682 Y46.9877
G01 X18.2222 Y46.9958
G01 X18.2405 Y46.9976
G01 X18.2994 Y47.0003
G01 X40.6099 Y47.0003
G01 X41.3397 Y47.7301
G01 X41.3397 Y48.3834
G01 X41.3127 Y48.4035
G01 X41.3051 Y48.4098
G01 X41.2286 Y48.4791
G01 X41.2187 Y48.4892
G01 X41.1523 Y48.5626
G01 X41.1434 Y48.5736
G01 X41.0817 Y48.6572
G01 X41.0259 Y48.7499
G01 X41.0194 Y48.7624
G01 X40.9752 Y48.8565
G01 X40.9371 Y48.9629
G01 X40.9096 Y49.0727
G01 X40.8930 Y49.1845
G01 X40.8876 Y49.2926
G01 X40.8877 Y49.4017
G01 X40.8930 Y49.5055
G01 X40.9081 Y49.6083
G01 X40.9107 Y49.6221
G01 X40.9371 Y49.7271
G01 X40.9752 Y49.8335
G01 X41.0236 Y49.9358
G01 X41.0768 Y50.0250
G01 X41.0845 Y50.0368
G01 X41.1491 Y50.1236
G01 X41.2187 Y50.2008
G01 X41.2317 Y50.2138
G01 X41.3019 Y50.2774
G01 X41.3161 Y50.2891
G01 X41.3997 Y50.3508
G01 X41.4887 Y50.4044
G01 X41.5049 Y50.4131
G01 X41.5990 Y50.4573
G01 X41.7054 Y50.4954
G01 X41.8152 Y50.5229
G01 X41.9270 Y50.5395
G01 X42.0400 Y50.5450
G01 X42.1438 Y50.5401
G01 X42.1621 Y50.5383
G01 X42.2558 Y50.5244
G01 X42.2738 Y50.5209
G01 X42.3746 Y50.4954
G01 X42.4725 Y50.4606
G01 X42.4895 Y50.4536
G01 X42.5833 Y50.4089
G01 X42.6803 Y50.3508
G01 X42.7711 Y50.2834
G01 X42.8549 Y50.2074
G01 X42.9309 Y50.1236
G01 X42.9930 Y50.0403
G01 X43.0032 Y50.0250
G01 X43.0564 Y49.9358
G01 X43.1011 Y49.8420
G01 X43.1081 Y49.8250
G01 X43.1414 Y49.7317
G01 X43.1453 Y49.7182
G01 X43.1704 Y49.6173
G01 X43.1858 Y49.5146
G01 X43.1874 Y49.5006
G01 X43.1925 Y49.3931
G01 X43.1924 Y49.2926
G01 X43.1876 Y49.1937
G01 X43.1858 Y49.1754
G01 X43.1704 Y49.0727
G01 X43.1429 Y48.9629
G01 X43.1048 Y48.8565
G01 X43.0606 Y48.7624
G01 X43.0541 Y48.7499
G01 X42.9983 Y48.6572
G01 X42.9366 Y48.5736
G01 X42.9277 Y48.5626
G01 X42.8613 Y48.4892
G01 X42.8514 Y48.4791
G01 X42.7749 Y48.4098
G01 X42.7673 Y48.4035
G01 X42.7403 Y48.3834
G01 X42.7400 Y47.4308
G01 X42.7369 Y47.3714
G01 X42.7268 Y47.3034
G01 X42.7101 Y47.2367
G01 X42.6888 Y47.1766
G01 X42.6832 Y47.1636
G01 X42.6576 Y47.1099
G01 X42.6222 Y47.0510
G01 X42.5813 Y46.9958
G01 X42.5386 Y46.9484
G01 X41.3916 Y45.8014
G01 X41.3442 Y45.7587
G01 X41.2966 Y45.7231
G01 X41.2813 Y45.7128
G01 X41.2301 Y45.6824
G01 X41.1764 Y45.6568
G01 X41.1594 Y45.6497
G01 X41.1033 Y45.6299
G01 X41.0414 Y45.6142
G01 X41.0275 Y45.6116
G01 X40.9686 Y45.6031
G01 X40.9006 Y45.5997
G01 X18.5901 Y45.5997
G01 X17.9071 Y44.9168
G01 X17.9071 Y23.9426
G01 X17.9681 Y23.8971
G01 X18.0518 Y23.8214
G01 X18.0617 Y23.8113
G01 X18.1284 Y23.7377
G01 X18.1375 Y23.7269
G01 X18.1993 Y23.6437
G01 X18.2095 Y23.6284
G01 X18.2651 Y23.5352
G01 X18.3135 Y23.4332
G01 X18.3188 Y23.4201
G01 X18.3552 Y23.3178
G01 X18.3818 Y23.2126
G01 X18.3853 Y23.1945
G01 X18.4010 Y23.0871
G01 X18.4066 Y22.9787
G01 X18.4066 Y22.9603
G01 X18.4010 Y22.8519
G01 X18.3838 Y22.7354
G01 X18.3552 Y22.6211
G01 X18.3155 Y22.5103
G01 X18.2651 Y22.4038
G01 X18.2046 Y22.3028
G01 X18.1344 Y22.2082
G01 X18.0553 Y22.1209
G01 X17.9681 Y22.0419
G01 X17.8735 Y21.9717
G01 X17.7725 Y21.9112
G01 X17.6660 Y21.8608
G01 X17.5552 Y21.8211
G01 X17.4409 Y21.7925
G01 X17.3244 Y21.7752
G01 X17.2068 Y21.7695
G01 X17.0892 Y21.7752
G01 X16.9727 Y21.7925
G01 X16.8585 Y21.8211
G01 X16.7476 Y21.8608
G01 X16.6411 Y21.9112
G01 X16.5401 Y21.9717
G01 X16.4455 Y22.0419
G01 X16.3583 Y22.1209
G01 X16.2792 Y22.2082
G01 X16.2090 Y22.3028
G01 X16.1485 Y22.4038
G01 X16.0982 Y22.5103
G01 X16.0585 Y22.6211
G01 X16.0299 Y22.7354
G01 X16.0126 Y22.8519
G01 X16.0068 Y22.9695
G01 X16.0119 Y23.0779
G01 X16.0137 Y23.0962
G00 X16.0137 Y23.0962
G01 F20.00
G01 Z-0.0500
G01 F40.00
G01 X16.0299 Y23.2036
G01 X16.0585 Y23.3178
G01 X16.0982 Y23.4287
G01 X16.1444 Y23.5269
G01 X16.1509 Y23.5395
G01 X16.2090 Y23.6362
G01 X16.2735 Y23.7235
G01 X16.2824 Y23.7345
G01 X16.3519 Y23.8113
G01 X16.3649 Y23.8244
G01 X16.4455 Y23.8971
G01 X16.5066 Y23.9426
G01 X16.5066 Y45.2074
G01 X16.5099 Y45.2755
G01 X16.5200 Y45.3434
G01 X16.5367 Y45.4101
G01 X16.5599 Y45.4748
G01 X16.5892 Y45.5369
G01 X16.6246 Y45.5959
G01 X16.6655 Y45.6511
G01 X16.7112 Y45.7015
G01 X17.8053 Y46.7956
G01 X17.8520 Y46.8381
G01 X17.8630 Y46.8470
G01 X17.9034 Y46.8769
G01 X17.9187 Y46.8872
G01 X17.9699 Y46.9176
G01 X18.0320 Y46.9470
G01 X18.0967 Y46.9701
G01 X18.1544 Y46.9848
G01 X18.1682 Y46.9877
G01 X18.2222 Y46.9958
G01 X18.2405 Y46.9976
G01 X18.2994 Y47.0003
G01 X40.6099 Y47.0003
G01 X41.3397 Y47.7301
G01 X41.3397 Y48.3834
G01 X41.3127 Y48.4035
G01 X41.3051 Y48.4098
G01 X41.2286 Y48.4791
G01 X41.2187 Y48.4892
G01 X41.1523 Y48.5626
G01 X41.1434 Y48.5736
G01 X41.0817 Y48.6572
G01 X41.0259 Y48.7499
G01 X41.0194 Y48.7624
G01 X40.9752 Y48.8565
G01 X40.9371 Y48.9629
G01 X40.9096 Y49.0727
G01 X40.8930 Y49.1845
G01 X40.8876 Y49.2926
G01 X40.8877 Y49.4017
G01 X40.8930 Y49.5055
G01 X40.9081 Y49.6083
G01 X40.9107 Y49.6221
G01 X40.9371 Y49.7271
G01 X40.9752 Y49.8335
G01 X41.0236 Y49.9358
G01 X41.0768 Y50.0250
G01 X41.0845 Y50.0368
G01 X41.1491 Y50.1236
G01 X41.2187 Y50.2008
G01 X41.2317 Y50.2138
G01 X41.3019 Y50.2774
G01 X41.3161 Y50.2891
G01 X41.3997 Y50.3508
G01 X41.4887 Y50.4044
G01 X41.5049 Y50.4131
G01 X41.5990 Y50.4573
G01 X41.7054 Y50.4954
G01 X41.8152 Y50.5229
G01 X41.9270 Y50.5395
G01 X42.0400 Y50.5450
G01 X42.1438 Y50.5401
G01 X42.1621 Y50.5383
G01 X42.2558 Y50.5244
G01 X42.2738 Y50.5209
G01 X42.3746 Y50.4954
G01 X42.4725 Y50.4606
G01 X42.4895 Y50.4536
G01 X42.5833 Y50.4089
G01 X42.6803 Y50.3508
G01 X42.7711 Y50.2834
G01 X42.8549 Y50.2074
G01 X42.9309 Y50.1236
G01 X42.9930 Y50.0403
G01 X43.0032 Y50.0250
G01 X43.0564 Y49.9358
G01 X43.1011 Y49.8420
G01 X43.1081 Y49.8250
G01 X43.1414 Y49.7317
G01 X43.1453 Y49.7182
G01 X43.1704 Y49.6173
G01 X43.1858 Y49.5146
G01 X43.1874 Y49.5006
G01 X43.1925 Y49.3931
G01 X43.1924 Y49.2926
G01 X43.1876 Y49.1937
G01 X43.1858 Y49.1754
G01 X43.1704 Y49.0727
G01 X43.1429 Y48.9629
G01 X43.1048 Y48.8565
G01 X43.0606 Y48.7624
G01 X43.0541 Y48.7499
G01 X42.9983 Y48.6572
G01 X42.9366 Y48.5736
G01 X42.9277 Y48.5626
G01 X42.8613 Y48.4892
G01 X42.8514 Y48.4791
G01 X42.7749 Y48.4098
G01 X42.7673 Y48.4035
G01 X42.7403 Y48.3834
G01 X42.7400 Y47.4308
G01 X42.7369 Y47.3714
G01 X42.7268 Y47.3034
G01 X42.7101 Y47.2367
G01 X42.6888 Y47.1766
G01 X42.6832 Y47.1636
G01 X42.6576 Y47.1099
G01 X42.6222 Y47.0510
G01 X42.5813 Y46.9958
G01 X42.5386 Y46.9484
G01 X41.3916 Y45.8014
G01 X41.3442 Y45.7587
G01 X41.2966 Y45.7231
G01 X41.2813 Y45.7128
G01 X41.2301 Y45.6824
G01 X41.1764 Y45.6568
G01 X41.1594 Y45.6497
G01 X41.1033 Y45.6299
G01 X41.0414 Y45.6142
G01 X41.0275 Y45.6116
G01 X40.9686 Y45.6031
G01 X40.9006 Y45.5997
G01 X18.5901 Y45.5997
G01 X17.9071 Y44.9168
G01 X17.9071 Y23.9426
G01 X17.9681 Y23.8971
G01 X18.0518 Y23.8214
G01 X18.0617 Y23.8113
G01 X18.1284 Y23.7377
G01 X18.1375 Y23.7269
G01 X18.1993 Y23.6437
G01 X18.2095 Y23.6284
G01 X18.2651 Y23.5352
G01 X18.3135 Y23.4332
G01 X18.3188 Y23.4201
G01 X18.3552 Y23.3178
G01 X18.3818 Y23.2126
G01 X18.3853 Y23.1945
G01 X18.4010 Y23.0871
G01 X18.4066 Y22.9787
G01 X18.4066 Y22.9603
G01 X18.4010 Y22.8519
G01 X18.3838 Y22.7354
G01 X18.3552 Y22.6211
G01 X18.3155 Y22.5103
G01 X18.2651 Y22.4038
G01 X18.2046 Y22.3028
G01 X18.1344 Y22.2082
G01 X18.0553 Y22.1209
G01 X17.9681 Y22.0419
G01 X17.8735 Y21.9717
G01 X17.7725 Y21.9112
G01 X17.6660 Y21.8608
G01 X17.5552 Y21.8211
G01 X17.4409 Y21.7925
G01 X17.3244 Y21.7752
G01 X17.2068 Y21.7695
G01 X17.0892 Y21.7752
G01 X16.9727 Y21.7925
G01 X16.8585 Y21.8211
G01 X16.7476 Y21.8608
G01 X16.6411 Y21.9112
G01 X16.5401 Y21.9717
G01 X16.4455 Y22.0419
G01 X16.3583 Y22.1209
G01 X16.2792 Y22.2082
G01 X16.2090 Y22.3028
G01 X16.1485 Y22.4038
G01 X16.0982 Y22.5103
G01 X16.0585 Y22.6211
G01 X16.0299 Y22.7354
G01 X16.0126 Y22.8519
G01 X16.0068 Y22.9695
G01 X16.0119 Y23.0779
G01 X16.0137 Y23.0962
G00 Z2.0000
G00 X13.4137 Y23.1162
G01 F20.00
G01 Z-0.0250
G01 F40.00
G01 X13.4299 Y23.2236
G01 X13.4585 Y23.3378
G01 X13.4982 Y23.4487
G01 X13.5485 Y23.5552
G01 X13.6090 Y23.6562
G01 X13.6792 Y23.7508
G01 X13.7583 Y23.8380
G01 X13.8455 Y23.9171
G01 X13.9401 Y23.9872
G01 X14.0411 Y24.0478
G01 X14.1476 Y24.0981
G01 X14.2585 Y24.1378
G01 X14.3727 Y24.1664
G01 X14.4892 Y24.1837
G01 X14.6068 Y24.1895
G01 X14.7244 Y24.1837
G01 X14.8409 Y24.1664
G01 X14.9552 Y24.1378
G01 X15.0660 Y24.0981
G01 X15.1725 Y24.0478
G01 X15.2735 Y23.9872
G01 X15.3681 Y23.9171
G01 X15.4553 Y23.8380
G01 X15.5344 Y23.7508
G01 X15.6046 Y23.6562
G01 X15.6651 Y23.5552
G01 X15.7155 Y23.4487
G01 X15.7552 Y23.3378
G01 X15.7838 Y23.2236
G01 X15.8010 Y23.1071
G01 X15.8068 Y22.9895
G01 X15.8010 Y22.8719
G01 X15.7838 Y22.7554
G01 X15.7552 Y22.6411
G01 X15.7155 Y22.5303
G01 X15.6651 Y22.4238
G01 X15.6046 Y22.3228
G01 X15.5344 Y22.2282
G01 X15.4553 Y22.1409
G01 X15.3681 Y22.0619
G01 X15.2735 Y21.9917
G01 X15.1725 Y21.9312
G01 X15.0660 Y21.8808
G01 X14.9552 Y21.8411
G01 X14.8409 Y21.8125
G01 X14.7244 Y21.7952
G01 X14.6068 Y21.7895
G01 X14.4892 Y21.7952
G01 X14.3727 Y21.8125
G01 X14.2585 Y21.8411
G01 X14.1476 Y21.8808
G01 X14.0411 Y21.9312
G01 X13.9401 Y21.9917
G01 X13.8455 Y22.0619
G01 X13.7583 Y22.1409
G01 X13.6792 Y22.2282
G01 X13.6090 Y22.3228
G01 X13.5485 Y22.4238
G01 X13.4982 Y22.5303
G01 X13.4585 Y22.6411
G01 X13.4299 Y22.7554
G01 X13.4126 Y22.8719
G01 X13.4068 Y22.9895
G01 X13.4119 Y23.0979
G01 X13.4137 Y23.1162
G00 X13.4137 Y23.1162
G01 F20.00
G01 Z-0.0500
G01 F40.00
G01 X13.4299 Y23.2236
G01 X13.4585 Y23.3378
G01 X13.4982 Y23.4487
G01 X13.5485 Y23.5552
G01 X13.6090 Y23.6562
G01 X13.6792 Y23.7508
G01 X13.7583 Y23.8380
G01 X13.8455 Y23.9171
G01 X13.9401 Y23.9872
G01 X14.0411 Y24.0478
G01 X14.1476 Y24.0981
G01 X14.2585 Y24.1378
G01 X14.3727 Y24.1664
G01 X14.4892 Y24.1837
G01 X14.6068 Y24.1895
G01 X14.7244 Y24.1837
G01 X14.8409 Y24.1664
G01 X14.9552 Y24.1378
G01 X15.0660 Y24.0981
G01 X15.1725 Y24.0478
G01 X15.2735 Y23.9872
G01 X15.3681 Y23.9171
G01 X15.4553 Y23.8380
G01 X15.5344 Y23.7508
G01 X15.6046 Y23.6562
G01 X15.6651 Y23.5552
G01 X15.7155 Y23.4487
G01 X15.7552 Y23.3378
G01 X15.7838 Y23.2236
G01 X15.8010 Y23.1071
G01 X15.8068 Y22.9895
G01 X15.8010 Y22.8719
G01 X15.7838 Y22.7554
G01 X15.7552 Y22.6411
G01 X15.7155 Y22.5303
G01 X15.6651 Y22.4238
G01 X15.6046 Y22.3228
G01 X15.5344 Y22.2282
G01 X15.4553 Y22.1409
G01 X15.3681 Y22.0619
G01 X15.2735 Y21.9917
G01 X15.1725 Y21.9312
G01 X15.0660 Y21.8808
G01 X14.9552 Y21.8411
G01 X14.8409 Y21.8125
G01 X14.7244 Y21.7952
G01 X14.6068 Y21.7895
G01 X14.4892 Y21.7952
G01 X14.3727 Y21.8125
G01 X14.2585 Y21.8411
G01 X14.1476 Y21.8808
G01 X14.0411 Y21.9312
G01 X13.9401 Y21.9917
G01 X13.8455 Y22.0619
G01 X13.7583 Y22.1409
G01 X13.6792 Y22.2282
G01 X13.6090 Y22.3228
G01 X13.5485 Y22.4238
G01 X13.4982 Y22.5303
G01 X13.4585 Y22.6411
G01 X13.4299 Y22.7554
G01 X13.4126 Y22.8719
G01 X13.4068 Y22.9895
G01 X13.4119 Y23.0979
G01 X13.4137 Y23.1162
G00 Z2.0000
G00 X12.2668 Y21.9895
G01 F20.00
G01 Z-0.0250
G01 F40.00
G01 X13.0168 Y21.9895
G01 X13.0168 Y23.9889
G01 X13.0168 Y23.9895
G01 X13.0162 Y23.9895
G01 X12.2668 Y23.9895
G01 X12.2668 Y24.4895
G01 X13.0613 Y24.4895
G01 X13.0679 Y24.4891
G01 X13.1165 Y24.4839
G01 X13.1315 Y24.4804
G01 X13.2506 Y24.4359
G01 X13.2660 Y24.4275
G01 X13.3669 Y24.3520
G01 X13.3793 Y24.3396
G01 X13.4549 Y24.2387
G01 X13.4633 Y24.2233
G01 X13.4685 Y24.2092
G01 X13.5006 Y24.1614
G01 X13.5509 Y24.1332
G01 X13.6084 Y24.1308
G01 X13.6609 Y24.1547
G01 X13.7833 Y24.2500
G01 X14.0020 Y24.3683
G01 X14.2372 Y24.4490
G01 X14.4825 Y24.4900
G01 X14.7312 Y24.4900
G01 X14.9764 Y24.4490
G01 X15.2116 Y24.3683
G01 X15.4303 Y24.2500
G01 X15.6266 Y24.0972
G01 X15.7950 Y23.9143
G01 X15.8095 Y23.8920
G01 X15.8543 Y23.8507
G01 X15.9134 Y23.8358
G01 X15.9724 Y23.8507
G01 X16.0055 Y23.8812
G01 X16.0127 Y23.8859
G01 X16.0198 Y23.8955
G01 X16.1735 Y24.0625
G01 X16.1978 Y24.1014
G01 X16.2063 Y24.1471
G01 X16.2063 Y45.1922
G01 X16.2041 Y45.2832
G01 X16.2144 Y45.3408
G01 X16.2157 Y45.3501
G01 X16.2217 Y45.4093
G01 X16.2308 Y45.4383
G01 X16.2345 Y45.4530
G01 X16.2400 Y45.4835
G01 X16.2617 Y45.5378
G01 X16.2648 Y45.5467
G01 X16.2827 Y45.6034
G01 X16.2974 Y45.6300
G01 X16.3039 Y45.6437
G01 X16.3154 Y45.6724
G01 X16.3477 Y45.7214
G01 X16.3525 Y45.7293
G01 X16.3814 Y45.7813
G01 X16.4015 Y45.8048
G01 X16.4107 Y45.8169
G01 X16.4274 Y45.8423
G01 X16.4694 Y45.8844
G01 X16.4759 Y45.8914
G01 X16.5139 Y45.9357
G01 X16.5380 Y45.9543
G01 X16.5502 Y45.9651
G01 X17.5822 Y46.9971
G01 X17.6449 Y47.0631
G01 X17.6937 Y47.0970
G01 X17.7012 Y47.1027
G01 X17.7466 Y47.1397
G01 X17.7740 Y47.1541
G01 X17.7870 Y47.1619
G01 X17.8120 Y47.1793
G01 X17.8666 Y47.2028
G01 X17.8751 Y47.2068
G01 X17.9270 Y47.2339
G01 X17.9567 Y47.2424
G01 X17.9710 Y47.2475
G01 X17.9989 Y47.2595
G01 X18.0571 Y47.2715
G01 X18.0664 Y47.2738
G01 X18.1226 Y47.2899
G01 X18.1534 Y47.2923
G01 X18.1685 Y47.2944
G01 X18.1983 Y47.3005
G01 X18.2577 Y47.3005
G01 X18.2671 Y47.3009
G01 X18.3255 Y47.3053
G01 X18.3557 Y47.3015
G01 X18.3718 Y47.3005
G01 X40.4342 Y47.3005
G01 X40.4817 Y47.3099
G01 X40.5219 Y47.3368
G01 X41.0032 Y47.8181
G01 X41.0301 Y47.8583
G01 X41.0395 Y47.9064
G01 X41.0395 Y48.1906
G01 X41.0311 Y48.2351
G01 X41.0067 Y48.2746
G01 X40.8894 Y48.4020
G01 X40.8735 Y48.4264
G01 X40.8287 Y48.4676
G01 X40.7697 Y48.4826
G01 X40.7107 Y48.4676
G01 X40.6659 Y48.4264
G01 X40.6530 Y48.4066
G01 X40.6467 Y48.3985
G01 X40.4906 Y48.2290
G01 X40.4831 Y48.2221
G01 X40.3012 Y48.0805
G01 X40.2927 Y48.0749
G01 X40.0900 Y47.9652
G01 X40.0806 Y47.9611
G01 X39.7500 Y47.8476
G01 X39.7500 Y48.3765
G01 X39.8651 Y48.4178
G01 X39.9490 Y48.4575
G01 X40.0297 Y48.5059
G01 X40.1043 Y48.5612
G01 X40.1735 Y48.6240
G01 X40.2363 Y48.6932
G01 X40.2920 Y48.7683
G01 X40.3400 Y48.8485
G01 X40.3797 Y48.9324
G01 X40.4116 Y49.0216
G01 X40.4342 Y49.1117
G01 X40.4479 Y49.2041
G01 X40.4525 Y49.2975
G01 X40.4525 Y49.3919
G01 X40.4479 Y49.4859
G01 X40.4343 Y49.5777
G01 X40.4113 Y49.6696
G01 X40.3800 Y49.7570
G01 X40.3400 Y49.8415
G01 X40.2920 Y49.9217
G01 X40.2363 Y49.9968
G01 X40.1731 Y50.0664
G01 X40.1043 Y50.1288
G01 X40.0292 Y50.1845
G01 X39.9490 Y50.2325
G01 X39.8651 Y50.2722
G01 X39.7500 Y50.3135
G01 X39.7500 Y50.8424
G01 X40.0806 Y50.7289
G01 X40.0900 Y50.7248
G01 X40.2927 Y50.6151
G01 X40.3012 Y50.6095
G01 X40.4831 Y50.4679
G01 X40.4906 Y50.4610
G01 X40.6467 Y50.2915
G01 X40.6530 Y50.2834
G01 X40.6659 Y50.2636
G01 X40.7107 Y50.2224
G01 X40.7697 Y50.2074
G01 X40.8287 Y50.2224
G01 X40.8735 Y50.2636
G01 X40.8894 Y50.2880
G01 X41.0525 Y50.4652
G01 X41.2426 Y50.6131
G01 X41.4543 Y50.7277
G01 X41.6821 Y50.8059
G01 X41.9196 Y50.8455
G01 X42.1604 Y50.8455
G01 X42.3979 Y50.8059
G01 X42.6257 Y50.7277
G01 X42.8374 Y50.6131
G01 X43.0275 Y50.4652
G01 X43.1906 Y50.2880
G01 X43.3223 Y50.0864
G01 X43.4190 Y49.8659
G01 X43.4781 Y49.6325
G01 X43.4930 Y49.4526
G01 X43.4930 Y49.2374
G01 X43.4781 Y49.0575
G01 X43.4190 Y48.8241
G01 X43.3223 Y48.6036
G01 X43.1906 Y48.4020
G01 X43.0733 Y48.2746
G01 X43.0490 Y48.2357
G01 X43.0405 Y48.1900
G01 X43.0405 Y47.4546
G01 X43.0428 Y47.3636
G01 X43.0323 Y47.3051
G01 X43.0310 Y47.2958
G01 X43.0251 Y47.2376
G01 X43.0158 Y47.2080
G01 X43.0122 Y47.1933
G01 X43.0069 Y47.1633
G01 X42.9848 Y47.1081
G01 X42.9817 Y47.0992
G01 X42.9642 Y47.0434
G01 X42.9494 Y47.0168
G01 X42.9429 Y47.0031
G01 X42.9314 Y46.9744
G01 X42.8986 Y46.9247
G01 X42.8938 Y46.9167
G01 X42.8654 Y46.8655
G01 X42.8456 Y46.8424
G01 X42.8365 Y46.8303
G01 X42.8194 Y46.8045
G01 X42.7774 Y46.7625
G01 X42.7709 Y46.7554
G01 X42.7329 Y46.7111
G01 X42.7088 Y46.6925
G01 X42.6967 Y46.6817
G01 X41.6178 Y45.6029
G01 X41.5551 Y45.5369
G01 X41.5070 Y45.5035
G01 X41.4995 Y45.4979
G01 X41.4534 Y45.4603
G01 X41.4264 Y45.4462
G01 X41.4135 Y45.4384
G01 X41.3880 Y45.4207
G01 X41.3334 Y45.3972
G01 X41.3249 Y45.3932
G01 X41.2730 Y45.3661
G01 X41.2433 Y45.3575
G01 X41.2290 Y45.3525
G01 X41.2011 Y45.3405
G01 X41.1428 Y45.3285
G01 X41.1336 Y45.3262
G01 X41.0774 Y45.3101
G01 X41.0466 Y45.3077
G01 X41.0315 Y45.3056
G01 X41.0017 Y45.2995
G01 X40.9432 Y45.2995
G01 X40.9338 Y45.2992
G01 X40.8745 Y45.2947
G01 X40.8443 Y45.2985
G01 X40.8282 Y45.2995
G01 X18.7664 Y45.2995
G01 X18.7183 Y45.2901
G01 X18.6781 Y45.2632
G01 X18.2436 Y44.8287
G01 X18.2168 Y44.7885
G01 X18.2073 Y44.7404
G01 X18.2073 Y24.1465
G01 X18.2158 Y24.1014
G01 X18.2401 Y24.0625
G01 X18.3950 Y23.8943
G01 X18.5310 Y23.6861
G01 X18.6309 Y23.4584
G01 X18.6919 Y23.2173
G01 X18.7125 Y22.9695
G01 X18.6919 Y22.7217
G01 X18.6309 Y22.4806
G01 X18.5310 Y22.2529
G01 X18.3950 Y22.0447
G01 X18.2266 Y21.8617
G01 X18.0303 Y21.7090
G01 X17.8116 Y21.5906
G01 X17.5764 Y21.5099
G01 X17.3312 Y21.4690
G01 X17.0825 Y21.4690
G01 X16.8372 Y21.5099
G01 X16.6020 Y21.5906
G01 X16.3833 Y21.7090
G01 X16.1871 Y21.8617
G01 X16.0187 Y22.0447
G01 X16.0041 Y22.0670
G01 X15.9593 Y22.1082
G01 X15.9003 Y22.1231
G01 X15.8413 Y22.1082
G01 X15.8082 Y22.0777
G01 X15.8009 Y22.0730
G01 X15.7939 Y22.0635
G01 X15.6266 Y21.8817
G01 X15.4303 Y21.7290
G01 X15.2116 Y21.6106
G01 X14.9764 Y21.5299
G01 X14.7312 Y21.4890
G01 X14.4825 Y21.4890
G01 X14.2372 Y21.5299
G01 X14.0020 Y21.6106
G01 X13.7833 Y21.7290
G01 X13.6609 Y21.8243
G01 X13.6084 Y21.8481
G01 X13.5509 Y21.8457
G01 X13.5006 Y21.8176
G01 X13.4685 Y21.7698
G01 X13.4633 Y21.7557
G01 X13.4549 Y21.7403
G01 X13.3793 Y21.6394
G01 X13.3669 Y21.6270
G01 X13.2660 Y21.5514
G01 X13.2506 Y21.5430
G01 X13.1315 Y21.4986
G01 X13.1165 Y21.4950
G01 X13.0679 Y21.4898
G01 X13.0613 Y21.4895
G01 X12.2668 Y21.4895
G01 X12.2668 Y21.9895
G00 X12.2668 Y21.9895
G01 F20.00
G01 Z-0.0500
G01 F40.00
G01 X13.0168 Y21.9895
G01 X13.0168 Y23.9889
G01 X13.0168 Y23.9895
G01 X13.0162 Y23.9895
G01 X12.2668 Y23.9895
G01 X12.2668 Y24.4895
G01 X13.0613 Y24.4895
G01 X13.0679 Y24.4891
G01 X13.1165 Y24.4839
G01 X13.1315 Y24.4804
G01 X13.2506 Y24.4359
G01 X13.2660 Y24.4275
G01 X13.3669 Y24.3520
G01 X13.3793 Y24.3396
G01 X13.4549 Y24.2387
G01 X13.4633 Y24.2233
G01 X13.4685 Y24.2092
G01 X13.5006 Y24.1614
G01 X13.5509 Y24.1332
G01 X13.6084 Y24.1308
G01 X13.6609 Y24.1547
G01 X13.7833 Y24.2500
G01 X14.0020 Y24.3683
G01 X14.2372 Y24.4490
G01 X14.4825 Y24.4900
G01 X14.7312 Y24.4900
G01 X14.9764 Y24.4490
G01 X15.2116 Y24.3683
G01 X15.4303 Y24.2500
G01 X15.6266 Y24.0972
G01 X15.7950 Y23.9143
G01 X15.8095 Y23.8920
G01 X15.8543 Y23.8507
G01 X15.9134 Y23.8358
G01 X15.9724 Y23.8507
G01 X16.0055 Y23.8812
G01 X16.0127 Y23.8859
G01 X16.0198 Y23.8955
G01 X16.1735 Y24.0625
G01 X16.1978 Y24.1014
G01 X16.2063 Y24.1471
G01 X16.2063 Y45.1922
G01 X16.2041 Y45.2832
G01 X16.2144 Y45.3408
G01 X16.2157 Y45.3501
G01 X16.2217 Y45.4093
G01 X16.2308 Y45.4383
G01 X16.2345 Y45.4530
G01 X16.2400 Y45.4835
G01 X16.2617 Y45.5378
G01 X16.2648 Y45.5467
G01 X16.2827 Y45.6034
G01 X16.2974 Y45.6300
G01 X16.3039 Y45.6437
G01 X16.3154 Y45.6724
G01 X16.3477 Y45.7214
G01 X16.3525 Y45.7293
G01 X16.3814 Y45.7813
G01 X16.4015 Y45.8048
G01 X16.4107 Y45.8169
G01 X16.4274 Y45.8423
G01 X16.4694 Y45.8844
G01 X16.4759 Y45.8914
G01 X16.5139 Y45.9357
G01 X16.5380 Y45.9543
G01 X16.5502 Y45.9651
G01 X17.5822 Y46.9971
G01 X17.6449 Y47.0631
G01 X17.6937 Y47.0970
G01 X17.7012 Y47.1027
G01 X17.7466 Y47.1397
G01 X17.7740 Y47.1541
G01 X17.7870 Y47.1619
G01 X17.8120 Y47.1793
G01 X17.8666 Y47.2028
G01 X17.8751 Y47.2068
G01 X17.9270 Y47.2339
G01 X17.9567 Y47.2424
G01 X17.9710 Y47.2475
G01 X17.9989 Y47.2595
G01 X18.0571 Y47.2715
G01 X18.0664 Y47.2738
G01 X18.1226 Y47.2899
G01 X18.1534 Y47.2923
G01 X18.1685 Y47.2944
G01 X18.1983 Y47.3005
G01 X18.2577 Y47.3005
G01 X18.2671 Y47.3009
G01 X18.3255 Y47.3053
G01 X18.3557 Y47.3015
G01 X18.3718 Y47.3005
G01 X40.4342 Y47.3005
G01 X40.4817 Y47.3099
G01 X40.5219 Y47.3368
G01 X41.0032 Y47.8181
G01 X41.0301 Y47.8583
G01 X41.0395 Y47.9064
G01 X41.0395 Y48.1906
G01 X41.0311 Y48.2351
G01 X41.0067 Y48.2746
G01 X40.8894 Y48.4020
G01 X40.8735 Y48.4264
G01 X40.8287 Y48.4676
G01 X40.7697 Y48.4826
G01 X40.7107 Y48.4676
G01 X40.6659 Y48.4264
G01 X40.6530 Y48.4066
G01 X40.6467 Y48.3985
G01 X40.4906 Y48.2290
G01 X40.4831 Y48.2221
G01 X40.3012 Y48.0805
G01 X40.2927 Y48.0749
G01 X40.0900 Y47.9652
G01 X40.0806 Y47.9611
G01 X39.7500 Y47.8476
G01 X39.7500 Y48.3765
G01 X39.8651 Y48.4178
G01 X39.9490 Y48.4575
G01 X40.0297 Y48.5059
G01 X40.1043 Y48.5612
G01 X40.1735 Y48.6240
G01 X40.2363 Y48.6932
G01 X40.2920 Y48.7683
G01 X40.3400 Y48.8485
G01 X40.3797 Y48.9324
G01 X40.4116 Y49.0216
G01 X40.4342 Y49.1117
G01 X40.4479 Y49.2041
G01 X40.4525 Y49.2975
G01 X40.4525 Y49.3919
G01 X40.4479 Y49.4859
G01 X40.4343 Y49.5777
G01 X40.4113 Y49.6696
G01 X40.3800 Y49.7570
G01 X40.3400 Y49.8415
G01 X40.2920 Y49.9217
G01 X40.2363 Y49.9968
G01 X40.1731 Y50.0664
G01 X40.1043 Y50.1288
G01 X40.0292 Y50.1845
G01 X39.9490 Y50.2325
G01 X39.8651 Y50.2722
G01 X39.7500 Y50.3135
G01 X39.7500 Y50.8424
G01 X40.0806 Y50.7289
G01 X40.0900 Y50.7248
G01 X40.2927 Y50.6151
G01 X40.3012 Y50.6095
G01 X40.4831 Y50.4679
G01 X40.4906 Y50.4610
G01 X40.6467 Y50.2915
G01 X40.6530 Y50.2834
G01 X40.6659 Y50.2636
G01 X40.7107 Y50.2224
G01 X40.7697 Y50.2074
G01 X40.8287 Y50.2224
G01 X40.8735 Y50.2636
G01 X40.8894 Y50.2880
G01 X41.0525 Y50.4652
G01 X41.2426 Y50.6131
G01 X41.4543 Y50.7277
G01 X41.6821 Y50.8059
G01 X41.9196 Y50.8455
G01 X42.1604 Y50.8455
G01 X42.3979 Y50.8059
G01 X42.6257 Y50.7277
G01 X42.8374 Y50.6131
G01 X43.0275 Y50.4652
G01 X43.1906 Y50.2880
G01 X43.3223 Y50.0864
G01 X43.4190 Y49.8659
G01 X43.4781 Y49.6325
G01 X43.4930 Y49.4526
G01 X43.4930 Y49.2374
G01 X43.4781 Y49.0575
G01 X43.4190 Y48.8241
G01 X43.3223 Y48.6036
G01 X43.1906 Y48.4020
G01 X43.0733 Y48.2746
G01 X43.0490 Y48.2357
G01 X43.0405 Y48.1900
G01 X43.0405 Y47.4546
G01 X43.0428 Y47.3636
G01 X43.0323 Y47.3051
G01 X43.0310 Y47.2958
G01 X43.0251 Y47.2376
G01 X43.0158 Y47.2080
G01 X43.0122 Y47.1933
G01 X43.0069 Y47.1633
G01 X42.9848 Y47.1081
G01 X42.9817 Y47.0992
G01 X42.9642 Y47.0434
G01 X42.9494 Y47.0168
G01 X42.9429 Y47.0031
G01 X42.9314 Y46.9744
G01 X42.8986 Y46.9247
G01 X42.8938 Y46.9167
G01 X42.8654 Y46.8655
G01 X42.8456 Y46.8424
G01 X42.8365 Y46.8303
G01 X42.8194 Y46.8045
G01 X42.7774 Y46.7625
G01 X42.7709 Y46.7554
G01 X42.7329 Y46.7111
G01 X42.7088 Y46.6925
G01 X42.6967 Y46.6817
G01 X41.6178 Y45.6029
G01 X41.5551 Y45.5369
G01 X41.5070 Y45.5035
G01 X41.4995 Y45.4979
G01 X41.4534 Y45.4603
G01 X41.4264 Y45.4462
G01 X41.4135 Y45.4384
G01 X41.3880 Y45.4207
G01 X41.3334 Y45.3972
G01 X41.3249 Y45.3932
G01 X41.2730 Y45.3661
G01 X41.2433 Y45.3575
G01 X41.2290 Y45.3525
G01 X41.2011 Y45.3405
G01 X41.1428 Y45.3285
G01 X41.1336 Y45.3262
G01 X41.0774 Y45.3101
G01 X41.0466 Y45.3077
G01 X41.0315 Y45.3056
G01 X41.0017 Y45.2995
G01 X40.9432 Y45.2995
G01 X40.9338 Y45.2992
G01 X40.8745 Y45.2947
G01 X40.8443 Y45.2985
G01 X40.8282 Y45.2995
G01 X18.7664 Y45.2995
G01 X18.7183 Y45.2901
G01 X18.6781 Y45.2632
G01 X18.2436 Y44.8287
G01 X18.2168 Y44.7885
G01 X18.2073 Y44.7404
G01 X18.2073 Y24.1465
G01 X18.2158 Y24.1014
G01 X18.2401 Y24.0625
G01 X18.3950 Y23.8943
G01 X18.5310 Y23.6861
G01 X18.6309 Y23.4584
G01 X18.6919 Y23.2173
G01 X18.7125 Y22.9695
G01 X18.6919 Y22.7217
G01 X18.6309 Y22.4806
G01 X18.5310 Y22.2529
G01 X18.3950 Y22.0447
G01 X18.2266 Y21.8617
G01 X18.0303 Y21.7090
G01 X17.8116 Y21.5906
G01 X17.5764 Y21.5099
G01 X17.3312 Y21.4690
G01 X17.0825 Y21.4690
G01 X16.8372 Y21.5099
G01 X16.6020 Y21.5906
G01 X16.3833 Y21.7090
G01 X16.1871 Y21.8617
G01 X16.0187 Y22.0447
G01 X16.0041 Y22.0670
G01 X15.9593 Y22.1082
G01 X15.9003 Y22.1231
G01 X15.8413 Y22.1082
G01 X15.8082 Y22.0777
G01 X15.8009 Y22.0730
G01 X15.7939 Y22.0635
G01 X15.6266 Y21.8817
G01 X15.4303 Y21.7290
G01 X15.2116 Y21.6106
G01 X14.9764 Y21.5299
G01 X14.7312 Y21.4890
G01 X14.4825 Y21.4890
G01 X14.2372 Y21.5299
G01 X14.0020 Y21.6106
G01 X13.7833 Y21.7290
G01 X13.6609 Y21.8243
G01 X13.6084 Y21.8481
G01 X13.5509 Y21.8457
G01 X13.5006 Y21.8176
G01 X13.4685 Y21.7698
G01 X13.4633 Y21.7557
G01 X13.4549 Y21.7403
G01 X13.3793 Y21.6394
G01 X13.3669 Y21.6270
G01 X13.2660 Y21.5514
G01 X13.2506 Y21.5430
G01 X13.1315 Y21.4986
G01 X13.1165 Y21.4950
G01 X13.0679 Y21.4898
G01 X13.0613 Y21.4895
G01 X12.2668 Y21.4895
G01 X12.2668 Y21.9895
G00 Z2.0000
G00 X10.5168 Y22.7395
G01 F20.00
G01 Z-0.0250
G01 F40.00
G01 X11.0168 Y22.7395
G01 X11.0168 Y21.9895
G01 X11.7668 Y21.9895
G01 X11.7668 Y21.4895
G01 X10.9723 Y21.4895
G01 X10.9657 Y21.4898
G01 X10.9171 Y21.4950
G01 X10.9022 Y21.4986
G01 X10.7830 Y21.5430
G01 X10.7676 Y21.5514
G01 X10.6667 Y21.6270
G01 X10.6543 Y21.6394
G01 X10.5788 Y21.7403
G01 X10.5704 Y21.7557
G01 X10.5259 Y21.8748
G01 X10.5224 Y21.8898
G01 X10.5172 Y21.9384
G01 X10.5168 Y21.9450
G01 X10.5168 Y22.7395
G00 X10.5168 Y22.7395
G01 F20.00
G01 Z-0.0500
G01 F40.00
G01 X11.0168 Y22.7395
G01 X11.0168 Y21.9895
G01 X11.7668 Y21.9895
G01 X11.7668 Y21.4895
G01 X10.9723 Y21.4895
G01 X10.9657 Y21.4898
G01 X10.9171 Y21.4950
G01 X10.9022 Y21.4986
G01 X10.7830 Y21.5430
G01 X10.7676 Y21.5514
G01 X10.6667 Y21.6270
G01 X10.6543 Y21.6394
G01 X10.5788 Y21.7403
G01 X10.5704 Y21.7557
G01 X10.5259 Y21.8748
G01 X10.5224 Y21.8898
G01 X10.5172 Y21.9384
G01 X10.5168 Y21.9450
G01 X10.5168 Y22.7395
G00 Z2.0000
G00 X10.5168 Y24.0340
G01 F20.00
G01 Z-0.0250
G01 F40.00
G01 X10.5172 Y24.0406
G01 X10.5224 Y24.0891
G01 X10.5259 Y24.1041
G01 X10.5704 Y24.2233
G01 X10.5788 Y24.2387
G01 X10.6543 Y24.3396
G01 X10.6667 Y24.3520
G01 X10.7676 Y24.4275
G01 X10.7830 Y24.4359
G01 X10.9022 Y24.4804
G01 X10.9171 Y24.4839
G01 X10.9657 Y24.4891
G01 X10.9723 Y24.4895
G01 X11.7668 Y24.4895
G01 X11.7668 Y23.9895
G01 X11.0168 Y23.9895
G01 X11.0168 Y23.2395
G01 X10.5168 Y23.2395
G01 X10.5168 Y24.0340
G00 X10.5168 Y24.0340
G01 F20.00
G01 Z-0.0500
G01 F40.00
G01 X10.5172 Y24.0406
G01 X10.5224 Y24.0891
G01 X10.5259 Y24.1041
G01 X10.5704 Y24.2233
G01 X10.5788 Y24.2387
G01 X10.6543 Y24.3396
G01 X10.6667 Y24.3520
G01 X10.7676 Y24.4275
G01 X10.7830 Y24.4359
G01 X10.9022 Y24.4804
G01 X10.9171 Y24.4839
G01 X10.9657 Y24.4891
G01 X10.9723 Y24.4895
G01 X11.7668 Y24.4895
G01 X11.7668 Y23.9895
G01 X11.0168 Y23.9895
G01 X11.0168 Y23.2395
G01 X10.5168 Y23.2395
G01 X10.5168 Y24.0340
G00 Z2.0000
G00 X20.5947 Y26.8000
G01 F20.00
G01 Z-0.0250
G01 F40.00
G01 X20.5988 Y26.8425
G01 X20.5995 Y26.8559
G01 X20.5995 Y33.6854
G01 X20.5972 Y33.7764
G01 X20.6076 Y33.8340
G01 X20.6089 Y33.8433
G01 X20.6149 Y33.9024
G01 X20.6240 Y33.9315
G01 X20.6276 Y33.9462
G01 X20.6331 Y33.9766
G01 X20.6548 Y34.0310
G01 X20.6580 Y34.0399
G01 X20.6758 Y34.0966
G01 X20.6906 Y34.1232
G01 X20.6971 Y34.1369
G01 X20.7086 Y34.1656
G01 X20.7409 Y34.2146
G01 X20.7457 Y34.2225
G01 X20.7746 Y34.2745
G01 X20.7947 Y34.2980
G01 X20.8039 Y34.3101
G01 X20.8206 Y34.3355
G01 X20.8626 Y34.3775
G01 X20.8691 Y34.3846
G01 X20.9071 Y34.4289
G01 X20.9312 Y34.4475
G01 X20.9433 Y34.4583
G01 X22.0822 Y35.5971
G01 X22.1449 Y35.6631
G01 X22.1937 Y35.6970
G01 X22.2012 Y35.7027
G01 X22.2466 Y35.7397
G01 X22.2740 Y35.7541
G01 X22.2870 Y35.7619
G01 X22.3120 Y35.7793
G01 X22.3666 Y35.8028
G01 X22.3751 Y35.8068
G01 X22.4270 Y35.8339
G01 X22.4567 Y35.8424
G01 X22.4710 Y35.8475
G01 X22.4989 Y35.8595
G01 X22.5572 Y35.8715
G01 X22.5664 Y35.8738
G01 X22.6226 Y35.8899
G01 X22.6534 Y35.8923
G01 X22.6685 Y35.8944
G01 X22.6983 Y35.9005
G01 X22.7568 Y35.9005
G01 X22.7662 Y35.9008
G01 X22.8255 Y35.9053
G01 X22.8557 Y35.9015
G01 X22.8718 Y35.9005
G01 X43.9749 Y35.9005
G01 X44.0375 Y35.9171
G01 X44.0829 Y35.9625
G01 X44.0995 Y36.0251
G01 X44.0995 Y49.3854
G01 X44.0972 Y49.4764
G01 X44.1076 Y49.5340
G01 X44.1089 Y49.5433
G01 X44.1149 Y49.6024
G01 X44.1240 Y49.6315
G01 X44.1276 Y49.6462
G01 X44.1331 Y49.6766
G01 X44.1548 Y49.7310
G01 X44.1580 Y49.7399
G01 X44.1758 Y49.7966
G01 X44.1906 Y49.8232
G01 X44.1971 Y49.8369
G01 X44.2086 Y49.8656
G01 X44.2409 Y49.9146
G01 X44.2457 Y49.9225
G01 X44.2746 Y49.9745
G01 X44.2947 Y49.9980
G01 X44.3039 Y50.0101
G01 X44.3206 Y50.0355
G01 X44.3626 Y50.0775
G01 X44.3691 Y50.0846
G01 X44.4071 Y50.1289
G01 X44.4312 Y50.1475
G01 X44.4433 Y50.1583
G01 X45.7972 Y51.5121
G01 X45.8599 Y51.5781
G01 X45.9087 Y51.6120
G01 X45.9162 Y51.6177
G01 X45.9616 Y51.6547
G01 X45.9890 Y51.6691
G01 X46.0020 Y51.6769
G01 X46.0270 Y51.6943
G01 X46.0816 Y51.7178
G01 X46.0901 Y51.7218
G01 X46.1420 Y51.7489
G01 X46.1717 Y51.7574
G01 X46.1860 Y51.7625
G01 X46.2139 Y51.7745
G01 X46.2721 Y51.7865
G01 X46.2814 Y51.7888
G01 X46.3376 Y51.8049
G01 X46.3684 Y51.8073
G01 X46.3835 Y51.8094
G01 X46.4133 Y51.8155
G01 X46.4727 Y51.8155
G01 X46.4821 Y51.8159
G01 X46.5405 Y51.8203
G01 X46.5707 Y51.8165
G01 X46.5868 Y51.8155
G01 X48.0155 Y51.8155
G01 X48.0775 Y51.8321
G01 X48.1229 Y51.8775
G01 X48.1395 Y51.9401
G01 X48.1395 Y56.2983
G01 X48.1363 Y56.3269
G01 X48.1320 Y56.3455
G01 X48.1101 Y56.4226
G01 X48.1089 Y56.4386
G01 X48.1061 Y56.4566
G01 X48.1024 Y56.4729
G01 X48.1005 Y56.5468
G01 X48.0947 Y56.6255
G01 X48.0967 Y56.6415
G01 X48.0976 Y56.6596
G01 X48.0972 Y56.6764
G01 X48.1103 Y56.7491
G01 X48.1204 Y56.8273
G01 X48.1256 Y56.8426
G01 X48.1301 Y56.8602
G01 X48.1331 Y56.8766
G01 X48.1605 Y56.9453
G01 X48.1862 Y57.0199
G01 X48.1943 Y57.0338
G01 X48.2024 Y57.0501
G01 X48.2086 Y57.0656
G01 X48.2493 Y57.1273
G01 X48.2894 Y57.1952
G01 X48.3006 Y57.2077
G01 X48.3117 Y57.2221
G01 X48.3206 Y57.2355
G01 X48.3763 Y57.2914
G01 X48.4258 Y57.3462
G01 X48.4388 Y57.3558
G01 X48.4535 Y57.3685
G01 X49.9822 Y58.8971
G01 X50.0449 Y58.9631
G01 X50.0937 Y58.9970
G01 X50.1012 Y59.0027
G01 X50.1466 Y59.0397
G01 X50.1740 Y59.0541
G01 X50.1870 Y59.0619
G01 X50.2120 Y59.0793
G01 X50.2666 Y59.1028
G01 X50.2751 Y59.1068
G01 X50.3270 Y59.1339
G01 X50.3567 Y59.1424
G01 X50.3710 Y59.1475
G01 X50.3989 Y59.1595
G01 X50.4571 Y59.1715
G01 X50.4664 Y59.1738
G01 X50.5226 Y59.1899
G01 X50.5534 Y59.1923
G01 X50.5685 Y59.1944
G01 X50.5983 Y59.2005
G01 X50.6577 Y59.2005
G01 X50.6671 Y59.2009
G01 X50.7255 Y59.2053
G01 X50.7557 Y59.2015
G01 X50.7718 Y59.2005
G01 X82.8854 Y59.2005
G01 X82.9764 Y59.2028
G01 X83.0340 Y59.1924
G01 X83.0433 Y59.1911
G01 X83.1024 Y59.1851
G01 X83.1320 Y59.1758
G01 X83.1467 Y59.1722
G01 X83.1767 Y59.1669
G01 X83.2310 Y59.1452
G01 X83.2399 Y59.1420
G01 X83.2966 Y59.1242
G01 X83.3237 Y59.1092
G01 X83.3374 Y59.1027
G01 X83.3656 Y59.0914
G01 X83.4146 Y59.0591
G01 X83.4225 Y59.0543
G01 X83.4745 Y59.0254
G01 X83.4976 Y59.0056
G01 X83.5097 Y58.9965
G01 X83.5355 Y58.9794
G01 X83.5776 Y58.9374
G01 X83.5846 Y58.9309
G01 X83.6289 Y58.8929
G01 X83.6475 Y58.8688
G01 X83.6583 Y58.8567
G01 X85.3972 Y57.1177
G01 X85.4631 Y57.0551
G01 X85.4965 Y57.0070
G01 X85.5021 Y56.9995
G01 X85.5397 Y56.9534
G01 X85.5538 Y56.9264
G01 X85.5616 Y56.9135
G01 X85.5793 Y56.8880
G01 X85.6028 Y56.8334
G01 X85.6068 Y56.8249
G01 X85.6339 Y56.7730
G01 X85.6424 Y56.7433
G01 X85.6475 Y56.7290
G01 X85.6595 Y56.7011
G01 X85.6715 Y56.6428
G01 X85.6738 Y56.6336
G01 X85.6899 Y56.5774
G01 X85.6923 Y56.5466
G01 X85.6944 Y56.5315
G01 X85.7005 Y56.5017
G01 X85.7005 Y56.4432
G01 X85.7008 Y56.4338
G01 X85.7053 Y56.3745
G01 X85.7015 Y56.3443
G01 X85.7005 Y56.3282
G01 X85.7005 Y22.9664
G01 X85.7099 Y22.9183
G01 X85.7373 Y22.8777
G01 X86.5781 Y22.0368
G01 X86.6183 Y22.0099
G01 X86.6658 Y22.0005
G01 X102.2854 Y22.0005
G01 X102.3764 Y22.0028
G01 X102.4340 Y21.9924
G01 X102.4433 Y21.9911
G01 X102.5024 Y21.9851
G01 X102.5320 Y21.9758
G01 X102.5467 Y21.9722
G01 X102.5767 Y21.9669
G01 X102.6310 Y21.9452
G01 X102.6399 Y21.9420
G01 X102.6966 Y21.9242
G01 X102.7237 Y21.9092
G01 X102.7374 Y21.9027
G01 X102.7656 Y21.8914
G01 X102.8146 Y21.8591
G01 X102.8225 Y21.8543
G01 X102.8745 Y21.8254
G01 X102.8976 Y21.8056
G01 X102.9097 Y21.7965
G01 X102.9355 Y21.7794
G01 X102.9776 Y21.7374
G01 X102.9846 Y21.7309
G01 X103.0289 Y21.6929
G01 X103.0475 Y21.6688
G01 X103.0583 Y21.6567
G01 X107.1972 Y17.5178
G01 X107.2631 Y17.4551
G01 X107.2965 Y17.4070
G01 X107.3021 Y17.3995
G01 X107.3397 Y17.3534
G01 X107.3538 Y17.3264
G01 X107.3616 Y17.3135
G01 X107.3793 Y17.2880
G01 X107.4028 Y17.2334
G01 X107.4068 Y17.2249
G01 X107.4339 Y17.1730
G01 X107.4425 Y17.1433
G01 X107.4475 Y17.1290
G01 X107.4595 Y17.1011
G01 X107.4715 Y17.0428
G01 X107.4738 Y17.0336
G01 X107.4899 Y16.9774
G01 X107.4923 Y16.9466
G01 X107.4944 Y16.9315
G01 X107.5005 Y16.9017
G01 X107.5005 Y16.8423
G01 X107.5009 Y16.8329
G01 X107.5053 Y16.7745
G01 X107.5015 Y16.7443
G01 X107.5005 Y16.7282
G01 X107.5005 Y14.0570
G01 X107.5090 Y14.0120
G01 X107.5333 Y13.9730
G01 X107.6882 Y13.8048
G01 X107.8242 Y13.5966
G01 X107.9241 Y13.3689
G01 X107.9851 Y13.1278
G01 X108.0056 Y12.8800
G01 X107.9851 Y12.6322
G01 X107.9241 Y12.3911
G01 X107.8242 Y12.1634
G01 X107.6882 Y11.9552
G01 X107.5197 Y11.7723
G01 X107.3235 Y11.6195
G01 X107.1048 Y11.5012
G01 X106.8696 Y11.4204
G01 X106.6243 Y11.3795
G01 X106.3757 Y11.3795
G01 X106.1304 Y11.4204
G01 X105.8952 Y11.5012
G01 X105.6765 Y11.6195
G01 X105.4803 Y11.7723
G01 X105.3118 Y11.9552
G01 X105.3028 Y11.9690
G01 X105.2641 Y12.0067
G01 X105.2131 Y12.0244
G01 X105.1372 Y12.0163
G01 X104.7836 Y12.3699
G01 X104.8439 Y12.4973
G01 X104.8769 Y12.5897
G01 X104.9008 Y12.6849
G01 X104.9151 Y12.7814
G01 X104.9200 Y12.8800
G01 X104.9151 Y12.9786
G01 X104.9008 Y13.0751
G01 X104.8769 Y13.1703
G01 X104.8439 Y13.2627
G01 X104.7836 Y13.3901
G01 X105.1372 Y13.7437
G01 X105.2131 Y13.7356
G01 X105.2641 Y13.7533
G01 X105.3028 Y13.7910
G01 X105.3118 Y13.8048
G01 X105.4667 Y13.9730
G01 X105.4910 Y14.0120
G01 X105.4995 Y14.0570
G01 X105.4995 Y16.3336
G01 X105.4901 Y16.3817
G01 X105.4627 Y16.4223
G01 X101.9223 Y19.9627
G01 X101.8817 Y19.9901
G01 X101.8336 Y19.9995
G01 X86.2146 Y19.9995
G01 X86.1236 Y19.9972
G01 X86.0660 Y20.0076
G01 X86.0567 Y20.0089
G01 X85.9976 Y20.0149
G01 X85.9680 Y20.0242
G01 X85.9533 Y20.0278
G01 X85.9234 Y20.0331
G01 X85.8690 Y20.0548
G01 X85.8601 Y20.0580
G01 X85.8034 Y20.0758
G01 X85.7763 Y20.0908
G01 X85.7626 Y20.0973
G01 X85.7344 Y20.1086
G01 X85.6847 Y20.1414
G01 X85.6767 Y20.1462
G01 X85.6255 Y20.1746
G01 X85.6020 Y20.1947
G01 X85.5899 Y20.2038
G01 X85.5645 Y20.2206
G01 X85.5225 Y20.2626
G01 X85.5154 Y20.2691
G01 X85.4711 Y20.3071
G01 X85.4525 Y20.3312
G01 X85.4417 Y20.3433
G01 X84.0029 Y21.7822
G01 X83.9369 Y21.8449
G01 X83.9035 Y21.8930
G01 X83.8979 Y21.9005
G01 X83.8603 Y21.9466
G01 X83.8462 Y21.9736
G01 X83.8384 Y21.9865
G01 X83.8207 Y22.0119
G01 X83.7972 Y22.0666
G01 X83.7932 Y22.0751
G01 X83.7661 Y22.1270
G01 X83.7575 Y22.1567
G01 X83.7525 Y22.1710
G01 X83.7405 Y22.1989
G01 X83.7285 Y22.2571
G01 X83.7262 Y22.2664
G01 X83.7101 Y22.3226
G01 X83.7077 Y22.3535
G01 X83.7056 Y22.3685
G01 X83.6995 Y22.3983
G01 X83.6995 Y22.4568
G01 X83.6992 Y22.4662
G01 X83.6947 Y22.5255
G01 X83.6985 Y22.5557
G01 X83.6995 Y22.5718
G01 X83.6995 Y55.9342
G01 X83.6901 Y55.9817
G01 X83.6632 Y56.0219
G01 X82.5223 Y57.1627
G01 X82.4817 Y57.1901
G01 X82.4342 Y57.1995
G01 X51.1658 Y57.1995
G01 X51.1183 Y57.1901
G01 X51.0781 Y57.1632
G01 X50.1773 Y56.2623
G01 X50.1499 Y56.2217
G01 X50.1405 Y56.1742
G01 X50.1405 Y51.5315
G01 X50.1476 Y51.4898
G01 X50.1687 Y51.4523
G01 X50.2218 Y51.3875
G01 X50.3170 Y51.2093
G01 X50.3757 Y51.0160
G01 X50.3955 Y50.8150
G01 X50.3823 Y50.6817
G01 X50.3945 Y50.6147
G01 X50.4403 Y50.5642
G01 X50.5057 Y50.5455
G01 X57.1786 Y50.5455
G01 X57.2267 Y50.5549
G01 X57.2673 Y50.5823
G01 X58.9822 Y52.2971
G01 X59.0449 Y52.3631
G01 X59.0930 Y52.3965
G01 X59.1005 Y52.4021
G01 X59.1466 Y52.4397
G01 X59.1736 Y52.4538
G01 X59.1865 Y52.4616
G01 X59.2120 Y52.4793
G01 X59.2657 Y52.5024
G01 X59.2768 Y52.5077
G01 X59.3231 Y52.5498
G01 X59.3237 Y52.5508
G01 X59.3432 Y52.6102
G01 X59.3310 Y52.6715
G01 X59.3305 Y52.6725
G01 X59.2897 Y52.7199
G01 X59.2303 Y52.7412
G01 X59.1473 Y52.7484
G01 X58.9410 Y52.8037
G01 X58.7474 Y52.8940
G01 X58.5725 Y53.0165
G01 X58.4215 Y53.1675
G01 X58.2990 Y53.3424
G01 X58.2087 Y53.5360
G01 X58.1535 Y53.7423
G01 X58.1348 Y53.9550
G01 X58.1535 Y54.1677
G01 X58.2087 Y54.3740
G01 X58.2990 Y54.5676
G01 X58.4215 Y54.7425
G01 X58.5725 Y54.8935
G01 X58.7474 Y55.0160
G01 X58.9410 Y55.1063
G01 X59.1473 Y55.1615
G01 X59.3600 Y55.1802
G01 X59.5727 Y55.1615
G01 X59.7790 Y55.1063
G01 X59.9726 Y55.0160
G01 X60.1475 Y54.8935
G01 X60.2985 Y54.7425
G01 X60.4210 Y54.5676
G01 X60.5113 Y54.3740
G01 X60.5665 Y54.1677
G01 X60.5852 Y53.9550
G01 X60.5665 Y53.7423
G01 X60.5113 Y53.5360
G01 X60.4210 Y53.3424
G01 X60.2985 Y53.1675
G01 X60.1475 Y53.0165
G01 X59.9726 Y52.8940
G01 X59.8501 Y52.8369
G01 X59.7997 Y52.7938
G01 X59.7789 Y52.7316
G01 X59.7788 Y52.7304
G01 X59.7931 Y52.6663
G01 X59.8387 Y52.6182
G01 X59.9032 Y52.6005
G01 X63.8975 Y52.6005
G01 X63.9613 Y52.6182
G01 X64.0069 Y52.6663
G01 X64.0213 Y52.7310
G01 X64.0003 Y52.7938
G01 X63.9499 Y52.8369
G01 X63.8274 Y52.8940
G01 X63.6525 Y53.0165
G01 X63.5015 Y53.1675
G01 X63.3790 Y53.3424
G01 X63.2887 Y53.5360
G01 X63.2335 Y53.7423
G01 X63.2148 Y53.9550
G01 X63.2335 Y54.1677
G01 X63.2887 Y54.3740
G01 X63.3790 Y54.5676
G01 X63.5015 Y54.7425
G01 X63.6525 Y54.8935
G01 X63.8274 Y55.0160
G01 X64.0210 Y55.1063
G01 X64.2273 Y55.1615
G01 X64.4400 Y55.1802
G01 X64.6527 Y55.1615
G01 X64.8590 Y55.1063
G01 X65.0526 Y55.0160
G01 X65.2275 Y54.8935
G01 X65.3785 Y54.7425
G01 X65.5010 Y54.5676
G01 X65.5913 Y54.3740
G01 X65.6465 Y54.1677
G01 X65.6652 Y53.9550
G01 X65.6465 Y53.7423
G01 X65.5913 Y53.5360
G01 X65.5010 Y53.3424
G01 X65.3785 Y53.1675
G01 X65.2275 Y53.0165
G01 X65.0526 Y52.8940
G01 X64.9301 Y52.8369
G01 X64.8797 Y52.7938
G01 X64.8587 Y52.7310
G01 X64.8731 Y52.6663
G01 X64.9187 Y52.6182
G01 X64.9825 Y52.6005
G01 X67.5854 Y52.6005
G01 X67.6764 Y52.6028
G01 X67.7340 Y52.5924
G01 X67.7433 Y52.5911
G01 X67.8024 Y52.5851
G01 X67.8320 Y52.5758
G01 X67.8467 Y52.5722
G01 X67.8767 Y52.5669
G01 X67.9310 Y52.5452
G01 X67.9399 Y52.5420
G01 X67.9966 Y52.5242
G01 X68.0237 Y52.5092
G01 X68.0374 Y52.5027
G01 X68.0656 Y52.4914
G01 X68.1146 Y52.4591
G01 X68.1225 Y52.4543
G01 X68.1745 Y52.4254
G01 X68.1976 Y52.4056
G01 X68.2097 Y52.3965
G01 X68.2355 Y52.3794
G01 X68.2776 Y52.3374
G01 X68.2846 Y52.3309
G01 X68.3289 Y52.2929
G01 X68.3475 Y52.2688
G01 X68.3583 Y52.2567
G01 X70.1972 Y50.4177
G01 X70.2631 Y50.3551
G01 X70.2970 Y50.3063
G01 X70.3027 Y50.2988
G01 X70.3397 Y50.2534
G01 X70.3538 Y50.2264
G01 X70.3616 Y50.2135
G01 X70.3793 Y50.1880
G01 X70.4028 Y50.1334
G01 X70.4068 Y50.1249
G01 X70.4339 Y50.0730
G01 X70.4425 Y50.0433
G01 X70.4475 Y50.0290
G01 X70.4595 Y50.0011
G01 X70.4715 Y49.9428
G01 X70.4738 Y49.9336
G01 X70.4899 Y49.8774
G01 X70.4923 Y49.8466
G01 X70.4944 Y49.8315
G01 X70.5005 Y49.8017
G01 X70.5005 Y49.7423
G01 X70.5009 Y49.7329
G01 X70.5053 Y49.6745
G01 X70.5015 Y49.6443
G01 X70.5005 Y49.6282
G01 X70.5005 Y47.7664
G01 X70.5099 Y47.7183
G01 X70.5373 Y47.6777
G01 X71.3781 Y46.8368
G01 X71.4183 Y46.8099
G01 X71.4658 Y46.8005
G01 X74.4342 Y46.8005
G01 X74.4817 Y46.8099
G01 X74.5219 Y46.8368
G01 X75.1227 Y47.4377
G01 X75.1501 Y47.4783
G01 X75.1595 Y47.5264
G01 X75.1595 Y48.2224
G01 X75.1510 Y48.2680
G01 X75.1267 Y48.3070
G01 X74.9718 Y48.4752
G01 X74.9573 Y48.4975
G01 X74.9125 Y48.5387
G01 X74.8535 Y48.5537
G01 X74.7945 Y48.5387
G01 X74.7613 Y48.5083
G01 X74.7541 Y48.5035
G01 X74.7471 Y48.4940
G01 X74.5797 Y48.3123
G01 X74.3835 Y48.1595
G01 X74.1648 Y48.0412
G01 X73.9296 Y47.9604
G01 X73.6843 Y47.9195
G01 X73.4357 Y47.9195
G01 X73.1904 Y47.9604
G01 X72.9552 Y48.0412
G01 X72.7365 Y48.1595
G01 X72.5403 Y48.3123
G01 X72.3718 Y48.4952
G01 X72.2358 Y48.7034
G01 X72.1359 Y48.9311
G01 X72.0749 Y49.1722
G01 X72.0544 Y49.4200
G01 X72.0749 Y49.6678
G01 X72.1359 Y49.9089
G01 X72.2358 Y50.1366
G01 X72.3588 Y50.3248
G01 X72.3718 Y50.3448
G01 X72.5403 Y50.5277
G01 X72.7365 Y50.6805
G01 X72.9552 Y50.7988
G01 X73.1904 Y50.8796
G01 X73.4357 Y50.9205
G01 X73.6843 Y50.9205
G01 X73.9296 Y50.8796
G01 X74.1648 Y50.7988
G01 X74.3835 Y50.6805
G01 X74.5797 Y50.5277
G01 X74.7482 Y50.3448
G01 X74.7627 Y50.3225
G01 X74.8075 Y50.2813
G01 X74.8665 Y50.2663
G01 X74.9256 Y50.2813
G01 X74.9586 Y50.3117
G01 X74.9659 Y50.3165
G01 X74.9729 Y50.3260
G01 X75.1403 Y50.5077
G01 X75.3365 Y50.6605
G01 X75.5552 Y50.7788
G01 X75.7904 Y50.8596
G01 X76.0357 Y50.9005
G01 X76.2843 Y50.9005
G01 X76.5296 Y50.8596
G01 X76.7648 Y50.7788
G01 X76.9835 Y50.6605
G01 X77.1060 Y50.5652
G01 X77.1584 Y50.5413
G01 X77.2159 Y50.5437
G01 X77.2662 Y50.5719
G01 X77.2983 Y50.6197
G01 X77.3035 Y50.6338
G01 X77.3120 Y50.6492
G01 X77.3875 Y50.7501
G01 X77.3999 Y50.7625
G01 X77.5008 Y50.8380
G01 X77.5162 Y50.8465
G01 X77.6354 Y50.8909
G01 X77.6503 Y50.8944
G01 X77.6989 Y50.8996
G01 X77.7055 Y50.9000
G01 X78.5000 Y50.9000
G01 X78.5000 Y50.4000
G01 X77.7500 Y50.4000
G01 X77.7500 Y48.4006
G01 X77.7500 Y48.4000
G01 X77.7506 Y48.4000
G01 X78.5000 Y48.4000
G01 X78.5000 Y47.9000
G01 X77.7055 Y47.9000
G01 X77.6989 Y47.9004
G01 X77.6503 Y47.9056
G01 X77.6354 Y47.9091
G01 X77.5162 Y47.9535
G01 X77.5008 Y47.9620
G01 X77.3999 Y48.0375
G01 X77.3879 Y48.0495
G01 X77.3838 Y48.0549
G01 X77.3360 Y48.0934
G01 X77.2757 Y48.1043
G01 X77.2175 Y48.0849
G01 X77.1757 Y48.0400
G01 X77.1605 Y47.9806
G01 X77.1605 Y47.0691
G01 X77.1644 Y46.9891
G01 X77.1526 Y46.9111
G01 X77.1451 Y46.8376
G01 X77.1403 Y46.8222
G01 X77.1361 Y46.8045
G01 X77.1336 Y46.7879
G01 X77.1063 Y46.7140
G01 X77.0842 Y46.6434
G01 X77.0763 Y46.6293
G01 X77.0687 Y46.6128
G01 X77.0629 Y46.5971
G01 X77.0238 Y46.5345
G01 X76.9854 Y46.4655
G01 X76.9749 Y46.4533
G01 X76.9641 Y46.4386
G01 X76.9553 Y46.4244
G01 X76.9010 Y46.3672
G01 X76.8529 Y46.3111
G01 X76.8401 Y46.3012
G01 X76.8266 Y46.2890
G01 X76.8151 Y46.2769
G01 X76.7544 Y46.2347
G01 X76.7403 Y46.2240
G01 X76.7281 Y46.2132
G01 X75.6178 Y45.1029
G01 X75.5551 Y45.0369
G01 X75.5070 Y45.0035
G01 X75.4995 Y44.9979
G01 X75.4534 Y44.9603
G01 X75.4264 Y44.9462
G01 X75.4135 Y44.9384
G01 X75.3880 Y44.9207
G01 X75.3334 Y44.8972
G01 X75.3249 Y44.8932
G01 X75.2730 Y44.8661
G01 X75.2433 Y44.8575
G01 X75.2290 Y44.8525
G01 X75.2011 Y44.8405
G01 X75.1428 Y44.8285
G01 X75.1336 Y44.8262
G01 X75.0774 Y44.8101
G01 X75.0466 Y44.8077
G01 X75.0315 Y44.8056
G01 X75.0017 Y44.7995
G01 X74.9432 Y44.7995
G01 X74.9338 Y44.7992
G01 X74.8745 Y44.7947
G01 X74.8443 Y44.7985
G01 X74.8282 Y44.7995
G01 X71.0146 Y44.7995
G01 X70.9236 Y44.7972
G01 X70.8660 Y44.8076
G01 X70.8567 Y44.8089
G01 X70.7976 Y44.8149
G01 X70.7680 Y44.8242
G01 X70.7533 Y44.8278
G01 X70.7234 Y44.8331
G01 X70.6690 Y44.8548
G01 X70.6601 Y44.8580
G01 X70.6034 Y44.8758
G01 X70.5763 Y44.8908
G01 X70.5626 Y44.8973
G01 X70.5344 Y44.9086
G01 X70.4847 Y44.9414
G01 X70.4767 Y44.9462
G01 X70.4255 Y44.9746
G01 X70.4020 Y44.9947
G01 X70.3899 Y45.0038
G01 X70.3645 Y45.0206
G01 X70.3225 Y45.0626
G01 X70.3154 Y45.0691
G01 X70.2711 Y45.1071
G01 X70.2525 Y45.1312
G01 X70.2417 Y45.1433
G01 X68.8029 Y46.5822
G01 X68.7369 Y46.6449
G01 X68.7035 Y46.6930
G01 X68.6979 Y46.7005
G01 X68.6603 Y46.7466
G01 X68.6462 Y46.7736
G01 X68.6384 Y46.7865
G01 X68.6207 Y46.8119
G01 X68.5972 Y46.8666
G01 X68.5932 Y46.8751
G01 X68.5661 Y46.9270
G01 X68.5575 Y46.9567
G01 X68.5525 Y46.9710
G01 X68.5405 Y46.9989
G01 X68.5285 Y47.0571
G01 X68.5262 Y47.0664
G01 X68.5101 Y47.1226
G01 X68.5077 Y47.1535
G01 X68.5056 Y47.1685
G01 X68.4995 Y47.1983
G01 X68.4995 Y47.2568
G01 X68.4992 Y47.2662
G01 X68.4947 Y47.3255
G01 X68.4985 Y47.3557
G01 X68.4995 Y47.3718
G01 X68.4995 Y49.2336
G01 X68.4901 Y49.2817
G01 X68.4627 Y49.3223
G01 X67.2223 Y50.5627
G01 X67.1817 Y50.5901
G01 X67.1336 Y50.5995
G01 X60.1658 Y50.5995
G01 X60.1183 Y50.5901
G01 X60.0781 Y50.5632
G01 X59.0530 Y49.5381
G01 X59.0205 Y49.4821
G01 X59.0205 Y49.4179
G01 X59.0526 Y49.3623
G01 X60.2972 Y48.1178
G01 X60.3631 Y48.0551
G01 X60.3965 Y48.0070
G01 X60.4021 Y47.9995
G01 X60.4397 Y47.9534
G01 X60.4538 Y47.9264
G01 X60.4616 Y47.9135
G01 X60.4793 Y47.8880
G01 X60.5028 Y47.8334
G01 X60.5068 Y47.8249
G01 X60.5339 Y47.7730
G01 X60.5424 Y47.7433
G01 X60.5475 Y47.7290
G01 X60.5595 Y47.7011
G01 X60.5715 Y47.6428
G01 X60.5738 Y47.6336
G01 X60.5899 Y47.5774
G01 X60.5923 Y47.5466
G01 X60.5944 Y47.5315
G01 X60.6005 Y47.5017
G01 X60.6005 Y47.4432
G01 X60.6008 Y47.4338
G01 X60.6053 Y47.3745
G01 X60.6015 Y47.3443
G01 X60.6005 Y47.3282
G01 X60.6005 Y9.9911
G01 X60.6062 Y9.9531
G01 X60.6226 Y9.9199
G01 X60.6871 Y9.8276
G01 X60.7796 Y9.6293
G01 X60.8362 Y9.4180
G01 X60.8553 Y9.2000
G01 X60.8362 Y8.9820
G01 X60.7796 Y8.7707
G01 X60.6871 Y8.5724
G01 X60.6229 Y8.4807
G01 X60.6062 Y8.4469
G01 X60.6005 Y8.4096
G01 X60.6005 Y8.3658
G01 X60.6099 Y8.3183
G01 X60.6368 Y8.2781
G01 X60.7781 Y8.1368
G01 X60.8183 Y8.1099
G01 X60.8658 Y8.1005
G01 X62.0317 Y8.1005
G01 X62.0880 Y8.1140
G01 X62.1320 Y8.1516
G01 X62.1541 Y8.2051
G01 X62.1496 Y8.2628
G01 X62.1193 Y8.3122
G01 X62.0384 Y8.3931
G01 X61.9129 Y8.5724
G01 X61.8204 Y8.7707
G01 X61.7638 Y8.9820
G01 X61.7447 Y9.2000
G01 X61.7638 Y9.4180
G01 X61.8204 Y9.6293
G01 X61.9129 Y9.8276
G01 X62.0384 Y10.0069
G01 X62.1931 Y10.1616
G01 X62.3724 Y10.2871
G01 X62.5707 Y10.3796
G01 X62.7820 Y10.4362
G01 X63.0000 Y10.4553
G01 X63.2180 Y10.4362
G01 X63.4293 Y10.3796
G01 X63.6276 Y10.2871
G01 X63.8069 Y10.1616
G01 X63.9616 Y10.0069
G01 X64.0871 Y9.8276
G01 X64.1796 Y9.6293
G01 X64.2362 Y9.4180
G01 X64.2553 Y9.2000
G01 X64.2362 Y8.9820
G01 X64.1796 Y8.7707
G01 X64.0871 Y8.5724
G01 X63.9616 Y8.3931
G01 X63.8807 Y8.3122
G01 X63.8504 Y8.2628
G01 X63.8459 Y8.2051
G01 X63.8680 Y8.1516
G01 X63.9120 Y8.1140
G01 X63.9683 Y8.1005
G01 X92.1342 Y8.1005
G01 X92.1817 Y8.1099
G01 X92.2219 Y8.1368
G01 X92.7627 Y8.6777
G01 X92.7901 Y8.7183
G01 X92.7995 Y8.7664
G01 X92.7995 Y9.2441
G01 X92.7988 Y9.2575
G01 X92.7947 Y9.3000
G01 X92.8137 Y9.4934
G01 X92.8156 Y9.5046
G01 X92.8438 Y9.5946
G01 X92.8704 Y9.6823
G01 X92.8770 Y9.6987
G01 X92.9211 Y9.7781
G01 X92.9635 Y9.8575
G01 X92.9678 Y9.8630
G01 X92.9762 Y9.8763
G01 X93.0330 Y9.9425
G01 X93.0883 Y10.0098
G01 X93.0943 Y10.0152
G01 X93.1085 Y10.0299
G01 X93.1752 Y10.0816
G01 X93.2404 Y10.1350
G01 X93.2473 Y10.1391
G01 X93.2695 Y10.1542
G01 X93.3422 Y10.1898
G01 X93.4148 Y10.2286
G01 X93.4225 Y10.2310
G01 X93.4405 Y10.2381
G01 X93.4513 Y10.2432
G01 X93.5273 Y10.2629
G01 X93.6039 Y10.2860
G01 X93.6149 Y10.2871
G01 X93.6332 Y10.2904
G01 X93.6477 Y10.2941
G01 X93.7233 Y10.2979
G01 X93.8000 Y10.3053
G01 X93.8146 Y10.3039
G01 X93.8324 Y10.3035
G01 X93.8509 Y10.3044
G01 X93.9223 Y10.2935
G01 X93.9961 Y10.2860
G01 X94.0136 Y10.2807
G01 X94.0303 Y10.2769
G01 X94.0521 Y10.2736
G01 X94.1165 Y10.2497
G01 X94.1847 Y10.2288
G01 X94.2040 Y10.2185
G01 X94.2189 Y10.2118
G01 X94.2429 Y10.2029
G01 X94.2980 Y10.1685
G01 X94.3585 Y10.1359
G01 X94.3782 Y10.1198
G01 X94.3908 Y10.1107
G01 X94.4156 Y10.0953
G01 X94.4603 Y10.0527
G01 X94.4671 Y10.0468
G01 X94.5109 Y10.0109
G01 X94.5293 Y9.9885
G01 X94.5393 Y9.9776
G01 X94.5631 Y9.9551
G01 X94.5960 Y9.9077
G01 X94.6020 Y9.8999
G01 X94.6359 Y9.8585
G01 X94.6513 Y9.8298
G01 X94.6585 Y9.8181
G01 X94.6793 Y9.7880
G01 X94.7007 Y9.7383
G01 X94.7053 Y9.7287
G01 X94.7288 Y9.6847
G01 X94.7393 Y9.6501
G01 X94.7438 Y9.6379
G01 X94.7595 Y9.6011
G01 X94.7698 Y9.5514
G01 X94.7726 Y9.5405
G01 X94.7860 Y9.4961
G01 X94.7899 Y9.4572
G01 X94.7918 Y9.4444
G01 X94.8005 Y9.4017
G01 X94.8005 Y9.3546
G01 X94.8012 Y9.3425
G01 X94.8053 Y9.3000
G01 X94.8012 Y9.2575
G01 X94.8005 Y9.2441
G01 X94.8005 Y8.3146
G01 X94.8028 Y8.2236
G01 X94.7924 Y8.1660
G01 X94.7911 Y8.1567
G01 X94.7851 Y8.0976
G01 X94.7758 Y8.0680
G01 X94.7722 Y8.0533
G01 X94.7669 Y8.0233
G01 X94.7448 Y7.9681
G01 X94.7417 Y7.9592
G01 X94.7242 Y7.9034
G01 X94.7094 Y7.8768
G01 X94.7029 Y7.8631
G01 X94.6914 Y7.8344
G01 X94.6586 Y7.7847
G01 X94.6538 Y7.7767
G01 X94.6254 Y7.7255
G01 X94.6056 Y7.7024
G01 X94.5965 Y7.6903
G01 X94.5794 Y7.6645
G01 X94.5374 Y7.6225
G01 X94.5309 Y7.6154
G01 X94.4929 Y7.5711
G01 X94.4688 Y7.5525
G01 X94.4567 Y7.5417
G01 X93.3178 Y6.4029
G01 X93.2551 Y6.3369
G01 X93.2070 Y6.3035
G01 X93.1995 Y6.2979
G01 X93.1534 Y6.2603
G01 X93.1264 Y6.2462
G01 X93.1135 Y6.2384
G01 X93.0880 Y6.2207
G01 X93.0334 Y6.1972
G01 X93.0249 Y6.1932
G01 X92.9730 Y6.1661
G01 X92.9433 Y6.1575
G01 X92.9290 Y6.1525
G01 X92.9011 Y6.1405
G01 X92.8428 Y6.1285
G01 X92.8336 Y6.1262
G01 X92.7774 Y6.1101
G01 X92.7466 Y6.1077
G01 X92.7315 Y6.1056
G01 X92.7017 Y6.0995
G01 X92.6432 Y6.0995
G01 X92.6338 Y6.0992
G01 X92.5745 Y6.0947
G01 X92.5443 Y6.0985
G01 X92.5282 Y6.0995
G01 X60.4146 Y6.0995
G01 X60.3236 Y6.0972
G01 X60.2651 Y6.1077
G01 X60.2558 Y6.1090
G01 X60.1976 Y6.1149
G01 X60.1680 Y6.1242
G01 X60.1533 Y6.1278
G01 X60.1233 Y6.1331
G01 X60.0690 Y6.1548
G01 X60.0601 Y6.1580
G01 X60.0034 Y6.1758
G01 X59.9768 Y6.1906
G01 X59.9631 Y6.1971
G01 X59.9344 Y6.2086
G01 X59.8847 Y6.2414
G01 X59.8767 Y6.2462
G01 X59.8255 Y6.2746
G01 X59.8024 Y6.2944
G01 X59.7903 Y6.3035
G01 X59.7645 Y6.3206
G01 X59.7225 Y6.3626
G01 X59.7154 Y6.3691
G01 X59.6711 Y6.4071
G01 X59.6525 Y6.4312
G01 X59.6417 Y6.4433
G01 X58.9029 Y7.1822
G01 X58.8369 Y7.2449
G01 X58.8035 Y7.2930
G01 X58.7979 Y7.3005
G01 X58.7603 Y7.3466
G01 X58.7462 Y7.3736
G01 X58.7384 Y7.3865
G01 X58.7207 Y7.4119
G01 X58.6972 Y7.4666
G01 X58.6932 Y7.4751
G01 X58.6661 Y7.5270
G01 X58.6575 Y7.5567
G01 X58.6525 Y7.5710
G01 X58.6405 Y7.5989
G01 X58.6285 Y7.6571
G01 X58.6262 Y7.6664
G01 X58.6101 Y7.7226
G01 X58.6077 Y7.7535
G01 X58.6056 Y7.7685
G01 X58.5995 Y7.7983
G01 X58.5995 Y7.8568
G01 X58.5992 Y7.8662
G01 X58.5947 Y7.9255
G01 X58.5985 Y7.9557
G01 X58.5995 Y7.9718
G01 X58.5995 Y8.4089
G01 X58.5938 Y8.4469
G01 X58.5771 Y8.4807
G01 X58.5129 Y8.5724
G01 X58.4204 Y8.7707
G01 X58.3638 Y8.9820
G01 X58.3447 Y9.2000
G01 X58.3638 Y9.4180
G01 X58.4204 Y9.6293
G01 X58.5129 Y9.8276
G01 X58.5774 Y9.9199
G01 X58.5938 Y9.9531
G01 X58.5995 Y9.9911
G01 X58.5995 Y46.9342
G01 X58.5901 Y46.9817
G01 X58.5627 Y47.0223
G01 X57.0773 Y48.5077
G01 X57.0367 Y48.5351
G01 X56.9886 Y48.5445
G01 X50.4555 Y48.5445
G01 X50.4075 Y48.5351
G01 X50.4003 Y48.5321
G01 X50.3737 Y48.5250
G01 X49.8900 Y48.5250
G01 X49.8900 Y48.8000
G01 X48.3906 Y48.8000
G01 X48.3900 Y48.8000
G01 X48.3900 Y48.7994
G01 X48.3900 Y48.5250
G01 X47.8900 Y48.5250
G01 X47.8900 Y48.8445
G01 X47.8904 Y48.8511
G01 X47.8956 Y48.8997
G01 X47.8991 Y48.9146
G01 X47.9435 Y49.0338
G01 X47.9541 Y49.0530
G01 X47.9690 Y49.1058
G01 X47.9629 Y49.1420
G01 X47.9630 Y49.1507
G01 X47.9043 Y49.3440
G01 X47.8845 Y49.5450
G01 X47.8977 Y49.6783
G01 X47.8855 Y49.7453
G01 X47.8397 Y49.7958
G01 X47.7743 Y49.8145
G01 X46.9814 Y49.8145
G01 X46.9333 Y49.8051
G01 X46.8927 Y49.7777
G01 X46.1368 Y49.0219
G01 X46.1099 Y48.9817
G01 X46.1005 Y48.9342
G01 X46.1005 Y36.0251
G01 X46.1171 Y35.9625
G01 X46.1625 Y35.9171
G01 X46.2245 Y35.9005
G01 X50.4854 Y35.9005
G01 X50.5764 Y35.9028
G01 X50.6340 Y35.8924
G01 X50.6433 Y35.8911
G01 X50.7024 Y35.8851
G01 X50.7320 Y35.8758
G01 X50.7467 Y35.8722
G01 X50.7767 Y35.8669
G01 X50.8310 Y35.8452
G01 X50.8399 Y35.8420
G01 X50.8966 Y35.8242
G01 X50.9237 Y35.8092
G01 X50.9374 Y35.8027
G01 X50.9656 Y35.7914
G01 X51.0146 Y35.7591
G01 X51.0225 Y35.7543
G01 X51.0745 Y35.7254
G01 X51.0976 Y35.7056
G01 X51.1097 Y35.6965
G01 X51.1355 Y35.6794
G01 X51.1775 Y35.6374
G01 X51.1846 Y35.6309
G01 X51.2289 Y35.5929
G01 X51.2475 Y35.5688
G01 X51.2583 Y35.5567
G01 X53.8972 Y32.9177
G01 X53.9631 Y32.8551
G01 X53.9970 Y32.8063
G01 X54.0027 Y32.7988
G01 X54.0397 Y32.7534
G01 X54.0538 Y32.7264
G01 X54.0616 Y32.7135
G01 X54.0793 Y32.6880
G01 X54.1028 Y32.6334
G01 X54.1068 Y32.6249
G01 X54.1339 Y32.5730
G01 X54.1425 Y32.5433
G01 X54.1475 Y32.5290
G01 X54.1595 Y32.5011
G01 X54.1715 Y32.4428
G01 X54.1738 Y32.4336
G01 X54.1899 Y32.3774
G01 X54.1923 Y32.3466
G01 X54.1944 Y32.3315
G01 X54.2005 Y32.3017
G01 X54.2005 Y32.2423
G01 X54.2009 Y32.2329
G01 X54.2053 Y32.1745
G01 X54.2015 Y32.1443
G01 X54.2005 Y32.1282
G01 X54.2005 Y23.7559
G01 X54.2012 Y23.7425
G01 X54.2053 Y23.7000
G01 X54.1863 Y23.5066
G01 X54.1844 Y23.4954
G01 X54.1561 Y23.4053
G01 X54.1296 Y23.3177
G01 X54.1230 Y23.3013
G01 X54.0789 Y23.2219
G01 X54.0365 Y23.1425
G01 X54.0322 Y23.1370
G01 X54.0238 Y23.1237
G01 X53.9670 Y23.0575
G01 X53.9117 Y22.9902
G01 X53.9057 Y22.9848
G01 X53.8915 Y22.9701
G01 X53.8248 Y22.9184
G01 X53.7596 Y22.8650
G01 X53.7527 Y22.8609
G01 X53.7305 Y22.8458
G01 X53.6578 Y22.8102
G01 X53.5852 Y22.7714
G01 X53.5775 Y22.7690
G01 X53.5595 Y22.7619
G01 X53.5487 Y22.7568
G01 X53.4727 Y22.7371
G01 X53.3961 Y22.7140
G01 X53.3851 Y22.7129
G01 X53.3668 Y22.7096
G01 X53.3523 Y22.7059
G01 X53.2768 Y22.7021
G01 X53.2000 Y22.6947
G01 X53.1854 Y22.6961
G01 X53.1676 Y22.6965
G01 X53.1491 Y22.6956
G01 X53.0778 Y22.7065
G01 X53.0039 Y22.7140
G01 X52.9864 Y22.7193
G01 X52.9697 Y22.7231
G01 X52.9479 Y22.7264
G01 X52.8835 Y22.7503
G01 X52.8153 Y22.7712
G01 X52.7960 Y22.7815
G01 X52.7811 Y22.7882
G01 X52.7571 Y22.7971
G01 X52.7020 Y22.8315
G01 X52.6415 Y22.8641
G01 X52.6218 Y22.8802
G01 X52.6092 Y22.8893
G01 X52.5844 Y22.9047
G01 X52.5397 Y22.9472
G01 X52.5329 Y22.9532
G01 X52.4891 Y22.9891
G01 X52.4707 Y23.0115
G01 X52.4606 Y23.0224
G01 X52.4369 Y23.0449
G01 X52.4040 Y23.0923
G01 X52.3980 Y23.1001
G01 X52.3641 Y23.1415
G01 X52.3487 Y23.1702
G01 X52.3415 Y23.1819
G01 X52.3207 Y23.2119
G01 X52.2993 Y23.2617
G01 X52.2947 Y23.2713
G01 X52.2712 Y23.3153
G01 X52.2607 Y23.3499
G01 X52.2562 Y23.3621
G01 X52.2405 Y23.3989
G01 X52.2302 Y23.4485
G01 X52.2274 Y23.4596
G01 X52.2140 Y23.5039
G01 X52.2101 Y23.5428
G01 X52.2082 Y23.5556
G01 X52.1995 Y23.5983
G01 X52.1995 Y23.6454
G01 X52.1988 Y23.6575
G01 X52.1947 Y23.7000
G01 X52.1988 Y23.7425
G01 X52.1995 Y23.7559
G01 X52.1995 Y31.7336
G01 X52.1901 Y31.7817
G01 X52.1627 Y31.8223
G01 X50.1223 Y33.8627
G01 X50.0817 Y33.8901
G01 X50.0336 Y33.8995
G01 X45.1291 Y33.8995
G01 X45.0491 Y33.8956
G01 X45.0331 Y33.8981
G01 X45.0137 Y33.8995
G01 X23.2664 Y33.8995
G01 X23.2183 Y33.8901
G01 X23.1777 Y33.8627
G01 X22.6368 Y33.3219
G01 X22.6099 Y33.2817
G01 X22.6005 Y33.2342
G01 X22.6005 Y26.8559
G01 X22.6012 Y26.8425
G01 X22.6053 Y26.8000
G01 X22.6012 Y26.7575
G01 X22.6005 Y26.7441
G01 X22.6005 Y18.3658
G01 X22.6099 Y18.3183
G01 X22.6368 Y18.2781
G01 X23.3680 Y17.5469
G01 X23.3779 Y17.5380
G01 X23.4109 Y17.5109
G01 X23.5341 Y17.3607
G01 X23.5408 Y17.3514
G01 X23.5846 Y17.2675
G01 X23.6276 Y17.1870
G01 X23.6346 Y17.1707
G01 X23.6596 Y17.0834
G01 X23.6857 Y16.9973
G01 X23.6866 Y16.9904
G01 X23.6901 Y16.9750
G01 X23.6967 Y16.8881
G01 X23.7052 Y16.8014
G01 X23.7047 Y16.7933
G01 X23.7051 Y16.7728
G01 X23.6945 Y16.6890
G01 X23.6862 Y16.6052
G01 X23.6841 Y16.5974
G01 X23.6791 Y16.5711
G01 X23.6529 Y16.4945
G01 X23.6290 Y16.4158
G01 X23.6253 Y16.4086
G01 X23.6176 Y16.3909
G01 X23.6135 Y16.3796
G01 X23.5737 Y16.3119
G01 X23.5359 Y16.2415
G01 X23.5289 Y16.2329
G01 X23.5182 Y16.2176
G01 X23.5106 Y16.2048
G01 X23.4599 Y16.1486
G01 X23.4109 Y16.0891
G01 X23.3995 Y16.0798
G01 X23.3866 Y16.0675
G01 X23.3742 Y16.0538
G01 X23.3160 Y16.0111
G01 X23.2585 Y15.9641
G01 X23.2424 Y15.9555
G01 X23.2280 Y15.9464
G01 X23.2102 Y15.9334
G01 X23.1478 Y15.9047
G01 X23.0847 Y15.8712
G01 X23.0638 Y15.8648
G01 X23.0486 Y15.8591
G01 X23.0253 Y15.8484
G01 X22.9621 Y15.8337
G01 X22.8961 Y15.8140
G01 X22.8708 Y15.8115
G01 X22.8555 Y15.8090
G01 X22.8271 Y15.8024
G01 X22.7654 Y15.8008
G01 X22.7564 Y15.8002
G01 X22.7000 Y15.7947
G01 X22.6711 Y15.7975
G01 X22.6564 Y15.7980
G01 X22.6236 Y15.7972
G01 X22.5668 Y15.8074
G01 X22.5571 Y15.8087
G01 X22.5039 Y15.8140
G01 X22.4727 Y15.8234
G01 X22.4593 Y15.8267
G01 X22.4233 Y15.8331
G01 X22.3730 Y15.8532
G01 X22.3630 Y15.8567
G01 X22.3153 Y15.8712
G01 X22.2834 Y15.8882
G01 X22.2716 Y15.8937
G01 X22.2344 Y15.9086
G01 X22.1921 Y15.9365
G01 X22.1823 Y15.9423
G01 X22.1415 Y15.9641
G01 X22.1113 Y15.9889
G01 X22.1009 Y15.9966
G01 X22.0645 Y16.0206
G01 X22.0311 Y16.0539
G01 X22.0221 Y16.0620
G01 X21.9891 Y16.0891
G01 X21.9620 Y16.1221
G01 X21.9530 Y16.1320
G01 X20.9029 Y17.1822
G01 X20.8369 Y17.2449
G01 X20.8035 Y17.2930
G01 X20.7979 Y17.3005
G01 X20.7603 Y17.3466
G01 X20.7462 Y17.3736
G01 X20.7384 Y17.3865
G01 X20.7207 Y17.4119
G01 X20.6972 Y17.4666
G01 X20.6932 Y17.4751
G01 X20.6661 Y17.5270
G01 X20.6575 Y17.5567
G01 X20.6525 Y17.5710
G01 X20.6405 Y17.5989
G01 X20.6285 Y17.6571
G01 X20.6262 Y17.6664
G01 X20.6101 Y17.7226
G01 X20.6077 Y17.7535
G01 X20.6056 Y17.7685
G01 X20.5995 Y17.7983
G01 X20.5995 Y17.8568
G01 X20.5992 Y17.8662
G01 X20.5947 Y17.9255
G01 X20.5985 Y17.9557
G01 X20.5995 Y17.9718
G01 X20.5995 Y26.7441
G01 X20.5988 Y26.7575
G01 X20.5947 Y26.8000
G00 X20.5947 Y26.8000
G01 F20.00
G01 Z-0.0500
G01 F40.00
G01 X20.5988 Y26.8425
G01 X20.5995 Y26.8559
G01 X20.5995 Y33.6854
G01 X20.5972 Y33.7764
G01 X20.6076 Y33.8340
G01 X20.6089 Y33.8433
G01 X20.6149 Y33.9024
G01 X20.6240 Y33.9315
G01 X20.6276 Y33.9462
G01 X20.6331 Y33.9766
G01 X20.6548 Y34.0310
G01 X20.6580 Y34.0399
G01 X20.6758 Y34.0966
G01 X20.6906 Y34.1232
G01 X20.6971 Y34.1369
G01 X20.7086 Y34.1656
G01 X20.7409 Y34.2146
G01 X20.7457 Y34.2225
G01 X20.7746 Y34.2745
G01 X20.7947 Y34.2980
G01 X20.8039 Y34.3101
G01 X20.8206 Y34.3355
G01 X20.8626 Y34.3775
G01 X20.8691 Y34.3846
G01 X20.9071 Y34.4289
G01 X20.9312 Y34.4475
G01 X20.9433 Y34.4583
G01 X22.0822 Y35.5971
G01 X22.1449 Y35.6631
G01 X22.1937 Y35.6970
G01 X22.2012 Y35.7027
G01 X22.2466 Y35.7397
G01 X22.2740 Y35.7541
G01 X22.2870 Y35.7619
G01 X22.3120 Y35.7793
G01 X22.3666 Y35.8028
G01 X22.3751 Y35.8068
G01 X22.4270 Y35.8339
G01 X22.4567 Y35.8424
G01 X22.4710 Y35.8475
G01 X22.4989 Y35.8595
G01 X22.5572 Y35.8715
G01 X22.5664 Y35.8738
G01 X22.6226 Y35.8899
G01 X22.6534 Y35.8923
G01 X22.6685 Y35.8944
G01 X22.6983 Y35.9005
G01 X22.7568 Y35.9005
G01 X22.7662 Y35.9008
G01 X22.8255 Y35.9053
G01 X22.8557 Y35.9015
G01 X22.8718 Y35.9005
G01 X43.9749 Y35.9005
G01 X44.0375 Y35.9171
G01 X44.0829 Y35.9625
G01 X44.0995 Y36.0251
G01 X44.0995 Y49.3854
G01 X44.0972 Y49.4764
G01 X44.1076 Y49.5340
G01 X44.1089 Y49.5433
G01 X44.1149 Y49.6024
G01 X44.1240 Y49.6315
G01 X44.1276 Y49.6462
G01 X44.1331 Y49.6766
G01 X44.1548 Y49.7310
G01 X44.1580 Y49.7399
G01 X44.1758 Y49.7966
G01 X44.1906 Y49.8232
G01 X44.1971 Y49.8369
G01 X44.2086 Y49.8656
G01 X44.2409 Y49.9146
G01 X44.2457 Y49.9225
G01 X44.2746 Y49.9745
G01 X44.2947 Y49.9980
G01 X44.3039 Y50.0101
G01 X44.3206 Y50.0355
G01 X44.3626 Y50.0775
G01 X44.3691 Y50.0846
G01 X44.4071 Y50.1289
G01 X44.4312 Y50.1475
G01 X44.4433 Y50.1583
G01 X45.7972 Y51.5121
G01 X45.8599 Y51.5781
G01 X45.9087 Y51.6120
G01 X45.9162 Y51.6177
G01 X45.9616 Y51.6547
G01 X45.9890 Y51.6691
G01 X46.0020 Y51.6769
G01 X46.0270 Y51.6943
G01 X46.0816 Y51.7178
G01 X46.0901 Y51.7218
G01 X46.1420 Y51.7489
G01 X46.1717 Y51.7574
G01 X46.1860 Y51.7625
G01 X46.2139 Y51.7745
G01 X46.2721 Y51.7865
G01 X46.2814 Y51.7888
G01 X46.3376 Y51.8049
G01 X46.3684 Y51.8073
G01 X46.3835 Y51.8094
G01 X46.4133 Y51.8155
G01 X46.4727 Y51.8155
G01 X46.4821 Y51.8159
G01 X46.5405 Y51.8203
G01 X46.5707 Y51.8165
G01 X46.5868 Y51.8155
G01 X48.0155 Y51.8155
G01 X48.0775 Y51.8321
G01 X48.1229 Y51.8775
G01 X48.1395 Y51.9401
G01 X48.1395 Y56.2983
G01 X48.1363 Y56.3269
G01 X48.1320 Y56.3455
G01 X48.1101 Y56.4226
G01 X48.1089 Y56.4386
G01 X48.1061 Y56.4566
G01 X48.1024 Y56.4729
G01 X48.1005 Y56.5468
G01 X48.0947 Y56.6255
G01 X48.0967 Y56.6415
G01 X48.0976 Y56.6596
G01 X48.0972 Y56.6764
G01 X48.1103 Y56.7491
G01 X48.1204 Y56.8273
G01 X48.1256 Y56.8426
G01 X48.1301 Y56.8602
G01 X48.1331 Y56.8766
G01 X48.1605 Y56.9453
G01 X48.1862 Y57.0199
G01 X48.1943 Y57.0338
G01 X48.2024 Y57.0501
G01 X48.2086 Y57.0656
G01 X48.2493 Y57.1273
G01 X48.2894 Y57.1952
G01 X48.3006 Y57.2077
G01 X48.3117 Y57.2221
G01 X48.3206 Y57.2355
G01 X48.3763 Y57.2914
G01 X48.4258 Y57.3462
G01 X48.4388 Y57.3558
G01 X48.4535 Y57.3685
G01 X49.9822 Y58.8971
G01 X50.0449 Y58.9631
G01 X50.0937 Y58.9970
G01 X50.1012 Y59.0027
G01 X50.1466 Y59.0397
G01 X50.1740 Y59.0541
G01 X50.1870 Y59.0619
G01 X50.2120 Y59.0793
G01 X50.2666 Y59.1028
G01 X50.2751 Y59.1068
G01 X50.3270 Y59.1339
G01 X50.3567 Y59.1424
G01 X50.3710 Y59.1475
G01 X50.3989 Y59.1595
G01 X50.4571 Y59.1715
G01 X50.4664 Y59.1738
G01 X50.5226 Y59.1899
G01 X50.5534 Y59.1923
G01 X50.5685 Y59.1944
G01 X50.5983 Y59.2005
G01 X50.6577 Y59.2005
G01 X50.6671 Y59.2009
G01 X50.7255 Y59.2053
G01 X50.7557 Y59.2015
G01 X50.7718 Y59.2005
G01 X82.8854 Y59.2005
G01 X82.9764 Y59.2028
G01 X83.0340 Y59.1924
G01 X83.0433 Y59.1911
G01 X83.1024 Y59.1851
G01 X83.1320 Y59.1758
G01 X83.1467 Y59.1722
G01 X83.1767 Y59.1669
G01 X83.2310 Y59.1452
G01 X83.2399 Y59.1420
G01 X83.2966 Y59.1242
G01 X83.3237 Y59.1092
G01 X83.3374 Y59.1027
G01 X83.3656 Y59.0914
G01 X83.4146 Y59.0591
G01 X83.4225 Y59.0543
G01 X83.4745 Y59.0254
G01 X83.4976 Y59.0056
G01 X83.5097 Y58.9965
G01 X83.5355 Y58.9794
G01 X83.5776 Y58.9374
G01 X83.5846 Y58.9309
G01 X83.6289 Y58.8929
G01 X83.6475 Y58.8688
G01 X83.6583 Y58.8567
G01 X85.3972 Y57.1177
G01 X85.4631 Y57.0551
G01 X85.4965 Y57.0070
G01 X85.5021 Y56.9995
G01 X85.5397 Y56.9534
G01 X85.5538 Y56.9264
G01 X85.5616 Y56.9135
G01 X85.5793 Y56.8880
G01 X85.6028 Y56.8334
G01 X85.6068 Y56.8249
G01 X85.6339 Y56.7730
G01 X85.6424 Y56.7433
G01 X85.6475 Y56.7290
G01 X85.6595 Y56.7011
G01 X85.6715 Y56.6428
G01 X85.6738 Y56.6336
G01 X85.6899 Y56.5774
G01 X85.6923 Y56.5466
G01 X85.6944 Y56.5315
G01 X85.7005 Y56.5017
G01 X85.7005 Y56.4432
G01 X85.7008 Y56.4338
G01 X85.7053 Y56.3745
G01 X85.7015 Y56.3443
G01 X85.7005 Y56.3282
G01 X85.7005 Y22.9664
G01 X85.7099 Y22.9183
G01 X85.7373 Y22.8777
G01 X86.5781 Y22.0368
G01 X86.6183 Y22.0099
G01 X86.6658 Y22.0005
G01 X102.2854 Y22.0005
G01 X102.3764 Y22.0028
G01 X102.4340 Y21.9924
G01 X102.4433 Y21.9911
G01 X102.5024 Y21.9851
G01 X102.5320 Y21.9758
G01 X102.5467 Y21.9722
G01 X102.5767 Y21.9669
G01 X102.6310 Y21.9452
G01 X102.6399 Y21.9420
G01 X102.6966 Y21.9242
G01 X102.7237 Y21.9092
G01 X102.7374 Y21.9027
G01 X102.7656 Y21.8914
G01 X102.8146 Y21.8591
G01 X102.8225 Y21.8543
G01 X102.8745 Y21.8254
G01 X102.8976 Y21.8056
G01 X102.9097 Y21.7965
G01 X102.9355 Y21.7794
G01 X102.9776 Y21.7374
G01 X102.9846 Y21.7309
G01 X103.0289 Y21.6929
G01 X103.0475 Y21.6688
G01 X103.0583 Y21.6567
G01 X107.1972 Y17.5178
G01 X107.2631 Y17.4551
G01 X107.2965 Y17.4070
G01 X107.3021 Y17.3995
G01 X107.3397 Y17.3534
G01 X107.3538 Y17.3264
G01 X107.3616 Y17.3135
G01 X107.3793 Y17.2880
G01 X107.4028 Y17.2334
G01 X107.4068 Y17.2249
G01 X107.4339 Y17.1730
G01 X107.4425 Y17.1433
G01 X107.4475 Y17.1290
G01 X107.4595 Y17.1011
G01 X107.4715 Y17.0428
G01 X107.4738 Y17.0336
G01 X107.4899 Y16.9774
G01 X107.4923 Y16.9466
G01 X107.4944 Y16.9315
G01 X107.5005 Y16.9017
G01 X107.5005 Y16.8423
G01 X107.5009 Y16.8329
G01 X107.5053 Y16.7745
G01 X107.5015 Y16.7443
G01 X107.5005 Y16.7282
G01 X107.5005 Y14.0570
G01 X107.5090 Y14.0120
G01 X107.5333 Y13.9730
G01 X107.6882 Y13.8048
G01 X107.8242 Y13.5966
G01 X107.9241 Y13.3689
G01 X107.9851 Y13.1278
G01 X108.0056 Y12.8800
G01 X107.9851 Y12.6322
G01 X107.9241 Y12.3911
G01 X107.8242 Y12.1634
G01 X107.6882 Y11.9552
G01 X107.5197 Y11.7723
G01 X107.3235 Y11.6195
G01 X107.1048 Y11.5012
G01 X106.8696 Y11.4204
G01 X106.6243 Y11.3795
G01 X106.3757 Y11.3795
G01 X106.1304 Y11.4204
G01 X105.8952 Y11.5012
G01 X105.6765 Y11.6195
G01 X105.4803 Y11.7723
G01 X105.3118 Y11.9552
G01 X105.3028 Y11.9690
G01 X105.2641 Y12.0067
G01 X105.2131 Y12.0244
G01 X105.1372 Y12.0163
G01 X104.7836 Y12.3699
G01 X104.8439 Y12.4973
G01 X104.8769 Y12.5897
G01 X104.9008 Y12.6849
G01 X104.9151 Y12.7814
G01 X104.9200 Y12.8800
G01 X104.9151 Y12.9786
G01 X104.9008 Y13.0751
G01 X104.8769 Y13.1703
G01 X104.8439 Y13.2627
G01 X104.7836 Y13.3901
G01 X105.1372 Y13.7437
G01 X105.2131 Y13.7356
G01 X105.2641 Y13.7533
G01 X105.3028 Y13.7910
G01 X105.3118 Y13.8048
G01 X105.4667 Y13.9730
G01 X105.4910 Y14.0120
G01 X105.4995 Y14.0570
G01 X105.4995 Y16.3336
G01 X105.4901 Y16.3817
G01 X105.4627 Y16.4223
G01 X101.9223 Y19.9627
G01 X101.8817 Y19.9901
G01 X101.8336 Y19.9995
G01 X86.2146 Y19.9995
G01 X86.1236 Y19.9972
G01 X86.0660 Y20.0076
G01 X86.0567 Y20.0089
G01 X85.9976 Y20.0149
G01 X85.9680 Y20.0242
G01 X85.9533 Y20.0278
G01 X85.9234 Y20.0331
G01 X85.8690 Y20.0548
G01 X85.8601 Y20.0580
G01 X85.8034 Y20.0758
G01 X85.7763 Y20.0908
G01 X85.7626 Y20.0973
G01 X85.7344 Y20.1086
G01 X85.6847 Y20.1414
G01 X85.6767 Y20.1462
G01 X85.6255 Y20.1746
G01 X85.6020 Y20.1947
G01 X85.5899 Y20.2038
G01 X85.5645 Y20.2206
G01 X85.5225 Y20.2626
G01 X85.5154 Y20.2691
G01 X85.4711 Y20.3071
G01 X85.4525 Y20.3312
G01 X85.4417 Y20.3433
G01 X84.0029 Y21.7822
G01 X83.9369 Y21.8449
G01 X83.9035 Y21.8930
G01 X83.8979 Y21.9005
G01 X83.8603 Y21.9466
G01 X83.8462 Y21.9736
G01 X83.8384 Y21.9865
G01 X83.8207 Y22.0119
G01 X83.7972 Y22.0666
G01 X83.7932 Y22.0751
G01 X83.7661 Y22.1270
G01 X83.7575 Y22.1567
G01 X83.7525 Y22.1710
G01 X83.7405 Y22.1989
G01 X83.7285 Y22.2571
G01 X83.7262 Y22.2664
G01 X83.7101 Y22.3226
G01 X83.7077 Y22.3535
G01 X83.7056 Y22.3685
G01 X83.6995 Y22.3983
G01 X83.6995 Y22.4568
G01 X83.6992 Y22.4662
G01 X83.6947 Y22.5255
G01 X83.6985 Y22.5557
G01 X83.6995 Y22.5718
G01 X83.6995 Y55.9342
G01 X83.6901 Y55.9817
G01 X83.6632 Y56.0219
G01 X82.5223 Y57.1627
G01 X82.4817 Y57.1901
G01 X82.4342 Y57.1995
G01 X51.1658 Y57.1995
G01 X51.1183 Y57.1901
G01 X51.0781 Y57.1632
G01 X50.1773 Y56.2623
G01 X50.1499 Y56.2217
G01 X50.1405 Y56.1742
G01 X50.1405 Y51.5315
G01 X50.1476 Y51.4898
G01 X50.1687 Y51.4523
G01 X50.2218 Y51.3875
G01 X50.3170 Y51.2093
G01 X50.3757 Y51.0160
G01 X50.3955 Y50.8150
G01 X50.3823 Y50.6817
G01 X50.3945 Y50.6147
G01 X50.4403 Y50.5642
G01 X50.5057 Y50.5455
G01 X57.1786 Y50.5455
G01 X57.2267 Y50.5549
G01 X57.2673 Y50.5823
G01 X58.9822 Y52.2971
G01 X59.0449 Y52.3631
G01 X59.0930 Y52.3965
G01 X59.1005 Y52.4021
G01 X59.1466 Y52.4397
G01 X59.1736 Y52.4538
G01 X59.1865 Y52.4616
G01 X59.2120 Y52.4793
G01 X59.2657 Y52.5024
G01 X59.2768 Y52.5077
G01 X59.3231 Y52.5498
G01 X59.3237 Y52.5508
G01 X59.3432 Y52.6102
G01 X59.3310 Y52.6715
G01 X59.3305 Y52.6725
G01 X59.2897 Y52.7199
G01 X59.2303 Y52.7412
G01 X59.1473 Y52.7484
G01 X58.9410 Y52.8037
G01 X58.7474 Y52.8940
G01 X58.5725 Y53.0165
G01 X58.4215 Y53.1675
G01 X58.2990 Y53.3424
G01 X58.2087 Y53.5360
G01 X58.1535 Y53.7423
G01 X58.1348 Y53.9550
G01 X58.1535 Y54.1677
G01 X58.2087 Y54.3740
G01 X58.2990 Y54.5676
G01 X58.4215 Y54.7425
G01 X58.5725 Y54.8935
G01 X58.7474 Y55.0160
G01 X58.9410 Y55.1063
G01 X59.1473 Y55.1615
G01 X59.3600 Y55.1802
G01 X59.5727 Y55.1615
G01 X59.7790 Y55.1063
G01 X59.9726 Y55.0160
G01 X60.1475 Y54.8935
G01 X60.2985 Y54.7425
G01 X60.4210 Y54.5676
G01 X60.5113 Y54.3740
G01 X60.5665 Y54.1677
G01 X60.5852 Y53.9550
G01 X60.5665 Y53.7423
G01 X60.5113 Y53.5360
G01 X60.4210 Y53.3424
G01 X60.2985 Y53.1675
G01 X60.1475 Y53.0165
G01 X59.9726 Y52.8940
G01 X59.8501 Y52.8369
G01 X59.7997 Y52.7938
G01 X59.7789 Y52.7316
G01 X59.7788 Y52.7304
G01 X59.7931 Y52.6663
G01 X59.8387 Y52.6182
G01 X59.9032 Y52.6005
G01 X63.8975 Y52.6005
G01 X63.9613 Y52.6182
G01 X64.0069 Y52.6663
G01 X64.0213 Y52.7310
G01 X64.0003 Y52.7938
G01 X63.9499 Y52.8369
G01 X63.8274 Y52.8940
G01 X63.6525 Y53.0165
G01 X63.5015 Y53.1675
G01 X63.3790 Y53.3424
G01 X63.2887 Y53.5360
G01 X63.2335 Y53.7423
G01 X63.2148 Y53.9550
G01 X63.2335 Y54.1677
G01 X63.2887 Y54.3740
G01 X63.3790 Y54.5676
G01 X63.5015 Y54.7425
G01 X63.6525 Y54.8935
G01 X63.8274 Y55.0160
G01 X64.0210 Y55.1063
G01 X64.2273 Y55.1615
G01 X64.4400 Y55.1802
G01 X64.6527 Y55.1615
G01 X64.8590 Y55.1063
G01 X65.0526 Y55.0160
G01 X65.2275 Y54.8935
G01 X65.3785 Y54.7425
G01 X65.5010 Y54.5676
G01 X65.5913 Y54.3740
G01 X65.6465 Y54.1677
G01 X65.6652 Y53.9550
G01 X65.6465 Y53.7423
G01 X65.5913 Y53.5360
G01 X65.5010 Y53.3424
G01 X65.3785 Y53.1675
G01 X65.2275 Y53.0165
G01 X65.0526 Y52.8940
G01 X64.9301 Y52.8369
G01 X64.8797 Y52.7938
G01 X64.8587 Y52.7310
G01 X64.8731 Y52.6663
G01 X64.9187 Y52.6182
G01 X64.9825 Y52.6005
G01 X67.5854 Y52.6005
G01 X67.6764 Y52.6028
G01 X67.7340 Y52.5924
G01 X67.7433 Y52.5911
G01 X67.8024 Y52.5851
G01 X67.8320 Y52.5758
G01 X67.8467 Y52.5722
G01 X67.8767 Y52.5669
G01 X67.9310 Y52.5452
G01 X67.9399 Y52.5420
G01 X67.9966 Y52.5242
G01 X68.0237 Y52.5092
G01 X68.0374 Y52.5027
G01 X68.0656 Y52.4914
G01 X68.1146 Y52.4591
G01 X68.1225 Y52.4543
G01 X68.1745 Y52.4254
G01 X68.1976 Y52.4056
G01 X68.2097 Y52.3965
G01 X68.2355 Y52.3794
G01 X68.2776 Y52.3374
G01 X68.2846 Y52.3309
G01 X68.3289 Y52.2929
G01 X68.3475 Y52.2688
G01 X68.3583 Y52.2567
G01 X70.1972 Y50.4177
G01 X70.2631 Y50.3551
G01 X70.2970 Y50.3063
G01 X70.3027 Y50.2988
G01 X70.3397 Y50.2534
G01 X70.3538 Y50.2264
G01 X70.3616 Y50.2135
G01 X70.3793 Y50.1880
G01 X70.4028 Y50.1334
G01 X70.4068 Y50.1249
G01 X70.4339 Y50.0730
G01 X70.4425 Y50.0433
G01 X70.4475 Y50.0290
G01 X70.4595 Y50.0011
G01 X70.4715 Y49.9428
G01 X70.4738 Y49.9336
G01 X70.4899 Y49.8774
G01 X70.4923 Y49.8466
G01 X70.4944 Y49.8315
G01 X70.5005 Y49.8017
G01 X70.5005 Y49.7423
G01 X70.5009 Y49.7329
G01 X70.5053 Y49.6745
G01 X70.5015 Y49.6443
G01 X70.5005 Y49.6282
G01 X70.5005 Y47.7664
G01 X70.5099 Y47.7183
G01 X70.5373 Y47.6777
G01 X71.3781 Y46.8368
G01 X71.4183 Y46.8099
G01 X71.4658 Y46.8005
G01 X74.4342 Y46.8005
G01 X74.4817 Y46.8099
G01 X74.5219 Y46.8368
G01 X75.1227 Y47.4377
G01 X75.1501 Y47.4783
G01 X75.1595 Y47.5264
G01 X75.1595 Y48.2224
G01 X75.1510 Y48.2680
G01 X75.1267 Y48.3070
G01 X74.9718 Y48.4752
G01 X74.9573 Y48.4975
G01 X74.9125 Y48.5387
G01 X74.8535 Y48.5537
G01 X74.7945 Y48.5387
G01 X74.7613 Y48.5083
G01 X74.7541 Y48.5035
G01 X74.7471 Y48.4940
G01 X74.5797 Y48.3123
G01 X74.3835 Y48.1595
G01 X74.1648 Y48.0412
G01 X73.9296 Y47.9604
G01 X73.6843 Y47.9195
G01 X73.4357 Y47.9195
G01 X73.1904 Y47.9604
G01 X72.9552 Y48.0412
G01 X72.7365 Y48.1595
G01 X72.5403 Y48.3123
G01 X72.3718 Y48.4952
G01 X72.2358 Y48.7034
G01 X72.1359 Y48.9311
G01 X72.0749 Y49.1722
G01 X72.0544 Y49.4200
G01 X72.0749 Y49.6678
G01 X72.1359 Y49.9089
G01 X72.2358 Y50.1366
G01 X72.3588 Y50.3248
G01 X72.3718 Y50.3448
G01 X72.5403 Y50.5277
G01 X72.7365 Y50.6805
G01 X72.9552 Y50.7988
G01 X73.1904 Y50.8796
G01 X73.4357 Y50.9205
G01 X73.6843 Y50.9205
G01 X73.9296 Y50.8796
G01 X74.1648 Y50.7988
G01 X74.3835 Y50.6805
G01 X74.5797 Y50.5277
G01 X74.7482 Y50.3448
G01 X74.7627 Y50.3225
G01 X74.8075 Y50.2813
G01 X74.8665 Y50.2663
G01 X74.9256 Y50.2813
G01 X74.9586 Y50.3117
G01 X74.9659 Y50.3165
G01 X74.9729 Y50.3260
G01 X75.1403 Y50.5077
G01 X75.3365 Y50.6605
G01 X75.5552 Y50.7788
G01 X75.7904 Y50.8596
G01 X76.0357 Y50.9005
G01 X76.2843 Y50.9005
G01 X76.5296 Y50.8596
G01 X76.7648 Y50.7788
G01 X76.9835 Y50.6605
G01 X77.1060 Y50.5652
G01 X77.1584 Y50.5413
G01 X77.2159 Y50.5437
G01 X77.2662 Y50.5719
G01 X77.2983 Y50.6197
G01 X77.3035 Y50.6338
G01 X77.3120 Y50.6492
G01 X77.3875 Y50.7501
G01 X77.3999 Y50.7625
G01 X77.5008 Y50.8380
G01 X77.5162 Y50.8465
G01 X77.6354 Y50.8909
G01 X77.6503 Y50.8944
G01 X77.6989 Y50.8996
G01 X77.7055 Y50.9000
G01 X78.5000 Y50.9000
G01 X78.5000 Y50.4000
G01 X77.7500 Y50.4000
G01 X77.7500 Y48.4006
G01 X77.7500 Y48.4000
G01 X77.7506 Y48.4000
G01 X78.5000 Y48.4000
G01 X78.5000 Y47.9000
G01 X77.7055 Y47.9000
G01 X77.6989 Y47.9004
G01 X77.6503 Y47.9056
G01 X77.6354 Y47.9091
G01 X77.5162 Y47.9535
G01 X77.5008 Y47.9620
G01 X77.3999 Y48.0375
G01 X77.3879 Y48.0495
G01 X77.3838 Y48.0549
G01 X77.3360 Y48.0934
G01 X77.2757 Y48.1043
G01 X77.2175 Y48.0849
G01 X77.1757 Y48.0400
G01 X77.1605 Y47.9806
G01 X77.1605 Y47.0691
G01 X77.1644 Y46.9891
G01 X77.1526 Y46.9111
G01 X77.1451 Y46.8376
G01 X77.1403 Y46.8222
G01 X77.1361 Y46.8045
G01 X77.1336 Y46.7879
G01 X77.1063 Y46.7140
G01 X77.0842 Y46.6434
G01 X77.0763 Y46.6293
G01 X77.0687 Y46.6128
G01 X77.0629 Y46.5971
G01 X77.0238 Y46.5345
G01 X76.9854 Y46.4655
G01 X76.9749 Y46.4533
G01 X76.9641 Y46.4386
G01 X76.9553 Y46.4244
G01 X76.9010 Y46.3672
G01 X76.8529 Y46.3111
G01 X76.8401 Y46.3012
G01 X76.8266 Y46.2890
G01 X76.8151 Y46.2769
G01 X76.7544 Y46.2347
G01 X76.7403 Y46.2240
G01 X76.7281 Y46.2132
G01 X75.6178 Y45.1029
G01 X75.5551 Y45.0369
G01 X75.5070 Y45.0035
G01 X75.4995 Y44.9979
G01 X75.4534 Y44.9603
G01 X75.4264 Y44.9462
G01 X75.4135 Y44.9384
G01 X75.3880 Y44.9207
G01 X75.3334 Y44.8972
G01 X75.3249 Y44.8932
G01 X75.2730 Y44.8661
G01 X75.2433 Y44.8575
G01 X75.2290 Y44.8525
G01 X75.2011 Y44.8405
G01 X75.1428 Y44.8285
G01 X75.1336 Y44.8262
G01 X75.0774 Y44.8101
G01 X75.0466 Y44.8077
G01 X75.0315 Y44.8056
G01 X75.0017 Y44.7995
G01 X74.9432 Y44.7995
G01 X74.9338 Y44.7992
G01 X74.8745 Y44.7947
G01 X74.8443 Y44.7985
G01 X74.8282 Y44.7995
G01 X71.0146 Y44.7995
G01 X70.9236 Y44.7972
G01 X70.8660 Y44.8076
G01 X70.8567 Y44.8089
G01 X70.7976 Y44.8149
G01 X70.7680 Y44.8242
G01 X70.7533 Y44.8278
G01 X70.7234 Y44.8331
G01 X70.6690 Y44.8548
G01 X70.6601 Y44.8580
G01 X70.6034 Y44.8758
G01 X70.5763 Y44.8908
G01 X70.5626 Y44.8973
G01 X70.5344 Y44.9086
G01 X70.4847 Y44.9414
G01 X70.4767 Y44.9462
G01 X70.4255 Y44.9746
G01 X70.4020 Y44.9947
G01 X70.3899 Y45.0038
G01 X70.3645 Y45.0206
G01 X70.3225 Y45.0626
G01 X70.3154 Y45.0691
G01 X70.2711 Y45.1071
G01 X70.2525 Y45.1312
G01 X70.2417 Y45.1433
G01 X68.8029 Y46.5822
G01 X68.7369 Y46.6449
G01 X68.7035 Y46.6930
G01 X68.6979 Y46.7005
G01 X68.6603 Y46.7466
G01 X68.6462 Y46.7736
G01 X68.6384 Y46.7865
G01 X68.6207 Y46.8119
G01 X68.5972 Y46.8666
G01 X68.5932 Y46.8751
G01 X68.5661 Y46.9270
G01 X68.5575 Y46.9567
G01 X68.5525 Y46.9710
G01 X68.5405 Y46.9989
G01 X68.5285 Y47.0571
G01 X68.5262 Y47.0664
G01 X68.5101 Y47.1226
G01 X68.5077 Y47.1535
G01 X68.5056 Y47.1685
G01 X68.4995 Y47.1983
G01 X68.4995 Y47.2568
G01 X68.4992 Y47.2662
G01 X68.4947 Y47.3255
G01 X68.4985 Y47.3557
G01 X68.4995 Y47.3718
G01 X68.4995 Y49.2336
G01 X68.4901 Y49.2817
G01 X68.4627 Y49.3223
G01 X67.2223 Y50.5627
G01 X67.1817 Y50.5901
G01 X67.1336 Y50.5995
G01 X60.1658 Y50.5995
G01 X60.1183 Y50.5901
G01 X60.0781 Y50.5632
G01 X59.0530 Y49.5381
G01 X59.0205 Y49.4821
G01 X59.0205 Y49.4179
G01 X59.0526 Y49.3623
G01 X60.2972 Y48.1178
G01 X60.3631 Y48.0551
G01 X60.3965 Y48.0070
G01 X60.4021 Y47.9995
G01 X60.4397 Y47.9534
G01 X60.4538 Y47.9264
G01 X60.4616 Y47.9135
G01 X60.4793 Y47.8880
G01 X60.5028 Y47.8334
G01 X60.5068 Y47.8249
G01 X60.5339 Y47.7730
G01 X60.5424 Y47.7433
G01 X60.5475 Y47.7290
G01 X60.5595 Y47.7011
G01 X60.5715 Y47.6428
G01 X60.5738 Y47.6336
G01 X60.5899 Y47.5774
G01 X60.5923 Y47.5466
G01 X60.5944 Y47.5315
G01 X60.6005 Y47.5017
G01 X60.6005 Y47.4432
G01 X60.6008 Y47.4338
G01 X60.6053 Y47.3745
G01 X60.6015 Y47.3443
G01 X60.6005 Y47.3282
G01 X60.6005 Y9.9911
G01 X60.6062 Y9.9531
G01 X60.6226 Y9.9199
G01 X60.6871 Y9.8276
G01 X60.7796 Y9.6293
G01 X60.8362 Y9.4180
G01 X60.8553 Y9.2000
G01 X60.8362 Y8.9820
G01 X60.7796 Y8.7707
G01 X60.6871 Y8.5724
G01 X60.6229 Y8.4807
G01 X60.6062 Y8.4469
G01 X60.6005 Y8.4096
G01 X60.6005 Y8.3658
G01 X60.6099 Y8.3183
G01 X60.6368 Y8.2781
G01 X60.7781 Y8.1368
G01 X60.8183 Y8.1099
G01 X60.8658 Y8.1005
G01 X62.0317 Y8.1005
G01 X62.0880 Y8.1140
G01 X62.1320 Y8.1516
G01 X62.1541 Y8.2051
G01 X62.1496 Y8.2628
G01 X62.1193 Y8.3122
G01 X62.0384 Y8.3931
G01 X61.9129 Y8.5724
G01 X61.8204 Y8.7707
G01 X61.7638 Y8.9820
G01 X61.7447 Y9.2000
G01 X61.7638 Y9.4180
G01 X61.8204 Y9.6293
G01 X61.9129 Y9.8276
G01 X62.0384 Y10.0069
G01 X62.1931 Y10.1616
G01 X62.3724 Y10.2871
G01 X62.5707 Y10.3796
G01 X62.7820 Y10.4362
G01 X63.0000 Y10.4553
G01 X63.2180 Y10.4362
G01 X63.4293 Y10.3796
G01 X63.6276 Y10.2871
G01 X63.8069 Y10.1616
G01 X63.9616 Y10.0069
G01 X64.0871 Y9.8276
G01 X64.1796 Y9.6293
G01 X64.2362 Y9.4180
G01 X64.2553 Y9.2000
G01 X64.2362 Y8.9820
G01 X64.1796 Y8.7707
G01 X64.0871 Y8.5724
G01 X63.9616 Y8.3931
G01 X63.8807 Y8.3122
G01 X63.8504 Y8.2628
G01 X63.8459 Y8.2051
G01 X63.8680 Y8.1516
G01 X63.9120 Y8.1140
G01 X63.9683 Y8.1005
G01 X92.1342 Y8.1005
G01 X92.1817 Y8.1099
G01 X92.2219 Y8.1368
G01 X92.7627 Y8.6777
G01 X92.7901 Y8.7183
G01 X92.7995 Y8.7664
G01 X92.7995 Y9.2441
G01 X92.7988 Y9.2575
G01 X92.7947 Y9.3000
G01 X92.8137 Y9.4934
G01 X92.8156 Y9.5046
G01 X92.8438 Y9.5946
G01 X92.8704 Y9.6823
G01 X92.8770 Y9.6987
G01 X92.9211 Y9.7781
G01 X92.9635 Y9.8575
G01 X92.9678 Y9.8630
G01 X92.9762 Y9.8763
G01 X93.0330 Y9.9425
G01 X93.0883 Y10.0098
G01 X93.0943 Y10.0152
G01 X93.1085 Y10.0299
G01 X93.1752 Y10.0816
G01 X93.2404 Y10.1350
G01 X93.2473 Y10.1391
G01 X93.2695 Y10.1542
G01 X93.3422 Y10.1898
G01 X93.4148 Y10.2286
G01 X93.4225 Y10.2310
G01 X93.4405 Y10.2381
G01 X93.4513 Y10.2432
G01 X93.5273 Y10.2629
G01 X93.6039 Y10.2860
G01 X93.6149 Y10.2871
G01 X93.6332 Y10.2904
G01 X93.6477 Y10.2941
G01 X93.7233 Y10.2979
G01 X93.8000 Y10.3053
G01 X93.8146 Y10.3039
G01 X93.8324 Y10.3035
G01 X93.8509 Y10.3044
G01 X93.9223 Y10.2935
G01 X93.9961 Y10.2860
G01 X94.0136 Y10.2807
G01 X94.0303 Y10.2769
G01 X94.0521 Y10.2736
G01 X94.1165 Y10.2497
G01 X94.1847 Y10.2288
G01 X94.2040 Y10.2185
G01 X94.2189 Y10.2118
G01 X94.2429 Y10.2029
G01 X94.2980 Y10.1685
G01 X94.3585 Y10.1359
G01 X94.3782 Y10.1198
G01 X94.3908 Y10.1107
G01 X94.4156 Y10.0953
G01 X94.4603 Y10.0527
G01 X94.4671 Y10.0468
G01 X94.5109 Y10.0109
G01 X94.5293 Y9.9885
G01 X94.5393 Y9.9776
G01 X94.5631 Y9.9551
G01 X94.5960 Y9.9077
G01 X94.6020 Y9.8999
G01 X94.6359 Y9.8585
G01 X94.6513 Y9.8298
G01 X94.6585 Y9.8181
G01 X94.6793 Y9.7880
G01 X94.7007 Y9.7383
G01 X94.7053 Y9.7287
G01 X94.7288 Y9.6847
G01 X94.7393 Y9.6501
G01 X94.7438 Y9.6379
G01 X94.7595 Y9.6011
G01 X94.7698 Y9.5514
G01 X94.7726 Y9.5405
G01 X94.7860 Y9.4961
G01 X94.7899 Y9.4572
G01 X94.7918 Y9.4444
G01 X94.8005 Y9.4017
G01 X94.8005 Y9.3546
G01 X94.8012 Y9.3425
G01 X94.8053 Y9.3000
G01 X94.8012 Y9.2575
G01 X94.8005 Y9.2441
G01 X94.8005 Y8.3146
G01 X94.8028 Y8.2236
G01 X94.7924 Y8.1660
G01 X94.7911 Y8.1567
G01 X94.7851 Y8.0976
G01 X94.7758 Y8.0680
G01 X94.7722 Y8.0533
G01 X94.7669 Y8.0233
G01 X94.7448 Y7.9681
G01 X94.7417 Y7.9592
G01 X94.7242 Y7.9034
G01 X94.7094 Y7.8768
G01 X94.7029 Y7.8631
G01 X94.6914 Y7.8344
G01 X94.6586 Y7.7847
G01 X94.6538 Y7.7767
G01 X94.6254 Y7.7255
G01 X94.6056 Y7.7024
G01 X94.5965 Y7.6903
G01 X94.5794 Y7.6645
G01 X94.5374 Y7.6225
G01 X94.5309 Y7.6154
G01 X94.4929 Y7.5711
G01 X94.4688 Y7.5525
G01 X94.4567 Y7.5417
G01 X93.3178 Y6.4029
G01 X93.2551 Y6.3369
G01 X93.2070 Y6.3035
G01 X93.1995 Y6.2979
G01 X93.1534 Y6.2603
G01 X93.1264 Y6.2462
G01 X93.1135 Y6.2384
G01 X93.0880 Y6.2207
G01 X93.0334 Y6.1972
G01 X93.0249 Y6.1932
G01 X92.9730 Y6.1661
G01 X92.9433 Y6.1575
G01 X92.9290 Y6.1525
G01 X92.9011 Y6.1405
G01 X92.8428 Y6.1285
G01 X92.8336 Y6.1262
G01 X92.7774 Y6.1101
G01 X92.7466 Y6.1077
G01 X92.7315 Y6.1056
G01 X92.7017 Y6.0995
G01 X92.6432 Y6.0995
G01 X92.6338 Y6.0992
