(G-CODE GENERATED BY FLATCAM v8.994 - www.flatcam.org - Version Date: 2020/11/7)

(Name: Sensorbox-User_1.gbr_ncc_cnc)
(Type: G-code from Geometry)
(Units: MM)

(Created on Monday, 19 February 2024 at 14:27)

(This preprocessor is the default preprocessor used by FlatCAM.)
(It is made to work with MACH3 compatible motion controllers.)

(TOOL DIAMETER: 2.0 mm)
(Feedrate_XY: 80.0 mm/min)
(Feedrate_Z: 40.0 mm/min)
(Feedrate rapids 1500.0 mm/min)

(Z_Cut: -1.8 mm)
(DepthPerCut: 0.4 mm <=>5 passes)
(Z_Move: 2.0 mm)
(Z Start: None mm)
(Z End: 15.0 mm)
(X,Y End: None mm)
(Steps per circle: 64)
(Preprocessor Geometry: default)

(X range:   98.7050 ...  104.2250  mm)
(Y range:   33.0850 ...   38.5950  mm)

(Spindle Speed: 20000.0 RPM)
G21
G90
G94

G01 F80.00

M5
G00 Z15.0000
G00 X0.0000 Y0.0000
T1
M6    
(MSG, Change to Tool Dia = 2.0000)
M0
G00 Z15.0000

M03 S20000.0
G01 F80.00
G00 X100.2781 Y33.0850
G01 F40.00
G01 Z-0.4000
G01 F80.00
G01 X100.2493 Y33.0974
G01 X100.1823 Y33.1280
G01 X100.1162 Y33.1603
G01 X100.0508 Y33.1942
G01 X99.9863 Y33.2297
G01 X99.9227 Y33.2668
G01 X99.8600 Y33.3054
G01 X99.7983 Y33.3456
G01 X99.7376 Y33.3872
G01 X99.6779 Y33.4304
G01 X99.6193 Y33.4750
G01 X99.5618 Y33.5210
G01 X99.5055 Y33.5684
G01 X99.4503 Y33.6171
G01 X99.3964 Y33.6673
G01 X99.3437 Y33.7187
G01 X99.2923 Y33.7714
G01 X99.2421 Y33.8253
G01 X99.1934 Y33.8805
G01 X99.1460 Y33.9368
G01 X99.1000 Y33.9943
G01 X99.0554 Y34.0529
G01 X99.0122 Y34.1126
G01 X98.9706 Y34.1733
G01 X98.9304 Y34.2350
G01 X98.8918 Y34.2977
G01 X98.8547 Y34.3613
G01 X98.8192 Y34.4258
G01 X98.7853 Y34.4912
G01 X98.7530 Y34.5573
G01 X98.7224 Y34.6243
G01 X98.7050 Y34.6648
G01 X98.7050 Y37.0152
G01 X98.7224 Y37.0557
G01 X98.7530 Y37.1227
G01 X98.7853 Y37.1888
G01 X98.8192 Y37.2542
G01 X98.8547 Y37.3187
G01 X98.8918 Y37.3823
G01 X98.9304 Y37.4450
G01 X98.9706 Y37.5067
G01 X99.0122 Y37.5674
G01 X99.0554 Y37.6271
G01 X99.1000 Y37.6857
G01 X99.1460 Y37.7432
G01 X99.1934 Y37.7995
G01 X99.2421 Y37.8547
G01 X99.2923 Y37.9086
G01 X99.3437 Y37.9613
G01 X99.3964 Y38.0127
G01 X99.4503 Y38.0629
G01 X99.5055 Y38.1116
G01 X99.5618 Y38.1590
G01 X99.6193 Y38.2050
G01 X99.6779 Y38.2496
G01 X99.7376 Y38.2928
G01 X99.7983 Y38.3344
G01 X99.8600 Y38.3746
G01 X99.9227 Y38.4132
G01 X99.9863 Y38.4503
G01 X100.0508 Y38.4858
G01 X100.1162 Y38.5197
G01 X100.1823 Y38.5520
G01 X100.2493 Y38.5826
G01 X100.2781 Y38.5950
G01 X102.6519 Y38.5950
G01 X102.6807 Y38.5826
G01 X102.7477 Y38.5520
G01 X102.8138 Y38.5197
G01 X102.8792 Y38.4858
G01 X102.9437 Y38.4503
G01 X103.0073 Y38.4132
G01 X103.0700 Y38.3746
G01 X103.1317 Y38.3344
G01 X103.1924 Y38.2928
G01 X103.2521 Y38.2496
G01 X103.3107 Y38.2050
G01 X103.3682 Y38.1590
G01 X103.4245 Y38.1116
G01 X103.4797 Y38.0629
G01 X103.5336 Y38.0127
G01 X103.5863 Y37.9613
G01 X103.6377 Y37.9086
G01 X103.6879 Y37.8547
G01 X103.7366 Y37.7995
G01 X103.7840 Y37.7432
G01 X103.8300 Y37.6857
G01 X103.8746 Y37.6271
G01 X103.9178 Y37.5674
G01 X103.9594 Y37.5067
G01 X103.9996 Y37.4450
G01 X104.0382 Y37.3823
G01 X104.0753 Y37.3187
G01 X104.1108 Y37.2542
G01 X104.1447 Y37.1888
G01 X104.1770 Y37.1227
G01 X104.2076 Y37.0557
G01 X104.2250 Y37.0152
G01 X103.2650 Y35.8400
G01 X103.2645 Y35.7958
G01 X103.2628 Y35.7517
G01 X103.2601 Y35.7076
G01 X103.2563 Y35.6636
G01 X103.2515 Y35.6197
G01 X103.2455 Y35.5759
G01 X103.2385 Y35.5323
G01 X103.2304 Y35.4888
G01 X103.2213 Y35.4456
G01 X103.2111 Y35.4026
G01 X103.1998 Y35.3599
G01 X103.1875 Y35.3175
G01 X103.1742 Y35.2754
G01 X103.1598 Y35.2336
G01 X103.1444 Y35.1922
G01 X103.1280 Y35.1512
G01 X103.1106 Y35.1106
G01 X103.0922 Y35.0704
G01 X103.0728 Y35.0307
G01 X103.0525 Y34.9915
G01 X103.0312 Y34.9528
G01 X103.0089 Y34.9146
G01 X102.9857 Y34.8770
G01 X102.9616 Y34.8400
G01 X102.9367 Y34.8035
G01 X102.9108 Y34.7677
G01 X102.8840 Y34.7326
G01 X102.8564 Y34.6981
G01 X102.8280 Y34.6643
G01 X102.7987 Y34.6312
G01 X102.7686 Y34.5988
G01 X102.7378 Y34.5672
G01 X102.7062 Y34.5364
G01 X102.6738 Y34.5063
G01 X102.6407 Y34.4770
G01 X102.6069 Y34.4486
G01 X102.5724 Y34.4210
G01 X102.5373 Y34.3942
G01 X102.5015 Y34.3683
G01 X102.4650 Y34.3434
G01 X102.4280 Y34.3193
G01 X102.3904 Y34.2961
G01 X102.3522 Y34.2738
G01 X102.3135 Y34.2525
G01 X102.2743 Y34.2322
G01 X102.2346 Y34.2128
G01 X102.1944 Y34.1944
G01 X102.1538 Y34.1770
G01 X102.1128 Y34.1606
G01 X102.0714 Y34.1452
G01 X102.0296 Y34.1308
G01 X101.9875 Y34.1175
G01 X101.9451 Y34.1052
G01 X101.9024 Y34.0939
G01 X101.8594 Y34.0837
G01 X101.8162 Y34.0746
G01 X101.7727 Y34.0665
G01 X101.7291 Y34.0595
G01 X101.6853 Y34.0535
G01 X101.6414 Y34.0487
G01 X101.5974 Y34.0449
G01 X101.5533 Y34.0422
G01 X101.5092 Y34.0405
G01 X101.4650 Y34.0400
G01 X101.4208 Y34.0405
G01 X101.3767 Y34.0422
G01 X101.3326 Y34.0449
G01 X101.2886 Y34.0487
G01 X101.2447 Y34.0535
G01 X101.2009 Y34.0595
G01 X101.1573 Y34.0665
G01 X101.1138 Y34.0746
G01 X101.0706 Y34.0837
G01 X101.0276 Y34.0939
G01 X100.9849 Y34.1052
G01 X100.9425 Y34.1175
G01 X100.9004 Y34.1308
G01 X100.8586 Y34.1452
G01 X100.8172 Y34.1606
G01 X100.7762 Y34.1770
G01 X100.7356 Y34.1944
G01 X100.6954 Y34.2128
G01 X100.6557 Y34.2322
G01 X100.6165 Y34.2525
G01 X100.5778 Y34.2738
G01 X100.5396 Y34.2961
G01 X100.5020 Y34.3193
G01 X100.4650 Y34.3434
G01 X100.4285 Y34.3683
G01 X100.3927 Y34.3942
G01 X100.3576 Y34.4210
G01 X100.3231 Y34.4486
G01 X100.2893 Y34.4770
G01 X100.2562 Y34.5063
G01 X100.2238 Y34.5364
G01 X100.1922 Y34.5672
G01 X100.1614 Y34.5988
G01 X100.1313 Y34.6312
G01 X100.1020 Y34.6643
G01 X100.0736 Y34.6981
G01 X100.0460 Y34.7326
G01 X100.0192 Y34.7677
G01 X99.9933 Y34.8035
G01 X99.9684 Y34.8400
G01 X99.9443 Y34.8770
G01 X99.9211 Y34.9146
G01 X99.8988 Y34.9528
G01 X99.8775 Y34.9915
G01 X99.8572 Y35.0307
G01 X99.8378 Y35.0704
G01 X99.8194 Y35.1106
G01 X99.8020 Y35.1512
G01 X99.7856 Y35.1922
G01 X99.7702 Y35.2336
G01 X99.7558 Y35.2754
G01 X99.7425 Y35.3175
G01 X99.7302 Y35.3599
G01 X99.7189 Y35.4026
G01 X99.7087 Y35.4456
G01 X99.6996 Y35.4888
G01 X99.6915 Y35.5323
G01 X99.6845 Y35.5759
G01 X99.6785 Y35.6197
G01 X99.6737 Y35.6636
G01 X99.6699 Y35.7076
G01 X99.6672 Y35.7517
G01 X99.6655 Y35.7958
G01 X99.6650 Y35.8400
G01 X99.6655 Y35.8842
G01 X99.6672 Y35.9283
G01 X99.6699 Y35.9724
G01 X99.6737 Y36.0164
G01 X99.6785 Y36.0603
G01 X99.6845 Y36.1041
G01 X99.6915 Y36.1477
G01 X99.6996 Y36.1912
G01 X99.7087 Y36.2344
G01 X99.7189 Y36.2774
G01 X99.7302 Y36.3201
G01 X99.7425 Y36.3625
G01 X99.7558 Y36.4046
G01 X99.7702 Y36.4464
G01 X99.7856 Y36.4878
G01 X99.8020 Y36.5288
G01 X99.8194 Y36.5694
G01 X99.8378 Y36.6096
G01 X99.8572 Y36.6493
G01 X99.8775 Y36.6885
G01 X99.8988 Y36.7272
G01 X99.9211 Y36.7654
G01 X99.9443 Y36.8030
G01 X99.9684 Y36.8400
G01 X99.9933 Y36.8765
G01 X100.0192 Y36.9123
G01 X100.0460 Y36.9474
G01 X100.0736 Y36.9819
G01 X100.1020 Y37.0157
G01 X100.1313 Y37.0488
G01 X100.1614 Y37.0812
G01 X100.1922 Y37.1128
G01 X100.2238 Y37.1436
G01 X100.2562 Y37.1737
G01 X100.2893 Y37.2030
G01 X100.3231 Y37.2314
G01 X100.3576 Y37.2590
G01 X100.3927 Y37.2858
G01 X100.4285 Y37.3117
G01 X100.4650 Y37.3366
G01 X100.5020 Y37.3607
G01 X100.5396 Y37.3839
G01 X100.5778 Y37.4062
G01 X100.6165 Y37.4275
G01 X100.6557 Y37.4478
G01 X100.6954 Y37.4672
G01 X100.7356 Y37.4856
G01 X100.7762 Y37.5030
G01 X100.8172 Y37.5194
G01 X100.8586 Y37.5348
G01 X100.9004 Y37.5492
G01 X100.9425 Y37.5625
G01 X100.9849 Y37.5748
G01 X101.0276 Y37.5861
G01 X101.0706 Y37.5963
G01 X101.1138 Y37.6054
G01 X101.1573 Y37.6135
G01 X101.2009 Y37.6205
G01 X101.2447 Y37.6265
G01 X101.2886 Y37.6313
G01 X101.3326 Y37.6351
G01 X101.3767 Y37.6378
G01 X101.4208 Y37.6395
G01 X101.4650 Y37.6400
G01 X101.5092 Y37.6395
G01 X101.5533 Y37.6378
G01 X101.5974 Y37.6351
G01 X101.6414 Y37.6313
G01 X101.6853 Y37.6265
G01 X101.7291 Y37.6205
G01 X101.7727 Y37.6135
G01 X101.8162 Y37.6054
G01 X101.8594 Y37.5963
G01 X101.9024 Y37.5861
G01 X101.9451 Y37.5748
G01 X101.9875 Y37.5625
G01 X102.0296 Y37.5492
G01 X102.0714 Y37.5348
G01 X102.1128 Y37.5194
G01 X102.1538 Y37.5030
G01 X102.1944 Y37.4856
G01 X102.2346 Y37.4672
G01 X102.2743 Y37.4478
G01 X102.3135 Y37.4275
G01 X102.3522 Y37.4062
G01 X102.3904 Y37.3839
G01 X102.4280 Y37.3607
G01 X102.4650 Y37.3366
G01 X102.5015 Y37.3117
G01 X102.5373 Y37.2858
G01 X102.5724 Y37.2590
G01 X102.6069 Y37.2314
G01 X102.6407 Y37.2030
G01 X102.6738 Y37.1737
G01 X102.7062 Y37.1436
G01 X102.7378 Y37.1128
G01 X102.7686 Y37.0812
G01 X102.7987 Y37.0488
G01 X102.8280 Y37.0157
G01 X102.8564 Y36.9819
G01 X102.8840 Y36.9474
G01 X102.9108 Y36.9123
G01 X102.9367 Y36.8765
G01 X102.9616 Y36.8400
G01 X102.9857 Y36.8030
G01 X103.0089 Y36.7654
G01 X103.0312 Y36.7272
G01 X103.0525 Y36.6885
G01 X103.0728 Y36.6493
G01 X103.0922 Y36.6096
G01 X103.1106 Y36.5694
G01 X103.1280 Y36.5288
G01 X103.1444 Y36.4878
G01 X103.1598 Y36.4464
G01 X103.1742 Y36.4046
G01 X103.1875 Y36.3625
G01 X103.1998 Y36.3201
G01 X103.2111 Y36.2774
G01 X103.2213 Y36.2344
G01 X103.2304 Y36.1912
G01 X103.2385 Y36.1477
G01 X103.2455 Y36.1041
G01 X103.2515 Y36.0603
G01 X103.2563 Y36.0164
G01 X103.2601 Y35.9724
G01 X103.2628 Y35.9283
G01 X103.2645 Y35.8842
G01 X103.2650 Y35.8400
G01 X102.0650 Y35.8400
G01 X102.0643 Y35.8106
G01 X102.0621 Y35.7812
G01 X102.0585 Y35.7520
G01 X102.0535 Y35.7229
G01 X102.0470 Y35.6942
G01 X102.0392 Y35.6658
G01 X102.0299 Y35.6379
G01 X102.0193 Y35.6104
G01 X102.0074 Y35.5835
G01 X101.9942 Y35.5572
G01 X101.9796 Y35.5315
G01 X101.9639 Y35.5067
G01 X101.9469 Y35.4826
G01 X101.9288 Y35.4594
G01 X101.9096 Y35.4371
G01 X101.8893 Y35.4157
G01 X101.8679 Y35.3954
G01 X101.8456 Y35.3762
G01 X101.8224 Y35.3581
G01 X101.7983 Y35.3411
G01 X101.7735 Y35.3254
G01 X101.7478 Y35.3108
G01 X101.7215 Y35.2976
G01 X101.6946 Y35.2857
G01 X101.6671 Y35.2751
G01 X101.6392 Y35.2658
G01 X101.6108 Y35.2580
G01 X101.5821 Y35.2515
G01 X101.5530 Y35.2465
G01 X101.5238 Y35.2429
G01 X101.4944 Y35.2407
G01 X101.4650 Y35.2400
G01 X101.4356 Y35.2407
G01 X101.4062 Y35.2429
G01 X101.3770 Y35.2465
G01 X101.3624 Y35.2488
G01 X101.3335 Y35.2546
G01 X101.3050 Y35.2617
G01 X101.2768 Y35.2703
G01 X101.2491 Y35.2802
G01 X101.2219 Y35.2915
G01 X101.1952 Y35.3041
G01 X101.1693 Y35.3179
G01 X101.1440 Y35.3331
G01 X101.1195 Y35.3494
G01 X101.0959 Y35.3670
G01 X101.0731 Y35.3857
G01 X101.0513 Y35.4055
G01 X101.0305 Y35.4263
G01 X101.0107 Y35.4481
G01 X100.9920 Y35.4709
G01 X100.9744 Y35.4945
G01 X100.9581 Y35.5190
G01 X100.9429 Y35.5443
G01 X100.9291 Y35.5702
G01 X100.9165 Y35.5969
G01 X100.9052 Y35.6241
G01 X100.8953 Y35.6518
G01 X100.8867 Y35.6800
G01 X100.8796 Y35.7085
G01 X100.8738 Y35.7374
G01 X100.8715 Y35.7520
G01 X100.8679 Y35.7812
G01 X100.8657 Y35.8106
G01 X100.8650 Y35.8400
G01 X100.8657 Y35.8694
G01 X100.8679 Y35.8988
G01 X100.8715 Y35.9280
G01 X100.8738 Y35.9426
G01 X100.8796 Y35.9715
G01 X100.8867 Y36.0000
G01 X100.8908 Y36.0142
G01 X100.9001 Y36.0421
G01 X100.9107 Y36.0696
G01 X100.9226 Y36.0965
G01 X100.9291 Y36.1098
G01 X100.9429 Y36.1357
G01 X100.9581 Y36.1610
G01 X100.9661 Y36.1733
G01 X100.9831 Y36.1974
G01 X101.0012 Y36.2206
G01 X101.0107 Y36.2319
G01 X101.0305 Y36.2537
G01 X101.0407 Y36.2643
G01 X101.0621 Y36.2846
G01 X101.0844 Y36.3038
G01 X101.1076 Y36.3219
G01 X101.1317 Y36.3389
G01 X101.1565 Y36.3546
G01 X101.1822 Y36.3692
G01 X101.1952 Y36.3759
G01 X101.2219 Y36.3885
G01 X101.2491 Y36.3998
G01 X101.2629 Y36.4049
G01 X101.2908 Y36.4142
G01 X101.3192 Y36.4220
G01 X101.3479 Y36.4285
G01 X101.3624 Y36.4312
G01 X101.3916 Y36.4355
G01 X101.4062 Y36.4371
G01 X101.4356 Y36.4393
G01 X101.4650 Y36.4400
G01 X101.4944 Y36.4393
G01 X101.5091 Y36.4384
G01 X101.5384 Y36.4355
G01 X101.5676 Y36.4312
G01 X101.5965 Y36.4254
G01 X101.6250 Y36.4183
G01 X101.6392 Y36.4142
G01 X101.6671 Y36.4049
G01 X101.6809 Y36.3998
G01 X101.7081 Y36.3885
G01 X101.7215 Y36.3824
G01 X101.7478 Y36.3692
G01 X101.7735 Y36.3546
G01 X101.7860 Y36.3469
G01 X101.8105 Y36.3306
G01 X101.8224 Y36.3219
G01 X101.8341 Y36.3130
G01 X101.8569 Y36.2943
G01 X101.8787 Y36.2745
G01 X101.8995 Y36.2537
G01 X101.9096 Y36.2429
G01 X101.9288 Y36.2206
G01 X101.9380 Y36.2091
G01 X101.9556 Y36.1855
G01 X101.9719 Y36.1610
G01 X101.9796 Y36.1485
G01 X101.9942 Y36.1228
G01 X102.0009 Y36.1098
G01 X102.0135 Y36.0831
G01 X102.0193 Y36.0696
G01 X102.0299 Y36.0421
G01 X102.0347 Y36.0282
G01 X102.0433 Y36.0000
G01 X102.0504 Y35.9715
G01 X102.0535 Y35.9571
G01 X102.0585 Y35.9280
G01 X102.0605 Y35.9134
G01 X102.0634 Y35.8841
G01 X102.0648 Y35.8547
G01 X102.0650 Y35.8400
G01 X104.2250 Y34.6648
G01 X104.2076 Y34.6243
G01 X104.1770 Y34.5573
G01 X104.1447 Y34.4912
G01 X104.1108 Y34.4258
G01 X104.0753 Y34.3613
G01 X104.0382 Y34.2977
G01 X103.9996 Y34.2350
G01 X103.9594 Y34.1733
G01 X103.9178 Y34.1126
G01 X103.8746 Y34.0529
G01 X103.8300 Y33.9943
G01 X103.7840 Y33.9368
G01 X103.7366 Y33.8805
G01 X103.6879 Y33.8253
G01 X103.6377 Y33.7714
G01 X103.5863 Y33.7187
G01 X103.5336 Y33.6673
G01 X103.4797 Y33.6171
G01 X103.4245 Y33.5684
G01 X103.3682 Y33.5210
G01 X103.3107 Y33.4750
G01 X103.2521 Y33.4304
G01 X103.1924 Y33.3872
G01 X103.1317 Y33.3456
G01 X103.0700 Y33.3054
G01 X103.0073 Y33.2668
G01 X102.9437 Y33.2297
G01 X102.8792 Y33.1942
G01 X102.8138 Y33.1603
G01 X102.7477 Y33.1280
G01 X102.6807 Y33.0974
G01 X102.6519 Y33.0850
G01 X104.2250 Y38.5950
G01 X104.2250 Y33.0850
G01 X98.7050 Y33.0850
G01 X98.7050 Y38.5950
G01 X104.2250 Y38.5950
G00 X104.2250 Y38.5950
G01 F40.00
G01 Z-0.8000
G01 F80.00
G01 X98.7050 Y38.5950
G01 X98.7050 Y33.0850
G01 X104.2250 Y33.0850
G01 X104.2250 Y38.5950
G01 X102.6519 Y33.0850
G01 X102.6807 Y33.0974
G01 X102.7477 Y33.1280
G01 X102.8138 Y33.1603
G01 X102.8792 Y33.1942
G01 X102.9437 Y33.2297
G01 X103.0073 Y33.2668
G01 X103.0700 Y33.3054
G01 X103.1317 Y33.3456
G01 X103.1924 Y33.3872
G01 X103.2521 Y33.4304
G01 X103.3107 Y33.4750
G01 X103.3682 Y33.5210
G01 X103.4245 Y33.5684
G01 X103.4797 Y33.6171
G01 X103.5336 Y33.6673
G01 X103.5863 Y33.7187
G01 X103.6377 Y33.7714
G01 X103.6879 Y33.8253
G01 X103.7366 Y33.8805
G01 X103.7840 Y33.9368
G01 X103.8300 Y33.9943
G01 X103.8746 Y34.0529
G01 X103.9178 Y34.1126
G01 X103.9594 Y34.1733
G01 X103.9996 Y34.2350
G01 X104.0382 Y34.2977
G01 X104.0753 Y34.3613
G01 X104.1108 Y34.4258
G01 X104.1447 Y34.4912
G01 X104.1770 Y34.5573
G01 X104.2076 Y34.6243
G01 X104.2250 Y34.6648
G01 X102.0650 Y35.8400
G01 X102.0648 Y35.8547
G01 X102.0634 Y35.8841
G01 X102.0605 Y35.9134
G01 X102.0585 Y35.9280
G01 X102.0535 Y35.9571
G01 X102.0504 Y35.9715
G01 X102.0433 Y36.0000
G01 X102.0347 Y36.0282
G01 X102.0299 Y36.0421
G01 X102.0193 Y36.0696
G01 X102.0135 Y36.0831
G01 X102.0009 Y36.1098
G01 X101.9942 Y36.1228
G01 X101.9796 Y36.1485
G01 X101.9719 Y36.1610
G01 X101.9556 Y36.1855
G01 X101.9380 Y36.2091
G01 X101.9288 Y36.2206
G01 X101.9096 Y36.2429
G01 X101.8995 Y36.2537
G01 X101.8787 Y36.2745
G01 X101.8569 Y36.2943
G01 X101.8341 Y36.3130
G01 X101.8224 Y36.3219
G01 X101.8105 Y36.3306
G01 X101.7860 Y36.3469
G01 X101.7735 Y36.3546
G01 X101.7478 Y36.3692
G01 X101.7215 Y36.3824
G01 X101.7081 Y36.3885
G01 X101.6809 Y36.3998
G01 X101.6671 Y36.4049
G01 X101.6392 Y36.4142
G01 X101.6250 Y36.4183
G01 X101.5965 Y36.4254
G01 X101.5676 Y36.4312
G01 X101.5384 Y36.4355
G01 X101.5091 Y36.4384
G01 X101.4944 Y36.4393
G01 X101.4650 Y36.4400
G01 X101.4356 Y36.4393
G01 X101.4062 Y36.4371
G01 X101.3916 Y36.4355
G01 X101.3624 Y36.4312
G01 X101.3479 Y36.4285
G01 X101.3192 Y36.4220
G01 X101.2908 Y36.4142
G01 X101.2629 Y36.4049
G01 X101.2491 Y36.3998
G01 X101.2219 Y36.3885
G01 X101.1952 Y36.3759
G01 X101.1822 Y36.3692
G01 X101.1565 Y36.3546
G01 X101.1317 Y36.3389
G01 X101.1076 Y36.3219
G01 X101.0844 Y36.3038
G01 X101.0621 Y36.2846
G01 X101.0407 Y36.2643
G01 X101.0305 Y36.2537
G01 X101.0107 Y36.2319
G01 X101.0012 Y36.2206
G01 X100.9831 Y36.1974
G01 X100.9661 Y36.1733
G01 X100.9581 Y36.1610
G01 X100.9429 Y36.1357
G01 X100.9291 Y36.1098
G01 X100.9226 Y36.0965
G01 X100.9107 Y36.0696
G01 X100.9001 Y36.0421
G01 X100.8908 Y36.0142
G01 X100.8867 Y36.0000
G01 X100.8796 Y35.9715
G01 X100.8738 Y35.9426
G01 X100.8715 Y35.9280
G01 X100.8679 Y35.8988
G01 X100.8657 Y35.8694
G01 X100.8650 Y35.8400
G01 X100.8657 Y35.8106
G01 X100.8679 Y35.7812
G01 X100.8715 Y35.7520
G01 X100.8738 Y35.7374
G01 X100.8796 Y35.7085
G01 X100.8867 Y35.6800
G01 X100.8953 Y35.6518
G01 X100.9052 Y35.6241
G01 X100.9165 Y35.5969
G01 X100.9291 Y35.5702
G01 X100.9429 Y35.5443
G01 X100.9581 Y35.5190
G01 X100.9744 Y35.4945
G01 X100.9920 Y35.4709
G01 X101.0107 Y35.4481
G01 X101.0305 Y35.4263
G01 X101.0513 Y35.4055
G01 X101.0731 Y35.3857
G01 X101.0959 Y35.3670
G01 X101.1195 Y35.3494
G01 X101.1440 Y35.3331
G01 X101.1693 Y35.3179
G01 X101.1952 Y35.3041
G01 X101.2219 Y35.2915
G01 X101.2491 Y35.2802
G01 X101.2768 Y35.2703
G01 X101.3050 Y35.2617
G01 X101.3335 Y35.2546
G01 X101.3624 Y35.2488
G01 X101.3770 Y35.2465
G01 X101.4062 Y35.2429
G01 X101.4356 Y35.2407
G01 X101.4650 Y35.2400
G01 X101.4944 Y35.2407
G01 X101.5238 Y35.2429
G01 X101.5530 Y35.2465
G01 X101.5821 Y35.2515
G01 X101.6108 Y35.2580
G01 X101.6392 Y35.2658
G01 X101.6671 Y35.2751
G01 X101.6946 Y35.2857
G01 X101.7215 Y35.2976
G01 X101.7478 Y35.3108
G01 X101.7735 Y35.3254
G01 X101.7983 Y35.3411
G01 X101.8224 Y35.3581
G01 X101.8456 Y35.3762
G01 X101.8679 Y35.3954
G01 X101.8893 Y35.4157
G01 X101.9096 Y35.4371
G01 X101.9288 Y35.4594
G01 X101.9469 Y35.4826
G01 X101.9639 Y35.5067
G01 X101.9796 Y35.5315
G01 X101.9942 Y35.5572
G01 X102.0074 Y35.5835
G01 X102.0193 Y35.6104
G01 X102.0299 Y35.6379
G01 X102.0392 Y35.6658
G01 X102.0470 Y35.6942
G01 X102.0535 Y35.7229
G01 X102.0585 Y35.7520
G01 X102.0621 Y35.7812
G01 X102.0643 Y35.8106
G01 X102.0650 Y35.8400
G01 X103.2650 Y35.8400
G01 X103.2645 Y35.8842
G01 X103.2628 Y35.9283
G01 X103.2601 Y35.9724
G01 X103.2563 Y36.0164
G01 X103.2515 Y36.0603
G01 X103.2455 Y36.1041
G01 X103.2385 Y36.1477
G01 X103.2304 Y36.1912
G01 X103.2213 Y36.2344
G01 X103.2111 Y36.2774
G01 X103.1998 Y36.3201
G01 X103.1875 Y36.3625
G01 X103.1742 Y36.4046
G01 X103.1598 Y36.4464
G01 X103.1444 Y36.4878
G01 X103.1280 Y36.5288
G01 X103.1106 Y36.5694
G01 X103.0922 Y36.6096
G01 X103.0728 Y36.6493
G01 X103.0525 Y36.6885
G01 X103.0312 Y36.7272
G01 X103.0089 Y36.7654
G01 X102.9857 Y36.8030
G01 X102.9616 Y36.8400
G01 X102.9367 Y36.8765
G01 X102.9108 Y36.9123
G01 X102.8840 Y36.9474
G01 X102.8564 Y36.9819
G01 X102.8280 Y37.0157
G01 X102.7987 Y37.0488
G01 X102.7686 Y37.0812
G01 X102.7378 Y37.1128
G01 X102.7062 Y37.1436
G01 X102.6738 Y37.1737
G01 X102.6407 Y37.2030
G01 X102.6069 Y37.2314
G01 X102.5724 Y37.2590
G01 X102.5373 Y37.2858
G01 X102.5015 Y37.3117
G01 X102.4650 Y37.3366
G01 X102.4280 Y37.3607
G01 X102.3904 Y37.3839
G01 X102.3522 Y37.4062
G01 X102.3135 Y37.4275
G01 X102.2743 Y37.4478
G01 X102.2346 Y37.4672
G01 X102.1944 Y37.4856
G01 X102.1538 Y37.5030
G01 X102.1128 Y37.5194
G01 X102.0714 Y37.5348
G01 X102.0296 Y37.5492
G01 X101.9875 Y37.5625
G01 X101.9451 Y37.5748
G01 X101.9024 Y37.5861
G01 X101.8594 Y37.5963
G01 X101.8162 Y37.6054
G01 X101.7727 Y37.6135
G01 X101.7291 Y37.6205
G01 X101.6853 Y37.6265
G01 X101.6414 Y37.6313
G01 X101.5974 Y37.6351
G01 X101.5533 Y37.6378
G01 X101.5092 Y37.6395
G01 X101.4650 Y37.6400
G01 X101.4208 Y37.6395
G01 X101.3767 Y37.6378
G01 X101.3326 Y37.6351
G01 X101.2886 Y37.6313
G01 X101.2447 Y37.6265
G01 X101.2009 Y37.6205
G01 X101.1573 Y37.6135
G01 X101.1138 Y37.6054
G01 X101.0706 Y37.5963
G01 X101.0276 Y37.5861
G01 X100.9849 Y37.5748
G01 X100.9425 Y37.5625
G01 X100.9004 Y37.5492
G01 X100.8586 Y37.5348
G01 X100.8172 Y37.5194
G01 X100.7762 Y37.5030
G01 X100.7356 Y37.4856
G01 X100.6954 Y37.4672
G01 X100.6557 Y37.4478
G01 X100.6165 Y37.4275
G01 X100.5778 Y37.4062
G01 X100.5396 Y37.3839
G01 X100.5020 Y37.3607
G01 X100.4650 Y37.3366
G01 X100.4285 Y37.3117
G01 X100.3927 Y37.2858
G01 X100.3576 Y37.2590
G01 X100.3231 Y37.2314
G01 X100.2893 Y37.2030
G01 X100.2562 Y37.1737
G01 X100.2238 Y37.1436
G01 X100.1922 Y37.1128
G01 X100.1614 Y37.0812
G01 X100.1313 Y37.0488
G01 X100.1020 Y37.0157
G01 X100.0736 Y36.9819
G01 X100.0460 Y36.9474
G01 X100.0192 Y36.9123
G01 X99.9933 Y36.8765
G01 X99.9684 Y36.8400
G01 X99.9443 Y36.8030
G01 X99.9211 Y36.7654
G01 X99.8988 Y36.7272
G01 X99.8775 Y36.6885
G01 X99.8572 Y36.6493
G01 X99.8378 Y36.6096
G01 X99.8194 Y36.5694
G01 X99.8020 Y36.5288
G01 X99.7856 Y36.4878
G01 X99.7702 Y36.4464
G01 X99.7558 Y36.4046
G01 X99.7425 Y36.3625
G01 X99.7302 Y36.3201
G01 X99.7189 Y36.2774
G01 X99.7087 Y36.2344
G01 X99.6996 Y36.1912
G01 X99.6915 Y36.1477
G01 X99.6845 Y36.1041
G01 X99.6785 Y36.0603
G01 X99.6737 Y36.0164
G01 X99.6699 Y35.9724
G01 X99.6672 Y35.9283
G01 X99.6655 Y35.8842
G01 X99.6650 Y35.8400
G01 X99.6655 Y35.7958
G01 X99.6672 Y35.7517
G01 X99.6699 Y35.7076
G01 X99.6737 Y35.6636
G01 X99.6785 Y35.6197
G01 X99.6845 Y35.5759
G01 X99.6915 Y35.5323
G01 X99.6996 Y35.4888
G01 X99.7087 Y35.4456
G01 X99.7189 Y35.4026
G01 X99.7302 Y35.3599
G01 X99.7425 Y35.3175
G01 X99.7558 Y35.2754
G01 X99.7702 Y35.2336
G01 X99.7856 Y35.1922
G01 X99.8020 Y35.1512
G01 X99.8194 Y35.1106
G01 X99.8378 Y35.0704
G01 X99.8572 Y35.0307
G01 X99.8775 Y34.9915
G01 X99.8988 Y34.9528
G01 X99.9211 Y34.9146
G01 X99.9443 Y34.8770
G01 X99.9684 Y34.8400
G01 X99.9933 Y34.8035
G01 X100.0192 Y34.7677
G01 X100.0460 Y34.7326
G01 X100.0736 Y34.6981
G01 X100.1020 Y34.6643
G01 X100.1313 Y34.6312
G01 X100.1614 Y34.5988
G01 X100.1922 Y34.5672
G01 X100.2238 Y34.5364
G01 X100.2562 Y34.5063
G01 X100.2893 Y34.4770
G01 X100.3231 Y34.4486
G01 X100.3576 Y34.4210
G01 X100.3927 Y34.3942
G01 X100.4285 Y34.3683
G01 X100.4650 Y34.3434
G01 X100.5020 Y34.3193
G01 X100.5396 Y34.2961
G01 X100.5778 Y34.2738
G01 X100.6165 Y34.2525
G01 X100.6557 Y34.2322
G01 X100.6954 Y34.2128
G01 X100.7356 Y34.1944
G01 X100.7762 Y34.1770
G01 X100.8172 Y34.1606
G01 X100.8586 Y34.1452
G01 X100.9004 Y34.1308
G01 X100.9425 Y34.1175
G01 X100.9849 Y34.1052
G01 X101.0276 Y34.0939
G01 X101.0706 Y34.0837
G01 X101.1138 Y34.0746
G01 X101.1573 Y34.0665
G01 X101.2009 Y34.0595
G01 X101.2447 Y34.0535
G01 X101.2886 Y34.0487
G01 X101.3326 Y34.0449
G01 X101.3767 Y34.0422
G01 X101.4208 Y34.0405
G01 X101.4650 Y34.0400
G01 X101.5092 Y34.0405
G01 X101.5533 Y34.0422
G01 X101.5974 Y34.0449
G01 X101.6414 Y34.0487
G01 X101.6853 Y34.0535
G01 X101.7291 Y34.0595
G01 X101.7727 Y34.0665
G01 X101.8162 Y34.0746
G01 X101.8594 Y34.0837
G01 X101.9024 Y34.0939
G01 X101.9451 Y34.1052
G01 X101.9875 Y34.1175
G01 X102.0296 Y34.1308
G01 X102.0714 Y34.1452
G01 X102.1128 Y34.1606
G01 X102.1538 Y34.1770
G01 X102.1944 Y34.1944
G01 X102.2346 Y34.2128
G01 X102.2743 Y34.2322
G01 X102.3135 Y34.2525
G01 X102.3522 Y34.2738
G01 X102.3904 Y34.2961
G01 X102.4280 Y34.3193
G01 X102.4650 Y34.3434
G01 X102.5015 Y34.3683
G01 X102.5373 Y34.3942
G01 X102.5724 Y34.4210
G01 X102.6069 Y34.4486
G01 X102.6407 Y34.4770
G01 X102.6738 Y34.5063
G01 X102.7062 Y34.5364
G01 X102.7378 Y34.5672
G01 X102.7686 Y34.5988
G01 X102.7987 Y34.6312
G01 X102.8280 Y34.6643
G01 X102.8564 Y34.6981
G01 X102.8840 Y34.7326
G01 X102.9108 Y34.7677
G01 X102.9367 Y34.8035
G01 X102.9616 Y34.8400
G01 X102.9857 Y34.8770
G01 X103.0089 Y34.9146
G01 X103.0312 Y34.9528
G01 X103.0525 Y34.9915
G01 X103.0728 Y35.0307
G01 X103.0922 Y35.0704
G01 X103.1106 Y35.1106
G01 X103.1280 Y35.1512
G01 X103.1444 Y35.1922
G01 X103.1598 Y35.2336
G01 X103.1742 Y35.2754
G01 X103.1875 Y35.3175
G01 X103.1998 Y35.3599
G01 X103.2111 Y35.4026
G01 X103.2213 Y35.4456
G01 X103.2304 Y35.4888
G01 X103.2385 Y35.5323
G01 X103.2455 Y35.5759
G01 X103.2515 Y35.6197
G01 X103.2563 Y35.6636
G01 X103.2601 Y35.7076
G01 X103.2628 Y35.7517
G01 X103.2645 Y35.7958
G01 X103.2650 Y35.8400
G01 X104.2250 Y37.0152
G01 X104.2076 Y37.0557
G01 X104.1770 Y37.1227
G01 X104.1447 Y37.1888
G01 X104.1108 Y37.2542
G01 X104.0753 Y37.3187
G01 X104.0382 Y37.3823
G01 X103.9996 Y37.4450
G01 X103.9594 Y37.5067
G01 X103.9178 Y37.5674
G01 X103.8746 Y37.6271
G01 X103.8300 Y37.6857
G01 X103.7840 Y37.7432
G01 X103.7366 Y37.7995
G01 X103.6879 Y37.8547
G01 X103.6377 Y37.9086
G01 X103.5863 Y37.9613
G01 X103.5336 Y38.0127
G01 X103.4797 Y38.0629
G01 X103.4245 Y38.1116
G01 X103.3682 Y38.1590
G01 X103.3107 Y38.2050
G01 X103.2521 Y38.2496
G01 X103.1924 Y38.2928
G01 X103.1317 Y38.3344
G01 X103.0700 Y38.3746
G01 X103.0073 Y38.4132
G01 X102.9437 Y38.4503
G01 X102.8792 Y38.4858
G01 X102.8138 Y38.5197
G01 X102.7477 Y38.5520
G01 X102.6807 Y38.5826
G01 X102.6519 Y38.5950
G01 X100.2781 Y38.5950
G01 X100.2493 Y38.5826
G01 X100.1823 Y38.5520
G01 X100.1162 Y38.5197
G01 X100.0508 Y38.4858
G01 X99.9863 Y38.4503
G01 X99.9227 Y38.4132
G01 X99.8600 Y38.3746
G01 X99.7983 Y38.3344
G01 X99.7376 Y38.2928
G01 X99.6779 Y38.2496
G01 X99.6193 Y38.2050
G01 X99.5618 Y38.1590
G01 X99.5055 Y38.1116
G01 X99.4503 Y38.0629
G01 X99.3964 Y38.0127
G01 X99.3437 Y37.9613
G01 X99.2923 Y37.9086
G01 X99.2421 Y37.8547
G01 X99.1934 Y37.7995
G01 X99.1460 Y37.7432
G01 X99.1000 Y37.6857
G01 X99.0554 Y37.6271
G01 X99.0122 Y37.5674
G01 X98.9706 Y37.5067
G01 X98.9304 Y37.4450
G01 X98.8918 Y37.3823
G01 X98.8547 Y37.3187
G01 X98.8192 Y37.2542
G01 X98.7853 Y37.1888
G01 X98.7530 Y37.1227
G01 X98.7224 Y37.0557
G01 X98.7050 Y37.0152
G01 X98.7050 Y34.6648
G01 X98.7224 Y34.6243
G01 X98.7530 Y34.5573
G01 X98.7853 Y34.4912
G01 X98.8192 Y34.4258
G01 X98.8547 Y34.3613
G01 X98.8918 Y34.2977
G01 X98.9304 Y34.2350
G01 X98.9706 Y34.1733
G01 X99.0122 Y34.1126
G01 X99.0554 Y34.0529
G01 X99.1000 Y33.9943
G01 X99.1460 Y33.9368
G01 X99.1934 Y33.8805
G01 X99.2421 Y33.8253
G01 X99.2923 Y33.7714
G01 X99.3437 Y33.7187
G01 X99.3964 Y33.6673
G01 X99.4503 Y33.6171
G01 X99.5055 Y33.5684
G01 X99.5618 Y33.5210
G01 X99.6193 Y33.4750
G01 X99.6779 Y33.4304
G01 X99.7376 Y33.3872
G01 X99.7983 Y33.3456
G01 X99.8600 Y33.3054
G01 X99.9227 Y33.2668
G01 X99.9863 Y33.2297
G01 X100.0508 Y33.1942
G01 X100.1162 Y33.1603
G01 X100.1823 Y33.1280
G01 X100.2493 Y33.0974
G01 X100.2781 Y33.0850
G00 X100.2781 Y33.0850
G01 F40.00
G01 Z-1.2000
G01 F80.00
G01 X100.2493 Y33.0974
G01 X100.1823 Y33.1280
G01 X100.1162 Y33.1603
G01 X100.0508 Y33.1942
G01 X99.9863 Y33.2297
G01 X99.9227 Y33.2668
G01 X99.8600 Y33.3054
G01 X99.7983 Y33.3456
G01 X99.7376 Y33.3872
G01 X99.6779 Y33.4304
G01 X99.6193 Y33.4750
G01 X99.5618 Y33.5210
G01 X99.5055 Y33.5684
G01 X99.4503 Y33.6171
G01 X99.3964 Y33.6673
G01 X99.3437 Y33.7187
G01 X99.2923 Y33.7714
G01 X99.2421 Y33.8253
G01 X99.1934 Y33.8805
G01 X99.1460 Y33.9368
G01 X99.1000 Y33.9943
G01 X99.0554 Y34.0529
G01 X99.0122 Y34.1126
G01 X98.9706 Y34.1733
G01 X98.9304 Y34.2350
G01 X98.8918 Y34.2977
G01 X98.8547 Y34.3613
G01 X98.8192 Y34.4258
G01 X98.7853 Y34.4912
G01 X98.7530 Y34.5573
G01 X98.7224 Y34.6243
G01 X98.7050 Y34.6648
G01 X98.7050 Y37.0152
G01 X98.7224 Y37.0557
G01 X98.7530 Y37.1227
G01 X98.7853 Y37.1888
G01 X98.8192 Y37.2542
G01 X98.8547 Y37.3187
G01 X98.8918 Y37.3823
G01 X98.9304 Y37.4450
G01 X98.9706 Y37.5067
G01 X99.0122 Y37.5674
G01 X99.0554 Y37.6271
G01 X99.1000 Y37.6857
G01 X99.1460 Y37.7432
G01 X99.1934 Y37.7995
G01 X99.2421 Y37.8547
G01 X99.2923 Y37.9086
G01 X99.3437 Y37.9613
G01 X99.3964 Y38.0127
G01 X99.4503 Y38.0629
G01 X99.5055 Y38.1116
G01 X99.5618 Y38.1590
G01 X99.6193 Y38.2050
G01 X99.6779 Y38.2496
G01 X99.7376 Y38.2928
G01 X99.7983 Y38.3344
G01 X99.8600 Y38.3746
G01 X99.9227 Y38.4132
G01 X99.9863 Y38.4503
G01 X100.0508 Y38.4858
G01 X100.1162 Y38.5197
G01 X100.1823 Y38.5520
G01 X100.2493 Y38.5826
G01 X100.2781 Y38.5950
G01 X102.6519 Y38.5950
G01 X102.6807 Y38.5826
G01 X102.7477 Y38.5520
G01 X102.8138 Y38.5197
G01 X102.8792 Y38.4858
G01 X102.9437 Y38.4503
G01 X103.0073 Y38.4132
G01 X103.0700 Y38.3746
G01 X103.1317 Y38.3344
G01 X103.1924 Y38.2928
G01 X103.2521 Y38.2496
G01 X103.3107 Y38.2050
G01 X103.3682 Y38.1590
G01 X103.4245 Y38.1116
G01 X103.4797 Y38.0629
G01 X103.5336 Y38.0127
G01 X103.5863 Y37.9613
G01 X103.6377 Y37.9086
G01 X103.6879 Y37.8547
G01 X103.7366 Y37.7995
G01 X103.7840 Y37.7432
G01 X103.8300 Y37.6857
G01 X103.8746 Y37.6271
G01 X103.9178 Y37.5674
G01 X103.9594 Y37.5067
G01 X103.9996 Y37.4450
G01 X104.0382 Y37.3823
G01 X104.0753 Y37.3187
G01 X104.1108 Y37.2542
G01 X104.1447 Y37.1888
G01 X104.1770 Y37.1227
G01 X104.2076 Y37.0557
G01 X104.2250 Y37.0152
G01 X103.2650 Y35.8400
G01 X103.2645 Y35.7958
G01 X103.2628 Y35.7517
G01 X103.2601 Y35.7076
G01 X103.2563 Y35.6636
G01 X103.2515 Y35.6197
G01 X103.2455 Y35.5759
G01 X103.2385 Y35.5323
G01 X103.2304 Y35.4888
G01 X103.2213 Y35.4456
G01 X103.2111 Y35.4026
G01 X103.1998 Y35.3599
G01 X103.1875 Y35.3175
G01 X103.1742 Y35.2754
G01 X103.1598 Y35.2336
G01 X103.1444 Y35.1922
G01 X103.1280 Y35.1512
G01 X103.1106 Y35.1106
G01 X103.0922 Y35.0704
G01 X103.0728 Y35.0307
G01 X103.0525 Y34.9915
G01 X103.0312 Y34.9528
G01 X103.0089 Y34.9146
G01 X102.9857 Y34.8770
G01 X102.9616 Y34.8400
G01 X102.9367 Y34.8035
G01 X102.9108 Y34.7677
G01 X102.8840 Y34.7326
G01 X102.8564 Y34.6981
G01 X102.8280 Y34.6643
G01 X102.7987 Y34.6312
G01 X102.7686 Y34.5988
G01 X102.7378 Y34.5672
G01 X102.7062 Y34.5364
G01 X102.6738 Y34.5063
G01 X102.6407 Y34.4770
G01 X102.6069 Y34.4486
G01 X102.5724 Y34.4210
G01 X102.5373 Y34.3942
G01 X102.5015 Y34.3683
G01 X102.4650 Y34.3434
G01 X102.4280 Y34.3193
G01 X102.3904 Y34.2961
G01 X102.3522 Y34.2738
G01 X102.3135 Y34.2525
G01 X102.2743 Y34.2322
G01 X102.2346 Y34.2128
G01 X102.1944 Y34.1944
G01 X102.1538 Y34.1770
G01 X102.1128 Y34.1606
G01 X102.0714 Y34.1452
G01 X102.0296 Y34.1308
G01 X101.9875 Y34.1175
G01 X101.9451 Y34.1052
G01 X101.9024 Y34.0939
G01 X101.8594 Y34.0837
G01 X101.8162 Y34.0746
G01 X101.7727 Y34.0665
G01 X101.7291 Y34.0595
G01 X101.6853 Y34.0535
G01 X101.6414 Y34.0487
G01 X101.5974 Y34.0449
G01 X101.5533 Y34.0422
G01 X101.5092 Y34.0405
G01 X101.4650 Y34.0400
G01 X101.4208 Y34.0405
G01 X101.3767 Y34.0422
G01 X101.3326 Y34.0449
G01 X101.2886 Y34.0487
G01 X101.2447 Y34.0535
G01 X101.2009 Y34.0595
G01 X101.1573 Y34.0665
G01 X101.1138 Y34.0746
G01 X101.0706 Y34.0837
G01 X101.0276 Y34.0939
G01 X100.9849 Y34.1052
G01 X100.9425 Y34.1175
G01 X100.9004 Y34.1308
G01 X100.8586 Y34.1452
G01 X100.8172 Y34.1606
G01 X100.7762 Y34.1770
G01 X100.7356 Y34.1944
G01 X100.6954 Y34.2128
G01 X100.6557 Y34.2322
G01 X100.6165 Y34.2525
G01 X100.5778 Y34.2738
G01 X100.5396 Y34.2961
G01 X100.5020 Y34.3193
G01 X100.4650 Y34.3434
G01 X100.4285 Y34.3683
G01 X100.3927 Y34.3942
G01 X100.3576 Y34.4210
G01 X100.3231 Y34.4486
G01 X100.2893 Y34.4770
G01 X100.2562 Y34.5063
G01 X100.2238 Y34.5364
G01 X100.1922 Y34.5672
G01 X100.1614 Y34.5988
G01 X100.1313 Y34.6312
G01 X100.1020 Y34.6643
G01 X100.0736 Y34.6981
G01 X100.0460 Y34.7326
G01 X100.0192 Y34.7677
G01 X99.9933 Y34.8035
G01 X99.9684 Y34.8400
G01 X99.9443 Y34.8770
G01 X99.9211 Y34.9146
G01 X99.8988 Y34.9528
G01 X99.8775 Y34.9915
G01 X99.8572 Y35.0307
G01 X99.8378 Y35.0704
G01 X99.8194 Y35.1106
G01 X99.8020 Y35.1512
G01 X99.7856 Y35.1922
G01 X99.7702 Y35.2336
G01 X99.7558 Y35.2754
G01 X99.7425 Y35.3175
G01 X99.7302 Y35.3599
G01 X99.7189 Y35.4026
G01 X99.7087 Y35.4456
G01 X99.6996 Y35.4888
G01 X99.6915 Y35.5323
G01 X99.6845 Y35.5759
G01 X99.6785 Y35.6197
G01 X99.6737 Y35.6636
G01 X99.6699 Y35.7076
G01 X99.6672 Y35.7517
G01 X99.6655 Y35.7958
G01 X99.6650 Y35.8400
G01 X99.6655 Y35.8842
G01 X99.6672 Y35.9283
G01 X99.6699 Y35.9724
G01 X99.6737 Y36.0164
G01 X99.6785 Y36.0603
G01 X99.6845 Y36.1041
G01 X99.6915 Y36.1477
G01 X99.6996 Y36.1912
G01 X99.7087 Y36.2344
G01 X99.7189 Y36.2774
G01 X99.7302 Y36.3201
G01 X99.7425 Y36.3625
G01 X99.7558 Y36.4046
G01 X99.7702 Y36.4464
G01 X99.7856 Y36.4878
G01 X99.8020 Y36.5288
G01 X99.8194 Y36.5694
G01 X99.8378 Y36.6096
G01 X99.8572 Y36.6493
G01 X99.8775 Y36.6885
G01 X99.8988 Y36.7272
G01 X99.9211 Y36.7654
G01 X99.9443 Y36.8030
G01 X99.9684 Y36.8400
G01 X99.9933 Y36.8765
G01 X100.0192 Y36.9123
G01 X100.0460 Y36.9474
G01 X100.0736 Y36.9819
G01 X100.1020 Y37.0157
G01 X100.1313 Y37.0488
G01 X100.1614 Y37.0812
G01 X100.1922 Y37.1128
G01 X100.2238 Y37.1436
G01 X100.2562 Y37.1737
G01 X100.2893 Y37.2030
G01 X100.3231 Y37.2314
G01 X100.3576 Y37.2590
G01 X100.3927 Y37.2858
G01 X100.4285 Y37.3117
G01 X100.4650 Y37.3366
G01 X100.5020 Y37.3607
G01 X100.5396 Y37.3839
G01 X100.5778 Y37.4062
G01 X100.6165 Y37.4275
G01 X100.6557 Y37.4478
G01 X100.6954 Y37.4672
G01 X100.7356 Y37.4856
G01 X100.7762 Y37.5030
G01 X100.8172 Y37.5194
G01 X100.8586 Y37.5348
G01 X100.9004 Y37.5492
G01 X100.9425 Y37.5625
G01 X100.9849 Y37.5748
G01 X101.0276 Y37.5861
G01 X101.0706 Y37.5963
G01 X101.1138 Y37.6054
G01 X101.1573 Y37.6135
G01 X101.2009 Y37.6205
G01 X101.2447 Y37.6265
G01 X101.2886 Y37.6313
G01 X101.3326 Y37.6351
G01 X101.3767 Y37.6378
G01 X101.4208 Y37.6395
G01 X101.4650 Y37.6400
G01 X101.5092 Y37.6395
G01 X101.5533 Y37.6378
G01 X101.5974 Y37.6351
G01 X101.6414 Y37.6313
G01 X101.6853 Y37.6265
G01 X101.7291 Y37.6205
G01 X101.7727 Y37.6135
G01 X101.8162 Y37.6054
G01 X101.8594 Y37.5963
G01 X101.9024 Y37.5861
G01 X101.9451 Y37.5748
G01 X101.9875 Y37.5625
G01 X102.0296 Y37.5492
G01 X102.0714 Y37.5348
G01 X102.1128 Y37.5194
G01 X102.1538 Y37.5030
G01 X102.1944 Y37.4856
G01 X102.2346 Y37.4672
G01 X102.2743 Y37.4478
G01 X102.3135 Y37.4275
G01 X102.3522 Y37.4062
G01 X102.3904 Y37.3839
G01 X102.4280 Y37.3607
G01 X102.4650 Y37.3366
G01 X102.5015 Y37.3117
G01 X102.5373 Y37.2858
G01 X102.5724 Y37.2590
G01 X102.6069 Y37.2314
G01 X102.6407 Y37.2030
G01 X102.6738 Y37.1737
G01 X102.7062 Y37.1436
G01 X102.7378 Y37.1128
G01 X102.7686 Y37.0812
G01 X102.7987 Y37.0488
G01 X102.8280 Y37.0157
G01 X102.8564 Y36.9819
G01 X102.8840 Y36.9474
G01 X102.9108 Y36.9123
G01 X102.9367 Y36.8765
G01 X102.9616 Y36.8400
G01 X102.9857 Y36.8030
G01 X103.0089 Y36.7654
G01 X103.0312 Y36.7272
G01 X103.0525 Y36.6885
G01 X103.0728 Y36.6493
G01 X103.0922 Y36.6096
G01 X103.1106 Y36.5694
G01 X103.1280 Y36.5288
G01 X103.1444 Y36.4878
G01 X103.1598 Y36.4464
G01 X103.1742 Y36.4046
G01 X103.1875 Y36.3625
G01 X103.1998 Y36.3201
G01 X103.2111 Y36.2774
G01 X103.2213 Y36.2344
G01 X103.2304 Y36.1912
G01 X103.2385 Y36.1477
G01 X103.2455 Y36.1041
G01 X103.2515 Y36.0603
G01 X103.2563 Y36.0164
G01 X103.2601 Y35.9724
G01 X103.2628 Y35.9283
G01 X103.2645 Y35.8842
G01 X103.2650 Y35.8400
G01 X102.0650 Y35.8400
G01 X102.0643 Y35.8106
G01 X102.0621 Y35.7812
G01 X102.0585 Y35.7520
G01 X102.0535 Y35.7229
G01 X102.0470 Y35.6942
G01 X102.0392 Y35.6658
G01 X102.0299 Y35.6379
G01 X102.0193 Y35.6104
G01 X102.0074 Y35.5835
G01 X101.9942 Y35.5572
G01 X101.9796 Y35.5315
G01 X101.9639 Y35.5067
G01 X101.9469 Y35.4826
G01 X101.9288 Y35.4594
G01 X101.9096 Y35.4371
G01 X101.8893 Y35.4157
G01 X101.8679 Y35.3954
G01 X101.8456 Y35.3762
G01 X101.8224 Y35.3581
G01 X101.7983 Y35.3411
G01 X101.7735 Y35.3254
G01 X101.7478 Y35.3108
G01 X101.7215 Y35.2976
G01 X101.6946 Y35.2857
G01 X101.6671 Y35.2751
G01 X101.6392 Y35.2658
G01 X101.6108 Y35.2580
G01 X101.5821 Y35.2515
G01 X101.5530 Y35.2465
G01 X101.5238 Y35.2429
G01 X101.4944 Y35.2407
G01 X101.4650 Y35.2400
G01 X101.4356 Y35.2407
G01 X101.4062 Y35.2429
G01 X101.3770 Y35.2465
G01 X101.3624 Y35.2488
G01 X101.3335 Y35.2546
G01 X101.3050 Y35.2617
G01 X101.2768 Y35.2703
G01 X101.2491 Y35.2802
G01 X101.2219 Y35.2915
G01 X101.1952 Y35.3041
G01 X101.1693 Y35.3179
G01 X101.1440 Y35.3331
G01 X101.1195 Y35.3494
G01 X101.0959 Y35.3670
G01 X101.0731 Y35.3857
G01 X101.0513 Y35.4055
G01 X101.0305 Y35.4263
G01 X101.0107 Y35.4481
G01 X100.9920 Y35.4709
G01 X100.9744 Y35.4945
G01 X100.9581 Y35.5190
G01 X100.9429 Y35.5443
G01 X100.9291 Y35.5702
G01 X100.9165 Y35.5969
G01 X100.9052 Y35.6241
G01 X100.8953 Y35.6518
G01 X100.8867 Y35.6800
G01 X100.8796 Y35.7085
G01 X100.8738 Y35.7374
G01 X100.8715 Y35.7520
G01 X100.8679 Y35.7812
G01 X100.8657 Y35.8106
G01 X100.8650 Y35.8400
G01 X100.8657 Y35.8694
G01 X100.8679 Y35.8988
G01 X100.8715 Y35.9280
G01 X100.8738 Y35.9426
G01 X100.8796 Y35.9715
G01 X100.8867 Y36.0000
G01 X100.8908 Y36.0142
G01 X100.9001 Y36.0421
G01 X100.9107 Y36.0696
G01 X100.9226 Y36.0965
G01 X100.9291 Y36.1098
G01 X100.9429 Y36.1357
G01 X100.9581 Y36.1610
G01 X100.9661 Y36.1733
G01 X100.9831 Y36.1974
G01 X101.0012 Y36.2206
G01 X101.0107 Y36.2319
G01 X101.0305 Y36.2537
G01 X101.0407 Y36.2643
G01 X101.0621 Y36.2846
G01 X101.0844 Y36.3038
G01 X101.1076 Y36.3219
G01 X101.1317 Y36.3389
G01 X101.1565 Y36.3546
G01 X101.1822 Y36.3692
G01 X101.1952 Y36.3759
G01 X101.2219 Y36.3885
G01 X101.2491 Y36.3998
G01 X101.2629 Y36.4049
G01 X101.2908 Y36.4142
G01 X101.3192 Y36.4220
G01 X101.3479 Y36.4285
G01 X101.3624 Y36.4312
G01 X101.3916 Y36.4355
G01 X101.4062 Y36.4371
G01 X101.4356 Y36.4393
G01 X101.4650 Y36.4400
G01 X101.4944 Y36.4393
G01 X101.5091 Y36.4384
G01 X101.5384 Y36.4355
G01 X101.5676 Y36.4312
G01 X101.5965 Y36.4254
G01 X101.6250 Y36.4183
G01 X101.6392 Y36.4142
G01 X101.6671 Y36.4049
G01 X101.6809 Y36.3998
G01 X101.7081 Y36.3885
G01 X101.7215 Y36.3824
G01 X101.7478 Y36.3692
G01 X101.7735 Y36.3546
G01 X101.7860 Y36.3469
G01 X101.8105 Y36.3306
G01 X101.8224 Y36.3219
G01 X101.8341 Y36.3130
G01 X101.8569 Y36.2943
G01 X101.8787 Y36.2745
G01 X101.8995 Y36.2537
G01 X101.9096 Y36.2429
G01 X101.9288 Y36.2206
G01 X101.9380 Y36.2091
G01 X101.9556 Y36.1855
G01 X101.9719 Y36.1610
G01 X101.9796 Y36.1485
G01 X101.9942 Y36.1228
G01 X102.0009 Y36.1098
G01 X102.0135 Y36.0831
G01 X102.0193 Y36.0696
G01 X102.0299 Y36.0421
G01 X102.0347 Y36.0282
G01 X102.0433 Y36.0000
G01 X102.0504 Y35.9715
G01 X102.0535 Y35.9571
G01 X102.0585 Y35.9280
G01 X102.0605 Y35.9134
G01 X102.0634 Y35.8841
G01 X102.0648 Y35.8547
G01 X102.0650 Y35.8400
G01 X104.2250 Y34.6648
G01 X104.2076 Y34.6243
G01 X104.1770 Y34.5573
G01 X104.1447 Y34.4912
G01 X104.1108 Y34.4258
G01 X104.0753 Y34.3613
G01 X104.0382 Y34.2977
G01 X103.9996 Y34.2350
G01 X103.9594 Y34.1733
G01 X103.9178 Y34.1126
G01 X103.8746 Y34.0529
G01 X103.8300 Y33.9943
G01 X103.7840 Y33.9368
G01 X103.7366 Y33.8805
G01 X103.6879 Y33.8253
G01 X103.6377 Y33.7714
G01 X103.5863 Y33.7187
G01 X103.5336 Y33.6673
G01 X103.4797 Y33.6171
G01 X103.4245 Y33.5684
G01 X103.3682 Y33.5210
G01 X103.3107 Y33.4750
G01 X103.2521 Y33.4304
G01 X103.1924 Y33.3872
G01 X103.1317 Y33.3456
G01 X103.0700 Y33.3054
G01 X103.0073 Y33.2668
G01 X102.9437 Y33.2297
G01 X102.8792 Y33.1942
G01 X102.8138 Y33.1603
G01 X102.7477 Y33.1280
G01 X102.6807 Y33.0974
G01 X102.6519 Y33.0850
G01 X104.2250 Y38.5950
G01 X104.2250 Y33.0850
G01 X98.7050 Y33.0850
G01 X98.7050 Y38.5950
G01 X104.2250 Y38.5950
G00 X104.2250 Y38.5950
G01 F40.00
G01 Z-1.6000
G01 F80.00
G01 X98.7050 Y38.5950
G01 X98.7050 Y33.0850
G01 X104.2250 Y33.0850
G01 X104.2250 Y38.5950
G01 X102.6519 Y33.0850
G01 X102.6807 Y33.0974
G01 X102.7477 Y33.1280
G01 X102.8138 Y33.1603
G01 X102.8792 Y33.1942
G01 X102.9437 Y33.2297
G01 X103.0073 Y33.2668
G01 X103.0700 Y33.3054
G01 X103.1317 Y33.3456
G01 X103.1924 Y33.3872
G01 X103.2521 Y33.4304
G01 X103.3107 Y33.4750
G01 X103.3682 Y33.5210
G01 X103.4245 Y33.5684
G01 X103.4797 Y33.6171
G01 X103.5336 Y33.6673
G01 X103.5863 Y33.7187
G01 X103.6377 Y33.7714
G01 X103.6879 Y33.8253
G01 X103.7366 Y33.8805
G01 X103.7840 Y33.9368
G01 X103.8300 Y33.9943
G01 X103.8746 Y34.0529
G01 X103.9178 Y34.1126
G01 X103.9594 Y34.1733
G01 X103.9996 Y34.2350
G01 X104.0382 Y34.2977
G01 X104.0753 Y34.3613
G01 X104.1108 Y34.4258
G01 X104.1447 Y34.4912
G01 X104.1770 Y34.5573
G01 X104.2076 Y34.6243
G01 X104.2250 Y34.6648
G01 X102.0650 Y35.8400
G01 X102.0648 Y35.8547
G01 X102.0634 Y35.8841
G01 X102.0605 Y35.9134
G01 X102.0585 Y35.9280
G01 X102.0535 Y35.9571
G01 X102.0504 Y35.9715
G01 X102.0433 Y36.0000
G01 X102.0347 Y36.0282
G01 X102.0299 Y36.0421
G01 X102.0193 Y36.0696
G01 X102.0135 Y36.0831
G01 X102.0009 Y36.1098
G01 X101.9942 Y36.1228
G01 X101.9796 Y36.1485
G01 X101.9719 Y36.1610
G01 X101.9556 Y36.1855
G01 X101.9380 Y36.2091
G01 X101.9288 Y36.2206
G01 X101.9096 Y36.2429
G01 X101.8995 Y36.2537
G01 X101.8787 Y36.2745
G01 X101.8569 Y36.2943
G01 X101.8341 Y36.3130
G01 X101.8224 Y36.3219
G01 X101.8105 Y36.3306
G01 X101.7860 Y36.3469
G01 X101.7735 Y36.3546
G01 X101.7478 Y36.3692
G01 X101.7215 Y36.3824
G01 X101.7081 Y36.3885
G01 X101.6809 Y36.3998
G01 X101.6671 Y36.4049
G01 X101.6392 Y36.4142
G01 X101.6250 Y36.4183
G01 X101.5965 Y36.4254
G01 X101.5676 Y36.4312
G01 X101.5384 Y36.4355
G01 X101.5091 Y36.4384
G01 X101.4944 Y36.4393
G01 X101.4650 Y36.4400
G01 X101.4356 Y36.4393
G01 X101.4062 Y36.4371
G01 X101.3916 Y36.4355
G01 X101.3624 Y36.4312
G01 X101.3479 Y36.4285
G01 X101.3192 Y36.4220
G01 X101.2908 Y36.4142
G01 X101.2629 Y36.4049
G01 X101.2491 Y36.3998
G01 X101.2219 Y36.3885
G01 X101.1952 Y36.3759
G01 X101.1822 Y36.3692
G01 X101.1565 Y36.3546
G01 X101.1317 Y36.3389
G01 X101.1076 Y36.3219
G01 X101.0844 Y36.3038
G01 X101.0621 Y36.2846
G01 X101.0407 Y36.2643
G01 X101.0305 Y36.2537
G01 X101.0107 Y36.2319
G01 X101.0012 Y36.2206
G01 X100.9831 Y36.1974
G01 X100.9661 Y36.1733
G01 X100.9581 Y36.1610
G01 X100.9429 Y36.1357
G01 X100.9291 Y36.1098
G01 X100.9226 Y36.0965
G01 X100.9107 Y36.0696
G01 X100.9001 Y36.0421
G01 X100.8908 Y36.0142
G01 X100.8867 Y36.0000
G01 X100.8796 Y35.9715
G01 X100.8738 Y35.9426
G01 X100.8715 Y35.9280
G01 X100.8679 Y35.8988
G01 X100.8657 Y35.8694
G01 X100.8650 Y35.8400
G01 X100.8657 Y35.8106
G01 X100.8679 Y35.7812
G01 X100.8715 Y35.7520
G01 X100.8738 Y35.7374
G01 X100.8796 Y35.7085
G01 X100.8867 Y35.6800
G01 X100.8953 Y35.6518
G01 X100.9052 Y35.6241
G01 X100.9165 Y35.5969
G01 X100.9291 Y35.5702
G01 X100.9429 Y35.5443
G01 X100.9581 Y35.5190
G01 X100.9744 Y35.4945
G01 X100.9920 Y35.4709
G01 X101.0107 Y35.4481
G01 X101.0305 Y35.4263
G01 X101.0513 Y35.4055
G01 X101.0731 Y35.3857
G01 X101.0959 Y35.3670
G01 X101.1195 Y35.3494
G01 X101.1440 Y35.3331
G01 X101.1693 Y35.3179
G01 X101.1952 Y35.3041
G01 X101.2219 Y35.2915
G01 X101.2491 Y35.2802
G01 X101.2768 Y35.2703
G01 X101.3050 Y35.2617
G01 X101.3335 Y35.2546
G01 X101.3624 Y35.2488
G01 X101.3770 Y35.2465
G01 X101.4062 Y35.2429
G01 X101.4356 Y35.2407
G01 X101.4650 Y35.2400
G01 X101.4944 Y35.2407
G01 X101.5238 Y35.2429
G01 X101.5530 Y35.2465
G01 X101.5821 Y35.2515
G01 X101.6108 Y35.2580
G01 X101.6392 Y35.2658
G01 X101.6671 Y35.2751
G01 X101.6946 Y35.2857
G01 X101.7215 Y35.2976
G01 X101.7478 Y35.3108
G01 X101.7735 Y35.3254
G01 X101.7983 Y35.3411
G01 X101.8224 Y35.3581
G01 X101.8456 Y35.3762
G01 X101.8679 Y35.3954
G01 X101.8893 Y35.4157
G01 X101.9096 Y35.4371
G01 X101.9288 Y35.4594
G01 X101.9469 Y35.4826
G01 X101.9639 Y35.5067
G01 X101.9796 Y35.5315
G01 X101.9942 Y35.5572
G01 X102.0074 Y35.5835
G01 X102.0193 Y35.6104
G01 X102.0299 Y35.6379
G01 X102.0392 Y35.6658
G01 X102.0470 Y35.6942
G01 X102.0535 Y35.7229
G01 X102.0585 Y35.7520
G01 X102.0621 Y35.7812
G01 X102.0643 Y35.8106
G01 X102.0650 Y35.8400
G01 X103.2650 Y35.8400
G01 X103.2645 Y35.8842
G01 X103.2628 Y35.9283
G01 X103.2601 Y35.9724
G01 X103.2563 Y36.0164
G01 X103.2515 Y36.0603
G01 X103.2455 Y36.1041
G01 X103.2385 Y36.1477
G01 X103.2304 Y36.1912
G01 X103.2213 Y36.2344
G01 X103.2111 Y36.2774
G01 X103.1998 Y36.3201
G01 X103.1875 Y36.3625
G01 X103.1742 Y36.4046
G01 X103.1598 Y36.4464
G01 X103.1444 Y36.4878
G01 X103.1280 Y36.5288
G01 X103.1106 Y36.5694
G01 X103.0922 Y36.6096
G01 X103.0728 Y36.6493
G01 X103.0525 Y36.6885
G01 X103.0312 Y36.7272
G01 X103.0089 Y36.7654
G01 X102.9857 Y36.8030
G01 X102.9616 Y36.8400
G01 X102.9367 Y36.8765
G01 X102.9108 Y36.9123
G01 X102.8840 Y36.9474
G01 X102.8564 Y36.9819
G01 X102.8280 Y37.0157
G01 X102.7987 Y37.0488
G01 X102.7686 Y37.0812
G01 X102.7378 Y37.1128
G01 X102.7062 Y37.1436
G01 X102.6738 Y37.1737
G01 X102.6407 Y37.2030
G01 X102.6069 Y37.2314
G01 X102.5724 Y37.2590
G01 X102.5373 Y37.2858
G01 X102.5015 Y37.3117
G01 X102.4650 Y37.3366
G01 X102.4280 Y37.3607
G01 X102.3904 Y37.3839
G01 X102.3522 Y37.4062
G01 X102.3135 Y37.4275
G01 X102.2743 Y37.4478
G01 X102.2346 Y37.4672
G01 X102.1944 Y37.4856
G01 X102.1538 Y37.5030
G01 X102.1128 Y37.5194
G01 X102.0714 Y37.5348
G01 X102.0296 Y37.5492
G01 X101.9875 Y37.5625
G01 X101.9451 Y37.5748
G01 X101.9024 Y37.5861
G01 X101.8594 Y37.5963
G01 X101.8162 Y37.6054
G01 X101.7727 Y37.6135
G01 X101.7291 Y37.6205
G01 X101.6853 Y37.6265
G01 X101.6414 Y37.6313
G01 X101.5974 Y37.6351
G01 X101.5533 Y37.6378
G01 X101.5092 Y37.6395
G01 X101.4650 Y37.6400
G01 X101.4208 Y37.6395
G01 X101.3767 Y37.6378
G01 X101.3326 Y37.6351
G01 X101.2886 Y37.6313
G01 X101.2447 Y37.6265
G01 X101.2009 Y37.6205
G01 X101.1573 Y37.6135
G01 X101.1138 Y37.6054
G01 X101.0706 Y37.5963
G01 X101.0276 Y37.5861
G01 X100.9849 Y37.5748
G01 X100.9425 Y37.5625
G01 X100.9004 Y37.5492
G01 X100.8586 Y37.5348
G01 X100.8172 Y37.5194
G01 X100.7762 Y37.5030
G01 X100.7356 Y37.4856
G01 X100.6954 Y37.4672
G01 X100.6557 Y37.4478
G01 X100.6165 Y37.4275
G01 X100.5778 Y37.4062
G01 X100.5396 Y37.3839
G01 X100.5020 Y37.3607
G01 X100.4650 Y37.3366
G01 X100.4285 Y37.3117
G01 X100.3927 Y37.2858
G01 X100.3576 Y37.2590
G01 X100.3231 Y37.2314
G01 X100.2893 Y37.2030
G01 X100.2562 Y37.1737
G01 X100.2238 Y37.1436
G01 X100.1922 Y37.1128
G01 X100.1614 Y37.0812
G01 X100.1313 Y37.0488
G01 X100.1020 Y37.0157
G01 X100.0736 Y36.9819
G01 X100.0460 Y36.9474
G01 X100.0192 Y36.9123
G01 X99.9933 Y36.8765
G01 X99.9684 Y36.8400
G01 X99.9443 Y36.8030
G01 X99.9211 Y36.7654
G01 X99.8988 Y36.7272
G01 X99.8775 Y36.6885
G01 X99.8572 Y36.6493
G01 X99.8378 Y36.6096
G01 X99.8194 Y36.5694
G01 X99.8020 Y36.5288
G01 X99.7856 Y36.4878
G01 X99.7702 Y36.4464
G01 X99.7558 Y36.4046
G01 X99.7425 Y36.3625
G01 X99.7302 Y36.3201
G01 X99.7189 Y36.2774
G01 X99.7087 Y36.2344
G01 X99.6996 Y36.1912
G01 X99.6915 Y36.1477
G01 X99.6845 Y36.1041
G01 X99.6785 Y36.0603
G01 X99.6737 Y36.0164
G01 X99.6699 Y35.9724
G01 X99.6672 Y35.9283
G01 X99.6655 Y35.8842
G01 X99.6650 Y35.8400
G01 X99.6655 Y35.7958
G01 X99.6672 Y35.7517
G01 X99.6699 Y35.7076
G01 X99.6737 Y35.6636
G01 X99.6785 Y35.6197
G01 X99.6845 Y35.5759
G01 X99.6915 Y35.5323
G01 X99.6996 Y35.4888
G01 X99.7087 Y35.4456
G01 X99.7189 Y35.4026
G01 X99.7302 Y35.3599
G01 X99.7425 Y35.3175
G01 X99.7558 Y35.2754
G01 X99.7702 Y35.2336
G01 X99.7856 Y35.1922
G01 X99.8020 Y35.1512
G01 X99.8194 Y35.1106
G01 X99.8378 Y35.0704
G01 X99.8572 Y35.0307
G01 X99.8775 Y34.9915
G01 X99.8988 Y34.9528
G01 X99.9211 Y34.9146
G01 X99.9443 Y34.8770
G01 X99.9684 Y34.8400
G01 X99.9933 Y34.8035
G01 X100.0192 Y34.7677
G01 X100.0460 Y34.7326
G01 X100.0736 Y34.6981
G01 X100.1020 Y34.6643
G01 X100.1313 Y34.6312
G01 X100.1614 Y34.5988
G01 X100.1922 Y34.5672
G01 X100.2238 Y34.5364
G01 X100.2562 Y34.5063
G01 X100.2893 Y34.4770
G01 X100.3231 Y34.4486
G01 X100.3576 Y34.4210
G01 X100.3927 Y34.3942
G01 X100.4285 Y34.3683
G01 X100.4650 Y34.3434
G01 X100.5020 Y34.3193
G01 X100.5396 Y34.2961
G01 X100.5778 Y34.2738
G01 X100.6165 Y34.2525
G01 X100.6557 Y34.2322
G01 X100.6954 Y34.2128
G01 X100.7356 Y34.1944
G01 X100.7762 Y34.1770
G01 X100.8172 Y34.1606
G01 X100.8586 Y34.1452
G01 X100.9004 Y34.1308
G01 X100.9425 Y34.1175
G01 X100.9849 Y34.1052
G01 X101.0276 Y34.0939
G01 X101.0706 Y34.0837
G01 X101.1138 Y34.0746
G01 X101.1573 Y34.0665
G01 X101.2009 Y34.0595
G01 X101.2447 Y34.0535
G01 X101.2886 Y34.0487
G01 X101.3326 Y34.0449
G01 X101.3767 Y34.0422
G01 X101.4208 Y34.0405
G01 X101.4650 Y34.0400
G01 X101.5092 Y34.0405
G01 X101.5533 Y34.0422
G01 X101.5974 Y34.0449
G01 X101.6414 Y34.0487
G01 X101.6853 Y34.0535
G01 X101.7291 Y34.0595
G01 X101.7727 Y34.0665
G01 X101.8162 Y34.0746
G01 X101.8594 Y34.0837
G01 X101.9024 Y34.0939
G01 X101.9451 Y34.1052
G01 X101.9875 Y34.1175
G01 X102.0296 Y34.1308
G01 X102.0714 Y34.1452
G01 X102.1128 Y34.1606
G01 X102.1538 Y34.1770
G01 X102.1944 Y34.1944
G01 X102.2346 Y34.2128
G01 X102.2743 Y34.2322
G01 X102.3135 Y34.2525
G01 X102.3522 Y34.2738
G01 X102.3904 Y34.2961
G01 X102.4280 Y34.3193
G01 X102.4650 Y34.3434
G01 X102.5015 Y34.3683
G01 X102.5373 Y34.3942
G01 X102.5724 Y34.4210
G01 X102.6069 Y34.4486
G01 X102.6407 Y34.4770
G01 X102.6738 Y34.5063
G01 X102.7062 Y34.5364
G01 X102.7378 Y34.5672
G01 X102.7686 Y34.5988
G01 X102.7987 Y34.6312
G01 X102.8280 Y34.6643
G01 X102.8564 Y34.6981
G01 X102.8840 Y34.7326
G01 X102.9108 Y34.7677
G01 X102.9367 Y34.8035
G01 X102.9616 Y34.8400
G01 X102.9857 Y34.8770
G01 X103.0089 Y34.9146
G01 X103.0312 Y34.9528
G01 X103.0525 Y34.9915
G01 X103.0728 Y35.0307
G01 X103.0922 Y35.0704
G01 X103.1106 Y35.1106
G01 X103.1280 Y35.1512
G01 X103.1444 Y35.1922
G01 X103.1598 Y35.2336
G01 X103.1742 Y35.2754
G01 X103.1875 Y35.3175
G01 X103.1998 Y35.3599
G01 X103.2111 Y35.4026
G01 X103.2213 Y35.4456
G01 X103.2304 Y35.4888
G01 X103.2385 Y35.5323
G01 X103.2455 Y35.5759
G01 X103.2515 Y35.6197
G01 X103.2563 Y35.6636
G01 X103.2601 Y35.7076
G01 X103.2628 Y35.7517
G01 X103.2645 Y35.7958
G01 X103.2650 Y35.8400
G01 X104.2250 Y37.0152
G01 X104.2076 Y37.0557
G01 X104.1770 Y37.1227
G01 X104.1447 Y37.1888
G01 X104.1108 Y37.2542
G01 X104.0753 Y37.3187
G01 X104.0382 Y37.3823
G01 X103.9996 Y37.4450
G01 X103.9594 Y37.5067
G01 X103.9178 Y37.5674
G01 X103.8746 Y37.6271
G01 X103.8300 Y37.6857
G01 X103.7840 Y37.7432
G01 X103.7366 Y37.7995
G01 X103.6879 Y37.8547
G01 X103.6377 Y37.9086
G01 X103.5863 Y37.9613
G01 X103.5336 Y38.0127
G01 X103.4797 Y38.0629
G01 X103.4245 Y38.1116
G01 X103.3682 Y38.1590
G01 X103.3107 Y38.2050
G01 X103.2521 Y38.2496
G01 X103.1924 Y38.2928
G01 X103.1317 Y38.3344
G01 X103.0700 Y38.3746
G01 X103.0073 Y38.4132
G01 X102.9437 Y38.4503
G01 X102.8792 Y38.4858
G01 X102.8138 Y38.5197
G01 X102.7477 Y38.5520
G01 X102.6807 Y38.5826
G01 X102.6519 Y38.5950
G01 X100.2781 Y38.5950
G01 X100.2493 Y38.5826
G01 X100.1823 Y38.5520
G01 X100.1162 Y38.5197
G01 X100.0508 Y38.4858
G01 X99.9863 Y38.4503
G01 X99.9227 Y38.4132
G01 X99.8600 Y38.3746
G01 X99.7983 Y38.3344
G01 X99.7376 Y38.2928
G01 X99.6779 Y38.2496
G01 X99.6193 Y38.2050
G01 X99.5618 Y38.1590
G01 X99.5055 Y38.1116
G01 X99.4503 Y38.0629
G01 X99.3964 Y38.0127
G01 X99.3437 Y37.9613
G01 X99.2923 Y37.9086
G01 X99.2421 Y37.8547
G01 X99.1934 Y37.7995
G01 X99.1460 Y37.7432
G01 X99.1000 Y37.6857
G01 X99.0554 Y37.6271
G01 X99.0122 Y37.5674
G01 X98.9706 Y37.5067
G01 X98.9304 Y37.4450
G01 X98.8918 Y37.3823
G01 X98.8547 Y37.3187
G01 X98.8192 Y37.2542
G01 X98.7853 Y37.1888
G01 X98.7530 Y37.1227
G01 X98.7224 Y37.0557
G01 X98.7050 Y37.0152
G01 X98.7050 Y34.6648
G01 X98.7224 Y34.6243
G01 X98.7530 Y34.5573
G01 X98.7853 Y34.4912
G01 X98.8192 Y34.4258
G01 X98.8547 Y34.3613
G01 X98.8918 Y34.2977
G01 X98.9304 Y34.2350
G01 X98.9706 Y34.1733
G01 X99.0122 Y34.1126
G01 X99.0554 Y34.0529
G01 X99.1000 Y33.9943
G01 X99.1460 Y33.9368
G01 X99.1934 Y33.8805
G01 X99.2421 Y33.8253
G01 X99.2923 Y33.7714
G01 X99.3437 Y33.7187
G01 X99.3964 Y33.6673
G01 X99.4503 Y33.6171
G01 X99.5055 Y33.5684
G01 X99.5618 Y33.5210
G01 X99.6193 Y33.4750
G01 X99.6779 Y33.4304
G01 X99.7376 Y33.3872
G01 X99.7983 Y33.3456
G01 X99.8600 Y33.3054
G01 X99.9227 Y33.2668
G01 X99.9863 Y33.2297
G01 X100.0508 Y33.1942
G01 X100.1162 Y33.1603
G01 X100.1823 Y33.1280
G01 X100.2493 Y33.0974
G01 X100.2781 Y33.0850
G00 X100.2781 Y33.0850
G01 F40.00
G01 Z-1.8000
G01 F80.00
G01 X100.2493 Y33.0974
G01 X100.1823 Y33.1280
G01 X100.1162 Y33.1603
G01 X100.0508 Y33.1942
G01 X99.9863 Y33.2297
G01 X99.9227 Y33.2668
G01 X99.8600 Y33.3054
G01 X99.7983 Y33.3456
G01 X99.7376 Y33.3872
G01 X99.6779 Y33.4304
G01 X99.6193 Y33.4750
G01 X99.5618 Y33.5210
G01 X99.5055 Y33.5684
G01 X99.4503 Y33.6171
G01 X99.3964 Y33.6673
G01 X99.3437 Y33.7187
G01 X99.2923 Y33.7714
G01 X99.2421 Y33.8253
G01 X99.1934 Y33.8805
G01 X99.1460 Y33.9368
G01 X99.1000 Y33.9943
G01 X99.0554 Y34.0529
G01 X99.0122 Y34.1126
G01 X98.9706 Y34.1733
G01 X98.9304 Y34.2350
G01 X98.8918 Y34.2977
G01 X98.8547 Y34.3613
G01 X98.8192 Y34.4258
G01 X98.7853 Y34.4912
G01 X98.7530 Y34.5573
G01 X98.7224 Y34.6243
G01 X98.7050 Y34.6648
G01 X98.7050 Y37.0152
G01 X98.7224 Y37.0557
G01 X98.7530 Y37.1227
G01 X98.7853 Y37.1888
G01 X98.8192 Y37.2542
G01 X98.8547 Y37.3187
G01 X98.8918 Y37.3823
G01 X98.9304 Y37.4450
G01 X98.9706 Y37.5067
G01 X99.0122 Y37.5674
G01 X99.0554 Y37.6271
G01 X99.1000 Y37.6857
G01 X99.1460 Y37.7432
G01 X99.1934 Y37.7995
G01 X99.2421 Y37.8547
G01 X99.2923 Y37.9086
G01 X99.3437 Y37.9613
G01 X99.3964 Y38.0127
G01 X99.4503 Y38.0629
G01 X99.5055 Y38.1116
G01 X99.5618 Y38.1590
G01 X99.6193 Y38.2050
G01 X99.6779 Y38.2496
G01 X99.7376 Y38.2928
G01 X99.7983 Y38.3344
G01 X99.8600 Y38.3746
G01 X99.9227 Y38.4132
G01 X99.9863 Y38.4503
G01 X100.0508 Y38.4858
G01 X100.1162 Y38.5197
G01 X100.1823 Y38.5520
G01 X100.2493 Y38.5826
G01 X100.2781 Y38.5950
G01 X102.6519 Y38.5950
G01 X102.6807 Y38.5826
G01 X102.7477 Y38.5520
G01 X102.8138 Y38.5197
G01 X102.8792 Y38.4858
G01 X102.9437 Y38.4503
G01 X103.0073 Y38.4132
G01 X103.0700 Y38.3746
G01 X103.1317 Y38.3344
G01 X103.1924 Y38.2928
G01 X103.2521 Y38.2496
G01 X103.3107 Y38.2050
G01 X103.3682 Y38.1590
G01 X103.4245 Y38.1116
G01 X103.4797 Y38.0629
G01 X103.5336 Y38.0127
G01 X103.5863 Y37.9613
G01 X103.6377 Y37.9086
G01 X103.6879 Y37.8547
G01 X103.7366 Y37.7995
G01 X103.7840 Y37.7432
G01 X103.8300 Y37.6857
G01 X103.8746 Y37.6271
G01 X103.9178 Y37.5674
G01 X103.9594 Y37.5067
G01 X103.9996 Y37.4450
G01 X104.0382 Y37.3823
G01 X104.0753 Y37.3187
G01 X104.1108 Y37.2542
G01 X104.1447 Y37.1888
G01 X104.1770 Y37.1227
G01 X104.2076 Y37.0557
G01 X104.2250 Y37.0152
G01 X103.2650 Y35.8400
G01 X103.2645 Y35.7958
G01 X103.2628 Y35.7517
G01 X103.2601 Y35.7076
G01 X103.2563 Y35.6636
G01 X103.2515 Y35.6197
G01 X103.2455 Y35.5759
G01 X103.2385 Y35.5323
G01 X103.2304 Y35.4888
G01 X103.2213 Y35.4456
G01 X103.2111 Y35.4026
G01 X103.1998 Y35.3599
G01 X103.1875 Y35.3175
G01 X103.1742 Y35.2754
G01 X103.1598 Y35.2336
G01 X103.1444 Y35.1922
G01 X103.1280 Y35.1512
G01 X103.1106 Y35.1106
G01 X103.0922 Y35.0704
G01 X103.0728 Y35.0307
G01 X103.0525 Y34.9915
G01 X103.0312 Y34.9528
G01 X103.0089 Y34.9146
G01 X102.9857 Y34.8770
G01 X102.9616 Y34.8400
G01 X102.9367 Y34.8035
G01 X102.9108 Y34.7677
G01 X102.8840 Y34.7326
G01 X102.8564 Y34.6981
G01 X102.8280 Y34.6643
G01 X102.7987 Y34.6312
G01 X102.7686 Y34.5988
G01 X102.7378 Y34.5672
G01 X102.7062 Y34.5364
G01 X102.6738 Y34.5063
G01 X102.6407 Y34.4770
G01 X102.6069 Y34.4486
G01 X102.5724 Y34.4210
G01 X102.5373 Y34.3942
G01 X102.5015 Y34.3683
G01 X102.4650 Y34.3434
G01 X102.4280 Y34.3193
G01 X102.3904 Y34.2961
G01 X102.3522 Y34.2738
G01 X102.3135 Y34.2525
G01 X102.2743 Y34.2322
G01 X102.2346 Y34.2128
G01 X102.1944 Y34.1944
G01 X102.1538 Y34.1770
G01 X102.1128 Y34.1606
G01 X102.0714 Y34.1452
G01 X102.0296 Y34.1308
G01 X101.9875 Y34.1175
G01 X101.9451 Y34.1052
G01 X101.9024 Y34.0939
G01 X101.8594 Y34.0837
G01 X101.8162 Y34.0746
G01 X101.7727 Y34.0665
G01 X101.7291 Y34.0595
G01 X101.6853 Y34.0535
G01 X101.6414 Y34.0487
G01 X101.5974 Y34.0449
G01 X101.5533 Y34.0422
G01 X101.5092 Y34.0405
G01 X101.4650 Y34.0400
G01 X101.4208 Y34.0405
G01 X101.3767 Y34.0422
G01 X101.3326 Y34.0449
G01 X101.2886 Y34.0487
G01 X101.2447 Y34.0535
G01 X101.2009 Y34.0595
G01 X101.1573 Y34.0665
G01 X101.1138 Y34.0746
G01 X101.0706 Y34.0837
G01 X101.0276 Y34.0939
G01 X100.9849 Y34.1052
G01 X100.9425 Y34.1175
G01 X100.9004 Y34.1308
G01 X100.8586 Y34.1452
G01 X100.8172 Y34.1606
G01 X100.7762 Y34.1770
G01 X100.7356 Y34.1944
G01 X100.6954 Y34.2128
G01 X100.6557 Y34.2322
G01 X100.6165 Y34.2525
G01 X100.5778 Y34.2738
G01 X100.5396 Y34.2961
G01 X100.5020 Y34.3193
G01 X100.4650 Y34.3434
G01 X100.4285 Y34.3683
G01 X100.3927 Y34.3942
G01 X100.3576 Y34.4210
G01 X100.3231 Y34.4486
G01 X100.2893 Y34.4770
G01 X100.2562 Y34.5063
G01 X100.2238 Y34.5364
G01 X100.1922 Y34.5672
G01 X100.1614 Y34.5988
G01 X100.1313 Y34.6312
G01 X100.1020 Y34.6643
G01 X100.0736 Y34.6981
G01 X100.0460 Y34.7326
G01 X100.0192 Y34.7677
G01 X99.9933 Y34.8035
G01 X99.9684 Y34.8400
G01 X99.9443 Y34.8770
G01 X99.9211 Y34.9146
G01 X99.8988 Y34.9528
G01 X99.8775 Y34.9915
G01 X99.8572 Y35.0307
G01 X99.8378 Y35.0704
G01 X99.8194 Y35.1106
G01 X99.8020 Y35.1512
G01 X99.7856 Y35.1922
G01 X99.7702 Y35.2336
G01 X99.7558 Y35.2754
G01 X99.7425 Y35.3175
G01 X99.7302 Y35.3599
G01 X99.7189 Y35.4026
G01 X99.7087 Y35.4456
G01 X99.6996 Y35.4888
G01 X99.6915 Y35.5323
G01 X99.6845 Y35.5759
G01 X99.6785 Y35.6197
G01 X99.6737 Y35.6636
G01 X99.6699 Y35.7076
G01 X99.6672 Y35.7517
G01 X99.6655 Y35.7958
G01 X99.6650 Y35.8400
G01 X99.6655 Y35.8842
G01 X99.6672 Y35.9283
G01 X99.6699 Y35.9724
G01 X99.6737 Y36.0164
G01 X99.6785 Y36.0603
G01 X99.6845 Y36.1041
G01 X99.6915 Y36.1477
G01 X99.6996 Y36.1912
G01 X99.7087 Y36.2344
G01 X99.7189 Y36.2774
G01 X99.7302 Y36.3201
G01 X99.7425 Y36.3625
G01 X99.7558 Y36.4046
G01 X99.7702 Y36.4464
G01 X99.7856 Y36.4878
G01 X99.8020 Y36.5288
G01 X99.8194 Y36.5694
G01 X99.8378 Y36.6096
G01 X99.8572 Y36.6493
G01 X99.8775 Y36.6885
G01 X99.8988 Y36.7272
G01 X99.9211 Y36.7654
G01 X99.9443 Y36.8030
G01 X99.9684 Y36.8400
G01 X99.9933 Y36.8765
G01 X100.0192 Y36.9123
G01 X100.0460 Y36.9474
G01 X100.0736 Y36.9819
G01 X100.1020 Y37.0157
G01 X100.1313 Y37.0488
G01 X100.1614 Y37.0812
G01 X100.1922 Y37.1128
G01 X100.2238 Y37.1436
G01 X100.2562 Y37.1737
G01 X100.2893 Y37.2030
G01 X100.3231 Y37.2314
G01 X100.3576 Y37.2590
G01 X100.3927 Y37.2858
G01 X100.4285 Y37.3117
G01 X100.4650 Y37.3366
G01 X100.5020 Y37.3607
G01 X100.5396 Y37.3839
G01 X100.5778 Y37.4062
G01 X100.6165 Y37.4275
G01 X100.6557 Y37.4478
G01 X100.6954 Y37.4672
G01 X100.7356 Y37.4856
G01 X100.7762 Y37.5030
G01 X100.8172 Y37.5194
G01 X100.8586 Y37.5348
G01 X100.9004 Y37.5492
G01 X100.9425 Y37.5625
G01 X100.9849 Y37.5748
G01 X101.0276 Y37.5861
G01 X101.0706 Y37.5963
G01 X101.1138 Y37.6054
G01 X101.1573 Y37.6135
G01 X101.2009 Y37.6205
G01 X101.2447 Y37.6265
G01 X101.2886 Y37.6313
G01 X101.3326 Y37.6351
G01 X101.3767 Y37.6378
G01 X101.4208 Y37.6395
G01 X101.4650 Y37.6400
G01 X101.5092 Y37.6395
G01 X101.5533 Y37.6378
G01 X101.5974 Y37.6351
G01 X101.6414 Y37.6313
G01 X101.6853 Y37.6265
G01 X101.7291 Y37.6205
G01 X101.7727 Y37.6135
G01 X101.8162 Y37.6054
G01 X101.8594 Y37.5963
G01 X101.9024 Y37.5861
G01 X101.9451 Y37.5748
G01 X101.9875 Y37.5625
G01 X102.0296 Y37.5492
G01 X102.0714 Y37.5348
G01 X102.1128 Y37.5194
G01 X102.1538 Y37.5030
G01 X102.1944 Y37.4856
G01 X102.2346 Y37.4672
G01 X102.2743 Y37.4478
G01 X102.3135 Y37.4275
G01 X102.3522 Y37.4062
G01 X102.3904 Y37.3839
G01 X102.4280 Y37.3607
G01 X102.4650 Y37.3366
G01 X102.5015 Y37.3117
G01 X102.5373 Y37.2858
G01 X102.5724 Y37.2590
G01 X102.6069 Y37.2314
G01 X102.6407 Y37.2030
G01 X102.6738 Y37.1737
G01 X102.7062 Y37.1436
G01 X102.7378 Y37.1128
G01 X102.7686 Y37.0812
G01 X102.7987 Y37.0488
G01 X102.8280 Y37.0157
G01 X102.8564 Y36.9819
G01 X102.8840 Y36.9474
G01 X102.9108 Y36.9123
G01 X102.9367 Y36.8765
G01 X102.9616 Y36.8400
G01 X102.9857 Y36.8030
G01 X103.0089 Y36.7654
G01 X103.0312 Y36.7272
G01 X103.0525 Y36.6885
G01 X103.0728 Y36.6493
G01 X103.0922 Y36.6096
G01 X103.1106 Y36.5694
G01 X103.1280 Y36.5288
G01 X103.1444 Y36.4878
G01 X103.1598 Y36.4464
G01 X103.1742 Y36.4046
G01 X103.1875 Y36.3625
G01 X103.1998 Y36.3201
G01 X103.2111 Y36.2774
G01 X103.2213 Y36.2344
G01 X103.2304 Y36.1912
G01 X103.2385 Y36.1477
G01 X103.2455 Y36.1041
G01 X103.2515 Y36.0603
G01 X103.2563 Y36.0164
G01 X103.2601 Y35.9724
G01 X103.2628 Y35.9283
G01 X103.2645 Y35.8842
G01 X103.2650 Y35.8400
G01 X102.0650 Y35.8400
G01 X102.0643 Y35.8106
G01 X102.0621 Y35.7812
G01 X102.0585 Y35.7520
G01 X102.0535 Y35.7229
G01 X102.0470 Y35.6942
G01 X102.0392 Y35.6658
G01 X102.0299 Y35.6379
G01 X102.0193 Y35.6104
G01 X102.0074 Y35.5835
G01 X101.9942 Y35.5572
G01 X101.9796 Y35.5315
G01 X101.9639 Y35.5067
G01 X101.9469 Y35.4826
G01 X101.9288 Y35.4594
G01 X101.9096 Y35.4371
G01 X101.8893 Y35.4157
G01 X101.8679 Y35.3954
G01 X101.8456 Y35.3762
G01 X101.8224 Y35.3581
G01 X101.7983 Y35.3411
G01 X101.7735 Y35.3254
G01 X101.7478 Y35.3108
G01 X101.7215 Y35.2976
G01 X101.6946 Y35.2857
G01 X101.6671 Y35.2751
G01 X101.6392 Y35.2658
G01 X101.6108 Y35.2580
G01 X101.5821 Y35.2515
G01 X101.5530 Y35.2465
G01 X101.5238 Y35.2429
G01 X101.4944 Y35.2407
G01 X101.4650 Y35.2400
G01 X101.4356 Y35.2407
G01 X101.4062 Y35.2429
G01 X101.3770 Y35.2465
G01 X101.3624 Y35.2488
G01 X101.3335 Y35.2546
G01 X101.3050 Y35.2617
G01 X101.2768 Y35.2703
G01 X101.2491 Y35.2802
G01 X101.2219 Y35.2915
G01 X101.1952 Y35.3041
G01 X101.1693 Y35.3179
G01 X101.1440 Y35.3331
G01 X101.1195 Y35.3494
G01 X101.0959 Y35.3670
G01 X101.0731 Y35.3857
G01 X101.0513 Y35.4055
G01 X101.0305 Y35.4263
G01 X101.0107 Y35.4481
G01 X100.9920 Y35.4709
G01 X100.9744 Y35.4945
G01 X100.9581 Y35.5190
G01 X100.9429 Y35.5443
G01 X100.9291 Y35.5702
G01 X100.9165 Y35.5969
G01 X100.9052 Y35.6241
G01 X100.8953 Y35.6518
G01 X100.8867 Y35.6800
G01 X100.8796 Y35.7085
G01 X100.8738 Y35.7374
G01 X100.8715 Y35.7520
G01 X100.8679 Y35.7812
G01 X100.8657 Y35.8106
G01 X100.8650 Y35.8400
G01 X100.8657 Y35.8694
G01 X100.8679 Y35.8988
G01 X100.8715 Y35.9280
G01 X100.8738 Y35.9426
G01 X100.8796 Y35.9715
G01 X100.8867 Y36.0000
G01 X100.8908 Y36.0142
G01 X100.9001 Y36.0421
G01 X100.9107 Y36.0696
G01 X100.9226 Y36.0965
G01 X100.9291 Y36.1098
G01 X100.9429 Y36.1357
G01 X100.9581 Y36.1610
G01 X100.9661 Y36.1733
G01 X100.9831 Y36.1974
G01 X101.0012 Y36.2206
G01 X101.0107 Y36.2319
G01 X101.0305 Y36.2537
G01 X101.0407 Y36.2643
G01 X101.0621 Y36.2846
G01 X101.0844 Y36.3038
G01 X101.1076 Y36.3219
G01 X101.1317 Y36.3389
G01 X101.1565 Y36.3546
G01 X101.1822 Y36.3692
G01 X101.1952 Y36.3759
G01 X101.2219 Y36.3885
G01 X101.2491 Y36.3998
G01 X101.2629 Y36.4049
G01 X101.2908 Y36.4142
G01 X101.3192 Y36.4220
G01 X101.3479 Y36.4285
G01 X101.3624 Y36.4312
G01 X101.3916 Y36.4355
G01 X101.4062 Y36.4371
G01 X101.4356 Y36.4393
G01 X101.4650 Y36.4400
G01 X101.4944 Y36.4393
G01 X101.5091 Y36.4384
G01 X101.5384 Y36.4355
G01 X101.5676 Y36.4312
G01 X101.5965 Y36.4254
G01 X101.6250 Y36.4183
G01 X101.6392 Y36.4142
G01 X101.6671 Y36.4049
G01 X101.6809 Y36.3998
G01 X101.7081 Y36.3885
G01 X101.7215 Y36.3824
G01 X101.7478 Y36.3692
G01 X101.7735 Y36.3546
G01 X101.7860 Y36.3469
G01 X101.8105 Y36.3306
G01 X101.8224 Y36.3219
G01 X101.8341 Y36.3130
G01 X101.8569 Y36.2943
G01 X101.8787 Y36.2745
G01 X101.8995 Y36.2537
G01 X101.9096 Y36.2429
G01 X101.9288 Y36.2206
G01 X101.9380 Y36.2091
G01 X101.9556 Y36.1855
G01 X101.9719 Y36.1610
G01 X101.9796 Y36.1485
G01 X101.9942 Y36.1228
G01 X102.0009 Y36.1098
G01 X102.0135 Y36.0831
G01 X102.0193 Y36.0696
G01 X102.0299 Y36.0421
G01 X102.0347 Y36.0282
G01 X102.0433 Y36.0000
G01 X102.0504 Y35.9715
G01 X102.0535 Y35.9571
G01 X102.0585 Y35.9280
G01 X102.0605 Y35.9134
G01 X102.0634 Y35.8841
G01 X102.0648 Y35.8547
G01 X102.0650 Y35.8400
G01 X104.2250 Y34.6648
G01 X104.2076 Y34.6243
G01 X104.1770 Y34.5573
G01 X104.1447 Y34.4912
G01 X104.1108 Y34.4258
G01 X104.0753 Y34.3613
G01 X104.0382 Y34.2977
G01 X103.9996 Y34.2350
G01 X103.9594 Y34.1733
G01 X103.9178 Y34.1126
G01 X103.8746 Y34.0529
G01 X103.8300 Y33.9943
G01 X103.7840 Y33.9368
G01 X103.7366 Y33.8805
G01 X103.6879 Y33.8253
G01 X103.6377 Y33.7714
G01 X103.5863 Y33.7187
G01 X103.5336 Y33.6673
G01 X103.4797 Y33.6171
G01 X103.4245 Y33.5684
G01 X103.3682 Y33.5210
G01 X103.3107 Y33.4750
G01 X103.2521 Y33.4304
G01 X103.1924 Y33.3872
G01 X103.1317 Y33.3456
G01 X103.0700 Y33.3054
G01 X103.0073 Y33.2668
G01 X102.9437 Y33.2297
G01 X102.8792 Y33.1942
G01 X102.8138 Y33.1603
G01 X102.7477 Y33.1280
G01 X102.6807 Y33.0974
G01 X102.6519 Y33.0850
G01 X104.2250 Y38.5950
G01 X104.2250 Y33.0850
G01 X98.7050 Y33.0850
G01 X98.7050 Y38.5950
G01 X104.2250 Y38.5950
G00 Z2.0000
M05
G00 Z2.0000
G00 Z15.00


